assets/lut/editingcorp fatos.cube
# Created by: G'MIC (https://gmic.eu)
TITLE "fatos"
# LUT size
LUT_3D_SIZE 7
# Data domain
DOMAIN_MIN 0.0 0.0 0.0
DOMAIN_MAX 1.0 1.0 1.0
# LUT data points
0.011309171095490456 0.0096884332597255707 0.011689533479511738
0.29039216041564941 0.019748762249946594 0.010041225701570511
0.49037480354309082 0.06897137314081192 0.044593915343284607
0.66787177324295044 0.11747781932353973 0.087316177785396576
0.80615425109863281 0.1059878021478653 0.1120510920882225
0.87267976999282837 0.13668529689311981 0.11856454610824585
0.94584321975708008 0.16271869838237762 0.12589098513126373
0.0011546864407137036 0.19363877177238464 0.054711658507585526
0.19491395354270935 0.18050727248191833 0.046676978468894958
0.47830674052238464 0.19816608726978302 0.057417761534452438
0.6416739821434021 0.21490152180194855 0.081477448344230652
0.78480082750320435 0.24133114516735077 0.10700000077486038
0.86229759454727173 0.24562661349773407 0.1171204075217247
0.93566066026687622 0.24909009039402008 0.12314031273126602
0.021825199946761131 0.36626210808753967 0.097315184772014618
0.10501686483621597 0.35644346475601196 0.089780710637569427
0.42793440818786621 0.3722836971282959 0.090512938797473907
0.6480705738067627 0.38276553153991699 0.10281050205230713
0.78856611251831055 0.37838566303253174 0.11845420300960541
0.87622755765914917 0.37579041719436646 0.12824435532093048
0.9436105489730835 0.37564021348953247 0.13100704550743103
0.069849275052547455 0.52589070796966553 0.13854682445526123
0.12221880257129669 0.51696622371673584 0.13641743361949921
0.31175872683525085 0.51477503776550293 0.12420087307691574
0.61606115102767944 0.53782391548156738 0.13868987560272217
0.79857951402664185 0.53201377391815186 0.14715370535850525
0.89411479234695435 0.52549272775650024 0.14945489168167114
0.96274715662002563 0.51931965351104736 0.15066802501678467
0.11555000394582748 0.6784592866897583 0.18789750337600708
0.16280998289585114 0.67501628398895264 0.18447846174240112
0.25438195466995239 0.66068351268768311 0.16586509346961975
0.48522481322288513 0.67212867736816406 0.16733573377132416
0.76411843299865723 0.68373745679855347 0.18169891834259033
0.91201883554458618 0.67833554744720459 0.18323561549186707
0.98143672943115234 0.67420536279678345 0.18911007046699524
0.15694276988506317 0.79939401149749756 0.22595725953578949
0.2248736172914505 0.80864816904067993 0.22901317477226257
0.30076688528060913 0.80850023031234741 0.22079731523990631
0.39758846163749695 0.79810327291488647 0.20445539057254791
0.67858576774597168 0.82570624351501465 0.21591931581497192
0.91120308637619019 0.8435550332069397 0.23748679459095001
0.98393398523330688 0.83633583784103394 0.25279602408409119
0.17486262321472168 0.88240337371826172 0.23945307731628418
0.23992498219013214 0.88904184103012085 0.24311032891273499
0.30143749713897705 0.8880845308303833 0.23875576257705688
0.37568545341491699 0.8798028826713562 0.2277219295501709
0.61302322149276733 0.90816682577133179 0.23706677556037903
0.89571988582611084 0.94777601957321167 0.26907050609588623
0.9851112961769104 0.95312327146530151 0.29757031798362732
0.0046092462725937366 0.029801057651638985 0.21228340268135071
0.25229689478874207 0.027524417266249657 0.16604231297969818
0.48671162128448486 0.050341915339231491 0.15391765534877777
0.66179317235946655 0.086585864424705505 0.16647234559059143
0.79340463876724243 0.10777376592159271 0.1849791556596756
0.86308246850967407 0.081489101052284241 0.1802707314491272
0.93707191944122314 0.12175680696964264 0.19075542688369751
0.00031169815338216722 0.20946177840232849 0.20619487762451172
0.17180484533309937 0.19819946587085724 0.1858510822057724
0.47719022631645203 0.19533756375312805 0.15881349146366119
0.64490163326263428 0.20821230113506317 0.1618143618106842
0.78532081842422485 0.23724551498889923 0.18188577890396118
0.86101007461547852 0.24668991565704346 0.19015155732631683
0.93656301498413086 0.25782325863838196 0.19678792357444763
0.033104736357927322 0.37649762630462646 0.20182715356349945
0.12153740972280502 0.3685900866985321 0.1911209374666214
0.41704493761062622 0.37718614935874939 0.17487367987632751
0.63770735263824463 0.37945055961608887 0.17607839405536652
0.78351134061813354 0.37505042552947998 0.1831943690776825
0.87279033660888672 0.37512722611427307 0.19077044725418091
0.94348317384719849 0.37424871325492859 0.19887411594390869
0.081210464239120483 0.52947545051574707 0.22023256123065948
0.13243603706359863 0.51912087202072144 0.21442489326000214
0.31385695934295654 0.51467955112457275 0.1980777233839035
0.59664171934127808 0.53418219089508057 0.21363991498947144
0.78711342811584473 0.52611768245697021 0.20980535447597504
0.89189070463180542 0.52191531658172607 0.21260055899620056
0.95729011297225952 0.51719385385513306 0.21592962741851807
0.12736918032169342 0.68704473972320557 0.26679274439811707
0.17525137960910797 0.67989552021026611 0.25982281565666199
0.26778018474578857 0.66802692413330078 0.24065874516963959
0.48002439737319946 0.67383956909179688 0.24076636135578156
0.76219308376312256 0.68699187040328979 0.25272306799888611
0.91267853975296021 0.67722058296203613 0.25350251793861389
0.97654646635055542 0.67289906740188599 0.25480562448501587
0.16406185925006866 0.80779516696929932 0.3016447126865387
0.22808714210987091 0.80982488393783569 0.29934170842170715
0.29957515001296997 0.80882573127746582 0.29056951403617859
0.3990435004234314 0.80116182565689087 0.2812710702419281
0.6690865159034729 0.83079773187637329 0.29331406950950623
0.90826451778411865 0.84593456983566284 0.31732463836669922
0.98193448781967163 0.84229528903961182 0.33101049065589905
0.17534025013446808 0.88174623250961304 0.30660784244537354
0.24196025729179382 0.88571995496749878 0.31006526947021484
0.31088715791702271 0.8880193829536438 0.30986335873603821
0.38544890284538269 0.88357996940612793 0.30228647589683533
0.59739142656326294 0.91075575351715088 0.31358930468559265
0.8820609450340271 0.95534425973892212 0.35327783226966858
0.99015229940414429 0.96328973770141602 0.3762919008731842
0.021179722622036934 0.04851074144244194 0.3946940004825592
0.21640963852405548 0.042383350431919098 0.37911567091941833
0.47829872369766235 0.044885583221912384 0.35636115074157715
0.66522294282913208 0.069680124521255493 0.31005764007568359
0.80145615339279175 0.085581593215465546 0.30728065967559814
0.86773926019668579 0.085676603019237518 0.30101239681243896
0.94045048952102661 0.10979127883911133 0.30374050140380859
0.020580844953656197 0.22913208603858948 0.37748852372169495
0.14759175479412079 0.22255629301071167 0.37278652191162109
0.43924680352210999 0.20532894134521484 0.35612595081329346
0.6484265923500061 0.21186003088951111 0.30530548095703125
0.79011160135269165 0.24179217219352722 0.30688014626502991
0.86156696081161499 0.2501770555973053 0.3066176176071167
0.93989008665084839 0.25559607148170471 0.30365380644798279
0.055658780038356781 0.39224094152450562 0.36919009685516357
0.11866139620542526 0.38859981298446655 0.36714693903923035
0.35937529802322388 0.39036864042282104 0.36977484822273254
0.63241398334503174 0.38502287864685059 0.32129397988319397
0.78964293003082275 0.37374347448348999 0.29415524005889893
0.87487852573394775 0.37178441882133484 0.29352778196334839
0.94792646169662476 0.37268659472465515 0.29522290825843811
0.089820384979248047 0.53937077522277832 0.36109074950218201
0.13281510770320892 0.5320245623588562 0.35504025220870972
0.27599051594734192 0.52421754598617554 0.34340190887451172
0.56960219144821167 0.54083943367004395 0.33707764744758606
0.78918850421905518 0.53089207410812378 0.31055378913879395
0.89518278837203979 0.51886552572250366 0.29871264100074768
0.96106767654418945 0.51501941680908203 0.3016802966594696
0.12896594405174255 0.68675321340560913 0.36905071139335632
0.17852222919464111 0.68457567691802979 0.36828762292861938
0.2676645815372467 0.67854100465774536 0.35341688990592957
0.47133708000183105 0.68073129653930664 0.3388315737247467
0.75963044166564941 0.69383776187896729 0.33643102645874023
0.91566860675811768 0.68446415662765503 0.33277007937431335
0.9771658182144165 0.6746487021446228 0.33517339825630188
0.16582262516021729 0.80873757600784302 0.3820645809173584
0.22911056876182556 0.81319993734359741 0.38536858558654785
0.30293846130371094 0.81889975070953369 0.38171321153640747
0.4022117555141449 0.81166213750839233 0.36317089200019836
0.65276789665222168 0.82893025875091553 0.35861116647720337
0.90896600484848022 0.84821587800979614 0.38634315133094788
0.98197269439697266 0.84784507751464844 0.4075939953327179
0.17748270928859711 0.88904726505279541 0.37798187136650085
0.24232667684555054 0.89065647125244141 0.38536456227302551
0.3056882917881012 0.89450407028198242 0.38989353179931641
0.38295388221740723 0.89084386825561523 0.37672746181488037
0.60225671529769897 0.91171079874038696 0.37728431820869446
0.89629000425338745 0.95761418342590332 0.42369732260704041
0.98966282606124878 0.96542066335678101 0.44648602604866028
0.024062961339950562 0.049045190215110779 0.58400458097457886
0.18923261761665344 0.049638785421848297 0.54933148622512817
0.42538627982139587 0.048907291144132614 0.55142319202423096
0.65349549055099487 0.065874017775058746 0.50052917003631592
0.80028855800628662 0.090930566191673279 0.46773916482925415
0.86439508199691772 0.095526844263076782 0.45121350884437561
0.93993580341339111 0.11544716358184814 0.44846817851066589
0.03657042607665062 0.24308934807777405 0.54276484251022339
0.14867992699146271 0.23265241086483002 0.53037005662918091
0.37985599040985107 0.22197125852108002 0.54076665639877319
0.61965149641036987 0.21851851046085358 0.50017482042312622
0.78655093908309937 0.2407972663640976 0.45856374502182007
0.86213195323944092 0.24536924064159393 0.44293710589408875
0.94136470556259155 0.26332017779350281 0.43748962879180908
0.065372645854949951 0.40477928519248962 0.52445703744888306
0.13702021539211273 0.39844724535942078 0.5242767333984375
0.31968635320663452 0.3961719274520874 0.53520476818084717
0.59409284591674805 0.3945033848285675 0.51991879940032959
0.78412437438964844 0.37984937429428101 0.45611882209777832
0.87253308296203613 0.37401342391967773 0.43681496381759644
0.94815635681152344 0.37324687838554382 0.4321245551109314
0.10603760182857513 0.55288892984390259 0.52483206987380981
0.15489475429058075 0.54794597625732422 0.51954525709152222
0.27474939823150635 0.54544574022293091 0.51904654502868652
0.53896415233612061 0.55613178014755249 0.52056705951690674
0.79079532623291016 0.54222089052200317 0.46926406025886536
0.89446592330932617 0.52863019704818726 0.43674716353416443
0.96954786777496338 0.52388346195220947 0.43329271674156189
0.14598545432090759 0.69978076219558716 0.52073198556900024
0.19930136203765869 0.69812619686126709 0.51980900764465332
0.27611896395683289 0.69162559509277344 0.50599062442779541
0.44211640954017639 0.68877911567687988 0.49221965670585632
0.74653357267379761 0.70694643259048462 0.48444610834121704
0.92447370290756226 0.70230329036712646 0.46581164002418518
0.98325055837631226 0.69619083404541016 0.47135481238365173
0.17722618579864502 0.82346010208129883 0.51125913858413696
0.24256806075572968 0.82503664493560791 0.51624280214309692
0.31641188263893127 0.83116275072097778 0.51269334554672241
0.42563754320144653 0.82958459854125977 0.49240288138389587
0.64522141218185425 0.83825051784515381 0.47354641556739807
0.9057316780090332 0.86098814010620117 0.50262635946273804
0.98359864950180054 0.86989724636077881 0.53403401374816895
0.18650481104850769 0.90449553728103638 0.50069147348403931
0.25065937638282776 0.89992976188659668 0.50568687915802002
0.31852409243583679 0.90709656476974487 0.50742948055267334
0.41232311725616455 0.90989220142364502 0.4905642569065094
0.62221139669418335 0.9238775372505188 0.48020896315574646
0.89465367794036865 0.96563452482223511 0.52959978580474854
0.9935683012008667 0.97793936729431152 0.56169211864471436
0.046420738101005554 0.055607065558433533 0.74770194292068481
0.17674350738525391 0.056544240564107895 0.69600933790206909
0.3822113573551178 0.058391153812408447 0.70438081026077271
0.61125451326370239 0.074390694499015808 0.68308770656585693
0.77567392587661743 0.10399378091096878 0.65731537342071533
0.8477247953414917 0.068621329963207245 0.64994931221008301
0.9243929386138916 0.075637757778167725 0.6372724175453186
0.055106397718191147 0.25029385089874268 0.71067261695861816
0.14999152719974518 0.23912020027637482 0.68579906225204468
0.34301921725273132 0.22221110761165619 0.70130139589309692
0.58022075891494751 0.20494420826435089 0.69712221622467041
0.76626408100128174 0.22758303582668304 0.65634506940841675
0.84663122892379761 0.23188519477844238 0.64141100645065308
0.92662131786346436 0.23839125037193298 0.62639886140823364
0.078657500445842743 0.41279900074005127 0.68494099378585815
0.14416199922561646 0.4049123227596283 0.6762351393699646
0.2939574122428894 0.39277702569961548 0.68872958421707153
0.53616666793823242 0.38227355480194092 0.70315837860107422
0.75501316785812378 0.36633315682411194 0.66353178024291992
0.85537445545196533 0.36684006452560425 0.63260024785995483
0.93207442760467529 0.37373960018157959 0.61782658100128174
0.11735537648200989 0.56141948699951172 0.6861802339553833
0.17219814658164978 0.55568426847457886 0.67854994535446167
0.2749047577381134 0.54705804586410522 0.67913979291915894
0.47662854194641113 0.55243766307830811 0.69856387376785278
0.75626933574676514 0.54654771089553833 0.67391127347946167
0.88134896755218506 0.53573906421661377 0.63187587261199951
0.9516107439994812 0.54087710380554199 0.61769074201583862
0.15904645621776581 0.7148626446723938 0.6840788722038269
0.22044083476066589 0.71376752853393555 0.68300372362136841
0.29712978005409241 0.70319199562072754 0.67121249437332153
0.44378566741943359 0.7066846489906311 0.67870241403579712
0.72358572483062744 0.73262935876846313 0.68055480718612671
0.92264050245285034 0.73149704933166504 0.65885394811630249
0.97300785779953003 0.72823715209960938 0.65524208545684814
0.18937429785728455 0.8458210825920105 0.67287474870681763
0.25664785504341125 0.84830987453460693 0.6748201847076416
0.32741662859916687 0.8479456901550293 0.66977578401565552
0.43174850940704346 0.84965837001800537 0.66115128993988037
0.6340293288230896 0.86184585094451904 0.65845537185668945
0.90183043479919434 0.88698601722717285 0.68313729763031006
0.98771077394485474 0.89688223600387573 0.70296311378479004
0.19792012870311737 0.92425262928009033 0.66326969861984253
0.26131942868232727 0.92000240087509155 0.66313815116882324
0.33147862553596497 0.92593395709991455 0.65824216604232788
0.44002485275268555 0.9352649450302124 0.65011370182037354
0.64379751682281494 0.95041650533676147 0.65886735916137695
0.89593106508255005 0.97743314504623413 0.69612842798233032
0.9992598295211792 0.99272423982620239 0.72435623407363892
0.048844624310731888 0.053481966257095337 0.82676738500595093
0.16150464117527008 0.062765739858150482 0.75674450397491455
0.35840478539466858 0.050081603229045868 0.77619242668151855
0.58607453107833862 0.058351583778858185 0.78083604574203491
0.75925999879837036 0.099054001271724701 0.77497190237045288
0.83789312839508057 0.084918886423110962 0.77118891477584839
0.91231632232666016 0.095768123865127563 0.76267629861831665
0.059890206903219223 0.24943740665912628 0.79798728227615356
0.15213349461555481 0.24104028940200806 0.76773679256439209
0.33046069741249084 0.22144858539104462 0.78409230709075928
0.55556654930114746 0.20186065137386322 0.79249942302703857
0.74993014335632324 0.22477930784225464 0.78316938877105713
0.83717638254165649 0.22424709796905518 0.77545207738876343
0.90904712677001953 0.24345897138118744 0.76426506042480469
0.081129945814609528 0.41340503096580505 0.78279227018356323
0.14989057183265686 0.40277737379074097 0.77666407823562622
0.28886440396308899 0.38721218705177307 0.78676688671112061
0.49320867657661438 0.36959803104400635 0.81000608205795288
0.730518639087677 0.35550698637962341 0.80453109741210938
0.84546244144439697 0.34534817934036255 0.79157668352127075
0.91297119855880737 0.36246633529663086 0.78023916482925415
0.11861343681812286 0.55998176336288452 0.80242776870727539
0.17979134619235992 0.55132961273193359 0.79843908548355103
0.28014877438545227 0.54063630104064941 0.80358761548995972
0.4531426727771759 0.53933429718017578 0.82641279697418213
0.71711331605911255 0.52501374483108521 0.84338122606277466
0.86526572704315186 0.51778095960617065 0.82560628652572632
0.93386870622634888 0.53748428821563721 0.8062477707862854
0.16074322164058685 0.71151447296142578 0.82174783945083618
0.22462578117847443 0.71238690614700317 0.82239329814910889
0.30655375123023987 0.7047843337059021 0.82287520170211792
0.44477382302284241 0.71019840240478516 0.83529961109161377
0.68006807565689087 0.73181384801864624 0.85909157991409302
0.90248823165893555 0.74113196134567261 0.86043882369995117
0.96815305948257446 0.7434353232383728 0.84928208589553833
0.19608977437019348 0.84769892692565918 0.82726210355758667
0.26010248064994812 0.85632520914077759 0.82798439264297485
0.33329102396965027 0.8584822416305542 0.82909196615219116
0.4587879478931427 0.86715525388717651 0.83686739206314087
0.66089510917663574 0.88992011547088623 0.85564225912094116
0.90133237838745117 0.91266709566116333 0.86727309226989746
0.98795539140701294 0.91247254610061646 0.87304043769836426
0.20658406615257263 0.93640875816345215 0.8204537034034729
0.26840725541114807 0.93900173902511597 0.81890612840652466
0.33820536732673645 0.93858474493026733 0.81757211685180664
0.46281260251998901 0.9536246657371521 0.82535547018051147
0.66937839984893799 0.97451722621917725 0.85199815034866333
0.89705777168273926 0.99163591861724854 0.87330228090286255
0.99606865644454956 0.99697422981262207 0.88193750381469727
0.052128482609987259 0.062049627304077148 0.8734167218208313
0.1637435108423233 0.078570574522018433 0.82886683940887451
0.35465347766876221 0.062958814203739166 0.84384959936141968
0.5793113112449646 0.067933909595012665 0.84542179107666016
0.75216186046600342 0.11215687543153763 0.83889085054397583
0.83387869596481323 0.11431418359279633 0.83046793937683105
0.9064706563949585 0.10245205461978912 0.83458024263381958
0.060967717319726944 0.24862101674079895 0.85368072986602783
0.15613579750061035 0.23636189103126526 0.83515077829360962
0.32979312539100647 0.2246384471654892 0.85062772035598755
0.54379677772521973 0.21241776645183563 0.86182928085327148
0.73649591207504272 0.22598738968372345 0.85119831562042236
0.83395200967788696 0.22076556086540222 0.83949297666549683
0.90817719697952271 0.23611418902873993 0.83999371528625488
0.081523403525352478 0.41110122203826904 0.83782994747161865
0.15706706047058105 0.39797472953796387 0.83954852819442749
0.29107186198234558 0.38637760281562805 0.85451638698577881
0.48733538389205933 0.36489707231521606 0.87508195638656616
0.71367669105529785 0.35092177987098694 0.87406212091445923
0.84550529718399048 0.34405332803726196 0.86405134201049805
0.92035567760467529 0.3655950129032135 0.86914455890655518
0.116745725274086 0.55554664134979248 0.86574721336364746
0.18219920992851257 0.54490053653717041 0.86326456069946289
0.2862238883972168 0.53794962167739868 0.87266594171524048
0.45490157604217529 0.53662049770355225 0.88923639059066772
0.70099568367004395 0.52092933654785156 0.92099595069885254
0.86950874328613281 0.53001898527145386 0.91227990388870239
0.94652086496353149 0.54741823673248291 0.91669762134552002
0.16256506741046906 0.71254956722259521 0.89755237102508545
0.22830265760421753 0.70842111110687256 0.89766031503677368
0.31115022301673889 0.70119208097457886 0.90216445922851562
0.44701394438743591 0.70180666446685791 0.91182011365890503
0.69736665487289429 0.73664736747741699 0.95070064067840576
0.89904755353927612 0.75239229202270508 0.96965175867080688
0.97678405046463013 0.75279456377029419 0.96953064203262329
0.20077620446681976 0.85435330867767334 0.91987836360931396
0.26746359467506409 0.85696780681610107 0.92265832424163818
0.34072807431221008 0.85663503408432007 0.92819631099700928
0.47408059239387512 0.86956644058227539 0.94245189428329468
0.68751794099807739 0.89675629138946533 0.97272992134094238
0.90887612104415894 0.924846351146698 0.98985439538955688
0.99024766683578491 0.92546546459197998 0.98898893594741821
0.21181386709213257 0.94692867994308472 0.9322313666343689
0.27788347005844116 0.94877040386199951 0.93533819913864136
0.35320895910263062 0.94489353895187378 0.94343370199203491
0.48673030734062195 0.96295464038848877 0.96156859397888184
0.68488270044326782 0.98451250791549683 0.98685145378112793
0.90172427892684937 0.9970860481262207 0.99529457092285156
0.99531716108322144 0.99894946813583374 0.99848490953445435
