assets/lut/editingcorpw First Dance.cube
LUT_3D_SIZE 16
DOMAIN_MIN 0.0 0.0 0.0
DOMAIN_MAX 1.0 1.0 1.0
0.078431 0.078431 0.070588
0.124706 0.074510 0.071373
0.166275 0.080000 0.078432
0.222745 0.086275 0.087844
0.278431 0.090196 0.095686
0.337255 0.094118 0.105882
0.398431 0.100392 0.104314
0.455686 0.113725 0.109019
0.521569 0.120000 0.130980
0.597647 0.127059 0.130980
0.666667 0.141176 0.145098
0.734117 0.156078 0.156863
0.804706 0.164706 0.166275
0.873726 0.174118 0.185098
0.947451 0.198431 0.200784
1.000000 0.215686 0.219608
0.061961 0.120000 0.068235
0.115944 0.120306 0.076728
0.167059 0.120784 0.086275
0.217725 0.120575 0.081778
0.273725 0.123137 0.094118
0.334118 0.131764 0.100392
0.399828 0.129890 0.106121
0.453334 0.141961 0.116078
0.519634 0.145307 0.125281
0.593726 0.159215 0.134902
0.663530 0.162353 0.141176
0.731765 0.171219 0.162114
0.802353 0.185882 0.170196
0.868026 0.200000 0.184575
0.944314 0.213333 0.200784
0.998431 0.236079 0.223529
0.065098 0.165490 0.079215
0.111373 0.170196 0.081569
0.159507 0.169412 0.089546
0.214117 0.165490 0.095686
0.270013 0.172340 0.102327
0.326274 0.170980 0.094902
0.390588 0.173333 0.112941
0.451765 0.178465 0.116302
0.520785 0.189804 0.127843
0.589020 0.194614 0.139294
0.658040 0.200784 0.148236
0.729412 0.209412 0.160784
0.799148 0.217255 0.167059
0.865882 0.229020 0.181961
0.935895 0.238745 0.202039
1.000000 0.257255 0.217255
0.055686 0.234510 0.079215
0.102170 0.240575 0.084497
0.164706 0.227451 0.087843
0.215260 0.220325 0.093759
0.266666 0.221177 0.105882
0.332549 0.221176 0.110588
0.398431 0.228026 0.114719
0.457255 0.233725 0.120000
0.518364 0.238432 0.132616
0.592157 0.242353 0.140392
0.667451 0.250981 0.151372
0.735216 0.255791 0.161464
0.807059 0.261961 0.175686
0.871664 0.273726 0.189737
0.941961 0.280000 0.204706
1.000000 0.301177 0.226667
0.041569 0.283922 0.091765
0.096471 0.292549 0.091765
0.160471 0.287268 0.086013
0.214902 0.280784 0.098824
0.258450 0.270895 0.114203
0.308235 0.265098 0.124706
0.374118 0.273725 0.127059
0.450196 0.280784 0.131294
0.520785 0.288627 0.133333
0.595294 0.299914 0.151201
0.664314 0.301961 0.151373
0.735686 0.310588 0.165490
0.804601 0.316288 0.175686
0.871372 0.323922 0.183529
0.939302 0.331697 0.204773
1.000000 0.342745 0.227451
0.023529 0.337255 0.098039
0.089412 0.335686 0.098039
0.138824 0.343529 0.092549
0.207843 0.334117 0.098823
0.265098 0.330196 0.112941
0.309804 0.317647 0.125490
0.355294 0.313725 0.141176
0.421961 0.327843 0.143529
0.509804 0.340392 0.143529
0.587451 0.350588 0.149020
0.658824 0.364706 0.149020
0.729412 0.367059 0.163921
0.793726 0.370196 0.174902
0.872157 0.373333 0.190588
0.939608 0.385882 0.201569
1.000000 0.396078 0.215686
0.003922 0.389804 0.101176
0.057561 0.394816 0.101483
0.129412 0.394510 0.098039
0.197333 0.391843 0.097360
0.257255 0.385882 0.105098
0.312941 0.386667 0.116863
0.367365 0.373266 0.139369
0.413333 0.368628 0.156078
0.479634 0.380967 0.163922
0.563922 0.394510 0.166275
0.651765 0.409411 0.163137
0.729651 0.427518 0.156728
0.805490 0.434510 0.167059
0.872261 0.439896 0.182327
0.941961 0.444706 0.196863
0.997647 0.451764 0.218823
0.001569 0.451765 0.090196
0.014118 0.451765 0.088627
0.095686 0.460325 0.099608
0.181961 0.452549 0.094902
0.244235 0.457934 0.095687
0.308235 0.453333 0.105098
0.365490 0.440000 0.120784
0.420885 0.438073 0.143171
0.469020 0.429804 0.161569
0.540392 0.438641 0.174484
0.623529 0.459608 0.174902
0.711373 0.475294 0.172549
0.796078 0.490263 0.166633
0.879216 0.494902 0.178039
0.948810 0.501072 0.196758
1.000000 0.512941 0.224314
0.001569 0.514510 0.083922
0.000889 0.522562 0.079006
0.049411 0.520000 0.085490
0.158790 0.514376 0.072897
0.232157 0.516863 0.084706
0.301961 0.509804 0.092549
0.367268 0.510588 0.108235
0.422745 0.500392 0.130980
0.481569 0.493827 0.147025
0.530980 0.488628 0.170196
0.595294 0.497255 0.184313
0.683137 0.518798 0.185987
0.770196 0.536470 0.182745
0.852908 0.558207 0.194151
0.931764 0.560000 0.199216
0.996862 0.572549 0.218039
0.003922 0.578039 0.050981
0.003137 0.585882 0.059608
0.007739 0.582745 0.056889
0.114510 0.584314 0.061176
0.221005 0.582984 0.059914
0.293333 0.580392 0.053333
0.362353 0.582745 0.083137
0.428131 0.577935 0.109961
0.488627 0.570981 0.129412
0.546495 0.565012 0.153554
0.594510 0.552157 0.177255
0.659608 0.558431 0.205490
0.737673 0.581281 0.196079
0.828235 0.603922 0.200785
0.907690 0.617800 0.215925
0.995294 0.626667 0.233726
0.011765 0.650980 0.027451
0.003922 0.659608 0.025098
0.000000 0.660392 0.015687
0.065882 0.654118 0.025098
0.188235 0.654118 0.018039
0.278431 0.654902 0.027451
0.356863 0.650980 0.042353
0.425098 0.650196 0.074510
0.500392 0.643921 0.105882
0.562353 0.641569 0.136470
0.615686 0.639216 0.160784
0.667451 0.626667 0.186666
0.730981 0.626666 0.221177
0.812549 0.654902 0.227451
0.892549 0.673725 0.225882
0.988235 0.682353 0.250980
0.000000 0.721569 0.003137
0.002592 0.722898 0.002831
0.003922 0.722353 0.000000
0.002562 0.722823 0.000680
0.147451 0.720000 0.003922
0.260392 0.725490 0.002353
0.342573 0.718670 0.000000
0.426666 0.720000 0.013334
0.492811 0.712366 0.056628
0.563138 0.709804 0.096470
0.625098 0.706666 0.139608
0.677886 0.703529 0.162353
0.734902 0.699608 0.197647
0.798327 0.698039 0.232209
0.873726 0.716863 0.257255
0.963921 0.735686 0.275294
0.000000 0.792941 0.001569
0.003137 0.790588 0.000000
0.000717 0.792650 0.003496
0.006274 0.789804 0.001569
0.076915 0.794040 0.002719
0.234510 0.797647 0.003922
0.332549 0.793726 0.005490
0.411406 0.793793 0.003496
0.487059 0.787451 0.003922
0.556758 0.787137 0.032784
0.625882 0.780392 0.104314
0.687843 0.778823 0.137255
0.748661 0.772907 0.184672
0.806275 0.770980 0.215686
0.870588 0.770301 0.257726
0.946667 0.782745 0.297255
0.000000 0.868235 0.001569
0.006065 0.867660 0.000000
0.006274 0.873726 0.006274
0.000717 0.869378 0.000717
0.037647 0.877647 0.001569
0.187451 0.872941 0.003922
0.316183 0.874615 0.002353
0.404706 0.872941 0.000000
0.489120 0.872583 0.000000
0.565490 0.866667 0.003922
0.635294 0.861961 0.047843
0.700392 0.862850 0.118222
0.767843 0.860392 0.175686
0.826734 0.850981 0.218465
0.887843 0.846275 0.257255
0.946667 0.854902 0.312941
0.006275 0.939608 0.003137
0.002353 0.945882 0.001569
0.006745 0.941856 0.000680
0.006274 0.938039 0.003138
0.008217 0.940870 0.002114
0.147451 0.937255 0.008628
0.295686 0.941961 0.006274
0.387556 0.937673 0.001359
0.474510 0.941961 0.000000
0.556384 0.936949 0.004706
0.631373 0.940392 0.004706
0.704314 0.934118 0.078432
0.767948 0.929621 0.159006
0.836078 0.926275 0.207843
0.894356 0.922592 0.256232
0.961569 0.925490 0.319216
0.007843 0.992157 0.000000
0.001569 0.996078 0.000000
0.000000 0.999216 0.000000
0.000000 0.996078 0.000000
0.000000 1.000000 0.000000
0.090196 0.996078 0.000000
0.259608 1.000000 0.000000
0.373333 1.000000 0.000784
0.461176 1.000000 0.000784
0.544314 1.000000 0.003137
0.627451 1.000000 0.000000
0.702745 1.000000 0.032941
0.775686 0.992941 0.148235
0.838432 0.992941 0.223530
0.904314 0.989804 0.288628
0.972549 0.992157 0.345098
0.091765 0.073725 0.120784
0.135993 0.074816 0.128388
0.170196 0.070588 0.127059
0.221700 0.087634 0.131294
0.266667 0.098824 0.127059
0.328627 0.111373 0.138040
0.386428 0.117647 0.150349
0.447059 0.127843 0.153726
0.513621 0.135686 0.162719
0.581961 0.142745 0.162353
0.655686 0.147451 0.178823
0.716556 0.155533 0.178450
0.793725 0.168627 0.192157
0.862745 0.181177 0.206954
0.934902 0.195294 0.221961
0.997647 0.218039 0.236079
0.079828 0.114510 0.129105
0.118221 0.114136 0.127509
0.163548 0.122420 0.128149
0.213874 0.127281 0.124639
0.265815 0.134902 0.137494
0.321501 0.134835 0.140392
0.386073 0.143836 0.145576
0.446275 0.146906 0.156385
0.510594 0.155642 0.168398
0.578517 0.162898 0.170741
0.653094 0.168867 0.180392
0.723022 0.175332 0.187881
0.794510 0.189020 0.199761
0.863089 0.197513 0.204014
0.939675 0.213027 0.221177
0.992396 0.235667 0.235294
0.072941 0.165490 0.130980
0.115294 0.167298 0.121501
0.160358 0.165916 0.129053
0.211974 0.166641 0.130510
0.268445 0.173699 0.135007
0.321569 0.174902 0.140392
0.380698 0.174835 0.146667
0.443294 0.184381 0.154151
0.513621 0.187346 0.165020
0.581961 0.196078 0.170092
0.648628 0.203137 0.170981
0.722353 0.208934 0.185643
0.793300 0.219608 0.196661
0.862641 0.224209 0.205699
0.930301 0.238902 0.219033
0.992941 0.260392 0.236863
0.061281 0.234091 0.137255
0.109221 0.228761 0.131748
0.162353 0.227451 0.131869
0.211470 0.221710 0.137252
0.265725 0.218039 0.144889
0.325386 0.219242 0.154091
0.392585 0.225358 0.152463
0.448941 0.231582 0.154876
0.512559 0.236271 0.162083
0.586876 0.240209 0.168732
0.654222 0.247059 0.184680
0.727214 0.253060 0.180790
0.796392 0.259608 0.189752
0.865195 0.271160 0.208330
0.938144 0.285700 0.222431
0.996287 0.298719 0.244026
0.042353 0.277647 0.128627
0.101722 0.287843 0.133400
0.154301 0.282353 0.135895
0.211608 0.278327 0.137255
0.257255 0.271372 0.154682
0.309020 0.266667 0.153725
0.375925 0.276624 0.158192
0.449778 0.282144 0.158222
0.517647 0.290196 0.160209
0.590827 0.295687 0.175208
0.662745 0.301961 0.184313
0.730980 0.305883 0.185031
0.798327 0.313621 0.193516
0.869804 0.322353 0.208523
0.938107 0.330435 0.219301
0.998431 0.344314 0.236863
0.015686 0.329412 0.126275
0.083750 0.335686 0.127604
0.138039 0.339608 0.128627
0.206431 0.333543 0.136941
0.254902 0.324706 0.139608
0.311373 0.323137 0.154510
0.356385 0.318738 0.168455
0.422745 0.323137 0.167059
0.507242 0.337255 0.170249
0.585098 0.347451 0.167843
0.658039 0.360000 0.175686
0.728389 0.357647 0.189498
0.798432 0.369411 0.192157
0.865412 0.377046 0.204026
0.937255 0.379608 0.217255
0.997647 0.392157 0.243137
0.005797 0.390999 0.127058
0.045577 0.393754 0.129479
0.113964 0.393897 0.124093
0.193236 0.390844 0.134612
0.252721 0.388407 0.131220
0.308713 0.383223 0.147145
0.358030 0.375046 0.152520
0.408560 0.369106 0.177800
0.476053 0.379041 0.181655
0.561501 0.397647 0.180392
0.649479 0.411765 0.179675
0.722640 0.422745 0.180755
0.799933 0.430588 0.193860
0.867031 0.433201 0.203133
0.938039 0.441262 0.219847
0.996317 0.453572 0.243444
0.003138 0.452549 0.123137
0.004093 0.454902 0.119454
0.084908 0.458824 0.113098
0.171869 0.455582 0.123399
0.243137 0.451765 0.119425
0.312157 0.444706 0.131765
0.366820 0.440478 0.149019
0.421670 0.430230 0.168202
0.472052 0.428810 0.175791
0.533438 0.435608 0.192471
0.619608 0.458039 0.192157
0.706122 0.476385 0.193486
0.791014 0.489479 0.187810
0.869804 0.500967 0.203817
0.936000 0.503529 0.214797
0.998431 0.510588 0.238432
0.005176 0.511477 0.104523
0.001234 0.523539 0.118784
0.029177 0.522144 0.114510
0.150316 0.521297 0.116633
0.231477 0.514719 0.108915
0.302954 0.510588 0.119895
0.362211 0.503843 0.138320
0.423843 0.500967 0.149909
0.479513 0.494965 0.166744
0.525386 0.487163 0.184157
0.586876 0.492549 0.197072
0.676132 0.520503 0.196690
0.768627 0.538614 0.204497
0.848644 0.550630 0.196024
0.930405 0.559320 0.218615
0.998431 0.574484 0.239059
0.003922 0.582745 0.096471
0.001023 0.584246 0.095074
0.003869 0.588549 0.101072
0.105046 0.583634 0.099503
0.210569 0.580325 0.101483
0.290981 0.579608 0.099608
0.354510 0.577255 0.110349
0.425255 0.575216 0.132131
0.484601 0.565385 0.155869
0.540392 0.560612 0.175208
0.595294 0.553725 0.195294
0.657494 0.555533 0.210607
0.741281 0.580863 0.215007
0.827556 0.598536 0.221752
0.909498 0.615992 0.228848
0.991373 0.632157 0.245490
0.002353 0.647843 0.075295
0.000478 0.655753 0.074988
0.003137 0.647843 0.076078
0.044340 0.650771 0.075399
0.179608 0.651765 0.068235
0.272941 0.654118 0.069804
0.348952 0.650196 0.076556
0.425882 0.647059 0.100392
0.486379 0.640104 0.127059
0.555294 0.638431 0.154510
0.613334 0.630588 0.182745
0.665815 0.627212 0.201502
0.732549 0.626667 0.225098
0.811189 0.650196 0.240105
0.892549 0.669019 0.248627
0.983529 0.683137 0.267451
0.001808 0.716930 0.030215
0.006083 0.716107 0.033391
0.000784 0.716250 0.017838
0.003611 0.712928 0.028165
0.131697 0.716624 0.020975
0.249890 0.720852 0.023701
0.336566 0.717790 0.018124
0.416471 0.715361 0.047604
0.484010 0.708189 0.088959
0.554510 0.707451 0.123682
0.617494 0.701655 0.156691
0.676059 0.697590 0.179990
0.731765 0.692788 0.208628
0.799924 0.697087 0.244812
0.876317 0.719216 0.266667
0.960000 0.738040 0.280344
0.002353 0.792941 0.000000
0.001330 0.794816 0.006648
0.001569 0.789871 0.001210
0.000105 0.791163 0.002824
0.055948 0.787713 0.002039
0.218823 0.789804 0.000000
0.322592 0.789871 0.000000
0.405064 0.784247 0.001793
0.482039 0.783739 0.025307
0.551948 0.779608 0.070536
0.617255 0.776470 0.113726
0.683204 0.770741 0.153008
0.746017 0.766207 0.191373
0.797647 0.767739 0.223529
0.861490 0.768837 0.260078
0.937255 0.778824 0.299608
0.009726 0.865098 0.000000
0.002386 0.871501 0.001497
0.006536 0.867660 0.002458
0.005265 0.867893 0.005090
0.026667 0.871268 0.000889
0.187660 0.867817 0.003138
0.302534 0.869193 0.003532
0.401778 0.866562 0.000889
0.484876 0.868619 0.000719
0.558222 0.861647 0.022693
0.632941 0.859399 0.077909
0.699691 0.856081 0.133012
0.764392 0.854902 0.182536
0.823620 0.848369 0.225127
0.882144 0.847268 0.265883
0.945516 0.853229 0.314876
0.002353 0.938039 0.000784
0.003205 0.938585 0.001808
0.000889 0.938039 0.003347
0.002458 0.937150 0.002458
0.004706 0.933572 0.000784
0.139608 0.940392 0.005491
0.281569 0.935686 0.001808
0.384628 0.936836 0.001569
0.476967 0.937255 0.000000
0.552157 0.932788 0.000717
0.622745 0.933333 0.014902
0.701722 0.929106 0.103769
0.770196 0.925490 0.166274
0.829595 0.920105 0.221856
0.898584 0.920067 0.273486
0.958432 0.916078 0.323922
0.008628 1.000000 0.003137
0.003683 0.994749 0.000239
0.000000 1.000000 0.000784
0.003817 0.996183 0.000105
0.000000 1.000000 0.002353
0.032941 1.000000 0.000000
0.243855 0.993965 0.002898
0.360000 1.000000 0.004706
0.454118 0.996392 0.002928
0.547451 1.000000 0.007843
0.627451 0.996863 0.002353
0.697016 0.994749 0.056396
0.772549 0.992941 0.150588
0.840889 0.989124 0.218928
0.905098 0.988235 0.291765
0.963921 0.986667 0.346667
0.110588 0.069804 0.182745
0.149020 0.069020 0.181177
0.176179 0.067384 0.171832
0.218824 0.079216 0.169412
0.274092 0.091085 0.173124
0.313726 0.107451 0.176470
0.377255 0.123137 0.189020
0.433658 0.133759 0.192090
0.499608 0.139608 0.199216
0.577935 0.142850 0.210301
0.648628 0.152941 0.214902
0.723137 0.160784 0.226667
0.797221 0.169837 0.238857
0.868235 0.185882 0.244706
0.938614 0.200575 0.257046
0.996862 0.222745 0.278431
0.091765 0.109804 0.170980
0.130435 0.113487 0.172788
0.170331 0.114510 0.171989
0.217621 0.120209 0.171660
0.263320 0.129725 0.175006
0.313725 0.144314 0.182745
0.371526 0.147996 0.183768
0.433792 0.158431 0.195720
0.498719 0.162144 0.201150
0.570092 0.165385 0.208941
0.647059 0.174902 0.217255
0.718737 0.179608 0.222745
0.792941 0.191014 0.239642
0.864314 0.201464 0.239111
0.931869 0.213908 0.255007
0.999216 0.233725 0.278431
0.079216 0.160000 0.167059
0.114801 0.162353 0.170196
0.166409 0.161716 0.173611
0.205647 0.166700 0.175193
0.259905 0.174271 0.182242
0.312157 0.180818 0.187160
0.372975 0.180684 0.188952
0.429804 0.184247 0.190019
0.496829 0.191798 0.203137
0.569460 0.195357 0.203139
0.643989 0.201927 0.211407
0.715294 0.209479 0.220616
0.784735 0.215547 0.231503
0.859249 0.229737 0.236863
0.928738 0.240147 0.248430
0.990947 0.258824 0.273232
0.067451 0.225883 0.184314
0.110798 0.222745 0.179608
0.158499 0.218823 0.171406
0.207350 0.219249 0.178330
0.262379 0.217569 0.181229
0.318431 0.225883 0.187451
0.378144 0.225987 0.189804
0.437289 0.232224 0.192583
0.503529 0.235720 0.199148
0.577934 0.241464 0.209987
0.647843 0.246274 0.217255
0.720993 0.254797 0.222850
0.793008 0.263888 0.229804
0.861535 0.270588 0.241076
0.933699 0.283817 0.253333
0.996078 0.300392 0.268236
0.066248 0.270588 0.176575
0.095686 0.274301 0.180288
0.147475 0.277054 0.177422
0.199425 0.273726 0.172287
0.260901 0.262921 0.182946
0.306091 0.266457 0.184993
0.371660 0.271582 0.187451
0.442994 0.280024 0.197282
0.507660 0.283817 0.201673
0.578844 0.291043 0.210398
0.649412 0.296471 0.214902
0.721359 0.307451 0.222536
0.796228 0.313467 0.229949
0.866667 0.323137 0.238536
0.935477 0.331925 0.254159
0.997751 0.348915 0.272941
0.011765 0.326274 0.172549
0.067451 0.327059 0.175686
0.130039 0.328269 0.172840
0.189804 0.325490 0.168627
0.253699 0.320314 0.175686
0.301176 0.316078 0.183530
0.358431 0.311372 0.192941
0.425098 0.324997 0.194510
0.504313 0.340392 0.199215
0.578823 0.344313 0.209517
0.654902 0.350589 0.212549
0.718431 0.358431 0.214902
0.783955 0.368201 0.220751
0.865098 0.373333 0.234510
0.928523 0.386353 0.250771
0.996862 0.403138 0.271373
0.005490 0.382745 0.170980
0.018689 0.390521 0.167230
0.104515 0.388235 0.164280
0.174902 0.390745 0.166170
0.247529 0.387242 0.173124
0.308235 0.376470 0.178824
0.357580 0.372616 0.193487
0.404706 0.369411 0.200000
0.475294 0.378823 0.203242
0.559686 0.395189 0.204706
0.642353 0.408627 0.203921
0.722898 0.421483 0.218824
0.803137 0.425524 0.224739
0.865203 0.431163 0.231582
0.934797 0.439111 0.247739
0.994510 0.450196 0.267451
0.001860 0.451048 0.164930
0.003989 0.449345 0.167261
0.059747 0.450205 0.168121
0.161994 0.452325 0.165782
0.236655 0.449028 0.163697
0.305456 0.443989 0.167978
0.361434 0.440493 0.180684
0.414185 0.429593 0.193802
0.466017 0.429804 0.199574
0.529002 0.436541 0.208242
0.621960 0.456896 0.217188
0.711305 0.474442 0.217905
0.798570 0.491761 0.220679
0.868594 0.495686 0.231014
0.937310 0.504084 0.252695
0.995720 0.508168 0.259540
0.002353 0.514510 0.160784
0.000105 0.519111 0.154301
0.009793 0.516437 0.149378
0.131473 0.513367 0.150521
0.215895 0.512837 0.150588
0.296471 0.509804 0.155294
0.357072 0.507241 0.165386
0.419810 0.502386 0.181670
0.471574 0.496896 0.195003
0.524810 0.491556 0.210091
0.592941 0.496471 0.221961
0.680000 0.517543 0.228235
0.771406 0.537255 0.232874
0.850555 0.549871 0.235586
0.931451 0.560889 0.248418
0.995294 0.568627 0.265098
0.000680 0.581176 0.132654
0.006954 0.578510 0.148811
0.001522 0.585017 0.144249
0.076863 0.578824 0.145882
0.194673 0.578782 0.137294
0.275608 0.580183 0.139608
0.360993 0.576941 0.151373
0.430002 0.566207 0.167789
0.484236 0.566170 0.181961
0.540851 0.558747 0.200366
0.588131 0.549699 0.220758
0.651660 0.555399 0.233046
0.735979 0.582473 0.237160
0.828340 0.596968 0.240994
0.910136 0.613271 0.257206
0.985673 0.628026 0.270955
0.007059 0.647843 0.123922
0.000000 0.650980 0.121568
0.002219 0.654902 0.126050
0.006274 0.652549 0.117647
0.161778 0.647059 0.117072
0.274510 0.645490 0.127843
0.349019 0.645490 0.126274
0.415261 0.643921 0.139541
0.486275 0.636079 0.158432
0.551059 0.633726 0.177934
0.608627 0.634510 0.199216
0.664314 0.623529 0.229804
0.729344 0.627451 0.252482
0.814902 0.652549 0.260392
0.894588 0.672732 0.267556
0.979608 0.683137 0.287843
0.001569 0.716078 0.102745
0.001330 0.716317 0.093266
0.006342 0.711798 0.103171
0.001673 0.710013 0.092288
0.108706 0.711373 0.093229
0.235294 0.716863 0.094118
0.334424 0.712463 0.091526
0.413849 0.710230 0.110588
0.481778 0.710379 0.131451
0.552052 0.706562 0.158745
0.614902 0.699608 0.178039
0.677647 0.696470 0.209412
0.730622 0.690622 0.231799
0.792680 0.693751 0.259503
0.874039 0.710693 0.277647
0.958432 0.732549 0.291765
0.005916 0.788303 0.053737
0.000000 0.788303 0.045557
0.000502 0.786452 0.053316
0.000000 0.783529 0.047686
0.049930 0.783079 0.047877
0.209054 0.781602 0.041636
0.311798 0.783888 0.036930
0.402711 0.781960 0.045495
0.476863 0.780751 0.088403
0.549404 0.775619 0.116776
0.616695 0.771339 0.148661
0.681210 0.765065 0.189939
0.744878 0.766351 0.208914
0.799574 0.762712 0.242779
0.861046 0.764177 0.284289
0.938532 0.783171 0.320919
0.000784 0.861961 0.014118
0.003922 0.867555 0.016471
0.002779 0.861826 0.015260
0.007552 0.862386 0.013333
0.002458 0.863164 0.014693
0.159216 0.863529 0.017255
0.299608 0.861647 0.011974
0.392090 0.866375 0.008202
0.479283 0.860751 0.024896
0.554405 0.862536 0.068967
0.627451 0.856471 0.122353
0.698823 0.852549 0.168523
0.765132 0.852975 0.209053
0.824314 0.849838 0.245983
0.885176 0.844915 0.282039
0.941961 0.846274 0.326274
0.002249 0.934327 0.000000
0.001569 0.933647 0.007006
0.004687 0.930977 0.000167
0.000784 0.931764 0.005804
0.005620 0.928468 0.006455
0.094797 0.930614 0.000000
0.266196 0.934902 0.001569
0.368771 0.934672 0.000042
0.468340 0.934013 0.003137
0.550421 0.929776 0.012080
0.624418 0.932340 0.054588
0.698248 0.928836 0.132340
0.764515 0.925578 0.195423
0.829804 0.923242 0.237543
0.892326 0.919623 0.284708
0.954405 0.917961 0.338614
0.000000 0.996862 0.000000
0.003137 1.000000 0.001569
0.000426 0.999574 0.002779
0.001569 0.999216 0.000784
0.005856 0.997072 0.005700
0.000000 1.000000 0.000000
0.230588 0.995294 0.006274
0.348661 0.994017 0.000359
0.443137 1.000000 0.001569
0.540497 0.999111 0.003608
0.618039 0.990588 0.011765
0.690981 0.995294 0.065883
0.761143 0.995652 0.178039
0.836863 0.989804 0.233726
0.898823 0.989124 0.305307
0.965490 0.989019 0.356863
0.135686 0.066667 0.220392
0.165804 0.065673 0.231373
0.194510 0.065098 0.224314
0.240359 0.070521 0.219966
0.277647 0.083921 0.221961
0.320000 0.094902 0.226667
0.374327 0.104523 0.227556
0.437647 0.120784 0.234510
0.502319 0.134117 0.243989
0.574118 0.145098 0.256471
0.648628 0.159215 0.265098
0.716863 0.164601 0.271268
0.789020 0.173333 0.276078
0.859608 0.192157 0.289412
0.930980 0.205490 0.301176
0.993726 0.225882 0.319216
0.136418 0.107555 0.221386
0.152980 0.112450 0.229986
0.194510 0.111373 0.223843
0.234175 0.116905 0.225738
0.270954 0.120314 0.227503
0.325176 0.125020 0.222640
0.369691 0.140267 0.232575
0.430798 0.151268 0.236653
0.499412 0.159703 0.245955
0.567843 0.170771 0.258510
0.641935 0.178039 0.262954
0.713651 0.177921 0.271217
0.788445 0.187660 0.280000
0.862345 0.202946 0.290434
0.932078 0.219503 0.298039
0.997229 0.240889 0.320993
0.105882 0.141961 0.219608
0.134536 0.151843 0.227817
0.181669 0.159283 0.226891
0.220325 0.161143 0.225815
0.259817 0.165281 0.220863
0.316078 0.167059 0.218824
0.373804 0.175007 0.229804
0.427092 0.186241 0.234801
0.494969 0.192516 0.245490
0.567059 0.200784 0.256575
0.636863 0.204706 0.260392
0.710693 0.211451 0.269020
0.781535 0.220818 0.273299
0.855261 0.233300 0.281860
0.928314 0.241569 0.297046
0.996078 0.265883 0.319216
0.084056 0.207417 0.232583
0.118618 0.207816 0.228739
0.159933 0.212549 0.226667
0.211908 0.214691 0.232646
0.258039 0.218465 0.228594
0.306958 0.224740 0.228303
0.373737 0.228089 0.238860
0.429020 0.233793 0.244414
0.495543 0.237436 0.245987
0.571406 0.241501 0.253983
0.648829 0.245848 0.261961
0.720285 0.254288 0.267600
0.791014 0.261535 0.276504
0.860459 0.273649 0.289551
0.929121 0.287552 0.299182
0.993725 0.305523 0.312941
0.060392 0.272157 0.235294
0.103948 0.270693 0.237856
0.151373 0.270693 0.234928
0.197938 0.271507 0.228594
0.262267 0.268474 0.226973
0.312157 0.265098 0.231373
0.371399 0.276079 0.233621
0.433569 0.281464 0.244706
0.502319 0.283137 0.247776
0.575380 0.291286 0.252549
0.647843 0.298039 0.260392
0.717752 0.307451 0.265987
0.789699 0.315189 0.272941
0.860751 0.322779 0.283855
0.935687 0.334185 0.295619
0.993725 0.349804 0.312157
0.030589 0.323138 0.219608
0.077281 0.324601 0.226772
0.122353 0.325490 0.230588
0.182745 0.325490 0.213983
0.247843 0.320784 0.216471
0.316863 0.316078 0.230588
0.354143 0.319686 0.238432
0.425098 0.329412 0.238431
0.506666 0.334767 0.238431
0.575686 0.344314 0.252549
0.645490 0.353725 0.253334
0.716863 0.358902 0.265098
0.790588 0.365490 0.276078
0.858263 0.374476 0.275518
0.932549 0.382745 0.290196
1.000000 0.393726 0.302745
0.000105 0.388131 0.228131
0.022484 0.389075 0.229020
0.081151 0.388026 0.218771
0.169102 0.387604 0.218042
0.234301 0.387242 0.220183
0.309386 0.377621 0.217830
0.358521 0.373740 0.231915
0.414379 0.373908 0.241359
0.487955 0.380839 0.246826
0.567059 0.396758 0.248627
0.648418 0.411556 0.252602
0.720662 0.422342 0.265601
0.794301 0.425882 0.273621
0.862954 0.430142 0.285115
0.933438 0.442457 0.292340
0.994980 0.451974 0.314301
0.004706 0.444706 0.213333
0.001778 0.450196 0.211347
0.016784 0.456963 0.215910
0.135754 0.449053 0.212773
0.224105 0.451869 0.211085
0.288628 0.446275 0.211764
