assets/lut/editingcorp satid.cube
# Created by: G'MIC (https://gmic.eu)
TITLE "satid"
# LUT size
LUT_3D_SIZE 13
# Data domain
DOMAIN_MIN 0.0 0.0 0.0
DOMAIN_MAX 1.0 1.0 1.0
# LUT data points
0.019407862797379494 0.011760173365473747 0.0040139141492545605
0.054871726781129837 0.019070254638791084 0.0019564011599868536
0.10754934698343277 0.025432705879211426 0.0063117980025708675
0.17399954795837402 0.033023849129676819 0.0044817458838224411
0.25988692045211792 0.043077908456325531 0.00022176107449922711
0.34900796413421631 0.054364461451768875 4.308364077587612e-05
0.43077915906906128 0.067132391035556793 0.00098003307357430458
0.49661287665367126 0.080928117036819458 0.0068459454923868179
0.5363118052482605 0.089791059494018555 0.011778378859162331
0.55889558792114258 0.089673988521099091 0.010749681852757931
0.57772177457809448 0.084689043462276459 0.0044438079930841923
0.59735184907913208 0.07860083132982254 0
0.61763876676559448 0.076304927468299866 0
0.024901805445551872 0.040727697312831879 0.014668288640677929
0.062510937452316284 0.040925178676843643 0.0054182466119527817
0.12092810124158859 0.045108392834663391 0.0068297144025564194
0.19170698523521423 0.050386868417263031 0.0080397063866257668
0.27492618560791016 0.062489930540323257 0.0045882430858910084
0.36268693208694458 0.080328606069087982 0.003190014511346817
0.44745352864265442 0.10039699822664261 0.0054729385301470757
0.51856273412704468 0.11968476325273514 0.0099326185882091522
0.56427162885665894 0.13820093870162964 0.013121272437274456
0.59539997577667236 0.14904111623764038 0.011924504302442074
0.61971509456634521 0.15130388736724854 0.0068569108843803406
0.63700765371322632 0.14499378204345703 0.0014752555871382356
0.6522408127784729 0.13932140171527863 0.00055655685719102621
0.018441323190927505 0.098224222660064697 0.034446701407432556
0.062131799757480621 0.086048543453216553 0.022209946066141129
0.13265456259250641 0.096574224531650543 0.017038397490978241
0.21626314520835876 0.10189209133386612 0.016973622143268585
0.30395928025245667 0.11012618243694305 0.012196050956845284
0.39099660515785217 0.13002580404281616 0.007472603116184473
0.4687143862247467 0.15662914514541626 0.0081289997324347496
0.53353691101074219 0.17980481684207916 0.010522834956645966
0.58140265941619873 0.19752268493175507 0.01243800763040781
0.62077760696411133 0.20964917540550232 0.01186478603631258
0.65136700868606567 0.21785253286361694 0.009701448492705822
0.67023199796676636 0.21729215979576111 0.0069630639627575874
0.68410426378250122 0.21240828931331635 0.0071810702793300152
0.0024204179644584656 0.19764776527881622 0.056470174342393875
0.042712505906820297 0.18673399090766907 0.044873405247926712
0.14308786392211914 0.17784906923770905 0.03143247589468956
0.24755258858203888 0.19465745985507965 0.025422593578696251
0.3523048460483551 0.19950003921985626 0.017057277262210846
0.44253972172737122 0.20953293144702911 0.011354095302522182
0.5071532130241394 0.23139950633049011 0.01080582570284605
0.55796533823013306 0.24967730045318604 0.010876958258450031
0.60008150339126587 0.26075780391693115 0.011764706112444401
0.63889968395233154 0.26792639493942261 0.011764706112444401
0.67087316513061523 0.27826961874961853 0.011773382313549519
0.69373786449432373 0.28618249297142029 0.012044749222695827
0.71101242303848267 0.2887694239616394 0.014585831202566624
5.6008731917245314e-05 0.29028403759002686 0.082886762917041779
0.023874873295426369 0.29595324397087097 0.076199822127819061
0.13732810318470001 0.28091549873352051 0.057447470724582672
0.27744114398956299 0.28772756457328796 0.03362395241856575
0.39398923516273499 0.30082559585571289 0.025628542527556419
0.4901721179485321 0.30248269438743591 0.021924560889601707
0.5526084303855896 0.30824390053749084 0.017247861251235008
0.59461581707000732 0.31467431783676147 0.012131260707974434
0.62708032131195068 0.31914937496185303 0.011991194449365139
0.65776032209396362 0.32410165667533875 0.013638201169669628
0.68700981140136719 0.33208408951759338 0.014605398289859295
0.71135097742080688 0.34099525213241577 0.016389390453696251
0.73235976696014404 0.34875941276550293 0.021672312170267105
0.0088480627164244652 0.34714961051940918 0.11401162296533585
0.036078285425901413 0.35550439357757568 0.1066933274269104
0.13381040096282959 0.36107286810874939 0.08376581221818924
0.28341859579086304 0.36599409580230713 0.044033125042915344
0.41486230492591858 0.37772834300994873 0.026655504480004311
0.51701647043228149 0.38260036706924438 0.025929754599928856
0.58496922254562378 0.38075831532478333 0.020595341920852661
0.6274150013923645 0.37657082080841064 0.012926842086017132
0.65308713912963867 0.37507033348083496 0.013543551787734032
0.6773231029510498 0.37742453813552856 0.015917310491204262
0.7043006420135498 0.38169503211975098 0.015696387737989426
0.72855770587921143 0.38650530576705933 0.018929559737443924
0.75139391422271729 0.39644524455070496 0.026150153949856758
0.023773657158017159 0.40224531292915344 0.15469500422477722
0.039344504475593567 0.40587371587753296 0.14965051412582397
0.11620806157588959 0.41954973340034485 0.12672176957130432
0.27024134993553162 0.42751175165176392 0.068176284432411194
0.4237302839756012 0.43470680713653564 0.030872523784637451
0.53480082750320435 0.44264766573905945 0.025005610659718513
0.60231953859329224 0.44183653593063354 0.020287502557039261
0.64564275741577148 0.43458959460258484 0.013389931060373783
0.67315584421157837 0.42924553155899048 0.014276077970862389
0.69880217313766479 0.42846837639808655 0.015728281810879707
0.72559237480163574 0.43158948421478271 0.015338344499468803
0.75048458576202393 0.43741029500961304 0.014823314733803272
0.77441960573196411 0.45021313428878784 0.021377863362431526
0.025061380118131638 0.45202374458312988 0.18965324759483337
0.033142343163490295 0.4549776017665863 0.19022680819034576
0.09148406982421875 0.46811428666114807 0.17538838088512421
0.25106817483901978 0.47366836667060852 0.10562018305063248
0.43339526653289795 0.47670888900756836 0.049455173313617706
0.55491352081298828 0.48360517621040344 0.024629240855574608
0.61667907238006592 0.48592951893806458 0.016149453818798065
0.65617746114730835 0.4824889600276947 0.015686305239796638
0.68843680620193481 0.4779362678527832 0.018319297581911087
0.71980071067810059 0.47588950395584106 0.01828421838581562
0.74780786037445068 0.47950509190559387 0.01526317186653614
0.77268236875534058 0.48812100291252136 0.0094970855861902237
0.79536992311477661 0.50150716304779053 0.015029159374535084
0.023591687902808189 0.49070033431053162 0.21680577099323273
0.032768696546554565 0.4976370632648468 0.22462818026542664
0.080489203333854675 0.51176279783248901 0.22159993648529053
0.22687262296676636 0.51842164993286133 0.16143153607845306
0.4202304482460022 0.51693814992904663 0.079122357070446014
0.55097717046737671 0.5156857967376709 0.029451526701450348
0.62374246120452881 0.517234206199646 0.013755274936556816
0.66638243198394775 0.52042162418365479 0.023291958495974541
0.70015281438827515 0.52063846588134766 0.030228842049837112
0.73615843057632446 0.51950252056121826 0.026975683867931366
0.76532852649688721 0.52292704582214355 0.020684365183115005
0.78899538516998291 0.53085041046142578 0.010053731501102448
0.80972433090209961 0.54360556602478027 0.01766693964600563
0.026234615594148636 0.521262526512146 0.24098862707614899
0.036290157586336136 0.53190785646438599 0.25974318385124207
0.066947653889656067 0.55149209499359131 0.28411456942558289
0.19418838620185852 0.56302797794342041 0.24462386965751648
0.40576961636543274 0.56024008989334106 0.13111649453639984
0.52757012844085693 0.55105006694793701 0.050638340413570404
0.62184792757034302 0.5486835241317749 0.022602679207921028
0.68185317516326904 0.55401146411895752 0.025993091985583305
0.71652877330780029 0.55886358022689819 0.033758141100406647
0.74948364496231079 0.56106644868850708 0.033021334558725357
0.77833133935928345 0.56390762329101562 0.023493358865380287
0.80146956443786621 0.5685390830039978 0.0085137458518147469
0.81931495666503906 0.58123975992202759 0.027804311364889145
0.03186943382024765 0.54792380332946777 0.2642960250377655
0.046743668615818024 0.55846172571182251 0.2829316258430481
0.069112680852413177 0.57814514636993408 0.31285634636878967
0.16091194748878479 0.59684580564498901 0.30678433179855347
0.38004386425018311 0.60166174173355103 0.20289501547813416
0.53512883186340332 0.59362709522247314 0.09522712230682373
0.63264560699462891 0.58686357736587524 0.034391950815916061
0.69833028316497803 0.58739417791366577 0.012049536220729351
0.73587977886199951 0.5934334397315979 0.017659759148955345
0.76605981588363647 0.59806585311889648 0.022678660228848457
0.79195272922515869 0.60055989027023315 0.015307781286537647
0.81146812438964844 0.60381478071212769 0.0088706519454717636
0.8235933780670166 0.61976498365402222 0.059185881167650223
0.035313356667757034 0.57544368505477905 0.29261776804924011
0.053908463567495346 0.58387410640716553 0.30549958348274231
0.074262402951717377 0.60065901279449463 0.32988765835762024
0.13807019591331482 0.6222069263458252 0.34341320395469666
0.33474031090736389 0.63298434019088745 0.27124267816543579
0.53512799739837646 0.62918674945831299 0.14632423222064972
0.64185416698455811 0.62280231714248657 0.053904499858617783
0.71308141946792603 0.6200861930847168 0.0067202248610556126
0.75408428907394409 0.62631827592849731 0.0076126698404550552
0.78271788358688354 0.62984496355056763 0.010513125918805599
0.80561298131942749 0.63003706932067871 0.0046698027290403843
0.81671243906021118 0.63894748687744141 0.032074812799692154
0.82059264183044434 0.66549485921859741 0.14482817053794861
0.039100721478462219 0.6047675609588623 0.32491511106491089
0.059361178427934647 0.61187207698822021 0.33307495713233948
0.080195136368274689 0.62594306468963623 0.35211533308029175
0.12539854645729065 0.64790022373199463 0.38352581858634949
0.28067028522491455 0.66785335540771484 0.37064856290817261
0.49598780274391174 0.66981405019760132 0.26319059729576111
0.63659775257110596 0.65949267148971558 0.13025471568107605
0.71986043453216553 0.65536892414093018 0.055973608046770096
0.76271384954452515 0.66113543510437012 0.050010308623313904
0.79107671976089478 0.66323679685592651 0.048113580793142319
0.81079381704330444 0.66490656137466431 0.054244067519903183
0.81502348184585571 0.68452173471450806 0.13755282759666443
0.81498444080352783 0.71858590841293335 0.28638520836830139
0.021425150334835052 0.023187002167105675 0.037615489214658737
0.058913826942443848 0.028376724570989609 0.031181320548057556
0.11833879351615906 0.027966488152742386 0.029912283644080162
0.18345190584659576 0.033113844692707062 0.023361699655652046
0.2643314003944397 0.044546164572238922 0.014164000749588013
0.34923920035362244 0.056443367153406143 0.011372540146112442
0.43081441521644592 0.06862766295671463 0.012822768650949001
0.49842151999473572 0.080560348927974701 0.015889082103967667
0.53562599420547485 0.086244471371173859 0.018674260005354881
0.55409562587738037 0.08176344633102417 0.016029402613639832
0.56920158863067627 0.070750504732131958 0.0075748218223452568
0.58883535861968994 0.062544561922550201 0.00024847890017554164
0.61146503686904907 0.062714532017707825 0
0.01998463086783886 0.059142604470252991 0.051451738923788071
0.061263050884008408 0.05603129044175148 0.042790178209543228
0.13087719678878784 0.052744366228580475 0.032404940575361252
0.20845529437065125 0.05027395486831665 0.021772392094135284
0.28684279322624207 0.062383119016885757 0.019373545423150063
0.36568108201026917 0.080618478357791901 0.019997885450720787
0.44748634099960327 0.10324808955192566 0.021924950182437897
0.51797586679458618 0.12401408702135086 0.024473467841744423
0.56383669376373291 0.13879795372486115 0.023675747215747833
0.59540033340454102 0.14545466005802155 0.017801396548748016
0.61688846349716187 0.14165778458118439 0.0099203819409012794
0.63199079036712646 0.13171237707138062 0.003123115049675107
0.64799970388412476 0.12587662041187286 0.0026204576715826988
0.0068198558874428272 0.12524612247943878 0.074287056922912598
0.052779372781515121 0.10996289551258087 0.064504601061344147
0.13980050384998322 0.11016982048749924 0.04816913977265358
0.23320777714252472 0.11017385870218277 0.033664222806692123
0.31807795166969299 0.11211751401424408 0.027079697698354721
0.39296403527259827 0.1287955641746521 0.02207477018237114
0.46987617015838623 0.15708385407924652 0.020992981269955635
0.53538870811462402 0.18021470308303833 0.023236727342009544
0.58403348922729492 0.19412113726139069 0.023033216595649719
0.62439382076263428 0.20374862849712372 0.01868031732738018
0.65311670303344727 0.21129631996154785 0.014018459245562553
0.67015016078948975 0.20977804064750671 0.012266675010323524
0.68332624435424805 0.2023153156042099 0.014680391177535057
0.00039994483813643456 0.21816737949848175 0.10122064501047134
0.03123180940747261 0.20656651258468628 0.095563404262065887
0.13740301132202148 0.18474337458610535 0.076865464448928833
0.25563716888427734 0.20470722019672394 0.060264900326728821
0.35933467745780945 0.20659707486629486 0.0466805100440979
0.44038528203964233 0.21025428175926208 0.035072669386863708
0.50795656442642212 0.22947674989700317 0.028168397024273872
0.56362676620483398 0.24530532956123352 0.022376416251063347
0.60799574851989746 0.25285908579826355 0.019674995914101601
0.64657175540924072 0.25947213172912598 0.017417803406715393
0.67730021476745605 0.27391728758811951 0.016330868005752563
0.69853824377059937 0.28555950522422791 0.019835034385323524
0.71403175592422485 0.28614231944084167 0.026303818449378014
0.00019743676239158958 0.30468511581420898 0.13116665184497833
0.0069387699477374554 0.31644946336746216 0.13731315732002258
0.10072796046733856 0.30108565092086792 0.12620361149311066
0.262868732213974 0.29814621806144714 0.093584395945072174
0.39233890175819397 0.31345760822296143 0.078587323427200317
0.48504263162612915 0.31120425462722778 0.066435888409614563
0.55056965351104736 0.31146708130836487 0.049453556537628174
0.60133546590805054 0.31369617581367493 0.029723791405558586
0.63872367143630981 0.31603920459747314 0.020322522148489952
0.66932916641235352 0.32120409607887268 0.017948688939213753
0.69677364826202393 0.33067753911018372 0.015464229509234428
0.71949487924575806 0.34163513779640198 0.018519502133131027
0.73792839050292969 0.34945020079612732 0.030493509024381638
0.011535479687154293 0.36030703783035278 0.15935452282428741
0.019344210624694824 0.37399765849113464 0.16338866949081421
0.085714779794216156 0.38711386919021606 0.16127875447273254
0.24386677145957947 0.3866768479347229 0.12618343532085419
0.40472596883773804 0.39375114440917969 0.09830678254365921
0.51003473997116089 0.40013474225997925 0.089828163385391235
0.58560293912887573 0.39393064379692078 0.067640490829944611
0.63821643590927124 0.3838580846786499 0.038784220814704895
0.66804540157318115 0.38053390383720398 0.026597820222377777
0.69172090291976929 0.38260850310325623 0.023076899349689484
0.71619564294815063 0.38492169976234436 0.015234689228236675
0.73805129528045654 0.38852748274803162 0.015770347788929939
0.75823593139648438 0.39851051568984985 0.029077911749482155
0.027894547209143639 0.40947869420051575 0.19026528298854828
0.035736486315727234 0.41470292210578918 0.18998131155967712
0.078100569546222687 0.43835741281509399 0.19626709818840027
0.21327561140060425 0.45101359486579895 0.1592700183391571
0.38679724931716919 0.45676210522651672 0.11084398627281189
0.51401859521865845 0.46709784865379333 0.092820815742015839
0.60531306266784668 0.46220594644546509 0.065233655273914337
0.66254109144210815 0.44904178380966187 0.036716252565383911
0.69132798910140991 0.44094258546829224 0.026088131591677666
0.71402722597122192 0.43879598379135132 0.022776899859309196
0.73733603954315186 0.43992754817008972 0.01676890067756176
0.75927919149398804 0.44255155324935913 0.012265927158296108
0.7803768515586853 0.45208388566970825 0.020430007949471474
0.031866710633039474 0.45760592818260193 0.21911732852458954
0.038052219897508621 0.45810964703559875 0.21896935999393463
0.055618856102228165 0.47867906093597412 0.24509653449058533
0.17215420305728912 0.49358284473419189 0.21676546335220337
0.36967384815216064 0.49732819199562073 0.1348886638879776
0.51929908990859985 0.50300121307373047 0.076577700674533844
0.61887526512145996 0.50423455238342285 0.040522001683712006
0.67722225189208984 0.49851033091545105 0.021939147263765335
0.70767670869827271 0.4914887547492981 0.018998928368091583
0.73359155654907227 0.4881446361541748 0.021146543323993683
0.75731968879699707 0.49071839451789856 0.021482579410076141
0.77919965982437134 0.49620604515075684 0.015672991052269936
0.79950231313705444 0.50642848014831543 0.022953541949391365
0.031836625188589096 0.49598383903503418 0.24617141485214233
0.03787599503993988 0.49843665957450867 0.25168308615684509
0.049844030290842056 0.51467692852020264 0.28187361359596252
0.14478245377540588 0.5291476845741272 0.26959684491157532
0.34365940093994141 0.53115189075469971 0.17446988821029663
0.51291036605834961 0.52794152498245239 0.073184221982955933
0.62943834066390991 0.53093934059143066 0.023800211027264595
0.68819868564605713 0.53459334373474121 0.019130213186144829
0.71818947792053223 0.53331661224365234 0.023495826870203018
0.74761050939559937 0.53047853708267212 0.025190137326717377
0.7720070481300354 0.53254741430282593 0.030228888615965843
0.79248058795928955 0.53920572996139526 0.028735680505633354
0.81084620952606201 0.55174529552459717 0.045263670384883881
0.032695110887289047 0.52776610851287842 0.27474364638328552
0.044619720429182053 0.53229576349258423 0.2850472629070282
0.063757099211215973 0.54758143424987793 0.31209087371826172
0.14832966029644012 0.56529432535171509 0.30995097756385803
0.33142223954200745 0.57187694311141968 0.23069407045841217
0.50065487623214722 0.56585413217544556 0.12075063586235046
0.6309889554977417 0.56100934743881226 0.036131393164396286
0.69650346040725708 0.56692981719970703 0.028048211708664894
0.72708743810653687 0.57057315111160278 0.037027936428785324
0.7568473219871521 0.56942993402481079 0.035644277930259705
0.78311169147491455 0.57074576616287231 0.033755913376808167
0.80335116386413574 0.57498902082443237 0.030176050961017609
0.81746923923492432 0.59072279930114746 0.073019601404666901
0.035249177366495132 0.5560111403465271 0.30314856767654419
0.055497173219919205 0.56116604804992676 0.31189560890197754
0.076102234423160553 0.57690936326980591 0.33443841338157654
0.12719739973545074 0.60156631469726562 0.3630424439907074
0.28210821747779846 0.61863225698471069 0.33628624677658081
0.480092853307724 0.61302351951599121 0.21292364597320557
0.62286496162414551 0.60050177574157715 0.087366275489330292
0.69893366098403931 0.59747093915939331 0.03122272901237011
0.73747467994689941 0.60204547643661499 0.031615417450666428
0.76809132099151611 0.60500156879425049 0.034950841218233109
0.7941443920135498 0.60753047466278076 0.033060111105442047
0.81026095151901245 0.61177676916122437 0.044486939907073975
0.8163522481918335 0.63361841440200806 0.13685078918933868
0.038246754556894302 0.58313512802124023 0.33232414722442627
0.058215301483869553 0.588672935962677 0.34083631634712219
0.075441770255565643 0.60318303108215332 0.36000654101371765
0.11334961652755737 0.62757152318954468 0.38914892077445984
0.25474134087562561 0.64961379766464233 0.39130526781082153
0.4604954719543457 0.65329521894454956 0.30450046062469482
0.6132623553276062 0.64095962047576904 0.15976297855377197
0.70090633630752563 0.62946897745132446 0.05124785378575325
0.75071406364440918 0.63146406412124634 0.026223905384540558
0.78354179859161377 0.63384974002838135 0.0214818324893713
0.80429291725158691 0.63657647371292114 0.029240835458040237
0.80986833572387695 0.65131014585494995 0.097892984747886658
0.81164687871932983 0.68101131916046143 0.23750095069408417
0.039485391229391098 0.61158853769302368 0.36359295248985291
0.058425109833478928 0.61734104156494141 0.37192302942276001
0.073206551373004913 0.63000321388244629 0.38954463601112366
0.10706581920385361 0.65029281377792358 0.41359886527061462
0.23804149031639099 0.67418813705444336 0.42987936735153198
0.44233086705207825 0.68515253067016602 0.37598860263824463
0.60261416435241699 0.67795455455780029 0.24877917766571045
0.70038992166519165 0.66915673017501831 0.1412200927734375
0.75419223308563232 0.66861283779144287 0.10057928413152695
0.78728652000427246 0.6685340404510498 0.079973302781581879
0.8043285608291626 0.674530029296875 0.10433001071214676
0.80469697713851929 0.69891339540481567 0.21869049966335297
0.80917710065841675 0.73036998510360718 0.35974597930908203
0.022177422419190407 0.039782535284757614 0.089673511683940887
0.05928884819149971 0.048297807574272156 0.088169857859611511
0.12112796306610107 0.04840870201587677 0.082346104085445404
0.18644082546234131 0.048867948353290558 0.072653785347938538
0.25287267565727234 0.054176107048988342 0.064161531627178192
0.32923460006713867 0.064411833882331848 0.057444985955953598
0.41419422626495361 0.07656656950712204 0.052696466445922852
0.48785829544067383 0.087712325155735016 0.048764321953058243
0.52768748998641968 0.091807946562767029 0.043575495481491089
0.54971373081207275 0.084447942674160004 0.032346703112125397
0.56298333406448364 0.06673896312713623 0.01873626746237278
0.58298581838607788 0.057403698563575745 0.0055307573638856411
0.60829567909240723 0.060910888016223907 0.004325223620980978
0.016843654215335846 0.086746498942375183 0.10081516206264496
0.056115467101335526 0.085014000535011292 0.10306213796138763
0.12780362367630005 0.086288273334503174 0.092373818159103394
0.21808445453643799 0.080711111426353455 0.075088918209075928
0.29537844657897949 0.083181314170360565 0.069568902254104614
0.36601138114929199 0.095997348427772522 0.06652534008026123
0.44342416524887085 0.11827510595321655 0.065866328775882721
0.51166766881942749 0.13802438974380493 0.067232944071292877
0.55834472179412842 0.15083268284797668 0.05763988196849823
0.59619587659835815 0.15739452838897705 0.041077572852373123
0.61596083641052246 0.14611665904521942 0.026119455695152283
0.62891918420791626 0.13055567443370819 0.013769261538982391
0.64631742238998413 0.12590786814689636 0.010938293300569057
0.0030777426436543465 0.15731041133403778 0.12712277472019196
0.03363678976893425 0.15670907497406006 0.13024152815341949
0.12455197423696518 0.1418236643075943 0.11944524943828583
0.243075892329216 0.13717977702617645 0.096410296857357025
0.334178626537323 0.13519231975078583 0.080838389694690704
0.39981180429458618 0.14686991274356842 0.067356124520301819
0.47419285774230957 0.17376987636089325 0.062642984092235565
0.53374457359313965 0.19469952583312988 0.064729444682598114
0.58035886287689209 0.20704570412635803 0.060900550335645676
0.62635982036590576 0.21800529956817627 0.048706218600273132
0.65475702285766602 0.21991567313671112 0.036718808114528656
0.67034608125686646 0.21369029581546783 0.029181268066167831
0.68395000696182251 0.20810899138450623 0.029882200062274933
0.0008882859256118536 0.24406319856643677 0.15705524384975433
0.011275467462837696 0.25122645497322083 0.16273154318332672
0.1085084080696106 0.22001193463802338 0.15428055822849274
0.25544640421867371 0.23030899465084076 0.13499914109706879
0.36935585737228394 0.23699650168418884 0.11229251325130463
0.44339630007743835 0.23112773895263672 0.087858669459819794
0.50946027040481567 0.24445155262947083 0.072314456105232239
0.56539446115493774 0.25705146789550781 0.06124584749341011
0.61084836721420288 0.26332229375839233 0.053534023463726044
0.65052539110183716 0.27074688673019409 0.046744074672460556
0.68089312314987183 0.28112804889678955 0.039053838700056076
0.70206743478775024 0.29085740447044373 0.038331080228090286
0.71727293729782104 0.29356074333190918 0.049181185662746429
0.0077783921733498573 0.31957387924194336 0.18610000610351562
0.010454454459249973 0.33420893549919128 0.19370047748088837
