assets/lut/editingcorp tutto.cube
# Created by: G'MIC (https://gmic.eu)
TITLE "tutto"
# LUT size
LUT_3D_SIZE 5
# Data domain
DOMAIN_MIN 0.0 0.0 0.0
DOMAIN_MAX 1.0 1.0 1.0
# LUT data points
0.019444379955530167 0.015945255756378174 0.01593412458896637
0.43005132675170898 0.015184604562819004 0.022470181807875633
0.7404334545135498 0.015783436596393585 0.0017033446347340941
0.90586268901824951 0.013183070346713066 0.0040481565520167351
0.98920869827270508 0.006896553561091423 0.0023276235442608595
0.0035981121473014355 0.23238879442214966 0.04564400389790535
0.28927257657051086 0.23552420735359192 0.040462836623191833
0.70783698558807373 0.23982211947441101 0.015596950426697731
0.90864276885986328 0.21200394630432129 0.01150913629680872
0.99473303556442261 0.18984264135360718 0.015961995348334312
0.029312537983059883 0.54554468393325806 0.10740357637405396
0.184308260679245 0.54121750593185425 0.10567381978034973
0.64436793327331543 0.57077622413635254 0.074895434081554413
0.91657954454421997 0.5323217511177063 0.011107530444860458
0.99840360879898071 0.49321934580802917 0.012721865437924862
0.068482130765914917 0.79224258661270142 0.14329706132411957
0.17239129543304443 0.78969424962997437 0.14416202902793884
0.49963200092315674 0.81578224897384644 0.14768701791763306
0.8791499137878418 0.82603418827056885 0.10900271683931351
0.99587982892990112 0.80551904439926147 0.048589818179607391
0.065324537456035614 0.91206377744674683 0.14841823279857635
0.14474643766880035 0.90724766254425049 0.15154874324798584
0.33625990152359009 0.92356866598129272 0.15049757063388824
0.80987566709518433 0.95737546682357788 0.15320305526256561
0.99727737903594971 0.9727637767791748 0.13473188877105713
0.017359370365738869 0.047425616532564163 0.32278037071228027
0.40287712216377258 0.021586908027529716 0.2571195662021637
0.73700863122940063 0.01572684571146965 0.27895370125770569
0.90781885385513306 0.010712059214711189 0.24738238751888275
0.99343550205230713 0.017640132457017899 0.22533102333545685
0.013271436095237732 0.28621524572372437 0.26811710000038147
0.24837438762187958 0.25514951348304749 0.24996155500411987
0.7045670747756958 0.23563060164451599 0.22051407396793365
0.90655434131622314 0.20594355463981628 0.19745954871177673
0.99690455198287964 0.19389563798904419 0.20182739198207855
0.0349578857421875 0.556721031665802 0.27281975746154785
0.1646515429019928 0.54066199064254761 0.26091083884239197
0.64082789421081543 0.56708180904388428 0.2090461254119873
0.91238999366760254 0.52900385856628418 0.14395730197429657
0.9976736307144165 0.49636828899383545 0.14317852258682251
0.069954365491867065 0.79154914617538452 0.25890976190567017
0.1607324630022049 0.78264069557189941 0.25769290328025818
0.50617212057113647 0.80767208337783813 0.26624342799186707
0.87724578380584717 0.82353520393371582 0.22327983379364014
0.99497479200363159 0.80544191598892212 0.15636444091796875
0.068056754767894745 0.90707695484161377 0.24301482737064362
0.12987247109413147 0.91004741191864014 0.25881829857826233
0.36260366439819336 0.92536371946334839 0.25826790928840637
0.80436718463897705 0.9527212381362915 0.26115220785140991
0.99305194616317749 0.97055870294570923 0.24002547562122345
0.025782236829400063 0.14034625887870789 0.62930434942245483
0.33974704146385193 0.014655617997050285 0.53262209892272949
0.70541691780090332 0.057301614433526993 0.54117429256439209
0.86618411540985107 0.074410699307918549 0.51760363578796387
0.97943115234375 0.043432347476482391 0.52481508255004883
0.060434110462665558 0.37891387939453125 0.56780892610549927
0.21360458433628082 0.31038689613342285 0.5651429295539856
0.65620499849319458 0.25293081998825073 0.48889270424842834
0.88469284772872925 0.22945405542850494 0.52398645877838135
0.98440855741500854 0.21497160196304321 0.51408964395523071
0.015335666015744209 0.58999127149581909 0.56436169147491455
0.11867597699165344 0.58022767305374146 0.54871070384979248
0.53930538892745972 0.57328253984451294 0.54562795162200928
0.91081494092941284 0.55572450160980225 0.56465858221054077
0.99707090854644775 0.53441137075424194 0.54845821857452393
0.067504063248634338 0.81014430522918701 0.54377514123916626
0.16026705503463745 0.80153810977935791 0.52400404214859009
0.43052604794502258 0.80854523181915283 0.5141482949256897
0.87567031383514404 0.8352934718132019 0.47156137228012085
0.99568599462509155 0.81796061992645264 0.46954184770584106
0.049986373633146286 0.92380219697952271 0.46481627225875854
0.13666300475597382 0.92311316728591919 0.46909624338150024
0.38672778010368347 0.9285656213760376 0.47908386588096619
0.79817003011703491 0.95684754848480225 0.45915466547012329
0.98908048868179321 0.975616455078125 0.44062715768814087
0.021989740431308746 0.14755941927433014 0.75774317979812622
0.32687366008758545 0.027768243104219437 0.67513889074325562
0.67575407028198242 0.071164406836032867 0.66752743721008301
0.85957634449005127 0.10334537178277969 0.65638673305511475
0.96634387969970703 0.096758730709552765 0.65242952108383179
0.083951987326145172 0.38886862993240356 0.73355680704116821
0.22749149799346924 0.3260214626789093 0.73810821771621704
0.60585051774978638 0.24336469173431396 0.67627936601638794
0.86333698034286499 0.26018223166465759 0.6588815450668335
0.96641802787780762 0.26327192783355713 0.65960228443145752
0.012553525157272816 0.61332303285598755 0.72771847248077393
0.12660592794418335 0.60335654020309448 0.72266846895217896
0.41072386503219604 0.56490993499755859 0.73427397012710571
0.87024003267288208 0.52599656581878662 0.67948257923126221
0.97578400373458862 0.52627825736999512 0.67710864543914795
0.023627905175089836 0.82073980569839478 0.78153109550476074
0.13026389479637146 0.81770002841949463 0.77872121334075928
0.29216063022613525 0.8188355565071106 0.78087610006332397
0.82007020711898804 0.83922868967056274 0.79443526268005371
0.99186015129089355 0.83993518352508545 0.8064003586769104
0.024619262665510178 0.94603025913238525 0.76356774568557739
0.14787863194942474 0.9408801794052124 0.77004516124725342
0.3002050518989563 0.9411359429359436 0.7691991925239563
0.73530900478363037 0.96966922283172607 0.77807283401489258
0.99118268489837646 0.9858323335647583 0.77963745594024658
0.033564802259206772 0.13777400553226471 0.86902391910552979
0.30038699507713318 0.019161045551300049 0.79621785879135132
0.65281134843826294 0.018348589539527893 0.77596122026443481
0.86037635803222656 0.083457469940185547 0.77685356140136719
0.9630243182182312 0.036424793303012848 0.76893210411071777
0.10523498803377151 0.37425157427787781 0.8550950288772583
0.21355964243412018 0.3256068229675293 0.86264348030090332
0.56847697496414185 0.24648161232471466 0.80776160955429077
0.85769087076187134 0.26393380761146545 0.779083251953125
0.96605068445205688 0.25367659330368042 0.78164976835250854
0.0029505111742764711 0.59562557935714722 0.83488845825195312
0.12467508018016815 0.58989310264587402 0.83502954244613647
0.42142865061759949 0.56301254034042358 0.85143464803695679
0.86015957593917847 0.52430027723312378 0.81311225891113281
0.98292082548141479 0.52059471607208252 0.81156265735626221
0.015095549635589123 0.80515390634536743 0.89299154281616211
0.10405867546796799 0.7942625880241394 0.88395589590072632
0.26366221904754639 0.80839598178863525 0.89446723461151123
0.80354976654052734 0.83643549680709839 0.92716681957244873
0.98766416311264038 0.83914363384246826 0.92981350421905518
0.012631210498511791 0.94388729333877563 0.91730266809463501
0.12363508343696594 0.93910634517669678 0.90704798698425293
0.23624338209629059 0.94734573364257812 0.91525536775588989
0.66091221570968628 0.97119516134262085 0.94637894630432129
0.99358004331588745 0.99041712284088135 0.9437447190284729
