assets/lut/editingcorp calidum.cube
# Created by: G'MIC (https://gmic.eu)
TITLE "calidum"
# LUT size
LUT_3D_SIZE 13
# Data domain
DOMAIN_MIN 0.0 0.0 0.0
DOMAIN_MAX 1.0 1.0 1.0
# LUT data points
0.057683639228343964 0.054213058203458786 0.052957154810428619
0.10936291515827179 0.056166164577007294 0.054308559745550156
0.15980960428714752 0.062102269381284714 0.056463293731212616
0.21748919785022736 0.068187102675437927 0.060763880610466003
0.27977487444877625 0.078268028795719147 0.066855184733867645
0.34341314435005188 0.093371868133544922 0.074060358107089996
0.40508741140365601 0.10880760103464127 0.084762528538703918
0.46503430604934692 0.1229352131485939 0.097442582249641418
0.52800899744033813 0.13865794241428375 0.10846629738807678
0.59376019239425659 0.1543368399143219 0.11770118027925491
0.65926617383956909 0.1670318990945816 0.12692603468894958
0.72547483444213867 0.17964112758636475 0.13894687592983246
0.79191267490386963 0.19452127814292908 0.15730965137481689
0.083067439496517181 0.095192804932594299 0.056184656918048859
0.13807892799377441 0.10082448273897171 0.058052137494087219
0.19410058856010437 0.11107178032398224 0.064772211015224457
0.25415602326393127 0.12082938104867935 0.071181610226631165
0.31519207358360291 0.12992237508296967 0.076063282787799835
0.37482064962387085 0.14073510468006134 0.081383585929870605
0.4321652352809906 0.15256187319755554 0.091454342007637024
0.48910769820213318 0.16551138460636139 0.10388041287660599
0.55052757263183594 0.18107160925865173 0.11485784500837326
0.61506831645965576 0.19701990485191345 0.12404897063970566
0.67970103025436401 0.2102237194776535 0.13292630016803741
0.74570286273956299 0.22295926511287689 0.14377968013286591
0.81308889389038086 0.2376345694065094 0.16098187863826752
0.12284954637289047 0.14886832237243652 0.058966230601072311
0.17666535079479218 0.15554118156433105 0.059869341552257538
0.23572687804698944 0.17271246016025543 0.071892157196998596
0.29731062054634094 0.18925842642784119 0.082455486059188843
0.35660141706466675 0.19958530366420746 0.087980784475803375
0.41308438777923584 0.20664067566394806 0.092923074960708618
0.46695694327354431 0.21448338031768799 0.10103920102119446
0.52223676443099976 0.22533412277698517 0.11153849959373474
0.58189249038696289 0.23920559883117676 0.12265913933515549
0.6435234546661377 0.2538401186466217 0.13295482099056244
0.70552068948745728 0.26607897877693176 0.14218707382678986
0.77020341157913208 0.27685695886611938 0.15206849575042725
0.83770298957824707 0.28972649574279785 0.1678992360830307
0.16987824440002441 0.219847172498703 0.068099811673164368
0.21749845147132874 0.22797514498233795 0.070143908262252808
0.27780422568321228 0.24598716199398041 0.081328310072422028
0.34002169966697693 0.26503536105155945 0.092904619872570038
0.39638215303421021 0.27841702103614807 0.099121019244194031
0.44870594143867493 0.2851167619228363 0.1034591943025589
0.50057929754257202 0.28996589779853821 0.10994751751422882
0.55545401573181152 0.29683956503868103 0.11938059329986572
0.61413484811782837 0.30703011155128479 0.13132257759571075
0.67319411039352417 0.31880328059196472 0.14280283451080322
0.73277842998504639 0.32852551341056824 0.15217001736164093
0.796672523021698 0.33670660853385925 0.16125097870826721
0.86417955160140991 0.34747582674026489 0.17606598138809204
0.22548642754554749 0.2997620701789856 0.082320176064968109
0.26803702116012573 0.30800306797027588 0.084956452250480652
0.32398566603660583 0.32343915104866028 0.094696551561355591
0.38223865628242493 0.34116250276565552 0.10583877563476562
0.43133023381233215 0.35667574405670166 0.11079581826925278
0.47816675901412964 0.36489623785018921 0.11306148022413254
0.52750700712203979 0.36739197373390198 0.11724869906902313
0.58062058687210083 0.37071612477302551 0.12573337554931641
0.63841569423675537 0.37655976414680481 0.1390722393989563
0.69630813598632812 0.38393202424049377 0.15142334997653961
0.75615805387496948 0.39096957445144653 0.16035871207714081
0.82118743658065796 0.39776846766471863 0.16905888915061951
0.88952350616455078 0.40642288327217102 0.18427567183971405
0.28884121775627136 0.38012352585792542 0.10199703276157379
0.32504171133041382 0.386983722448349 0.10548083484172821
0.37252399325370789 0.39997223019599915 0.11523783206939697
0.42253553867340088 0.41439837217330933 0.12571294605731964
0.46556001901626587 0.42834758758544922 0.1289326548576355
0.50727593898773193 0.43662440776824951 0.12788601219654083
0.55167281627655029 0.43982172012329102 0.12809090316295624
0.60028612613677979 0.44167259335517883 0.13289904594421387
0.65367162227630615 0.44451594352722168 0.14387373626232147
0.71018505096435547 0.44833439588546753 0.15683653950691223
0.77189481258392334 0.45302766561508179 0.16605296730995178
0.83954012393951416 0.45844107866287231 0.17468138039112091
0.90977352857589722 0.46569204330444336 0.19099946320056915
0.34877058863639832 0.45368340611457825 0.12599931657314301
0.38034754991531372 0.46020156145095825 0.13198304176330566
0.41917833685874939 0.47067925333976746 0.14245200157165527
0.46087244153022766 0.48222452402114868 0.15222449600696564
0.49977129697799683 0.4932454526424408 0.15512432157993317
0.53766131401062012 0.50166136026382446 0.15105055272579193
0.57668662071228027 0.50632661581039429 0.14626665413379669
0.61890095472335815 0.50897884368896484 0.14499498903751373
0.66657328605651855 0.51105886697769165 0.15039564669132233
0.72057622671127319 0.51352101564407349 0.16032926738262177
0.78237336874008179 0.51725435256958008 0.16889847815036774
0.85196065902709961 0.52148878574371338 0.177326500415802
0.92423838376998901 0.52743989229202271 0.19373852014541626
0.39938187599182129 0.51891857385635376 0.15434347093105316
0.42953455448150635 0.52662843465805054 0.16250665485858917
0.46210750937461853 0.53576982021331787 0.17323532700538635
0.4962402880191803 0.54494267702102661 0.18146894872188568
0.53065758943557739 0.55379855632781982 0.18302206695079803
0.56530177593231201 0.56172853708267212 0.17797081172466278
0.60064882040023804 0.56791466474533081 0.17049500346183777
0.63702768087387085 0.57230234146118164 0.16367125511169434
0.68013900518417358 0.5760343074798584 0.16209208965301514
0.73084467649459839 0.57978200912475586 0.16611099243164062
0.79131215810775757 0.58405297994613647 0.17168524861335754
0.86143618822097778 0.58796191215515137 0.17796939611434937
0.93537414073944092 0.59275126457214355 0.19408468902111053
0.4424184262752533 0.57956176996231079 0.18802331387996674
0.47079834342002869 0.58780527114868164 0.19572819769382477
0.49803885817527771 0.59588241577148438 0.20349282026290894
0.5258445143699646 0.60297900438308716 0.20760481059551239
0.5565030574798584 0.61018252372741699 0.20806422829627991
0.58917629718780518 0.61785370111465454 0.20442931354045868
0.62244468927383423 0.6250341534614563 0.19680549204349518
0.6558648943901062 0.6318284273147583 0.1868327409029007
0.69449937343597412 0.63793265819549561 0.17959430813789368
0.7419731616973877 0.64437055587768555 0.17661650478839874
0.80142897367477417 0.65057265758514404 0.17624129354953766
0.87226700782775879 0.65553230047225952 0.1775832325220108
0.94665086269378662 0.66016685962677002 0.19255974888801575
0.47726020216941833 0.63616019487380981 0.22537371516227722
0.50208562612533569 0.64334577322006226 0.22904497385025024
0.52514064311981201 0.64998006820678711 0.23215183615684509
0.54903203248977661 0.65596216917037964 0.23269139230251312
0.57689386606216431 0.66260385513305664 0.23244574666023254
0.60779577493667603 0.67014551162719727 0.2302379310131073
0.63958173990249634 0.67829006910324097 0.22373901307582855
0.67152482271194458 0.68722629547119141 0.21192951500415802
0.70829087495803833 0.6965709924697876 0.20084185898303986
0.7545199990272522 0.70589983463287354 0.1920115053653717
0.81382149457931519 0.71501117944717407 0.18407988548278809
0.88510417938232422 0.72378510236740112 0.17730680108070374
0.95809358358383179 0.73048585653305054 0.19171230494976044
0.50389289855957031 0.689453125 0.26467987895011902
0.52501273155212402 0.69430577754974365 0.26270219683647156
0.54472309350967407 0.69922643899917603 0.26069360971450806
0.56603282690048218 0.70484870672225952 0.25841081142425537
0.59128427505493164 0.71152299642562866 0.25577813386917114
0.61998355388641357 0.7196618914604187 0.25255647301673889
0.6508602499961853 0.72940760850906372 0.24601741135120392
0.68304431438446045 0.74071317911148071 0.23520869016647339
0.7200438380241394 0.75305825471878052 0.2232610285282135
0.76582211256027222 0.76592588424682617 0.2116423100233078
0.82410949468612671 0.7792554497718811 0.19902870059013367
0.89511692523956299 0.79437565803527832 0.1823623925447464
0.96615409851074219 0.80598396062850952 0.19468191266059875
0.52446794509887695 0.73968374729156494 0.30376163125038147
0.54223406314849854 0.74296510219573975 0.29751741886138916
0.55926728248596191 0.74667561054229736 0.29121682047843933
0.57846283912658691 0.75168347358703613 0.28492984175682068
0.60103350877761841 0.75839376449584961 0.27816000580787659
0.6276126503944397 0.76745086908340454 0.27169644832611084
0.65801858901977539 0.77924990653991699 0.26509636640548706
0.69160288572311401 0.79359197616577148 0.25707164406776428
0.72982871532440186 0.81005066633224487 0.24601341784000397
0.77518743276596069 0.82710665464401245 0.23307350277900696
0.83106577396392822 0.84474974870681763 0.22064998745918274
0.90150600671768188 0.86718910932540894 0.19278949499130249
0.96723788976669312 0.88086652755737305 0.2160448431968689
0.54136455059051514 0.78858077526092529 0.34301349520683289
0.55718731880187988 0.79090321063995361 0.33417683839797974
0.57288157939910889 0.79414421319961548 0.32486546039581299
0.59018951654434204 0.79907584190368652 0.31501808762550354
0.61073732376098633 0.80596429109573364 0.3043271005153656
0.63552612066268921 0.81568765640258789 0.29502832889556885
0.66583442687988281 0.82981199026107788 0.28936994075775146
0.70070916414260864 0.84710359573364258 0.28395235538482666
0.73997074365615845 0.86724573373794556 0.27490618824958801
0.78525704145431519 0.88804924488067627 0.26271519064903259
0.83935278654098511 0.90991741418838501 0.2514721155166626
0.90793979167938232 0.93698173761367798 0.22621046006679535
0.95752686262130737 0.9392932653427124 0.32472759485244751
0.044340874999761581 0.061808209866285324 0.086948484182357788
0.095144234597682953 0.059881158173084259 0.090970613062381744
0.1518653929233551 0.061116207391023636 0.087224282324314117
0.21131943166255951 0.062145907431840897 0.085504375398159027
0.27210202813148499 0.067266486585140228 0.090777389705181122
0.33514019846916199 0.079465039074420929 0.10052020847797394
0.39676457643508911 0.092874623835086823 0.11213461309671402
0.4567258358001709 0.10684720426797867 0.12365388870239258
0.51908290386199951 0.12281622737646103 0.13377600908279419
0.58325481414794922 0.13768120110034943 0.14207488298416138
0.64711230993270874 0.14905591309070587 0.14922657608985901
0.71277225017547607 0.16171582043170929 0.1580415666103363
0.7806517481803894 0.17791269719600677 0.1734435111284256
0.057365208864212036 0.10728760063648224 0.097288914024829865
0.11353972554206848 0.11036263406276703 0.10096326470375061
0.18451438844203949 0.11216321587562561 0.10305220633745193
0.25099629163742065 0.11414404213428497 0.1022225022315979
0.31018787622451782 0.11678293347358704 0.10398634523153305
0.3673408031463623 0.12369809299707413 0.10900390893220901
0.42398044466972351 0.13349516689777374 0.11823441833257675
0.48173642158508301 0.14649230241775513 0.12895132601261139
0.54310768842697144 0.16230897605419159 0.13904732465744019
0.60556197166442871 0.17709748446941376 0.14747214317321777
0.66811090707778931 0.18900193274021149 0.15461228787899017
0.73370480537414551 0.2023451030254364 0.16324178874492645
0.80228239297866821 0.21997453272342682 0.17826153337955475
0.091913782060146332 0.1594795286655426 0.099829427897930145
0.14958055317401886 0.16603983938694 0.10071639716625214
0.22430677711963654 0.1787579208612442 0.11270793527364731
0.29558461904525757 0.19060720503330231 0.12184406071901321
0.3572256863117218 0.19343259930610657 0.12354955077171326
0.4122711718082428 0.19522657990455627 0.12442322075366974
0.46434205770492554 0.2003684788942337 0.13047358393669128
0.51976519823074341 0.20993982255458832 0.13852041959762573
0.57953202724456787 0.22342850267887115 0.14696106314659119
0.6396782398223877 0.23810483515262604 0.15659996867179871
0.69969874620437622 0.24985159933567047 0.16519105434417725
0.76323670148849487 0.26017743349075317 0.17264890670776367
0.83101224899291992 0.27469572424888611 0.1865677535533905
0.13787420094013214 0.22699896991252899 0.099814429879188538
0.19412273168563843 0.23413422703742981 0.096553444862365723
0.26541468501091003 0.24969786405563354 0.11143656820058823
0.33730301260948181 0.26895296573638916 0.12935155630111694
0.39806297421455383 0.2803557813167572 0.13658531010150909
0.45235878229141235 0.28341314196586609 0.13781172037124634
0.50301229953765869 0.28520551323890686 0.14196233451366425
0.55819368362426758 0.28962221741676331 0.14781321585178375
0.61787712574005127 0.29877284169197083 0.15591453015804291
0.67678278684616089 0.31095525622367859 0.16747872531414032
0.73487991094589233 0.32117640972137451 0.17689612507820129
0.79730945825576782 0.32787227630615234 0.18300361931324005
0.8640478253364563 0.33877101540565491 0.19556918740272522
0.19143514335155487 0.30110862851142883 0.10400932282209396
0.24028614163398743 0.30938440561294556 0.10169242322444916
0.30658850073814392 0.32388383150100708 0.11250204592943192
0.37636810541152954 0.34310972690582275 0.13090454041957855
0.43238022923469543 0.3596060574054718 0.14270868897438049
0.48062437772750854 0.3667493462562561 0.14532287418842316
0.52943205833435059 0.36725097894668579 0.14695100486278534
0.58380162715911865 0.36839723587036133 0.15217031538486481
0.64325052499771118 0.37363958358764648 0.16345280408859253
0.70208054780960083 0.38091832399368286 0.17652931809425354
0.76203089952468872 0.38757798075675964 0.18561796844005585
0.8265681266784668 0.39345300197601318 0.19208231568336487
0.89440447092056274 0.40180811285972595 0.20503664016723633
0.25209200382232666 0.37427559494972229 0.11597328633069992
0.29413092136383057 0.3819986879825592 0.11724986881017685
0.35304021835327148 0.39619457721710205 0.12533876299858093
0.41481363773345947 0.4134831428527832 0.14106632769107819
0.46419188380241394 0.42915612459182739 0.15165621042251587
0.5075458288192749 0.4384206235408783 0.15261480212211609
0.55206865072250366 0.44106265902519226 0.1522403210401535
0.60124921798706055 0.44157683849334717 0.15554417669773102
0.65668624639511108 0.4434543251991272 0.16669559478759766
0.71510279178619385 0.44632744789123535 0.18139514327049255
0.77768558263778687 0.45029309391975403 0.19064414501190186
0.84628802537918091 0.45506018400192261 0.19797258079051971
0.91698408126831055 0.46157658100128174 0.21297222375869751
0.31480914354324341 0.4443974494934082 0.13413408398628235
0.35129648447036743 0.45143875479698181 0.14055384695529938
0.40036770701408386 0.46494010090827942 0.15073731541633606
0.45149293541908264 0.4795786440372467 0.16336691379547119
0.49560722708702087 0.49280360341072083 0.17101237177848816
0.53571128845214844 0.50267565250396729 0.16993117332458496
0.57615917921066284 0.50782191753387451 0.16626846790313721
0.61860710382461548 0.50942742824554443 0.16319668292999268
0.6672520637512207 0.51017642021179199 0.1692255437374115
0.72311383485794067 0.51138871908187866 0.18230414390563965
0.78677630424499512 0.5141412615776062 0.19131596386432648
0.85783940553665161 0.51797068119049072 0.1994495689868927
0.93147474527359009 0.5235477089881897 0.21614570915699005
0.37189400196075439 0.50927698612213135 0.15899200737476349
0.40676087141036987 0.51848477125167847 0.16903313994407654
0.44647854566574097 0.53065019845962524 0.18140107393264771
0.48642629384994507 0.54175448417663574 0.19128209352493286
0.52485805749893188 0.55238592624664307 0.19574643671512604
0.56273972988128662 0.56203192472457886 0.19357892870903015
0.59981274604797363 0.56931978464126587 0.18797048926353455
0.63651514053344727 0.57310909032821655 0.17961999773979187
0.68002891540527344 0.57529264688491821 0.17918998003005981
0.73206830024719238 0.57738029956817627 0.18590950965881348
0.79458343982696533 0.58078467845916748 0.19217348098754883
0.86633998155593872 0.58468258380889893 0.19873006641864777
0.94111132621765137 0.59005677700042725 0.21466772258281708
0.42194950580596924 0.5705876350402832 0.19230581820011139
0.45468828082084656 0.581318199634552 0.20339590311050415
0.48665252327919006 0.5920225977897644 0.21398091316223145
0.51727396249771118 0.59995287656784058 0.21767079830169678
0.55076628923416138 0.60842841863632202 0.21884451806545258
0.58647650480270386 0.61774814128875732 0.21645776927471161
0.62125003337860107 0.62585604190826416 0.21001099050045013
0.65536767244338989 0.63214296102523804 0.20139208436012268
0.69426476955413818 0.63674622774124146 0.19706392288208008
0.74290186166763306 0.64182668924331665 0.19589480757713318
0.80386155843734741 0.64750200510025024 0.19614258408546448
0.87577462196350098 0.65310454368591309 0.19760647416114807
0.95036262273788452 0.6588708758354187 0.21200568974018097
0.46167996525764465 0.62816929817199707 0.23096756637096405
0.48937144875526428 0.63653361797332764 0.23652394115924835
0.51522493362426758 0.64509165287017822 0.24209406971931458
0.54121613502502441 0.65228480100631714 0.2439710944890976
0.57143384218215942 0.66046196222305298 0.24452313780784607
0.60473513603210449 0.66946065425872803 0.24211998283863068
0.63790339231491089 0.67857056856155396 0.23532436788082123
0.67052537202835083 0.68709105253219604 0.22609744966030121
0.70761406421661377 0.69492936134338379 0.21872352063655853
0.75455188751220703 0.70347803831100464 0.21193283796310425
0.81455332040786743 0.71285492181777954 0.20455899834632874
0.88615977764129639 0.72244113683700562 0.19927701354026794
0.95947432518005371 0.73123204708099365 0.21062946319580078
0.49138864874839783 0.68209344148635864 0.27313196659088135
0.51300340890884399 0.68695759773254395 0.27069109678268433
0.53396165370941162 0.69281929731369019 0.27065971493721008
0.55747908353805542 0.70002663135528564 0.27138438820838928
0.58541208505630493 0.70900583267211914 0.27206343412399292
0.61655104160308838 0.71932011842727661 0.26929852366447449
0.64838486909866333 0.7292705774307251 0.26185446977615356
0.68121802806854248 0.73989063501358032 0.25249215960502625
0.71837317943572998 0.75116568803787231 0.24323076009750366
0.76496928930282593 0.76410681009292603 0.23217032849788666
0.82390576601028442 0.77833026647567749 0.22018527984619141
0.89482098817825317 0.79465711116790771 0.20700682699680328
0.96651971340179443 0.80782991647720337 0.21587662398815155
0.51317334175109863 0.73266100883483887 0.3141447901725769
0.53043055534362793 0.7350848913192749 0.30778434872627258
0.5479438304901123 0.73927587270736694 0.30363315343856812
0.5691523551940918 0.7460368275642395 0.30069243907928467
0.59478771686553955 0.75534689426422119 0.29808565974235535
0.6236642599105835 0.766044020652771 0.29357334971427917
0.65480250120162964 0.77828019857406616 0.28633585572242737
0.68877118825912476 0.79204899072647095 0.27861350774765015
0.72720992565155029 0.8073464035987854 0.26833000779151917
0.77325892448425293 0.82573431730270386 0.25374653935432434
0.83045667409896851 0.84496933221817017 0.24159811437129974
0.90040361881256104 0.8690561056137085 0.21720962226390839
0.96772736310958862 0.88497871160507202 0.22697150707244873
0.53073287010192871 0.78131484985351562 0.35367962718009949
0.54581958055496216 0.78288692235946655 0.34585785865783691
0.56139540672302246 0.78652125597000122 0.33925989270210266
0.58065891265869141 0.79277688264846802 0.33234456181526184
0.60377275943756104 0.80186957120895386 0.32552221417427063
0.63079452514648438 0.81350183486938477 0.31861385703086853
0.66193759441375732 0.82798898220062256 0.31250062584877014
0.69671392440795898 0.84516662359237671 0.3065955638885498
0.73621642589569092 0.86455094814300537 0.29676753282546997
0.78213083744049072 0.88736283779144287 0.28244143724441528
0.83780550956726074 0.91089975833892822 0.26982194185256958
0.90637344121932983 0.93825393915176392 0.25094172358512878
0.95442074537277222 0.93774932622909546 0.36266577243804932
0.04381420835852623 0.071798466145992279 0.11957935988903046
0.077325113117694855 0.074339881539344788 0.13183927536010742
0.13603121042251587 0.070839673280715942 0.13285228610038757
0.20257735252380371 0.064306028187274933 0.12153629958629608
0.26274845004081726 0.064616397023200989 0.11824809014797211
0.32312369346618652 0.070749007165431976 0.12976114451885223
0.38401913642883301 0.079730570316314697 0.14179298281669617
0.44268980622291565 0.091415897011756897 0.15238296985626221
0.50379902124404907 0.10598370432853699 0.16310021281242371
0.56536173820495605 0.11903185397386551 0.17177176475524902
0.62697958946228027 0.12841780483722687 0.17739225924015045
0.69281023740768433 0.14125907421112061 0.18332882225513458
0.76238548755645752 0.16051945090293884 0.19658732414245605
0.048319648951292038 0.11522999405860901 0.13901714980602264
0.083702966570854187 0.12233720719814301 0.15032325685024261
0.15853631496429443 0.11805059760808945 0.15375877916812897
0.2411888986825943 0.10747486352920532 0.14182671904563904
0.30147466063499451 0.1037016361951828 0.13670709729194641
0.3536771833896637 0.10541471838951111 0.14237864315509796
0.40896916389465332 0.11248749494552612 0.14905698597431183
0.46666079759597778 0.12428122013807297 0.1578512042760849
0.52719533443450928 0.13945765793323517 0.16759258508682251
0.58702188730239868 0.15174993872642517 0.17585578560829163
0.64670336246490479 0.16044877469539642 0.18182818591594696
0.71233713626861572 0.17580355703830719 0.18861788511276245
0.78315466642379761 0.19812846183776855 0.20297692716121674
0.06248106062412262 0.17041254043579102 0.15765827894210815
0.10656242817640305 0.18080933392047882 0.16724878549575806
0.19185999035835266 0.18705841898918152 0.17753000557422638
0.28761723637580872 0.1866200715303421 0.17726285755634308
0.3552410900592804 0.18144069612026215 0.17122212052345276
0.4067952036857605 0.17854975163936615 0.16797856986522675
0.45646432042121887 0.18106967210769653 0.16974405944347382
0.51117724180221558 0.18959604203701019 0.17383590340614319
0.56947237253189087 0.20116975903511047 0.17898394167423248
0.62679409980773926 0.21327342092990875 0.18651919066905975
0.68376117944717407 0.22273603081703186 0.19345848262310028
0.74675112962722778 0.23531334102153778 0.19996456801891327
0.81595796346664429 0.25464165210723877 0.21305155754089355
0.098069466650485992 0.2393532395362854 0.16486175358295441
0.14810378849506378 0.24893075227737427 0.16610962152481079
0.23778043687343597 0.25964009761810303 0.17732305824756622
0.3306598961353302 0.27466237545013428 0.19108745455741882
0.39673504233360291 0.28179225325584412 0.19536550343036652
0.4520089328289032 0.27903372049331665 0.19221906363964081
0.50479453802108765 0.2792932391166687 0.1924925297498703
0.55929005146026611 0.28050586581230164 0.19245697557926178
0.61747634410858154 0.28568679094314575 0.19322353601455688
0.67355620861053467 0.29494482278823853 0.20158551633358002
0.7295413613319397 0.30326956510543823 0.20903773605823517
0.79035657644271851 0.31169050931930542 0.21347080171108246
0.85720133781433105 0.32525908946990967 0.22404450178146362
0.15280194580554962 0.31294530630111694 0.15970110893249512
0.19881996512413025 0.32063871622085571 0.15748640894889832
0.27882859110832214 0.33223381638526917 0.16309300065040588
0.37029290199279785 0.35099166631698608 0.18051807582378387
0.43111306428909302 0.36561053991317749 0.19737717509269714
0.48023140430450439 0.37011232972145081 0.20046618580818176
0.53261673450469971 0.36930441856384277 0.20049510896205902
0.58827692270278931 0.36704614758491516 0.20101960003376007
