assets/lut/editingcorp farkling.cube
# Created by: G'MIC (https://gmic.eu)
TITLE "farkling"
# LUT size
LUT_3D_SIZE 5
# Data domain
DOMAIN_MIN 0.0 0.0 0.0
DOMAIN_MAX 1.0 1.0 1.0
# LUT data points
0.060005456209182739 0.069673545658588409 0.08354206383228302
0.22207911312580109 0.088792525231838226 0.09814191609621048
0.44767576456069946 0.12410429120063782 0.11886361986398697
0.64590680599212646 0.15865251421928406 0.14008623361587524
0.81719779968261719 0.1847323477268219 0.1516319066286087
0.074325323104858398 0.22099857032299042 0.093773484230041504
0.24371752142906189 0.23189626634120941 0.098795406520366669
0.49280586838722229 0.26960209012031555 0.12061701714992523
0.68243622779846191 0.30667564272880554 0.14745992422103882
0.84375095367431641 0.32567510008811951 0.15234214067459106
0.087642759084701538 0.37424656748771667 0.11213713884353638
0.25117170810699463 0.39521554112434387 0.12298858910799026
0.52509653568267822 0.42600581049919128 0.12097283452749252
0.69977205991744995 0.45089805126190186 0.14132024347782135
0.86308211088180542 0.4734271764755249 0.14887583255767822
0.13411734998226166 0.56315898895263672 0.15838725864887238
0.30822688341140747 0.60278308391571045 0.17709966003894806
0.55183041095733643 0.65673375129699707 0.18233144283294678
0.72805118560791016 0.63261115550994873 0.15425175428390503
0.87481695413589478 0.64617592096328735 0.16624392569065094
0.21642036736011505 0.78215456008911133 0.22741632163524628
0.39289268851280212 0.81429332494735718 0.24198299646377563
0.58742719888687134 0.83860981464385986 0.23770807683467865
0.74183481931686401 0.8390764594078064 0.22432412207126617
0.88035154342651367 0.81559842824935913 0.20303918421268463
0.062514118850231171 0.073168523609638214 0.2165563553571701
0.20310541987419128 0.085460454225540161 0.22519697248935699
0.40898430347442627 0.113106369972229 0.242054283618927
0.63776642084121704 0.15647426247596741 0.26400482654571533
0.81951594352722168 0.19069644808769226 0.27981352806091309
0.076415657997131348 0.22525624930858612 0.22993257641792297
0.21577879786491394 0.23620037734508514 0.23779471218585968
0.47573462128639221 0.26845899224281311 0.25656399130821228
0.68365418910980225 0.30865833163261414 0.27593180537223816
0.84225815534591675 0.33508777618408203 0.28182628750801086
0.11014989018440247 0.40641170740127563 0.26796799898147583
0.23267866671085358 0.39921259880065918 0.26335546374320984
0.50275468826293945 0.42599594593048096 0.25951436161994934
0.70838689804077148 0.45534142851829529 0.26965740323066711
0.86418724060058594 0.48824876546859741 0.27848890423774719
0.1667291671037674 0.60550224781036377 0.32057198882102966
0.29830291867256165 0.61058259010314941 0.32355654239654541
0.51685529947280884 0.66046547889709473 0.33413410186767578
0.73309880495071411 0.65372073650360107 0.30016687512397766
0.8779367208480835 0.65220510959625244 0.29602321982383728
0.23001337051391602 0.79832977056503296 0.37189760804176331
0.38909232616424561 0.81660914421081543 0.3822137713432312
0.57842332124710083 0.83081614971160889 0.3711489737033844
0.74648511409759521 0.84348869323730469 0.35653010010719299
0.88359314203262329 0.82804763317108154 0.34029433131217957
0.076693274080753326 0.097871594130992889 0.36471959948539734
0.20321203768253326 0.096627645194530487 0.36165165901184082
0.37209987640380859 0.10849323868751526 0.36660200357437134
0.63517647981643677 0.15549591183662415 0.39077335596084595
0.82158756256103516 0.19451051950454712 0.41277268528938293
0.084063239395618439 0.23939354717731476 0.37343376874923706
0.22110834717750549 0.24916556477546692 0.38085061311721802
0.38935393095016479 0.26034662127494812 0.38683149218559265
0.67991656064987183 0.30717363953590393 0.40796640515327454
0.84204542636871338 0.34442576766014099 0.4251924455165863
0.10033109784126282 0.39105445146560669 0.39076542854309082
0.24252516031265259 0.41031226515769958 0.40684297680854797
0.42810884118080139 0.45443832874298096 0.43595173954963684
0.71602624654769897 0.48265427350997925 0.42228329181671143
0.8686642050743103 0.50359869003295898 0.43267461657524109
0.20499955117702484 0.64373373985290527 0.48698291182518005
0.34980151057243347 0.65534681081771851 0.49355795979499817
0.51076358556747437 0.67615300416946411 0.50134050846099854
0.73901093006134033 0.67506653070449829 0.45376119017601013
0.87669575214385986 0.66989082098007202 0.44465792179107666
0.25967904925346375 0.82034236192703247 0.53085601329803467
0.40189138054847717 0.82843834161758423 0.53279441595077515
0.56692707538604736 0.83354586362838745 0.51673758029937744
0.74775713682174683 0.84609997272491455 0.50006669759750366
0.88191789388656616 0.8366694450378418 0.48607566952705383
0.10342700779438019 0.13781550526618958 0.53507387638092041
0.22755613923072815 0.12955716252326965 0.52829200029373169
0.36084923148155212 0.1269037276506424 0.52366155385971069
0.60530751943588257 0.15264439582824707 0.52840316295623779
0.8166080117225647 0.19085285067558289 0.55009216070175171
0.12017958611249924 0.28657475113868713 0.54864656925201416
0.25838583707809448 0.29479357600212097 0.55575186014175415
0.38112998008728027 0.29251751303672791 0.55883008241653442
0.64496564865112305 0.31126934289932251 0.5557243824005127
0.83565688133239746 0.34299018979072571 0.56825107336044312
0.13452863693237305 0.43686521053314209 0.56393539905548096
0.2816942036151886 0.45973753929138184 0.58360904455184937
0.43512281775474548 0.4827825129032135 0.60425436496734619
0.6956779956817627 0.50128316879272461 0.58278948068618774
0.867054283618927 0.51597952842712402 0.58753639459609985
0.1734888106584549 0.61273086071014404 0.60087519884109497
0.34300178289413452 0.64859962463378906 0.62461167573928833
0.49902510643005371 0.67027747631072998 0.64121538400650024
0.72942864894866943 0.70663630962371826 0.64380955696105957
0.88313931226730347 0.69424855709075928 0.62315207719802856
0.25094333291053772 0.80920851230621338 0.65184670686721802
0.39509043097496033 0.82210844755172729 0.66073882579803467
0.53998333215713501 0.83211648464202881 0.66695386171340942
0.74802595376968384 0.85940790176391602 0.6644294261932373
0.89149552583694458 0.85015678405761719 0.64435189962387085
0.14553865790367126 0.18813897669315338 0.71256572008132935
0.26965495944023132 0.17905372381210327 0.70786213874816895
0.39445611834526062 0.1749308705329895 0.70344823598861694
0.53819042444229126 0.17341406643390656 0.69763952493667603
0.81780475378036499 0.1998542845249176 0.70110851526260376
0.16526781022548676 0.33641806244850159 0.72837930917739868
0.30042845010757446 0.33987358212471008 0.73062002658843994
0.43308445811271667 0.33967694640159607 0.73105055093765259
0.60942888259887695 0.34006378054618835 0.72065955400466919
0.83717507123947144 0.34615644812583923 0.71075773239135742
0.17986381053924561 0.48494306206703186 0.74133628606796265
0.31810888648033142 0.49527281522750854 0.74702984094619751
0.46358165144920349 0.50409144163131714 0.75535500049591064
0.6590302586555481 0.53441888093948364 0.76215511560440063
0.86638820171356201 0.52394914627075195 0.73617231845855713
0.20709416270256042 0.64657342433929443 0.7552487850189209
0.35069143772125244 0.656017005443573 0.7623211145401001
0.48809385299682617 0.66643732786178589 0.77498239278793335
0.70400923490524292 0.70681858062744141 0.78715622425079346
0.886924147605896 0.70899873971939087 0.77657228708267212
0.24596758186817169 0.80307883024215698 0.77519005537033081
0.38575085997581482 0.81560051441192627 0.78553175926208496
0.52123159170150757 0.82588130235671997 0.79867786169052124
0.71790701150894165 0.85413581132888794 0.81007373332977295
0.8923262357711792 0.86054664850234985 0.79382652044296265
