assets/lut/editingcorpw Romantic Rouge.cube
LUT_3D_SIZE 6
DOMAIN_MIN 0.0 0.0 0.0
DOMAIN_MAX 1.0 1.0 1.0
0.098039 0.062745 0.074510
0.224314 0.080000 0.080784
0.351372 0.098824 0.108235
0.479216 0.141961 0.134118
0.623529 0.191372 0.178040
0.819608 0.270588 0.231373
0.149804 0.197647 0.094902
0.240852 0.192448 0.103820
0.355503 0.189019 0.131085
0.482353 0.210981 0.162353
0.628235 0.253333 0.198431
0.822745 0.318432 0.246275
0.225882 0.327058 0.146667
0.278850 0.327268 0.153150
0.381655 0.330980 0.156863
0.498824 0.340392 0.184314
0.636079 0.374902 0.224314
0.835294 0.436079 0.265098
0.265882 0.501961 0.184314
0.309804 0.501177 0.191373
0.403922 0.509804 0.193725
0.525490 0.516863 0.207058
0.676549 0.538353 0.237961
0.855686 0.588235 0.326275
0.262745 0.722353 0.229804
0.306667 0.727843 0.236863
0.413333 0.734118 0.243137
0.549804 0.735007 0.257255
0.712515 0.754644 0.285625
0.912157 0.784314 0.338823
0.337255 0.976471 0.415686
0.381177 0.976471 0.407059
0.499607 0.978824 0.420392
0.635294 0.983529 0.441568
0.814902 0.989804 0.491765
0.992157 1.000000 0.560784
0.108235 0.065883 0.180392
0.216045 0.078364 0.176762
0.361464 0.103529 0.190902
0.484706 0.155294 0.209412
0.631372 0.205490 0.235294
0.832941 0.270588 0.275294
0.158655 0.187944 0.194868
0.244988 0.187810 0.197078
0.361422 0.201273 0.209286
0.481927 0.225031 0.225882
0.626958 0.259608 0.246924
0.821109 0.317647 0.283205
0.232784 0.323137 0.214483
0.284643 0.327375 0.215649
0.385297 0.332456 0.224051
0.494222 0.341281 0.240889
0.641673 0.375007 0.277281
0.832261 0.429699 0.313726
0.261961 0.499608 0.238431
0.305882 0.501535 0.246566
0.399320 0.506771 0.244026
0.523921 0.514988 0.258279
0.674300 0.539817 0.284131
0.858039 0.589804 0.358431
0.249412 0.728627 0.276079
0.300392 0.727776 0.285065
0.407948 0.731085 0.289412
0.550693 0.739712 0.303530
0.719642 0.753725 0.331608
0.912941 0.778823 0.392941
0.333333 0.971765 0.440000
0.382454 0.973759 0.437222
0.487634 0.977255 0.449098
0.636863 0.985882 0.473725
0.807843 0.994510 0.513725
0.988235 1.000000 0.577255
0.141961 0.070588 0.307451
0.224889 0.074719 0.306771
0.363376 0.105337 0.313965
0.489411 0.133333 0.324706
0.641569 0.168627 0.344314
0.841569 0.200784 0.367059
0.134536 0.160209 0.317490
0.231845 0.168332 0.322335
0.373324 0.195705 0.327706
0.497255 0.207059 0.331765
0.647948 0.234615 0.344418
0.841464 0.285594 0.371974
0.214491 0.326275 0.333639
0.265957 0.331287 0.332909
0.380201 0.337322 0.337896
0.502439 0.346189 0.348541
0.651765 0.381176 0.368867
0.851765 0.432702 0.409718
0.251765 0.503529 0.363922
0.293438 0.505098 0.361464
0.395907 0.507690 0.356078
0.522420 0.517647 0.370502
0.670379 0.542065 0.397542
0.861961 0.594510 0.458039
0.211765 0.726274 0.403137
0.271373 0.729621 0.397177
0.391612 0.733094 0.401330
0.544105 0.740497 0.408314
0.717154 0.753367 0.428303
0.919216 0.781176 0.483921
0.301176 0.976471 0.515294
0.354614 0.974222 0.515608
0.471985 0.980392 0.523137
0.626667 0.984314 0.541961
0.808627 0.992157 0.577255
0.989804 1.000000 0.629020
0.176471 0.070588 0.466666
0.244706 0.072157 0.469804
0.369412 0.087844 0.466667
0.507758 0.130741 0.472635
0.657934 0.150588 0.502431
0.870588 0.154510 0.544314
0.167843 0.154510 0.473726
0.240717 0.158005 0.473300
0.374118 0.173229 0.481464
0.505883 0.206274 0.482898
0.659608 0.219503 0.506771
0.860392 0.239215 0.538824
0.043137 0.298823 0.486275
0.172654 0.291765 0.492444
0.357169 0.302506 0.493640
0.513180 0.342506 0.497255
0.678536 0.356183 0.524811
0.879216 0.381176 0.540392
0.162592 0.506973 0.509565
0.226906 0.507212 0.511612
0.353008 0.513008 0.513897
0.518718 0.521760 0.521195
0.685805 0.546608 0.540486
0.888627 0.583768 0.574118
0.160105 0.728627 0.556967
0.224889 0.730301 0.554405
0.353150 0.735686 0.554510
0.526766 0.745915 0.558422
0.718238 0.753764 0.573525
0.920993 0.782850 0.616941
0.188235 0.981961 0.636863
0.265882 0.981961 0.626667
0.420392 0.984314 0.633725
0.608149 0.989326 0.650502
0.798431 0.995399 0.673151
0.996078 1.000000 0.723921
0.191373 0.032157 0.676863
0.260392 0.032157 0.682353
0.389804 0.032157 0.690196
0.531765 0.075974 0.686379
0.683496 0.131406 0.694476
0.869020 0.139607 0.723137
0.161568 0.138824 0.686274
0.241143 0.137322 0.687485
0.380497 0.144994 0.691869
0.527843 0.169516 0.692340
0.681569 0.208560 0.701176
0.878431 0.215686 0.728627
0.003922 0.272941 0.699608
0.075817 0.269595 0.696785
0.339503 0.276318 0.704314
0.524130 0.309020 0.706457
0.692908 0.352515 0.712022
0.905882 0.361568 0.741176
0.000314 0.489412 0.724392
0.002928 0.482144 0.721568
0.098405 0.459190 0.721673
0.476524 0.476255 0.731677
0.699668 0.535265 0.731103
0.920784 0.550588 0.749804
0.003855 0.739317 0.746667
0.002353 0.740034 0.737681
0.221602 0.744448 0.742252
0.468473 0.743340 0.742845
0.718427 0.758996 0.760780
0.936403 0.781669 0.774544
0.146667 0.987451 0.793726
0.235294 0.981961 0.792941
0.385098 0.984314 0.800000
0.566484 0.990797 0.797438
0.790656 0.995720 0.807059
1.000000 1.000000 0.833726
0.172549 0.000000 0.949020
0.250980 0.000000 0.955294
0.393725 0.000000 0.946667
0.559216 0.000000 0.957647
0.733333 0.045490 0.955294
0.933333 0.125490 0.956863
0.087843 0.103529 0.949804
0.209703 0.098823 0.951372
0.373229 0.099399 0.954092
0.549019 0.119216 0.955294
0.734118 0.169412 0.963137
0.932549 0.221176 0.960784
0.006275 0.255687 0.969412
0.000889 0.258928 0.955869
0.297255 0.259302 0.961501
0.524706 0.275294 0.963921
0.723137 0.325490 0.963137
0.945882 0.370196 0.967059
0.001569 0.459608 0.963921
0.004706 0.453334 0.970980
0.001569 0.415686 0.971765
0.431335 0.444878 0.977016
0.717229 0.502170 0.980079
0.959216 0.562353 0.978824
0.003138 0.741177 0.988235
0.001569 0.734902 0.983529
0.001569 0.723137 0.991372
0.169202 0.696575 0.984627
0.672157 0.718005 0.988728
0.973333 0.771764 0.994509
0.003922 1.000000 1.000000
0.010981 0.995294 0.999216
0.251765 1.000000 1.000000
0.514510 0.998431 1.000000
0.759216 0.999216 1.000000
1.000000 1.000000 1.000000
