assets/lut/editingcorp sino.cube
# Created by: G'MIC (https://gmic.eu)
TITLE "sino"
# LUT size
LUT_3D_SIZE 13
# Data domain
DOMAIN_MIN 0.0 0.0 0.0
DOMAIN_MAX 1.0 1.0 1.0
# LUT data points
0.029263244941830635 0.041969344019889832 0.038926608860492706
0.084143228828907013 0.066108182072639465 0.062950506806373596
0.16768048703670502 0.092392757534980774 0.089991442859172821
0.2651846706867218 0.11559539288282394 0.11018189042806625
0.37692016363143921 0.13211716711521149 0.12889741361141205
0.49639543890953064 0.14450693130493164 0.14140518009662628
0.61649066209793091 0.15654881298542023 0.1555020809173584
0.73391824960708618 0.17687329649925232 0.18229183554649353
0.84174758195877075 0.21589766442775726 0.2252957671880722
0.9216080904006958 0.27859768271446228 0.28745675086975098
0.95615732669830322 0.36412417888641357 0.37191340327262878
0.96341300010681152 0.4774264395236969 0.48254376649856567
0.96558821201324463 0.59503650665283203 0.59451675415039062
0.037228230386972427 0.082442522048950195 0.049607682973146439
0.094089701771736145 0.10004459321498871 0.064969994127750397
0.17561833560466766 0.12214460223913193 0.090316027402877808
0.27506425976753235 0.14605045318603516 0.11366372555494308
0.38365557789802551 0.16448317468166351 0.1315540224313736
0.50166761875152588 0.17685729265213013 0.14426411688327789
0.62296217679977417 0.1846349835395813 0.16045278310775757
0.74043619632720947 0.19653475284576416 0.18910519778728485
0.84713047742843628 0.22798113524913788 0.22947433590888977
0.92320293188095093 0.28511473536491394 0.29063573479652405
0.95798224210739136 0.37170836329460144 0.37868106365203857
0.96483588218688965 0.48881685733795166 0.4931282103061676
0.96477669477462769 0.60349315404891968 0.60288983583450317
0.05353691428899765 0.13421502709388733 0.056960519403219223
0.11264865100383759 0.14418846368789673 0.069858774542808533
0.18415297567844391 0.16252692043781281 0.089766420423984528
0.28284740447998047 0.18627700209617615 0.11417822539806366
0.38950124382972717 0.20770740509033203 0.1339627206325531
0.50470709800720215 0.22349444031715393 0.14691178500652313
0.62524306774139404 0.23171994090080261 0.16217422485351562
0.74235475063323975 0.23942683637142181 0.18973836302757263
0.84791052341461182 0.26039004325866699 0.22832496464252472
0.92402297258377075 0.30527377128601074 0.28853043913841248
0.95974820852279663 0.38455390930175781 0.38081067800521851
0.96820563077926636 0.4932289719581604 0.49543797969818115
0.96595108509063721 0.59919005632400513 0.60116487741470337
0.068124048411846161 0.18730939924716949 0.070006288588047028
0.12865652143955231 0.19559046626091003 0.078425250947475433
0.20177552103996277 0.2105240523815155 0.092789672315120697
0.29434749484062195 0.23307693004608154 0.11407864093780518
0.39782679080963135 0.25827109813690186 0.13690486550331116
0.50558596849441528 0.28024396300315857 0.15370763838291168
0.61987835168838501 0.29256388545036316 0.1677355170249939
0.73589956760406494 0.30119064450263977 0.19065293669700623
0.84028702974319458 0.31675678491592407 0.22652259469032288
0.91688233613967896 0.35041821002960205 0.28745105862617493
0.95549917221069336 0.41392803192138672 0.38342559337615967
0.96726399660110474 0.50663775205612183 0.49822795391082764
0.96591222286224365 0.60186028480529785 0.60243850946426392
0.082261346280574799 0.24309481680393219 0.08552086353302002
0.14206869900226593 0.25217419862747192 0.089769281446933746
0.21630570292472839 0.26645758748054504 0.098390378057956696
0.30739685893058777 0.28586390614509583 0.11628591269254684
0.41121092438697815 0.30988955497741699 0.1421031653881073
0.51124626398086548 0.33830535411834717 0.16490869224071503
0.61456787586212158 0.35863456130027771 0.18062734603881836
0.72424155473709106 0.37097820639610291 0.19870810210704803
0.82593399286270142 0.38491049408912659 0.22935150563716888
0.90422439575195312 0.40943077206611633 0.28780621290206909
0.94908368587493896 0.45673111081123352 0.38410830497741699
0.96411079168319702 0.53655177354812622 0.50266939401626587
0.96427083015441895 0.62372076511383057 0.61129438877105713
0.09776364266872406 0.30190488696098328 0.10282621532678604
0.15444186329841614 0.31142303347587585 0.10437189787626266
0.22595271468162537 0.32695364952087402 0.10847996920347214
0.31724655628204346 0.3458477258682251 0.12244216352701187
0.42538145184516907 0.36495679616928101 0.1485484391450882
0.52478069067001343 0.39347189664840698 0.1768336147069931
0.61632978916168213 0.42101585865020752 0.196356400847435
0.71248042583465576 0.43933728337287903 0.21167521178722382
0.8081967830657959 0.4538971483707428 0.23664954304695129
0.89080744981765747 0.47191259264945984 0.28871563076972961
0.94575321674346924 0.50428575277328491 0.37466719746589661
0.9659765362739563 0.56791102886199951 0.49312254786491394
0.96429932117462158 0.64416205883026123 0.60512733459472656
0.11177757382392883 0.3662266731262207 0.12274817377328873
0.16675473749637604 0.37544041872024536 0.12330709397792816
0.23687243461608887 0.39147424697875977 0.12424539029598236
0.32635983824729919 0.41258585453033447 0.13295531272888184
0.43231591582298279 0.4338066577911377 0.15448877215385437
0.53831321001052856 0.45487922430038452 0.18512879312038422
0.6279299259185791 0.48026266694068909 0.20943035185337067
0.70815443992614746 0.50433933734893799 0.22668372094631195
0.79041588306427002 0.52270710468292236 0.25031888484954834
0.87289315462112427 0.53810542821884155 0.29607155919075012
0.93809908628463745 0.55904573202133179 0.37295711040496826
0.96646803617477417 0.60382324457168579 0.48580586910247803
0.96543848514556885 0.66363197565078735 0.59316498041152954
0.12327005714178085 0.43708017468452454 0.14278814196586609
0.17634046077728271 0.44523075222969055 0.14419691264629364
0.24478094279766083 0.46118476986885071 0.14411671459674835
0.33058178424835205 0.48428830504417419 0.14787279069423676
0.43140706419944763 0.50847077369689941 0.16258923709392548
0.53960186243057251 0.52750825881958008 0.18991048634052277
0.63588398694992065 0.5467686653137207 0.21762964129447937
0.71168386936187744 0.56892627477645874 0.240325927734375
0.77982920408248901 0.58886837959289551 0.26431620121002197
0.85332244634628296 0.60439872741699219 0.30470803380012512
0.92199820280075073 0.62182497978210449 0.37979564070701599
0.96121543645858765 0.65306252241134644 0.48808082938194275
0.96541213989257812 0.69412243366241455 0.5838434100151062
0.13413813710212708 0.51389056444168091 0.16300822794437408
0.18468986451625824 0.52096307277679443 0.16566124558448792
0.25069940090179443 0.5355459451675415 0.16535398364067078
0.33254352211952209 0.55723124742507935 0.16659466922283173
0.42884472012519836 0.58115029335021973 0.17554190754890442
0.5337367057800293 0.60107392072677612 0.19500145316123962
0.63345605134963989 0.61745333671569824 0.22123533487319946
0.71415215730667114 0.63504225015640259 0.24782079458236694
0.77849507331848145 0.65312504768371582 0.27260372042655945
0.84064638614654541 0.66980445384979248 0.30563318729400635
0.90756261348724365 0.68492138385772705 0.37418726086616516
0.95682662725448608 0.7012859582901001 0.47367739677429199
0.96538954973220825 0.72547030448913574 0.55616819858551025
0.14641748368740082 0.59752923250198364 0.18122044205665588
0.19455960392951965 0.60362756252288818 0.18388630449771881
0.25590020418167114 0.61528569459915161 0.18437714874744415
0.33284211158752441 0.63303762674331665 0.18533098697662354
0.42462021112442017 0.65372514724731445 0.19001117348670959
0.52472388744354248 0.67236876487731934 0.20167066156864166
0.62101131677627563 0.68897122144699097 0.22146531939506531
0.70332086086273193 0.70481830835342407 0.24589714407920837
0.77687394618988037 0.71962636709213257 0.26964566111564636
0.84578520059585571 0.73380517959594727 0.29905077815055847
0.90503925085067749 0.74629348516464233 0.36237603425979614
0.95002496242523193 0.75326162576675415 0.45466494560241699
0.96442049741744995 0.76549416780471802 0.52428334951400757
0.15995199978351593 0.68718606233596802 0.19792370498180389
0.20462143421173096 0.69209647178649902 0.20105829834938049
0.25983166694641113 0.70055341720581055 0.20257341861724854
0.33005842566490173 0.71402966976165771 0.20329883694648743
0.41607445478439331 0.73085176944732666 0.20492552220821381
0.5105169415473938 0.74695271253585815 0.21012376248836517
0.60109227895736694 0.76315277814865112 0.22199001908302307
0.68211549520492554 0.77788561582565308 0.23944003880023956
0.76008129119873047 0.79019999504089355 0.25921481847763062
0.84289062023162842 0.7985605001449585 0.28533473610877991
0.90788120031356812 0.80428528785705566 0.34374967217445374
0.94707942008972168 0.80678832530975342 0.43130066990852356
0.96499699354171753 0.81363427639007568 0.48771056532859802
0.17446461319923401 0.78100472688674927 0.21378669142723083
0.21526266634464264 0.78458905220031738 0.21675589680671692
0.264466792345047 0.79041910171508789 0.21897448599338531
0.32743656635284424 0.80034381151199341 0.21980217099189758
0.40576505661010742 0.81385588645935059 0.21949061751365662
0.49168121814727783 0.82838553190231323 0.22103925049304962
0.57882177829742432 0.84160560369491577 0.22618153691291809
0.66119086742401123 0.85220783948898315 0.23662424087524414
0.73434579372406006 0.86223888397216797 0.25195813179016113
0.81449460983276367 0.86920201778411865 0.26138091087341309
0.89213037490844727 0.87093675136566162 0.28404611349105835
0.9398084282875061 0.8673778772354126 0.36867871880531311
0.96536862850189209 0.86856156587600708 0.42542916536331177
0.18730488419532776 0.87530362606048584 0.2281784862279892
0.22622579336166382 0.87855833768844604 0.23065644502639771
0.27235180139541626 0.88292241096496582 0.23246333003044128
0.32990193367004395 0.89014428853988647 0.23299016058444977
0.39977830648422241 0.90060752630233765 0.23281824588775635
0.47742101550102234 0.91218400001525879 0.23292812705039978
0.56085824966430664 0.92156410217285156 0.23509544134140015
0.6463618278503418 0.92691034078598022 0.24129413068294525
0.72048068046569824 0.93281209468841553 0.2542608380317688
0.79402738809585571 0.93895161151885986 0.24903230369091034
0.87031078338623047 0.94048070907592773 0.22635582089424133
0.92708814144134521 0.93398857116699219 0.27144983410835266
0.96343427896499634 0.93018215894699097 0.32350426912307739
0.023084677755832672 0.059127926826477051 0.071484357118606567
0.076526835560798645 0.073492057621479034 0.087377972900867462
0.16453863680362701 0.092024572193622589 0.10647523403167725
0.26741695404052734 0.11708517372608185 0.12713600695133209
0.38543099164962769 0.13670524954795837 0.14728397130966187
0.50679290294647217 0.15053406357765198 0.15938147902488708
0.6242985725402832 0.16305162012577057 0.16836251318454742
0.7386966347694397 0.18307951092720032 0.19033870100975037
0.84344422817230225 0.22052162885665894 0.23249654471874237
0.91795283555984497 0.28450462222099304 0.29457354545593262
0.95332223176956177 0.37535873055458069 0.381601482629776
0.96347051858901978 0.4914681613445282 0.49619424343109131
0.96470588445663452 0.60531651973724365 0.60747218132019043
0.02610454149544239 0.091869741678237915 0.085703648626804352
0.069235168397426605 0.099426209926605225 0.091733820736408234
0.15571241080760956 0.1153237447142601 0.10832987725734711
0.2612968385219574 0.14353044331073761 0.13257059454917908
0.37724772095680237 0.16678352653980255 0.15393561124801636
0.50161063671112061 0.18230696022510529 0.16696642339229584
0.62572872638702393 0.19227737188339233 0.17878097295761108
0.74390643835067749 0.20531241595745087 0.20151446759700775
0.84843194484710693 0.23438404500484467 0.2389778345823288
0.92212527990341187 0.2893083393573761 0.29706427454948425
0.95634549856185913 0.37485644221305847 0.38268950581550598
0.96460628509521484 0.48900821805000305 0.49512335658073425
0.96470588445663452 0.5998528003692627 0.60240542888641357
0.039027418941259384 0.13165412843227386 0.096726357936859131
0.081416860222816467 0.13541527092456818 0.098548993468284607
0.15862084925174713 0.15160557627677917 0.11047922819852829
0.25933659076690674 0.18205909430980682 0.13540169596672058
0.37158700823783875 0.2080085277557373 0.1600649356842041
0.49356043338775635 0.22737185657024384 0.17539852857589722
0.61943262815475464 0.23865412175655365 0.18847730755805969
0.74079602956771851 0.24834354221820831 0.21039856970310211
0.84698152542114258 0.26810136437416077 0.24275664985179901
0.9220883846282959 0.30778929591178894 0.29358664155006409
0.9586414098739624 0.37873733043670654 0.37620657682418823
0.96722126007080078 0.489481121301651 0.49272933602333069
0.96453750133514404 0.59730106592178345 0.60105210542678833
0.048619918525218964 0.182867631316185 0.10903941094875336
0.097282350063323975 0.1878754049539566 0.10911515355110168
0.17428983747959137 0.20047076046466827 0.11558397859334946
0.27015191316604614 0.22812651097774506 0.13623932003974915
0.37755018472671509 0.25682812929153442 0.16418100893497467
0.48872655630111694 0.2813117504119873 0.18514615297317505
0.6084476113319397 0.29781630635261536 0.20135609805583954
0.73038208484649658 0.30922132730484009 0.22016885876655579
0.83778375387191772 0.32503750920295715 0.24590769410133362
0.91600304841995239 0.35380220413208008 0.29255503416061401
0.95641261339187622 0.40925028920173645 0.37645754218101501
0.96727603673934937 0.50502371788024902 0.495260089635849
0.96403580904006958 0.60416942834854126 0.60470658540725708
0.062935113906860352 0.24091127514839172 0.11897075921297073
0.11559252440929413 0.24702338874340057 0.11945066601037979
0.19290429353713989 0.25802686810493469 0.12246739864349365
0.28792819380760193 0.28075215220451355 0.13763299584388733
0.39384791254997253 0.30817148089408875 0.16649632155895233
0.49482807517051697 0.33735883235931396 0.19433686137199402
0.60087966918945312 0.36128827929496765 0.21486006677150726
0.71634566783905029 0.3775937557220459 0.23211117088794708
0.82332789897918701 0.39195096492767334 0.25322636961936951
0.90633499622344971 0.41286614537239075 0.29634326696395874
0.95180654525756836 0.45176851749420166 0.37610509991645813
0.96477442979812622 0.53245067596435547 0.49587371945381165
0.96317243576049805 0.62390649318695068 0.61048221588134766
0.086193054914474487 0.29986372590065002 0.1296144425868988
0.13835009932518005 0.30571335554122925 0.13088969886302948
0.21020115911960602 0.32032099366188049 0.13310366868972778
0.30306679010391235 0.34335166215896606 0.14396125078201294
0.41229081153869629 0.36615654826164246 0.17081442475318909
0.51181048154830933 0.39282336831092834 0.20207098126411438
0.59918248653411865 0.42255100607872009 0.22559957206249237
0.6993032693862915 0.44348740577697754 0.24299183487892151
0.80458563566207886 0.4586387574672699 0.26446723937988281
0.89325308799743652 0.47587233781814575 0.30585548281669617
0.94697242975234985 0.50399911403656006 0.3780570924282074
0.96534276008605957 0.56570893526077271 0.49032768607139587
0.96328556537628174 0.64065647125244141 0.60032320022583008
0.10572228580713272 0.36526674032211304 0.14720430970191956
0.15738818049430847 0.37108674645423889 0.14812301099300385
0.22606343030929565 0.38571599125862122 0.14986000955104828
0.31505480408668518 0.40858256816864014 0.15756818652153015
0.42074263095855713 0.43298867344856262 0.17833371460437775
0.52553075551986694 0.45631220936775208 0.2091677337884903
0.61294281482696533 0.48223912715911865 0.23635223507881165
0.69496524333953857 0.50594377517700195 0.25583219528198242
0.78398281335830688 0.52469116449356079 0.27782520651817322
0.87162512540817261 0.54286772012710571 0.31843382120132446
0.9375535249710083 0.56693631410598755 0.39045858383178711
0.96631377935409546 0.60834276676177979 0.49240496754646301
0.96501004695892334 0.66046500205993652 0.58739465475082397
0.11997007578611374 0.43700411915779114 0.16831625998020172
0.17065715789794922 0.44312828779220581 0.1694134920835495
0.23694734275341034 0.45607006549835205 0.17041578888893127
0.32116895914077759 0.4784490168094635 0.17440856993198395
0.42101269960403442 0.5060693621635437 0.18832716345787048
0.52893978357315063 0.52950280904769897 0.21422202885150909
0.62707006931304932 0.54790264368057251 0.24412848055362701
0.70414102077484131 0.56901341676712036 0.26917952299118042
0.77296173572540283 0.58903622627258301 0.29191064834594727
0.84872359037399292 0.60703128576278687 0.32730042934417725
0.92277532815933228 0.62580984830856323 0.39725509285926819
0.96415162086486816 0.65461808443069458 0.49544599652290344
0.96613115072250366 0.69011509418487549 0.57981884479522705
0.13171359896659851 0.51266205310821533 0.18898867070674896
0.18132388591766357 0.51835626363754272 0.19065012037754059
0.24537722766399384 0.53016841411590576 0.19143055379390717
0.32538655400276184 0.55118447542190552 0.19306963682174683
0.41929399967193604 0.5785403847694397 0.2010226845741272
0.52330935001373291 0.60265040397644043 0.21874368190765381
0.6262669563293457 0.62025517225265503 0.24671456217765808
0.71091222763061523 0.63613998889923096 0.27790838479995728
0.77527457475662231 0.65285032987594604 0.30426394939422607
0.83679336309432983 0.66995400190353394 0.32960101962089539
0.90465420484542847 0.68698400259017944 0.39243635535240173
0.95559924840927124 0.70526909828186035 0.49114462733268738
0.96501487493515015 0.72570884227752686 0.56576979160308838
0.14479658007621765 0.59460294246673584 0.20805755257606506
0.19226269423961639 0.59957611560821533 0.20969226956367493
0.25284838676452637 0.60963165760040283 0.21111834049224854
0.32826641201972961 0.62721818685531616 0.21199402213096619
0.41727074980735779 0.6504204273223877 0.21664212644100189
0.51555895805358887 0.67353558540344238 0.22727040946483612
0.613930344581604 0.69171851873397827 0.24774590134620667
0.70123469829559326 0.70679891109466553 0.27575951814651489
0.7758101224899292 0.72005265951156616 0.30113154649734497
0.84173399209976196 0.73396027088165283 0.32155221700668335
0.89846259355545044 0.747822105884552 0.38012024760246277
0.94712448120117188 0.75848901271820068 0.47893020510673523
0.96406543254852295 0.76932775974273682 0.54513812065124512
0.15947563946247101 0.68438804149627686 0.22545430064201355
0.20385296642780304 0.68832641839981079 0.22748410701751709
0.25923892855644226 0.69561588764190674 0.22944058477878571
0.32898682355880737 0.70901972055435181 0.23093481361865997
0.41211035847663879 0.72719496488571167 0.23322516679763794
0.50392323732376099 0.74642091989517212 0.23816448450088501
0.59539872407913208 0.76472991704940796 0.2491476982831955
0.6785506010055542 0.779979407787323 0.26702398061752319
0.75713169574737549 0.79247623682022095 0.28681257367134094
0.84178012609481812 0.80000215768814087 0.30983006954193115
0.90536171197891235 0.80566197633743286 0.36618280410766602
0.94632834196090698 0.8103601336479187 0.45470806956291199
0.96447581052780151 0.81620091199874878 0.50910729169845581
0.17468763887882233 0.77934622764587402 0.24206003546714783
0.21516214311122894 0.78275531530380249 0.24445100128650665
0.26537343859672546 0.78769779205322266 0.246768519282341
0.32846400141716003 0.79719901084899902 0.2486908882856369
0.40486821532249451 0.8108639121055603 0.24942190945148468
0.49021407961845398 0.82638651132583618 0.25053474307060242
0.57769477367401123 0.84096205234527588 0.25411489605903625
0.65988296270370483 0.85301023721694946 0.26367110013961792
0.73362559080123901 0.86356383562088013 0.28229287266731262
0.81672269105911255 0.86957412958145142 0.29494661092758179
0.89347678422927856 0.87167221307754517 0.31118002533912659
0.94099467992782593 0.8691590428352356 0.3966597318649292
0.96511316299438477 0.86917906999588013 0.45603099465370178
0.18751844763755798 0.87539750337600708 0.25789046287536621
0.22631366550922394 0.87883949279785156 0.26029345393180847
0.27273726463317871 0.88218563795089722 0.2625659704208374
0.3307097852230072 0.88878768682479858 0.26431986689567566
0.40086796879768372 0.89844834804534912 0.2647421658039093
0.47975972294807434 0.90971106290817261 0.26463210582733154
0.56485354900360107 0.91939765214920044 0.26527687907218933
0.64987188577651978 0.92591089010238647 0.2717013955116272
0.72364211082458496 0.93131208419799805 0.29202798008918762
0.79588252305984497 0.93756258487701416 0.30055540800094604
0.87099373340606689 0.94050484895706177 0.26362478733062744
0.92821824550628662 0.93466866016387939 0.30682525038719177
0.9630773663520813 0.93041044473648071 0.36270299553871155
0.021873010322451591 0.077750518918037415 0.10317514091730118
0.058601215481758118 0.087094388902187347 0.11592529714107513
0.14797294139862061 0.098640814423561096 0.13091382384300232
0.2715112566947937 0.12064635008573532 0.15408387780189514
0.40556100010871887 0.14304745197296143 0.17869125306606293
0.52960443496704102 0.15746331214904785 0.19311375916004181
0.64234215021133423 0.16899499297142029 0.20252276957035065
0.75118768215179443 0.18836875259876251 0.22179329395294189
0.85035425424575806 0.22496905922889709 0.25763753056526184
0.92142260074615479 0.28561186790466309 0.30898609757423401
0.95716267824172974 0.3751046359539032 0.3853783905506134
0.96586138010025024 0.49616435170173645 0.5010334849357605
0.96470588445663452 0.60640746355056763 0.6091729998588562
0.025848522782325745 0.10450698435306549 0.11639641970396042
0.049087822437286377 0.1094546765089035 0.12160439789295197
0.13229268789291382 0.11669135093688965 0.13341383635997772
0.25219845771789551 0.14203836023807526 0.15803702175617218
0.38386744260787964 0.16992275416851044 0.18563415110111237
0.5138886570930481 0.1885770708322525 0.20350827276706696
0.6356016993522644 0.1996392160654068 0.21613295376300812
0.75142234563827515 0.2134588360786438 0.23531390726566315
0.85344594717025757 0.24126946926116943 0.26767709851264954
0.92421585321426392 0.29305031895637512 0.31661161780357361
0.95779025554656982 0.37737402319908142 0.39300966262817383
0.96536368131637573 0.49298334121704102 0.50148254632949829
0.96468448638916016 0.5980839729309082 0.60201609134674072
0.031689319759607315 0.13629384338855743 0.13206158578395844
0.052517294883728027 0.13906082510948181 0.13207437098026276
0.12461160123348236 0.14494715631008148 0.13720613718032837
0.23411296308040619 0.17271588742733002 0.16022700071334839
0.36160022020339966 0.20599544048309326 0.19305729866027832
0.48878687620162964 0.22934061288833618 0.21487368643283844
0.61447948217391968 0.24360230565071106 0.23033380508422852
0.73712927103042603 0.256683349609375 0.24912172555923462
0.84347957372665405 0.27780881524085999 0.27686470746994019
0.91832840442657471 0.31714391708374023 0.32033127546310425
0.95602875947952271 0.38537910580635071 0.39118024706840515
0.96523076295852661 0.49673542380332947 0.5023682713508606
0.96376854181289673 0.60353875160217285 0.60672414302825928
0.034299574792385101 0.18112730979919434 0.14811491966247559
0.063251137733459473 0.18447695672512054 0.14563347399234772
0.13368314504623413 0.18686407804489136 0.14506134390830994
0.23398967087268829 0.21345029771327972 0.16249239444732666
0.35208362340927124 0.24887669086456299 0.19619891047477722
0.46814775466918945 0.27710732817649841 0.22356840968132019
0.58897536993026733 0.2973969578742981 0.24335727095603943
0.71477371454238892 0.31422600150108337 0.2617676854133606
0.82618838548660278 0.33310779929161072 0.28430837392807007
0.90899807214736938 0.36208757758140564 0.32217922806739807
0.95311528444290161 0.41218936443328857 0.38856467604637146
0.96544176340103149 0.50963121652603149 0.50083881616592407
0.96329909563064575 0.61290454864501953 0.6106945276260376
0.043810483068227768 0.23689618706703186 0.15896856784820557
0.081617064774036407 0.24172970652580261 0.15817779302597046
0.15424260497093201 0.24636124074459076 0.15646913647651672
0.25166881084442139 0.26749703288078308 0.16602060198783875
0.36290860176086426 0.30092644691467285 0.19538296759128571
0.46679461002349854 0.33112570643424988 0.22785454988479614
0.57331377267837524 0.35778015851974487 0.25271701812744141
0.69264680147171021 0.37780734896659851 0.27224844694137573
