assets/lut/editingcorp filo.cube
# Created by: G'MIC (https://gmic.eu)
TITLE "filo"
# LUT size
LUT_3D_SIZE 13
# Data domain
DOMAIN_MIN 0.0 0.0 0.0
DOMAIN_MAX 1.0 1.0 1.0
# LUT data points
0.0010575238848105073 0.0031288596801459789 0.017902210354804993
0.037640724331140518 0.0028836268465965986 0.023494496941566467
0.12373647093772888 0.0060733570717275143 0.029947033151984215
0.23042033612728119 0.0093204723671078682 0.022084448486566544
0.33977416157722473 0.0078047807328402996 0.017664186656475067
0.45083540678024292 0.0049353055655956268 0.02428169921040535
0.56167799234390259 0.0065770465880632401 0.032640345394611359
0.65875786542892456 0.012200808152556419 0.039375245571136475
0.72434026002883911 0.016304105520248413 0.043756641447544098
0.75905805826187134 0.015683028846979141 0.044922247529029846
0.78093206882476807 0.011958477087318897 0.044525686651468277
0.804587721824646 0.0081745972856879234 0.04324939101934433
0.83089417219161987 0.005603116936981678 0.042140886187553406
0.0020405936520546675 0.034509140998125076 0.028942706063389778
0.031111743301153183 0.031921911984682083 0.029909335076808929
0.11158066987991333 0.03437766432762146 0.032061886042356491
0.21646261215209961 0.041087206453084946 0.029064612463116646
0.32355406880378723 0.04420783743262291 0.028172258287668228
0.43377602100372314 0.042163833975791931 0.034915521740913391
0.54857480525970459 0.047452155500650406 0.044149093329906464
0.65413343906402588 0.059611376374959946 0.053290020674467087
0.72739356756210327 0.067858554422855377 0.059720598161220551
0.76375192403793335 0.067796401679515839 0.06189066544175148
0.78294318914413452 0.062943443655967712 0.062331181019544601
0.80617219209671021 0.056953564286231995 0.060661181807518005
0.83314770460128784 0.052600052207708359 0.058902934193611145
0.0051319198682904243 0.098462663590908051 0.03171558678150177
0.030275292694568634 0.096530497074127197 0.027779838070273399
0.10052739828824997 0.096044428646564484 0.028278844431042671
0.19887454807758331 0.099373899400234222 0.030403496697545052
0.30295446515083313 0.10429549962282181 0.033697735518217087
0.41298529505729675 0.10466673970222473 0.041435152292251587
0.52813947200775146 0.10969036072492599 0.051740236580371857
0.63669604063034058 0.11926894634962082 0.061894554644823074
0.71785980463027954 0.12627224624156952 0.069745369255542755
0.76272463798522949 0.12629798054695129 0.073978334665298462
0.78658187389373779 0.12128365039825439 0.075841806828975677
0.81005042791366577 0.11500062793493271 0.075156673789024353
0.83651483058929443 0.11086632311344147 0.073988653719425201
0.012794464826583862 0.17957636713981628 0.036673571914434433
0.041278194636106491 0.17714418470859528 0.031273741275072098
0.10053844004869461 0.17599070072174072 0.030512895435094833
0.18628491461277008 0.17790627479553223 0.033723540604114532
0.28457096219062805 0.18194232881069183 0.039072658866643906
0.39078608155250549 0.18319468200206757 0.047791678458452225
0.50330966711044312 0.18517178297042847 0.057803884148597717
0.61352419853210449 0.1901811957359314 0.06751173734664917
0.70387345552444458 0.19380678236484528 0.075787939131259918
0.76181024312973022 0.19353859126567841 0.081439852714538574
0.7940717339515686 0.18880519270896912 0.084155440330505371
0.81697499752044678 0.18255369365215302 0.084614850580692291
0.84029829502105713 0.17820002138614655 0.084029361605644226
0.026545925065875053 0.26826506853103638 0.047060918062925339
0.056536115705966949 0.26496642827987671 0.041700668632984161
0.1081041544675827 0.26279860734939575 0.040520522743463516
0.18214769661426544 0.2631365954875946 0.043983697891235352
0.27141484618186951 0.26381129026412964 0.050443071871995926
0.37056735157966614 0.26411646604537964 0.058752141892910004
0.47775006294250488 0.26588201522827148 0.066428527235984802
0.59111034870147705 0.2684834897518158 0.074414320290088654
0.69282811880111694 0.27023774385452271 0.082465216517448425
0.76321136951446533 0.26988920569419861 0.088799357414245605
0.80119085311889648 0.26587548851966858 0.092047072947025299
0.82287633419036865 0.25999400019645691 0.093238919973373413
0.843272864818573 0.25540035963058472 0.092623725533485413
0.044777005910873413 0.36135032773017883 0.060735516250133514
0.073616355657577515 0.35661914944648743 0.056662317365407944
0.11860956251621246 0.35313105583190918 0.056541755795478821
0.18294025957584381 0.3512631356716156 0.059266317635774612
0.26395851373672485 0.34995225071907043 0.065215058624744415
0.3563988208770752 0.34857818484306335 0.071865245699882507
0.45821082592010498 0.34886994957923889 0.077060624957084656
0.57222110033035278 0.34990623593330383 0.082992091774940491
0.68342548608779907 0.35169333219528198 0.090858206152915955
0.76415836811065674 0.35198813676834106 0.097612269222736359
0.80489224195480347 0.34890905022621155 0.10136748850345612
0.82671129703521729 0.34373977780342102 0.10326696932315826
0.8461030125617981 0.33852532505989075 0.10202915221452713
0.066260382533073425 0.45587027072906494 0.074707165360450745
0.092755980789661407 0.45033806562423706 0.072659753262996674
0.13131038844585419 0.44574859738349915 0.074368059635162354
0.18747597932815552 0.44356131553649902 0.077468186616897583
0.26150086522102356 0.44096428155899048 0.081141404807567596
0.34920892119407654 0.43777740001678467 0.084848038852214813
0.4477272629737854 0.43493932485580444 0.088465623557567596
0.5552905797958374 0.43334409594535828 0.092412270605564117
0.6653096079826355 0.43370980024337769 0.098583564162254333
0.75426346063613892 0.43482875823974609 0.10567723959684372
0.80327320098876953 0.43355450034141541 0.11031559854745865
0.82824385166168213 0.42956003546714783 0.11196568608283997
0.84906703233718872 0.42374002933502197 0.11058663576841354
0.090181179344654083 0.55115973949432373 0.089148670434951782
0.11485359072685242 0.54544681310653687 0.089739434421062469
0.14805103838443756 0.54164820909500122 0.09254850447177887
0.19686834514141083 0.53865545988082886 0.095434539020061493
0.26404130458831787 0.53611296415328979 0.096435695886611938
0.34669148921966553 0.53175413608551025 0.097953617572784424
0.44142311811447144 0.52677291631698608 0.10055019706487656
0.54266691207885742 0.52315157651901245 0.10305383801460266
0.64780628681182861 0.52160286903381348 0.10755547881126404
0.74370872974395752 0.52043932676315308 0.11413716524839401
0.80506306886672974 0.5181087851524353 0.11887484043836594
0.83555340766906738 0.51463598012924194 0.12035483866930008
0.85613667964935303 0.5096595287322998 0.11892818659543991
0.11496064066886902 0.64242368936538696 0.10471925884485245
0.13925643265247345 0.63935500383377075 0.10536877810955048
0.16956977546215057 0.63651186227798462 0.10723182559013367
0.21190288662910461 0.633536696434021 0.10906334966421127
0.27041122317314148 0.63005304336547852 0.10964793711900711
0.34567192196846008 0.62641632556915283 0.11016952246427536
0.43582835793495178 0.6227453351020813 0.11192940920591354
0.53621286153793335 0.61951130628585815 0.11458707600831985
0.64251148700714111 0.6171233057975769 0.11895159631967545
0.74219518899917603 0.6117742657661438 0.12412900477647781
0.8128247857093811 0.6062200665473938 0.12819261848926544
0.84820616245269775 0.60348135232925415 0.12968692183494568
0.86786776781082153 0.60018616914749146 0.12892690300941467
0.13537412881851196 0.7175757884979248 0.11721273511648178
0.16050270199775696 0.71841514110565186 0.11789872497320175
0.18965303897857666 0.71760493516921997 0.11840202659368515
0.22618146240711212 0.71521049737930298 0.11911021173000336
0.27614682912826538 0.71222305297851562 0.12037526816129684
0.34389880299568176 0.71145910024642944 0.12118370085954666
0.42949205636978149 0.71129590272903442 0.12272559106349945
0.52911722660064697 0.71104049682617188 0.12579670548439026
0.63644468784332275 0.71022528409957886 0.13023871183395386
0.73922532796859741 0.70385819673538208 0.13458827137947083
0.81655550003051758 0.6975676417350769 0.13806629180908203
0.85957533121109009 0.69643592834472656 0.14008432626724243
0.8815574049949646 0.69560497999191284 0.14021569490432739
0.14821416139602661 0.77003836631774902 0.12431716918945312
0.17419572174549103 0.77290183305740356 0.12587413191795349
0.2013201117515564 0.77340686321258545 0.12647609412670135
0.23370334506034851 0.77238625288009644 0.12752199172973633
0.27778702974319458 0.77150475978851318 0.12885133922100067
0.34034720063209534 0.7747684121131897 0.13027119636535645
0.42208227515220642 0.77812403440475464 0.13163493573665619
0.51999229192733765 0.78157305717468262 0.13460220396518707
0.62779724597930908 0.78452253341674805 0.13843080401420593
0.73388832807540894 0.78087490797042847 0.14236357808113098
0.81904894113540649 0.77645766735076904 0.14569617807865143
0.86977189779281616 0.77785515785217285 0.14839306473731995
0.89467418193817139 0.780437171459198 0.14988330006599426
0.15523633360862732 0.80696624517440796 0.12793838977813721
0.18093875050544739 0.80857038497924805 0.12997087836265564
0.20628532767295837 0.80800312757492065 0.13131779432296753
0.23615045845508575 0.80702418088912964 0.13264496624469757
0.27783730626106262 0.80927121639251709 0.13394130766391754
0.33727183938026428 0.81521040201187134 0.13585507869720459
0.41572621464729309 0.8214794397354126 0.1371336430311203
0.51073318719863892 0.82681655883789062 0.13968181610107422
0.61859375238418579 0.83159804344177246 0.14270488917827606
0.72810804843902588 0.83315020799636841 0.14613345265388489
0.82074105739593506 0.83259421586990356 0.14928199350833893
0.87806814908981323 0.83535909652709961 0.15270718932151794
0.90582966804504395 0.83842426538467407 0.15564045310020447
0.15887726843357086 0.8363608717918396 0.12796191871166229
0.18488785624504089 0.83652657270431519 0.13021314144134521
0.21057255566120148 0.83527767658233643 0.13216781616210938
0.24073997139930725 0.83479917049407959 0.13320319354534149
0.28271439671516418 0.83833813667297363 0.13503390550613403
0.34074684977531433 0.8451809287071228 0.13711971044540405
0.41546565294265747 0.85195863246917725 0.13870009779930115
0.50614756345748901 0.8577883243560791 0.1410798579454422
0.61047631502151489 0.86414974927902222 0.144072026014328
0.71876412630081177 0.86988157033920288 0.14714410901069641
0.81206667423248291 0.8733971118927002 0.15072627365589142
0.87417763471603394 0.87691962718963623 0.15484021604061127
0.90875554084777832 0.87970000505447388 0.15874190628528595
0.0026879403740167618 0.0029217440169304609 0.073288366198539734
0.038230311125516891 0.0052771624177694321 0.070939593017101288
0.11975549161434174 0.006052608136087656 0.072208061814308167
0.22640171647071838 0.0083634620532393456 0.067836359143257141
0.33948224782943726 0.0078123654238879681 0.067640133202075958
0.45579761266708374 0.007099824957549572 0.074259892106056213
0.57101470232009888 0.010432478971779346 0.079308636486530304
0.66922855377197266 0.016980968415737152 0.081648699939250946
0.73034179210662842 0.020609747618436813 0.082995757460594177
0.76085877418518066 0.019757634028792381 0.082581400871276855
0.78149068355560303 0.016017913818359375 0.081992372870445251
0.80572390556335449 0.012647546827793121 0.081425398588180542
0.83294820785522461 0.010849567130208015 0.081261716783046722
0.0052495622076094151 0.036524813622236252 0.080446101725101471
0.039962887763977051 0.036394320428371429 0.074814274907112122
0.11687394976615906 0.036859549582004547 0.073147684335708618
0.21660728752613068 0.042086746543645859 0.07104162871837616
0.32535693049430847 0.04532134160399437 0.072549052536487579
0.44021853804588318 0.047561630606651306 0.078166916966438293
0.55808281898498535 0.054099798202514648 0.083978660404682159
0.66205322742462158 0.064258158206939697 0.088202506303787231
0.73235225677490234 0.070451803505420685 0.091561034321784973
0.76637774705886841 0.070322461426258087 0.092917166650295258
0.7848084568977356 0.066275730729103088 0.093795925378799438
0.80698198080062866 0.062511041760444641 0.092945113778114319
0.83443301916122437 0.060872592031955719 0.092701107263565063
0.0050481311045587063 0.10336709022521973 0.075999334454536438
0.035734154284000397 0.10112446546554565 0.068338997662067413
0.10313063859939575 0.099977530539035797 0.066119641065597534
0.19895841181278229 0.10205664485692978 0.06815619021654129
0.30509036779403687 0.10546775907278061 0.072211667895317078
0.41813650727272034 0.10841887444257736 0.0780448317527771
0.5357474684715271 0.11366020888090134 0.084568947553634644
0.64471310377120972 0.12166669964790344 0.090607121586799622
0.7245057225227356 0.12708330154418945 0.095648609101772308
0.76736867427825928 0.12652629613876343 0.099432505667209625
0.78892439603805542 0.12199394404888153 0.10104923695325851
0.81037729978561401 0.11787214130163193 0.10065276175737381
0.83666694164276123 0.11652595549821854 0.10143112391233444
0.010380344465374947 0.18369744718074799 0.075590573251247406
0.03996480256319046 0.18120615184307098 0.066864833235740662
0.099274955689907074 0.17943209409713745 0.064014330506324768
0.18550670146942139 0.17988114058971405 0.066644616425037384
0.28552696108818054 0.18178868293762207 0.071577124297618866
0.39379864931106567 0.18361665308475494 0.077745668590068817
0.50865095853805542 0.18619027733802795 0.084688626229763031
0.62049466371536255 0.19061657786369324 0.091193825006484985
0.71064090728759766 0.1935553252696991 0.097332030534744263
0.76648366451263428 0.19267182052135468 0.10203194618225098
0.79618579149246216 0.188033327460289 0.10418219119310379
0.81744205951690674 0.18292330205440521 0.10470131039619446
0.84111934900283813 0.18120960891246796 0.10688747465610504
0.023102704435586929 0.27121850848197937 0.079898953437805176
0.052566349506378174 0.26802372932434082 0.07172095775604248
0.10459505021572113 0.26542341709136963 0.068760290741920471
0.18030142784118652 0.26430496573448181 0.071142710745334625
0.27163264155387878 0.26375073194503784 0.076606139540672302
0.37238138914108276 0.26313513517379761 0.0833854079246521
0.48104366660118103 0.26488789916038513 0.088329508900642395
0.59441441297531128 0.26784679293632507 0.093598805367946625
0.69521373510360718 0.2694600522518158 0.1000494584441185
0.76501476764678955 0.2691923975944519 0.10552456229925156
0.80326008796691895 0.26513120532035828 0.10922697186470032
0.82592928409576416 0.25982129573822021 0.1126079335808754
0.84691148996353149 0.25700962543487549 0.11492559313774109
0.041525028645992279 0.36304530501365662 0.086823649704456329
0.068935677409172058 0.35877799987792969 0.080436781048774719
0.11379687488079071 0.35500985383987427 0.078899800777435303
0.18045318126678467 0.35226106643676758 0.081174395978450775
0.26319515705108643 0.34943413734436035 0.085840262472629547
0.35676583647727966 0.34675538539886475 0.091779179871082306
0.45931804180145264 0.34704211354255676 0.094184041023254395
0.57239508628845215 0.34857597947120667 0.097900524735450745
0.68059784173965454 0.35102617740631104 0.1044996976852417
0.76172554492950439 0.35186636447906494 0.1111038476228714
0.80692803859710693 0.34941369295120239 0.11660076677799225
0.83109462261199951 0.3444254994392395 0.12170159071683884
0.8515622615814209 0.34020733833312988 0.12365881353616714
0.062851846218109131 0.45681560039520264 0.094670236110687256
0.087324328720569611 0.45199066400527954 0.092428319156169891
0.12468525022268295 0.44732281565666199 0.094097167253494263
0.18195435404777527 0.44362303614616394 0.09607270359992981
0.25827997922897339 0.43997108936309814 0.097453095018863678
0.34675365686416626 0.43585863709449768 0.099189430475234985
0.44598108530044556 0.43283039331436157 0.10105650871992111
0.5545884370803833 0.43222656846046448 0.10434386134147644
0.6646263599395752 0.43384870886802673 0.11084061861038208
0.75446754693984985 0.43561539053916931 0.1188487634062767
0.80737316608428955 0.43487191200256348 0.12493550777435303
0.83399564027786255 0.43148687481880188 0.12885063886642456
0.85487133264541626 0.42687046527862549 0.12982745468616486
0.087205894291400909 0.55097287893295288 0.10466141253709793
0.109397292137146 0.54723972082138062 0.10620416700839996
0.13992571830749512 0.54271978139877319 0.11133958399295807
0.18846051394939423 0.53834468126296997 0.11407674103975296
0.25809124112129211 0.53481090068817139 0.11150401830673218
0.34210959076881409 0.52937096357345581 0.11000699549913406
0.43834987282752991 0.52446961402893066 0.11108949035406113
0.54352647066116333 0.52223920822143555 0.11432763189077377
0.65276181697845459 0.52236449718475342 0.12106551975011826
0.75018781423568726 0.52176070213317871 0.13004302978515625
0.81301581859588623 0.52019476890563965 0.13617204129695892
0.84322810173034668 0.51770186424255371 0.13804157078266144
0.86248487234115601 0.51436406373977661 0.13816098868846893
0.11277929693460464 0.6408381462097168 0.11815345287322998
0.13484126329421997 0.63955909013748169 0.12075355648994446
0.16313518583774567 0.63688164949417114 0.12507739663124084
0.20454946160316467 0.6336255669593811 0.12688544392585754
0.2642325758934021 0.62914448976516724 0.12475451081991196
0.34059500694274902 0.62401282787322998 0.12300099432468414
0.43286594748497009 0.62005162239074707 0.1236860379576683
0.53738975524902344 0.61850488185882568 0.12753638625144958
0.64868128299713135 0.61787718534469604 0.13482362031936646
0.75159913301467896 0.6135370135307312 0.14361429214477539
0.82272934913635254 0.60915207862854004 0.14909186959266663
0.85665673017501831 0.60720020532608032 0.15037441253662109
0.87443536520004272 0.60505610704421997 0.14937500655651093
0.13476757705211639 0.71524816751480103 0.13176983594894409
0.15857061743736267 0.71727448701858521 0.13390113413333893
0.18547004461288452 0.71735972166061401 0.13629576563835144
0.22091072797775269 0.71550768613815308 0.13787034153938293
0.27028089761734009 0.71138465404510498 0.13733898103237152
0.33874070644378662 0.70859408378601074 0.13662944734096527
0.42679306864738464 0.70827293395996094 0.13765734434127808
0.53075361251831055 0.70986568927764893 0.14175020158290863
0.64303839206695557 0.71079772710800171 0.14897625148296356
0.74836432933807373 0.70688754320144653 0.1564747542142868
0.82552576065063477 0.70139461755752563 0.16105823218822479
0.86644840240478516 0.6991613507270813 0.16263672709465027
0.88676458597183228 0.69756853580474854 0.16260628402233124
0.15045741200447083 0.76832413673400879 0.1425631195306778
0.17486098408699036 0.77117723226547241 0.14456583559513092
0.19991977512836456 0.77325952053070068 0.14574652910232544
0.22987698018550873 0.77275204658508301 0.14686501026153564
0.27168172597885132 0.77121376991271973 0.14798399806022644
0.33391696214675903 0.77139872312545776 0.14883732795715332
0.41891944408416748 0.77577680349349976 0.14991763234138489
0.52160704135894775 0.78134119510650635 0.15346275269985199
0.6337164044380188 0.78607207536697388 0.15947255492210388
0.74090868234634399 0.78551405668258667 0.16564629971981049
0.82415556907653809 0.78205090761184692 0.16988846659660339
0.87401551008224487 0.78123229742050171 0.17218104004859924
0.89943391084671021 0.77979052066802979 0.17307987809181213
0.15968164801597595 0.80461126565933228 0.14927662909030914
0.18421967327594757 0.80629646778106689 0.15115562081336975
0.2073226124048233 0.80816340446472168 0.15130440890789032
0.23417145013809204 0.80880886316299438 0.15220683813095093
0.27237927913665771 0.80953079462051392 0.15436431765556335
0.33099323511123657 0.81330966949462891 0.15601244568824768
0.41317492723464966 0.82113957405090332 0.15759804844856262
0.51316606998443604 0.82932800054550171 0.15993562340736389
0.62401026487350464 0.83629995584487915 0.16459369659423828
0.73315209150314331 0.8396838903427124 0.16992908716201782
0.82291048765182495 0.84027880430221558 0.17411619424819946
0.88035506010055542 0.84137344360351562 0.17719553411006927
0.91125863790512085 0.8416486382484436 0.17933040857315063
0.1642795205116272 0.83430606126785278 0.15115655958652496
0.18930476903915405 0.83472239971160889 0.15242066979408264
0.21297663450241089 0.8357817530632019 0.15251186490058899
0.24045515060424805 0.83690845966339111 0.15251225233078003
0.27932834625244141 0.83976668119430542 0.15550631284713745
0.33671760559082031 0.84579551219940186 0.15748302638530731
0.41474607586860657 0.85398811101913452 0.16026505827903748
0.50997191667556763 0.86241239309310913 0.16217692196369171
0.61682039499282837 0.87031066417694092 0.16597187519073486
0.7244759202003479 0.87679451704025269 0.17075386643409729
0.81619739532470703 0.88115698099136353 0.17540208995342255
0.8795090913772583 0.88459211587905884 0.17948810756206512
0.91742891073226929 0.88706398010253906 0.18301627039909363
0.0056622223928570747 0.0065061682835221291 0.13960990309715271
0.041667535901069641 0.0087185725569725037 0.13707612454891205
0.11923735588788986 0.0081883445382118225 0.13579237461090088
0.22395755350589752 0.0075967824086546898 0.135687455534935
0.33729574084281921 0.0070291855372488499 0.13931572437286377
0.45452144742012024 0.0087739080190658569 0.14306016266345978
0.56940102577209473 0.013740150257945061 0.14461158215999603
0.66654986143112183 0.020378142595291138 0.14254778623580933
0.72937512397766113 0.023317014798521996 0.14005957543849945
0.76223903894424438 0.02161274291574955 0.13746103644371033
0.78481924533843994 0.018644010648131371 0.13611380755901337
0.80960333347320557 0.018218694254755974 0.13425441086292267
0.83719432353973389 0.019590729847550392 0.13269135355949402
0.0083586154505610466 0.045358724892139435 0.14179708063602448
0.044641502201557159 0.044541273266077042 0.13565813004970551
0.11921084672212601 0.04365621879696846 0.13353931903839111
0.21776501834392548 0.045822713524103165 0.13356472551822662
0.32677391171455383 0.048519358038902283 0.13650813698768616
0.44230884313583374 0.052614651620388031 0.13985148072242737
0.56000149250030518 0.060085806995630264 0.14112091064453125
0.66322773694992065 0.0684828981757164 0.14011634886264801
0.7342764139175415 0.072930552065372467 0.1391531378030777
0.77030044794082642 0.071847595274448395 0.13934993743896484
0.79053860902786255 0.069377332925796509 0.13927403092384338
0.81209611892700195 0.069498591125011444 0.13823990523815155
0.83856880664825439 0.072177484631538391 0.13873147964477539
0.0061827716417610645 0.10974937677383423 0.13532713055610657
0.038962196558713913 0.10746536403894424 0.12656790018081665
0.10862856358289719 0.10578738898038864 0.12412787228822708
0.20385207235813141 0.10734393447637558 0.12554129958152771
0.30962252616882324 0.11043855547904968 0.12827037274837494
0.42256090044975281 0.11387007683515549 0.13123221695423126
0.5405733585357666 0.11897460371255875 0.13360236585140228
0.650745689868927 0.12510333955287933 0.13429103791713715
0.73154526948928833 0.12797297537326813 0.13508512079715729
0.7737305760383606 0.12694667279720306 0.13736949861049652
0.79508858919143677 0.12333975732326508 0.13778461515903473
0.81474143266677856 0.12228559702634811 0.13662335276603699
0.84010201692581177 0.12499084323644638 0.1392560750246048
0.010807187296450138 0.18840345740318298 0.12964798510074615
0.042199783027172089 0.18613362312316895 0.11989304423332214
0.10381465405225754 0.18449503183364868 0.11672700196504593
0.19131213426589966 0.18498797714710236 0.11792493611574173
0.2916182279586792 0.18653514981269836 0.11988652497529984
0.39897838234901428 0.18826304376125336 0.12174030393362045
0.51449805498123169 0.19015905261039734 0.1254773885011673
0.62802881002426147 0.19299177825450897 0.12878532707691193
0.71832621097564697 0.19436237215995789 0.13168536126613617
0.77213072776794434 0.19254560768604279 0.13430476188659668
0.80014389753341675 0.18801885843276978 0.13413707911968231
0.81993597745895386 0.18471658229827881 0.13168847560882568
0.84411346912384033 0.18588365614414215 0.13599108159542084
0.023761270567774773 0.27428111433982849 0.12590426206588745
0.053747259080410004 0.27176693081855774 0.11670874804258347
0.10762329399585724 0.26981595158576965 0.11299489438533783
0.18570809066295624 0.26904502511024475 0.11377263069152832
