assets/lut/editingcorp calidum.cube
# Created by: G'MIC (https://gmic.eu)
TITLE "calidum"
# LUT size
LUT_3D_SIZE 5
# Data domain
DOMAIN_MIN 0.0 0.0 0.0
DOMAIN_MAX 1.0 1.0 1.0
# LUT data points
0.057683639228343964 0.054213058203458786 0.052957154810428619
0.21748919785022736 0.068187102675437927 0.060763880610466003
0.40508741140365601 0.10880760103464127 0.084762528538703918
0.59376019239425659 0.1543368399143219 0.11770118027925491
0.79191267490386963 0.19452127814292908 0.15730965137481689
0.16987824440002441 0.219847172498703 0.068099811673164368
0.34002169966697693 0.26503536105155945 0.092904619872570038
0.50057929754257202 0.28996589779853821 0.10994751751422882
0.67319411039352417 0.31880328059196472 0.14280283451080322
0.86417955160140991 0.34747582674026489 0.17606598138809204
0.34877058863639832 0.45368340611457825 0.12599931657314301
0.46087244153022766 0.48222452402114868 0.15222449600696564
0.57668662071228027 0.50632661581039429 0.14626665413379669
0.72057622671127319 0.51352101564407349 0.16032926738262177
0.92423838376998901 0.52743989229202271 0.19373852014541626
0.47726020216941833 0.63616019487380981 0.22537371516227722
0.54903203248977661 0.65596216917037964 0.23269139230251312
0.63958173990249634 0.67829006910324097 0.22373901307582855
0.7545199990272522 0.70589983463287354 0.1920115053653717
0.95809358358383179 0.73048585653305054 0.19171230494976044
0.54136455059051514 0.78858077526092529 0.34301349520683289
0.59018951654434204 0.79907584190368652 0.31501808762550354
0.66583442687988281 0.82981199026107788 0.28936994075775146
0.78525704145431519 0.88804924488067627 0.26271519064903259
0.95752686262130737 0.9392932653427124 0.32472759485244751
0.047754757106304169 0.084620878100395203 0.15271973609924316
0.18614751100540161 0.079550378024578094 0.18285977840423584
0.36963003873825073 0.076639987528324127 0.16865479946136475
0.5436023473739624 0.10615900158882141 0.20360212028026581
0.73558527231216431 0.14387325942516327 0.22840774059295654
0.070050440728664398 0.24421849846839905 0.23050999641418457
0.29018992185592651 0.28092721104621887 0.26893678307533264
0.50530284643173218 0.26509580016136169 0.24793390929698944
0.66027623414993286 0.27394536137580872 0.24793367087841034
0.84136241674423218 0.3069978654384613 0.26460972428321838
0.23270386457443237 0.45291343331336975 0.24002456665039062
0.42945867776870728 0.49100369215011597 0.24832122027873993
0.57394075393676758 0.51099938154220581 0.27926385402679443
0.7328217625617981 0.51008176803588867 0.27230384945869446
0.93969863653182983 0.52294832468032837 0.29044511914253235
0.40625149011611938 0.61242079734802246 0.26900821924209595
0.50914740562438965 0.64135420322418213 0.28472799062728882
0.62666279077529907 0.67821609973907471 0.28671947121620178
0.75152426958084106 0.70367252826690674 0.26500716805458069
0.9620356559753418 0.72941339015960693 0.26909011602401733
0.50045055150985718 0.76538926362991333 0.38257056474685669
0.55673849582672119 0.77975010871887207 0.37824594974517822
0.65142065286636353 0.82233721017837524 0.36645776033401489
0.77211731672286987 0.88568198680877686 0.32807299494743347
0.95137923955917358 0.93714421987533569 0.43527460098266602
0.060329407453536987 0.12452632188796997 0.25721657276153564
0.12591302394866943 0.15138319134712219 0.3083343505859375
0.34656193852424622 0.10921779274940491 0.30727997422218323
0.49312806129455566 0.10834191739559174 0.28430485725402832
0.66271877288818359 0.1353934109210968 0.33173021674156189
0.078781366348266602 0.26818788051605225 0.34085643291473389
0.14576958119869232 0.29593881964683533 0.38203784823417664
0.48336005210876465 0.27029326558113098 0.42541167140007019
0.59224265813827515 0.22295975685119629 0.35299468040466309
0.7786375880241394 0.27658054232597351 0.39550679922103882
0.12786945700645447 0.45924225449562073 0.43863826990127563
0.23239323496818542 0.4878881573677063 0.46908220648765564
0.58388638496398926 0.54561454057693481 0.53727275133132935
0.72954100370407104 0.51097637414932251 0.48717799782752991
0.91996181011199951 0.51105165481567383 0.47475072741508484
0.32662010192871094 0.63584750890731812 0.50834774971008301
0.4792323112487793 0.65871584415435791 0.51836591958999634
0.63013231754302979 0.67773330211639404 0.52829688787460327
0.7461053729057312 0.70271271467208862 0.49833068251609802
0.9587855339050293 0.72828704118728638 0.48010995984077454
0.46685025095939636 0.77138108015060425 0.54061293601989746
0.54536372423171997 0.78211802244186401 0.53455841541290283
0.65322035551071167 0.81036889553070068 0.53246569633483887
0.7696804404258728 0.87030178308486938 0.51895236968994141
0.95599979162216187 0.94799518585205078 0.54692691564559937
0.072688758373260498 0.17792102694511414 0.3574950098991394
0.13395160436630249 0.21451248228549957 0.4013974666595459
0.29087331891059875 0.23868271708488464 0.47032395005226135
0.49144613742828369 0.15595366060733795 0.42375165224075317
0.62844443321228027 0.17320333421230316 0.42955291271209717
0.097135029733181 0.30706602334976196 0.43627452850341797
0.14355915784835815 0.32860371470451355 0.46535566449165344
0.34756487607955933 0.4007781445980072 0.57121247053146362
0.58150756359100342 0.28990435600280762 0.51117801666259766
0.72766035795211792 0.33291280269622803 0.52528780698776245
0.13580586016178131 0.47327658534049988 0.54351687431335449
0.20352430641651154 0.48881110548973083 0.57307833433151245
0.45984965562820435 0.56168526411056519 0.65564179420471191
0.7108033299446106 0.56849151849746704 0.67342460155487061
0.83585721254348755 0.54287582635879517 0.6454312801361084
0.2323736697435379 0.64380377531051636 0.62222176790237427
0.28417474031448364 0.65525692701339722 0.63157355785369873
0.55536258220672607 0.70257878303527832 0.68625587224960327
0.74333781003952026 0.72392851114273071 0.71755486726760864
0.90699487924575806 0.7247769832611084 0.70700013637542725
0.38730156421661377 0.79218953847885132 0.68136584758758545
0.51794755458831787 0.81146448850631714 0.70172250270843506
0.66892510652542114 0.83835434913635254 0.73122632503509521
0.78699713945388794 0.86360341310501099 0.74176496267318726
0.93939101696014404 0.92039448022842407 0.73973280191421509
0.092485778033733368 0.24932850897312164 0.47389706969261169
0.15709197521209717 0.28595325350761414 0.51034712791442871
0.24781201779842377 0.34564399719238281 0.59022718667984009
0.5643312931060791 0.33453661203384399 0.64385175704956055
0.67640525102615356 0.29068723320960999 0.60480368137359619
0.11855857819318771 0.35959264636039734 0.54057866334915161
0.17798542976379395 0.38532379269599915 0.57558459043502808
0.27646130323410034 0.43616822361946106 0.64425206184387207
0.62096959352493286 0.47394424676895142 0.71790575981140137
0.73769116401672363 0.42962872982025146 0.67888462543487549
0.15836396813392639 0.50421404838562012 0.65314877033233643
0.19887100160121918 0.51126158237457275 0.66848504543304443
0.32989004254341125 0.55234181880950928 0.72019088268280029
0.64450365304946899 0.61919271945953369 0.76509320735931396
0.80011463165283203 0.60847228765487671 0.76644432544708252
0.2117970734834671 0.66429632902145386 0.73739659786224365
0.26032024621963501 0.66814219951629639 0.75076103210449219
0.49242570996284485 0.71308749914169312 0.80982595682144165
0.70434200763702393 0.74757450819015503 0.82843029499053955
0.85216760635375977 0.75650030374526978 0.83540534973144531
0.29720264673233032 0.83350861072540283 0.82171839475631714
0.40157967805862427 0.85145920515060425 0.83061546087265015
0.5992463231086731 0.87847208976745605 0.85929596424102783
0.76715528964996338 0.90122169256210327 0.89030915498733521
0.91208183765411377 0.9190794825553894 0.90927135944366455
