assets/lut/editingcorpw Candlelit Cream.cube
LUT_3D_SIZE 16
DOMAIN_MIN 0.0 0.0 0.0
DOMAIN_MAX 1.0 1.0 1.0
0.140261 0.088624 0.133211
0.157552 0.090437 0.134005
0.215207 0.100203 0.136782
0.285478 0.118392 0.142245
0.351452 0.140767 0.148037
0.413184 0.166384 0.153841
0.484523 0.202969 0.160971
0.549707 0.242344 0.170205
0.616492 0.283506 0.180361
0.690437 0.325317 0.189847
0.765835 0.365881 0.199222
0.840195 0.407837 0.208969
0.917028 0.452924 0.220780
0.988721 0.496016 0.237223
1.000000 0.534582 0.259611
1.000000 0.579217 0.303349
0.149898 0.104994 0.134133
0.166830 0.104322 0.135665
0.215168 0.116061 0.140786
0.281097 0.132885 0.146115
0.345779 0.150980 0.150724
0.409430 0.174343 0.155770
0.477954 0.207974 0.162978
0.542516 0.245177 0.171864
0.608395 0.285064 0.182152
0.682238 0.326204 0.191482
0.760152 0.367248 0.200576
0.837274 0.410120 0.210378
0.913455 0.454146 0.221702
0.983412 0.495725 0.237018
1.000000 0.533407 0.257984
1.000000 0.579504 0.302312
0.183175 0.159957 0.137661
0.201350 0.162152 0.138395
0.249169 0.159104 0.146544
0.299382 0.167111 0.156438
0.354730 0.189915 0.161885
0.422034 0.216440 0.168173
0.486972 0.245477 0.175454
0.549940 0.278554 0.184363
0.615843 0.314096 0.193343
0.689555 0.351357 0.201586
0.764846 0.388238 0.209378
0.839202 0.427110 0.218033
0.915703 0.469564 0.229328
0.987004 0.510344 0.245286
1.000000 0.546857 0.267409
1.000000 0.588617 0.309111
0.216294 0.212528 0.144070
0.229829 0.216651 0.144438
0.273171 0.221669 0.146676
0.329231 0.222359 0.160482
0.380672 0.229851 0.177424
0.432398 0.257425 0.186502
0.485650 0.291475 0.197373
0.545370 0.323010 0.205704
0.611214 0.353426 0.212149
0.685416 0.386180 0.218216
0.762551 0.419849 0.224570
0.839086 0.456433 0.232241
0.914319 0.494918 0.242866
0.982961 0.531335 0.257647
1.000000 0.564373 0.278292
1.000000 0.605658 0.321892
0.254008 0.284611 0.152828
0.267571 0.293387 0.153341
0.303523 0.298653 0.156342
0.362558 0.310551 0.163446
0.415648 0.308940 0.187897
0.462971 0.313164 0.213919
0.508906 0.339776 0.221968
0.560548 0.372080 0.230592
0.621048 0.408592 0.239000
0.694145 0.440131 0.243755
0.767904 0.467921 0.247910
0.841985 0.499042 0.254130
0.917081 0.534095 0.264812
0.986233 0.568030 0.280934
1.000000 0.597629 0.302929
1.000000 0.631262 0.342327
0.276982 0.334112 0.160128
0.289043 0.349102 0.160671
0.316429 0.352660 0.163833
0.362926 0.361468 0.170559
0.423468 0.378118 0.181326
0.473793 0.378454 0.212375
0.527190 0.385540 0.245450
0.578766 0.414081 0.251975
0.638728 0.445893 0.258323
0.705275 0.479914 0.265568
0.772274 0.516136 0.274937
0.845139 0.550249 0.283659
0.918029 0.581140 0.294096
0.983252 0.609204 0.309648
1.000000 0.633607 0.330291
1.000000 0.665003 0.372137
0.298143 0.388293 0.163534
0.309080 0.407879 0.164413
0.330734 0.410343 0.167225
0.369127 0.417126 0.173286
0.421283 0.430999 0.183029
0.485994 0.453370 0.196634
0.538475 0.454132 0.233762
0.605587 0.463166 0.273843
0.668243 0.492168 0.280743
0.731678 0.522440 0.287871
0.793869 0.554125 0.296684
0.858705 0.590540 0.309657
0.924014 0.629507 0.329281
0.985631 0.661319 0.352104
1.000000 0.682014 0.374692
1.000000 0.706166 0.413837
0.312437 0.432092 0.163778
0.321309 0.451197 0.163685
0.338649 0.453812 0.166139
0.371452 0.461409 0.171361
0.418256 0.476403 0.179482
0.478999 0.499232 0.191079
0.556641 0.529506 0.206531
0.617476 0.531497 0.251128
0.695137 0.539601 0.300321
0.755858 0.565041 0.311224
0.815750 0.594921 0.321135
0.878568 0.629184 0.336333
0.938954 0.663470 0.357358
0.991515 0.693944 0.383425
1.000000 0.718564 0.411417
1.000000 0.746059 0.455940
0.323998 0.473713 0.160317
0.330494 0.488346 0.159561
0.344900 0.491536 0.161462
0.373107 0.499903 0.165951
0.415089 0.515027 0.172503
0.471418 0.537841 0.181979
0.545981 0.568501 0.194603
0.638373 0.602932 0.214363
0.703294 0.606653 0.269537
0.782561 0.617031 0.331040
0.844163 0.642524 0.352056
0.901401 0.672061 0.369003
0.957356 0.702663 0.393612
0.999756 0.730528 0.424546
1.000000 0.752298 0.455713
1.000000 0.777151 0.500969
0.335130 0.520830 0.151821
0.340728 0.534648 0.149938
0.353646 0.537189 0.151998
0.379188 0.545937 0.155359
0.418785 0.562409 0.160597
0.473487 0.585467 0.168441
0.545264 0.614025 0.180141
0.633207 0.646371 0.196494
0.725012 0.679457 0.224452
0.784419 0.679962 0.291910
0.859220 0.689375 0.366613
0.922774 0.715049 0.406775
0.972552 0.740923 0.433737
1.000000 0.761641 0.461451
1.000000 0.776078 0.484841
1.000000 0.796353 0.525707
0.347112 0.573968 0.129885
0.351483 0.581500 0.128139
0.363446 0.584552 0.129885
0.387774 0.594147 0.132467
0.425837 0.610644 0.136770
0.480201 0.634089 0.143435
0.552618 0.663832 0.154458
0.639759 0.698354 0.171877
0.732790 0.735775 0.198623
0.821915 0.767373 0.247214
0.876280 0.763790 0.333623
0.938079 0.766098 0.426160
0.991370 0.784738 0.487831
1.000000 0.802823 0.520586
1.000000 0.814706 0.547338
1.000000 0.832456 0.591485
0.362688 0.631574 0.057471
0.367817 0.640210 0.043990
0.378525 0.640450 0.053243
0.402409 0.649747 0.059156
0.442128 0.668117 0.063498
0.497984 0.692036 0.075581
0.569242 0.719643 0.096880
0.648133 0.748923 0.125401
0.731181 0.779297 0.161288
0.818652 0.810997 0.207149
0.899388 0.833604 0.282499
0.947358 0.826469 0.386855
0.992468 0.822291 0.490094
1.000000 0.830424 0.561521
1.000000 0.839071 0.585495
1.000000 0.854105 0.627515
0.398059 0.723390 0.000000
0.404416 0.731211 0.000000
0.414480 0.728893 0.000000
0.438310 0.733039 0.000000
0.477726 0.744865 0.000000
0.533562 0.765151 0.000000
0.602196 0.792432 0.000000
0.677913 0.821634 0.000000
0.756870 0.849295 0.104563
0.837241 0.873526 0.190103
0.918096 0.894182 0.265122
0.979976 0.899277 0.368453
1.000000 0.884023 0.481237
1.000000 0.873525 0.586066
1.000000 0.876499 0.663250
1.000000 0.889207 0.704628
0.445008 0.801163 0.000000
0.450020 0.804885 0.000000
0.458547 0.801467 0.000000
0.482042 0.806160 0.000000
0.520669 0.819096 0.000000
0.571398 0.836893 0.000000
0.630918 0.856879 0.000000
0.696028 0.876551 0.000000
0.764915 0.895071 0.000000
0.837325 0.912493 0.130707
0.911260 0.927776 0.239023
0.981645 0.938854 0.333283
1.000000 0.932445 0.449820
1.000000 0.914154 0.557997
1.000000 0.902737 0.654325
1.000000 0.910521 0.749740
0.532299 0.927331 0.000000
0.540999 0.936652 0.000000
0.549060 0.934296 0.000000
0.567785 0.934175 0.000000
0.597967 0.937427 0.000000
0.638629 0.943359 0.000000
0.687644 0.950701 0.000000
0.742218 0.957511 0.000000
0.800467 0.963199 0.000000
0.860779 0.967549 0.175661
0.921557 0.970764 0.279624
0.980240 0.972988 0.372680
1.000000 0.973855 0.467367
1.000000 0.960373 0.583345
1.000000 0.944870 0.681315
1.000000 0.939391 0.771200
0.592401 0.997009 0.000000
0.597351 0.999871 0.000000
0.604596 0.998706 0.000000
0.621039 0.998627 0.000000
0.647114 0.999750 0.000000
0.681392 1.000000 0.000000
0.722609 1.000000 0.000000
0.769479 1.000000 0.000000
0.819894 1.000000 0.058741
0.872569 1.000000 0.225443
0.925078 0.999603 0.321477
0.975531 0.997406 0.408484
1.000000 0.994537 0.493239
1.000000 0.991126 0.591895
1.000000 0.976068 0.699977
1.000000 0.964660 0.784939
0.143044 0.092476 0.146932
0.154289 0.093577 0.147407
0.207900 0.097979 0.151593
0.280916 0.113261 0.155181
0.347950 0.135833 0.159407
0.410974 0.162710 0.165060
0.479543 0.199711 0.173764
0.542929 0.238904 0.183581
0.605098 0.277580 0.192632
0.672893 0.316229 0.200737
0.746151 0.355066 0.208212
0.821399 0.396641 0.216350
0.900898 0.442629 0.226439
0.975484 0.487076 0.240574
1.000000 0.527079 0.260647
1.000000 0.569286 0.296470
0.149277 0.102861 0.147184
0.161862 0.106799 0.149124
0.211886 0.113455 0.152145
0.278046 0.127840 0.156518
0.342722 0.146573 0.160873
0.406507 0.171294 0.166844
0.472534 0.204560 0.175315
0.534624 0.241130 0.184628
0.598089 0.279622 0.193875
0.667729 0.318706 0.202079
0.743075 0.357941 0.209562
0.820160 0.399769 0.217716
0.897956 0.444161 0.227398
0.969114 0.486130 0.240022
1.000000 0.523487 0.257249
1.000000 0.569207 0.295052
0.176223 0.160062 0.154071
0.191173 0.162357 0.154222
0.245158 0.162191 0.160006
0.295767 0.171044 0.168196
0.352498 0.191080 0.173220
0.420289 0.215628 0.180189
0.483959 0.244465 0.188614
0.545363 0.276447 0.196707
0.606948 0.309219 0.204265
0.676037 0.343899 0.211040
0.749661 0.379337 0.217451
0.824997 0.418208 0.224849
0.903884 0.461643 0.234947
0.977302 0.503531 0.249231
1.000000 0.541271 0.269534
1.000000 0.582208 0.306370
0.210224 0.213144 0.158216
0.221716 0.217126 0.158578
0.265984 0.221685 0.161317
0.326246 0.225031 0.174193
0.376388 0.233209 0.190266
0.427866 0.260104 0.198898
0.480913 0.291863 0.208459
0.540076 0.319893 0.215165
0.602521 0.348080 0.220720
0.672905 0.378703 0.225591
0.749004 0.411393 0.230973
0.826101 0.447870 0.237848
0.902656 0.486807 0.247082
0.971989 0.523466 0.259924
1.000000 0.556390 0.277564
1.000000 0.598635 0.317695
0.250907 0.287715 0.166900
0.261774 0.295647 0.167331
0.297590 0.300024 0.170167
0.358061 0.310834 0.178180
0.412477 0.310240 0.200642
0.458330 0.314183 0.224044
0.503679 0.339918 0.231182
0.554034 0.370579 0.238666
0.611890 0.404497 0.245860
0.683116 0.432860 0.249177
0.756348 0.460038 0.252610
0.831717 0.491816 0.258422
0.909080 0.528142 0.268474
0.979840 0.563081 0.283805
1.000000 0.593859 0.304815
1.000000 0.628054 0.342613
0.274876 0.337432 0.171059
0.285886 0.351643 0.172065
0.311312 0.353826 0.174030
0.359258 0.362050 0.180983
0.420028 0.377690 0.192692
0.470728 0.378332 0.221402
0.521494 0.383605 0.251968
0.570610 0.410187 0.257548
0.627895 0.440302 0.263189
0.693333 0.473618 0.269757
0.760982 0.509880 0.278520
0.835719 0.543060 0.286205
0.909645 0.574598 0.296026
0.975400 0.603054 0.310002
1.000000 0.626784 0.327582
1.000000 0.660914 0.370013
0.296173 0.390830 0.172591
0.306404 0.409092 0.173991
0.325975 0.410323 0.175352
0.365451 0.416961 0.181668
0.418301 0.430365 0.191549
0.482849 0.452133 0.205486
0.536217 0.453852 0.240688
0.601332 0.462021 0.279348
0.661704 0.489357 0.285298
0.723683 0.518287 0.291670
0.785585 0.549557 0.300047
0.851849 0.586695 0.312778
0.918892 0.626883 0.332174
0.982074 0.658433 0.353774
1.000000 0.680047 0.376372
1.000000 0.705677 0.416541
0.310866 0.434395 0.171173
0.319465 0.453436 0.171919
0.335063 0.454910 0.172901
0.368577 0.462431 0.178115
0.415969 0.476856 0.186708
0.476513 0.498514 0.198345
0.552341 0.526789 0.213839
0.611883 0.528021 0.256253
0.687809 0.535308 0.303661
0.748191 0.560557 0.313907
0.808918 0.590881 0.323782
0.872565 0.625690 0.338545
0.933484 0.660224 0.358711
0.986350 0.690645 0.383323
1.000000 0.714831 0.409073
1.000000 0.744867 0.456546
0.322751 0.476810 0.166666
0.329456 0.492784 0.166224
0.342513 0.495219 0.167190
0.371586 0.503585 0.171650
0.414307 0.518631 0.178605
0.471621 0.541388 0.188568
0.546860 0.571563 0.201622
0.638808 0.604803 0.221483
0.702011 0.606710 0.274969
0.779196 0.615473 0.334900
0.840055 0.640464 0.354922
0.898008 0.670554 0.371816
0.954919 0.701877 0.396515
0.999098 0.730121 0.427232
1.000000 0.752620 0.458897
1.000000 0.779727 0.508174
0.333982 0.523653 0.157752
0.339759 0.540039 0.155780
0.351798 0.542333 0.156628
0.378095 0.550982 0.160220
0.418209 0.566717 0.165872
0.473201 0.588463 0.174384
0.544469 0.615240 0.186414
0.631365 0.646020 0.202966
0.722717 0.678304 0.230429
0.782067 0.678853 0.296098
0.856903 0.688498 0.370174
0.920283 0.714177 0.409445
0.969854 0.739675 0.435361
1.000000 0.759517 0.460738
1.000000 0.775080 0.485233
1.000000 0.798189 0.531377
0.345763 0.578412 0.135060
0.350192 0.588164 0.132350
0.362478 0.591908 0.133806
0.387640 0.601414 0.136465
0.426749 0.617631 0.141428
0.482136 0.640730 0.148934
0.555778 0.669830 0.160791
0.642149 0.702647 0.179029
0.733358 0.737567 0.205937
0.821276 0.767682 0.252969
0.874949 0.763467 0.337743
0.936820 0.766036 0.429780
0.990344 0.785107 0.491093
1.000000 0.803262 0.523590
1.000000 0.816097 0.552059
1.000000 0.835783 0.600848
0.361199 0.636582 0.067731
0.367780 0.650438 0.046351
0.379937 0.653344 0.052165
0.404933 0.662295 0.059350
0.445141 0.678347 0.069632
0.500963 0.699461 0.084524
0.571303 0.724424 0.107508
0.649424 0.752171 0.134390
0.731888 0.781301 0.169716
0.819019 0.812286 0.214789
0.899913 0.834822 0.288702
0.947009 0.826995 0.391341
0.991310 0.822066 0.492473
1.000000 0.830072 0.562464
1.000000 0.839564 0.588025
1.000000 0.856306 0.634257
0.397936 0.730298 0.000000
0.405753 0.740957 0.000000
0.417636 0.741314 0.000000
0.442987 0.746075 0.000000
0.483595 0.757411 0.000000
0.539993 0.776936 0.000000
0.607515 0.801647 0.000000
0.681215 0.827413 0.001843
0.758099 0.851998 0.122455
0.837262 0.874513 0.198585
0.917576 0.894497 0.271261
0.979788 0.899771 0.373330
1.000000 0.884536 0.485435
1.000000 0.874262 0.590126
1.000000 0.878143 0.668715
1.000000 0.891985 0.713116
0.446219 0.807898 0.000000
0.454730 0.817238 0.000000
0.465032 0.816275 0.000000
0.488697 0.820421 0.000000
0.526327 0.830832 0.000000
0.575819 0.845824 0.000000
0.633901 0.862985 0.000000
0.697945 0.880610 0.000000
0.766297 0.897833 0.000000
0.838410 0.914505 0.146482
0.911999 0.929131 0.248520
0.981754 0.939549 0.340304
1.000000 0.932813 0.453859
1.000000 0.914365 0.560719
1.000000 0.903284 0.657402
1.000000 0.911608 0.753468
0.532745 0.931973 0.000000
0.542234 0.942072 0.000000
0.551331 0.941072 0.000000
0.570594 0.941380 0.000000
0.600982 0.944253 0.000000
0.641330 0.949074 0.000000
0.689688 0.954846 0.000000
0.743349 0.960066 0.000000
0.800691 0.964418 0.000000
0.860517 0.968019 0.185141
0.921139 0.970972 0.285119
0.979851 0.973134 0.377127
1.000000 0.973952 0.471109
1.000000 0.960621 0.586714
1.000000 0.945419 0.685408
1.000000 0.940509 0.776147
0.592096 0.998779 0.000000
0.598067 1.000000 0.000000
0.605976 1.000000 0.000000
0.622324 1.000000 0.000000
0.647993 1.000000 0.000000
0.681776 1.000000 0.000000
0.722553 1.000000 0.000000
0.769263 1.000000 0.000000
0.819704 1.000000 0.080216
0.872455 1.000000 0.233974
0.925042 0.999884 0.327971
0.975354 0.997559 0.413338
1.000000 0.994601 0.496765
1.000000 0.991142 0.594141
1.000000 0.976191 0.701688
1.000000 0.964861 0.786447
0.157210 0.109938 0.188864
0.167205 0.111100 0.189517
0.205018 0.116314 0.194082
0.262396 0.125367 0.198031
0.335478 0.135377 0.203277
0.404736 0.157601 0.209092
0.470598 0.195529 0.218067
0.533111 0.234255 0.225555
0.595172 0.271099 0.230797
0.663669 0.308827 0.235720
0.738784 0.347472 0.240873
0.816340 0.389569 0.247013
0.897476 0.436202 0.255403
0.973044 0.481814 0.267575
1.000000 0.523171 0.285008
1.000000 0.567431 0.318614
0.163956 0.118670 0.185730
0.174784 0.121832 0.189102
0.208470 0.126520 0.193437
0.262716 0.136336 0.197980
0.332884 0.145676 0.203740
0.401224 0.166236 0.209195
0.465375 0.200806 0.217079
0.527029 0.237140 0.224414
0.590648 0.274230 0.230622
0.659101 0.311615 0.235993
0.735744 0.350490 0.241482
0.814685 0.392524 0.247831
0.893912 0.437580 0.255616
0.966248 0.480579 0.266251
1.000000 0.519131 0.280796
1.000000 0.567014 0.316626
0.190699 0.159143 0.199821
0.202481 0.162750 0.201644
0.237992 0.171962 0.205021
0.286324 0.178049 0.209245
0.351201 0.188316 0.212858
0.416941 0.211837 0.219820
0.478540 0.240438 0.227031
0.537544 0.270879 0.233124
0.598419 0.302758 0.238368
0.667233 0.336633 0.243126
0.742476 0.371992 0.247784
0.820021 0.411485 0.253854
0.900499 0.455584 0.262485
0.974877 0.498564 0.274947
1.000000 0.537583 0.292831
1.000000 0.580546 0.327815
0.211751 0.212194 0.209501
0.221275 0.216745 0.211896
0.249553 0.223430 0.210588
0.312512 0.233423 0.216231
0.363678 0.246345 0.228231
0.417529 0.269024 0.235036
0.475007 0.291008 0.240587
0.533850 0.315882 0.245589
0.595016 0.342315 0.249654
0.665271 0.372119 0.253433
0.742638 0.404864 0.257938
0.821221 0.441613 0.263973
0.898979 0.481139 0.272184
0.969306 0.518796 0.283487
1.000000 0.552852 0.299045
1.000000 0.597127 0.337721
0.244403 0.290222 0.217901
0.253574 0.298810 0.220241
0.277898 0.301055 0.216323
0.334293 0.306653 0.219270
0.399991 0.313719 0.237809
0.443964 0.319755 0.255712
0.490212 0.344639 0.261295
0.541319 0.373906 0.267254
0.602882 0.400877 0.270680
0.675462 0.426577 0.272680
0.750259 0.454001 0.275944
0.827511 0.486629 0.281619
0.906099 0.523690 0.291275
0.977687 0.559508 0.305418
1.000000 0.591286 0.324794
1.000000 0.627144 0.361191
0.262870 0.339269 0.208841
0.272983 0.353247 0.212872
0.294929 0.353548 0.211509
0.338369 0.357747 0.213312
0.404225 0.372730 0.227004
0.461109 0.379626 0.251102
0.509696 0.385941 0.276845
0.558984 0.411835 0.281696
0.616379 0.441486 0.286774
0.683065 0.474803 0.293005
0.754317 0.508452 0.300023
0.831878 0.538869 0.306107
0.906628 0.570863 0.315577
0.973179 0.600093 0.328729
1.000000 0.624847 0.345208
1.000000 0.660920 0.387506
0.285130 0.391928 0.204891
0.294626 0.409360 0.208768
0.311548 0.408829 0.207549
0.346428 0.411359 0.208697
0.403497 0.424869 0.219994
0.469833 0.446533 0.235332
0.527398 0.453398 0.265659
0.590318 0.462279 0.300870
0.650771 0.489491 0.306313
0.713991 0.518461 0.312424
0.777661 0.550238 0.320745
0.845899 0.588315 0.333544
0.914649 0.628300 0.352258
0.980215 0.656835 0.370732
1.000000 0.679140 0.392371
1.000000 0.705490 0.431100
0.301371 0.435502 0.198609
0.309247 0.453891 0.201397
0.323136 0.454007 0.200565
0.352080 0.457530 0.201752
0.402316 0.472052 0.211129
0.464389 0.493578 0.224166
0.540512 0.521796 0.240681
0.603700 0.526907 0.278186
0.679156 0.534955 0.323328
0.740077 0.560803 0.332599
0.802446 0.591901 0.342690
0.867211 0.627226 0.357518
0.928921 0.662276 0.377480
0.982457 0.693208 0.401480
1.000000 0.718011 0.426664
1.000000 0.746294 0.471161
0.314450 0.478329 0.191130
0.320287 0.493973 0.192291
0.331943 0.494672 0.191678
0.356951 0.499107 0.192795
0.401658 0.514405 0.200616
0.460295 0.537339 0.211718
0.536066 0.567698 0.226274
0.629470 0.601831 0.246186
0.695414 0.605957 0.295307
0.772531 0.615324 0.353332
0.834061 0.641395 0.372327
0.893350 0.672444 0.389645
0.951041 0.704500 0.414454
0.997694 0.733246 0.444764
1.000000 0.755821 0.474783
1.000000 0.782955 0.522436
0.325877 0.525175 0.181011
0.331246 0.541384 0.180648
0.341410 0.541991 0.180102
0.364335 0.547023 0.181003
0.405905 0.562816 0.187378
0.461798 0.584571 0.196772
0.533522 0.611337 0.209781
0.621365 0.642238 0.227314
0.715129 0.675716 0.253489
0.777185 0.678686 0.315213
0.852804 0.689662 0.388356
0.916123 0.716339 0.426199
0.966086 0.742240 0.451709
0.999998 0.762223 0.475967
1.000000 0.778232 0.499947
1.000000 0.801695 0.545604
0.337627 0.579754 0.160049
0.341750 0.589691 0.158572
0.351203 0.590548 0.157925
0.374134 0.597745 0.159286
0.414553 0.614516 0.164506
0.471027 0.638013 0.173000
0.545551 0.667250 0.185835
0.633392 0.700045 0.204611
0.725715 0.734926 0.231218
0.816527 0.767078 0.274486
0.871311 0.763973 0.355743
0.933651 0.767919 0.447155
0.987170 0.787958 0.506291
1.000000 0.806332 0.538267
1.000000 0.819138 0.565717
1.000000 0.838700 0.612867
0.351381 0.637284 0.115323
0.356764 0.650557 0.108601
0.366441 0.651242 0.108194
0.391639 0.659687 0.111435
0.432620 0.675546 0.117053
0.489396 0.696652 0.126564
0.561025 0.721573 0.142011
0.640833 0.749497 0.165102
0.724831 0.779033 0.196809
0.813403 0.810816 0.239194
0.897116 0.835530 0.308272
0.944573 0.828316 0.408540
0.988705 0.824046 0.507638
1.000000 0.832736 0.575503
1.000000 0.842441 0.600573
1.000000 0.859334 0.646071
0.381854 0.725534 0.000000
0.388903 0.735852 0.000000
0.401120 0.735990 0.000000
0.427413 0.741351 0.000000
0.470203 0.754331 0.000000
0.529156 0.775348 0.000000
0.598806 0.800539 0.001071
0.673839 0.826070 0.076725
0.751938 0.850666 0.158851
0.832106 0.873426 0.223408
0.913491 0.893916 0.292308
0.977751 0.900761 0.390290
1.000000 0.885958 0.500292
1.000000 0.876334 0.603691
1.000000 0.880598 0.679451
1.000000 0.894177 0.721899
0.430922 0.805217 0.000000
0.439517 0.814705 0.000000
0.450692 0.813991 0.000000
0.475538 0.818364 0.000000
0.514842 0.829128 0.000000
0.566003 0.844420 0.000000
0.625763 0.861853 0.000000
0.691177 0.879601 0.000000
0.760874 0.897129 0.020775
0.834252 0.914208 0.177144
0.908867 0.929152 0.269242
0.979120 0.939688 0.357892
1.000000 0.933720 0.467573
1.000000 0.915569 0.573052
1.000000 0.905009 0.668343
1.000000 0.913677 0.761596
0.519635 0.929879 0.000000
0.529037 0.939898 0.000000
0.538680 0.938978 0.000000
0.559062 0.939660 0.000000
0.591004 0.943152 0.000000
0.632937 0.948454 0.000000
0.682638 0.954399 0.000000
0.737545 0.959686 0.000000
0.795923 0.964091 0.039067
0.856791 0.967848 0.206936
0.918392 0.971023 0.301767
0.977609 0.973227 0.391857
1.000000 0.974105 0.483956
1.000000 0.961347 0.597760
1.000000 0.946413 0.694501
1.000000 0.941600 0.782780
0.582916 0.998852 0.000000
0.589051 1.000000 0.000000
0.597261 1.000000 0.000000
0.614240 1.000000 0.000000
0.640522 1.000000 0.000000
0.675221 1.000000 0.000000
0.717050 1.000000 0.000000
0.764670 1.000000 0.000000
0.816075 1.000000 0.130748
0.869733 1.000000 0.249999
0.923027 1.000000 0.341314
0.973603 0.997681 0.425028
1.000000 0.994688 0.507874
1.000000 0.991241 0.603375
1.000000 0.976718 0.709169
1.000000 0.965509 0.792185
0.173739 0.131637 0.240391
0.181962 0.132865 0.241597
0.212870 0.137264 0.245715
0.263495 0.145055 0.251408
0.317237 0.157890 0.251966
0.378582 0.184683 0.260813
0.450913 0.203481 0.271544
0.514556 0.218387 0.271623
0.573940 0.248355 0.273691
0.641465 0.288780 0.279638
0.720437 0.328399 0.284507
0.804287 0.371673 0.290068
0.890526 0.420116 0.297026
0.969020 0.468344 0.306993
1.000000 0.513016 0.322277
1.000000 0.561938 0.353881
0.179289 0.138040 0.233616
0.188045 0.141179 0.239133
0.216839 0.145869 0.243184
0.264354 0.154642 0.248915
0.315706 0.166325 0.250658
0.376153 0.191014 0.260138
0.446818 0.207064 0.269652
0.510228 0.221716 0.269983
0.570922 0.253210 0.273389
0.638604 0.292278 0.279123
0.719136 0.331880 0.284429
0.803057 0.374727 0.290009
0.886684 0.421260 0.296245
0.961754 0.466952 0.304820
1.000000 0.508671 0.317083
1.000000 0.561281 0.351456
0.215789 0.180510 0.249976
0.224639 0.183664 0.252246
0.249189 0.189341 0.254979
0.285089 0.194905 0.258029
0.333731 0.206044 0.263737
0.391306 0.225411 0.272879
0.459447 0.235766 0.278341
0.519033 0.249201 0.275514
0.579549 0.281669 0.279567
0.648740 0.316666 0.284244
0.728062 0.353094 0.288492
0.811036 0.394137 0.293900
0.894891 0.440359 0.301820
0.970869 0.486154 0.313286
1.000000 0.528291 0.329048
1.000000 0.575687 0.362297
0.238693 0.216430 0.253599
0.247839 0.221686 0.257488
0.273099 0.229802 0.260844
0.311028 0.244024 0.266963
0.349267 0.252656 0.273006
0.405015 0.261644 0.277623
0.465453 0.272152 0.277607
0.522427 0.297262 0.282038
0.583074 0.324412 0.285994
0.653701 0.354552 0.289969
0.733313 0.388302 0.294813
0.813634 0.426170 0.301244
0.892980 0.467456 0.309278
0.964948 0.507425 0.319469
1.000000 0.544259 0.333146
1.000000 0.593105 0.370943
0.263750 0.280821 0.274794
0.272917 0.289018 0.280815
0.292406 0.292205 0.282011
0.323400 0.301515 0.283849
0.373416 0.313854 0.283412
0.422560 0.326813 0.293846
0.472832 0.345778 0.297528
0.529442 0.364639 0.300182
0.591956 0.386549 0.302767
0.663760 0.411716 0.305627
0.740408 0.439816 0.309648
0.820402 0.474077 0.316386
0.901024 0.512753 0.326335
0.973960 0.550653 0.339769
1.000000 0.584917 0.357520
1.000000 0.624406 0.392820
0.270408 0.333758 0.274699
0.279266 0.347466 0.282465
0.295422 0.350618 0.280437
0.322313 0.357363 0.273888
0.370421 0.364946 0.269244
0.444343 0.381726 0.291539
0.489766 0.389407 0.311819
0.539165 0.414365 0.316589
0.596644 0.443251 0.321893
0.667989 0.471682 0.326288
0.745986 0.498244 0.330730
0.825258 0.529235 0.337639
0.901302 0.562293 0.347356
0.969115 0.593115 0.359818
1.000000 0.619917 0.375055
1.000000 0.659907 0.417688
0.277505 0.392848 0.262584
0.284019 0.409667 0.269031
0.293665 0.409937 0.263000
0.323890 0.410797 0.258886
0.370821 0.415785 0.257713
0.444512 0.436612 0.276101
0.511624 0.452804 0.303172
0.570937 0.462835 0.334320
0.631191 0.489785 0.339564
0.696373 0.518852 0.345894
0.762920 0.551507 0.354838
0.834775 0.590693 0.368408
0.909530 0.624235 0.382587
0.976724 0.652908 0.399903
1.000000 0.676801 0.420509
1.000000 0.704875 0.457125
0.281532 0.438151 0.243878
0.287558 0.455917 0.249184
0.302980 0.456106 0.248202
0.331234 0.457582 0.246579
0.372273 0.463225 0.246139
0.439556 0.484060 0.261419
