assets/lut/editingcorp maesky.cube
# Created by: G'MIC (https://gmic.eu)
TITLE "maesky"
# LUT size
LUT_3D_SIZE 7
# Data domain
DOMAIN_MIN 0.0 0.0 0.0
DOMAIN_MAX 1.0 1.0 1.0
# LUT data points
0.015148656442761421 0.038227111101150513 0.042390398681163788
0.1099526658654213 0.040100876241922379 0.041446998715400696
0.18715223670005798 0.039100959897041321 0.047601260244846344
0.28983446955680847 0.041142676025629044 0.04873199388384819
0.42994120717048645 0.041595235466957092 0.047164004296064377
0.60332280397415161 0.037857610732316971 0.044544592499732971
0.77096951007843018 0.084692023694515228 0.063421972095966339
0.022598551586270332 0.13415339589118958 0.042922075837850571
0.12937621772289276 0.13690106570720673 0.044603772461414337
0.29139918088912964 0.14833743870258331 0.046752419322729111
0.43961787223815918 0.15222588181495667 0.052229277789592743
0.55344754457473755 0.14526191353797913 0.053204599767923355
0.69874542951583862 0.16245867311954498 0.063790954649448395
0.86127150058746338 0.22893548011779785 0.10196544975042343
0.034909851849079132 0.2302791029214859 0.049776729196310043
0.17526426911354065 0.25717887282371521 0.059832748025655746
0.35678651928901672 0.30013242363929749 0.04796263575553894
0.59523749351501465 0.34387928247451782 0.04621461033821106
0.77650934457778931 0.38510096073150635 0.068815089762210846
0.91052001714706421 0.40970823168754578 0.11643428355455399
0.99162238836288452 0.43663334846496582 0.19938372075557709
0.072615303099155426 0.3704468309879303 0.04957893118262291
0.23485815525054932 0.39761459827423096 0.079004727303981781
0.41816604137420654 0.45185339450836182 0.11102712154388428
0.60993665456771851 0.47222051024436951 0.079159051179885864
0.80761486291885376 0.51441377401351929 0.093256570398807526
0.97519856691360474 0.57590341567993164 0.18555136024951935
1 0.61697572469711304 0.2974143922328949
0.16750718653202057 0.50392484664916992 0.072673633694648743
0.31526058912277222 0.52362746000289917 0.098511837422847748
0.48050028085708618 0.59509110450744629 0.18133783340454102
0.65453565120697021 0.6176263689994812 0.19137738645076752
0.81899255514144897 0.62959516048431396 0.17886863648891449
0.97738373279571533 0.67642134428024292 0.24378879368305206
1 0.72882258892059326 0.3437599241733551
0.29171028733253479 0.63957560062408447 0.13174572587013245
0.41909071803092957 0.64879715442657471 0.14244639873504639
0.5514635443687439 0.71301144361495972 0.22126190364360809
0.7014697790145874 0.76221746206283569 0.27819684147834778
0.85756075382232666 0.76952975988388062 0.30016911029815674
0.98758876323699951 0.78774338960647583 0.32974937558174133
1 0.81475132703781128 0.36346668004989624
0.40342134237289429 0.79976576566696167 0.21848414838314056
0.52229171991348267 0.80197763442993164 0.22260262072086334
0.64060693979263306 0.84459215402603149 0.27881327271461487
0.76128160953521729 0.9049033522605896 0.3704286515712738
0.90873199701309204 0.92051661014556885 0.41767525672912598
0.99988508224487305 0.92971241474151611 0.44447284936904907
1 0.94527387619018555 0.45861038565635681
0.022273434326052666 0.041249264031648636 0.13715045154094696
0.12096856534481049 0.036881331354379654 0.14702978730201721
0.23146884143352509 0.04093049094080925 0.15927432477474213
0.37023761868476868 0.040950071066617966 0.17999187111854553
0.50861644744873047 0.027632754296064377 0.19918924570083618
0.66726398468017578 0.054264485836029053 0.19962170720100403
0.82296591997146606 0.12301672995090485 0.21259233355522156
0.016982853412628174 0.12660123407840729 0.12637203931808472
0.14132231473922729 0.14025150239467621 0.14998733997344971
0.31037637591362 0.1590600311756134 0.17115926742553711
0.48172205686569214 0.17832215130329132 0.19823388755321503
0.6066165566444397 0.19181028008460999 0.22137318551540375
0.73552560806274414 0.22079023718833923 0.22886870801448822
0.86752688884735107 0.26907971501350403 0.2493213564157486
0.025205515325069427 0.24662993848323822 0.13146407902240753
0.1701359748840332 0.2807621955871582 0.16859674453735352
0.36605080962181091 0.33946728706359863 0.20301823318004608
0.59049534797668457 0.39293000102043152 0.22556418180465698
0.7768867015838623 0.43638414144515991 0.27644196152687073
0.89620929956436157 0.45050618052482605 0.32108607888221741
0.97196656465530396 0.46888795495033264 0.35211783647537231
0.085143923759460449 0.38678398728370667 0.15068089962005615
0.23904088139533997 0.41024491190910339 0.19405664503574371
0.42160111665725708 0.47939828038215637 0.27079677581787109
0.61817663908004761 0.52323579788208008 0.27146917581558228
0.80331504344940186 0.58515292406082153 0.31160447001457214
0.96379309892654419 0.63644963502883911 0.3902493417263031
1 0.66128981113433838 0.44707593321800232
0.19408215582370758 0.51846635341644287 0.19029411673545837
0.32810211181640625 0.52447724342346191 0.21311087906360626
0.47217154502868652 0.59758657217025757 0.31368741393089294
0.6509895920753479 0.64341068267822266 0.35393565893173218
0.82386177778244019 0.67281472682952881 0.35486018657684326
0.97125351428985596 0.73370838165283203 0.42599710822105408
1 0.78198003768920898 0.49442040920257568
0.30698060989379883 0.65238708257675171 0.25349017977714539
0.43134525418281555 0.65732842683792114 0.2649848461151123
0.5547490119934082 0.7085651159286499 0.33626875281333923
0.69275814294815063 0.77545905113220215 0.41966676712036133
0.86286836862564087 0.79549020528793335 0.44008311629295349
0.98963159322738647 0.82219010591506958 0.48264345526695251
0.99963557720184326 0.8531113862991333 0.52452230453491211
0.4019964337348938 0.81284677982330322 0.3347834050655365
0.52826350927352905 0.81683951616287231 0.33919024467468262
0.65568059682846069 0.84134203195571899 0.36947852373123169
0.76154625415802002 0.90954303741455078 0.48061847686767578
0.90545070171356201 0.94262027740478516 0.54275506734848022
1 0.95671463012695312 0.57318532466888428
0.99602943658828735 0.97386777400970459 0.6216120719909668
0.022895634174346924 0.035646729171276093 0.20460079610347748
0.11933284252882004 0.030511325225234032 0.24332107603549957
0.27696150541305542 0.030366545543074608 0.29424810409545898
0.45379573106765747 0.037966962903738022 0.34375441074371338
0.60639774799346924 0.058360666036605835 0.37191331386566162
0.75301992893218994 0.11522606015205383 0.3847840428352356
0.90908640623092651 0.18982614576816559 0.3974931538105011
0.022883696481585503 0.11731230467557907 0.25063645839691162
0.14833894371986389 0.14173029363155365 0.30173170566558838
0.33252057433128357 0.16874983906745911 0.33844959735870361
0.51554954051971436 0.20321407914161682 0.36951816082000732
0.67250919342041016 0.25243374705314636 0.39348077774047852
0.80382245779037476 0.29720410704612732 0.41861703991889954
0.94769424200057983 0.34476721286773682 0.43823063373565674
0.012332676909863949 0.25896725058555603 0.27002233266830444
0.1448056548833847 0.30960249900817871 0.32360827922821045
0.3766234815120697 0.3906950056552887 0.3929135799407959
0.57623237371444702 0.41763117909431458 0.41916564106941223
0.75538164377212524 0.45562359690666199 0.4522436261177063
0.90912419557571411 0.4925178587436676 0.4834287166595459
0.99865168333053589 0.52062809467315674 0.50820589065551758
0.065682321786880493 0.41799071431159973 0.29367145895957947
0.21441546082496643 0.45822250843048096 0.33987563848495483
0.41173851490020752 0.5417589545249939 0.4180806577205658
0.60382825136184692 0.59042596817016602 0.45533367991447449
0.79272359609603882 0.63367831707000732 0.48491647839546204
0.96685314178466797 0.67240673303604126 0.54618650674819946
1 0.69260400533676147 0.58981305360794067
0.19178348779678345 0.56040441989898682 0.3370298445224762
0.33231407403945923 0.57001501321792603 0.36140298843383789
0.46808230876922607 0.61360675096511841 0.42861935496330261
0.63003367185592651 0.68706560134887695 0.51003998517990112
0.81863117218017578 0.72895687818527222 0.51935291290283203
0.9682917594909668 0.78980928659439087 0.57288473844528198
0.99998366832733154 0.83235561847686768 0.63319963216781616
0.30615720152854919 0.68751806020736694 0.38571304082870483
0.44425028562545776 0.68601369857788086 0.39709970355033875
0.56636083126068115 0.7016492486000061 0.44349932670593262
0.69119936227798462 0.76928794384002686 0.54423326253890991
0.85399240255355835 0.81855398416519165 0.59808081388473511
0.9966890811920166 0.85712718963623047 0.62414205074310303
0.9991878867149353 0.90382015705108643 0.66596263647079468
0.39239665865898132 0.83278411626815796 0.44981369376182556
0.53413844108581543 0.8355596661567688 0.45541903376579285
0.66466259956359863 0.84471672773361206 0.47089454531669617
0.77181553840637207 0.89809095859527588 0.57759839296340942
0.89789384603500366 0.9561648964881897 0.69913661479949951
1 0.97834295034408569 0.73666942119598389
0.99745160341262817 0.9906802773475647 0.77032727003097534
0.01233145035803318 0.02566109411418438 0.3195662796497345
0.10965453833341599 0.032802209258079529 0.36321073770523071
0.29856184124946594 0.038541652262210846 0.45226630568504333
0.49962848424911499 0.034941237419843674 0.47385314106941223
0.63635742664337158 0.053356483578681946 0.5163988471031189
0.77717584371566772 0.15304280817508698 0.53633302450180054
0.93809908628463745 0.24202947318553925 0.54522687196731567
0.0094427671283483505 0.11853444576263428 0.37735134363174438
0.13727404177188873 0.1426466703414917 0.43090841174125671
0.3464188277721405 0.18856120109558105 0.50277805328369141
0.53781318664550781 0.18672643601894379 0.51369017362594604
0.68321496248245239 0.2479567676782608 0.54037046432495117
0.8330504298210144 0.34404817223548889 0.55907303094863892
0.97947269678115845 0.39454522728919983 0.58847439289093018
0.025636486709117889 0.2737804651260376 0.4394528865814209
0.17120194435119629 0.32738399505615234 0.49417132139205933
0.39394029974937439 0.40685278177261353 0.57182413339614868
0.59431391954421997 0.43547931313514709 0.59875571727752686
0.75036156177520752 0.46498802304267883 0.60001546144485474
0.89902335405349731 0.51057499647140503 0.62047195434570312
0.99779963493347168 0.55020236968994141 0.65418213605880737
0.029669683426618576 0.42455676198005676 0.452797532081604
0.19188357889652252 0.47591936588287354 0.50752949714660645
0.41500809788703918 0.57197928428649902 0.58679044246673584
0.61961120367050171 0.61893343925476074 0.62976336479187012
0.79154640436172485 0.63364404439926147 0.64691245555877686
0.94925040006637573 0.66493099927902222 0.68013125658035278
1 0.69309276342391968 0.71301025152206421
0.13386180996894836 0.57425093650817871 0.47590723633766174
0.2966306209564209 0.61185777187347412 0.52294677495956421
0.46530264616012573 0.66437447071075439 0.5758131742477417
0.63451141119003296 0.73630309104919434 0.63724726438522339
0.80132770538330078 0.76886427402496338 0.66584664583206177
0.96953016519546509 0.80726373195648193 0.70668333768844604
0.99934536218643188 0.83342665433883667 0.75646311044692993
0.27093595266342163 0.7071036696434021 0.51249426603317261
0.43582209944725037 0.73858880996704102 0.54572600126266479
0.5678521990776062 0.74528640508651733 0.57161813974380493
0.69215553998947144 0.79006290435791016 0.64010024070739746
0.8317902684211731 0.85640066862106323 0.72409653663635254
0.99020588397979736 0.90301042795181274 0.75750464200973511
0.99794131517410278 0.94405615329742432 0.78975635766983032
0.36171522736549377 0.84897834062576294 0.5647086501121521
0.51976966857910156 0.8705708384513855 0.58763545751571655
0.65984147787094116 0.87187916040420532 0.5955016016960144
0.77969539165496826 0.89462190866470337 0.66303175687789917
0.89535057544708252 0.9666445255279541 0.80523538589477539
0.99836057424545288 0.99184530973434448 0.86141681671142578
0.99843704700469971 1 0.87643551826477051
0.0060644261538982391 0.031972967088222504 0.47881174087524414
0.13339284062385559 0.031386371701955795 0.49715110659599304
0.31148022413253784 0.044779684394598007 0.61002236604690552
0.50795352458953857 0.033792998641729355 0.61076027154922485
0.66441279649734497 0.041536174714565277 0.62500494718551636
0.78532981872558594 0.12204015254974365 0.66410118341445923
0.93220162391662598 0.26151978969573975 0.67812234163284302
0.0083377761766314507 0.13872693479061127 0.50862157344818115
0.15381745994091034 0.149659663438797 0.54020124673843384
0.35889390110969543 0.20162303745746613 0.64433479309082031
0.54746764898300171 0.21349097788333893 0.6468237042427063
0.70203197002410889 0.24939198791980743 0.65847307443618774
0.84208613634109497 0.3318992555141449 0.68425178527832031
0.98310393095016479 0.4254668653011322 0.71087837219238281
0.065852805972099304 0.30692258477210999 0.59474492073059082
0.21535949409008026 0.35431918501853943 0.62910223007202148
0.41503587365150452 0.41950953006744385 0.70286250114440918
0.61460429430007935 0.45348238945007324 0.73608767986297607
0.77576851844787598 0.48401889204978943 0.73847776651382446
0.913074791431427 0.53207409381866455 0.74694335460662842
0.99898338317871094 0.59836280345916748 0.76899570226669312
0.11612015962600708 0.45762860774993896 0.62787675857543945
0.26660060882568359 0.50779789686203003 0.67039686441421509
0.44946473836898804 0.5782090425491333 0.73088419437408447
0.63721960783004761 0.62477028369903564 0.7832106351852417
0.80615544319152832 0.64107072353363037 0.80140554904937744
0.95083385705947876 0.67047291994094849 0.81335693597793579
0.99944472312927246 0.70160108804702759 0.83166199922561646
0.17194665968418121 0.58252555131912231 0.63447791337966919
0.29680150747299194 0.61946201324462891 0.67564874887466431
0.47116813063621521 0.67851251363754272 0.73072785139083862
0.6476287841796875 0.75584208965301514 0.7884751558303833
0.81843161582946777 0.78524523973464966 0.82387548685073853
0.97790879011154175 0.80299389362335205 0.85071396827697754
0.99815601110458374 0.82783693075180054 0.88144028186798096
0.24283647537231445 0.70374178886413574 0.6396670937538147
0.38561332225799561 0.74473601579666138 0.68307918310165405
0.54151010513305664 0.77638936042785645 0.72342962026596069
0.68963432312011719 0.82560867071151733 0.76675224304199219
0.83461904525756836 0.89245682954788208 0.83268862962722778
0.97618377208709717 0.92141228914260864 0.86883068084716797
0.99548989534378052 0.94877827167510986 0.90822321176528931
0.3174126148223877 0.85239803791046143 0.68003666400909424
0.46105647087097168 0.87925130128860474 0.71154248714447021
0.61535155773162842 0.90742784738540649 0.73979741334915161
0.7647516131401062 0.92986899614334106 0.78231137990951538
0.88968628644943237 0.98437196016311646 0.87217140197753906
0.994698166847229 0.99906682968139648 0.93554967641830444
0.99985063076019287 1 0.9514772891998291
0.022183451801538467 0.02370268851518631 0.64118343591690063
0.15488888323307037 0.036770422011613846 0.64034146070480347
0.32450950145721436 0.054713141173124313 0.73736083507537842
0.49967968463897705 0.041691455990076065 0.77769464254379272
0.680217444896698 0.056587878614664078 0.74759936332702637
0.83333933353424072 0.088814139366149902 0.76864564418792725
0.95306742191314697 0.25555360317230225 0.81400638818740845
0.03135477751493454 0.17047543823719025 0.64863431453704834
0.16673083603382111 0.17613761126995087 0.66054832935333252
0.36557790637016296 0.22324161231517792 0.76410859823226929
0.53990030288696289 0.26845011115074158 0.80349338054656982
0.69240444898605347 0.28592365980148315 0.77009928226470947
0.84861153364181519 0.32185283303260803 0.78907316923141479
0.98531711101531982 0.4193577766418457 0.83284986019134521
0.094632618129253387 0.35138478875160217 0.71727496385574341
0.22675366699695587 0.37946078181266785 0.72981435060501099
0.41521596908569336 0.42483562231063843 0.79745244979858398
0.61515021324157715 0.47143957018852234 0.86105179786682129
0.77816039323806763 0.5077972412109375 0.87130379676818848
0.92554336786270142 0.5424572229385376 0.86723190546035767
0.99972778558731079 0.5927739143371582 0.88029283285140991
0.18088109791278839 0.49735948443412781 0.77300739288330078
0.31233713030815125 0.53348135948181152 0.80203926563262939
0.47669321298599243 0.58625572919845581 0.84547203779220581
0.6477167010307312 0.62824755907058716 0.8867003321647644
0.81125116348266602 0.65945518016815186 0.93420445919036865
0.9696732759475708 0.69098824262619019 0.93893110752105713
0.99998831748962402 0.72396814823150635 0.95185160636901855
0.24531760811805725 0.61484372615814209 0.79337978363037109
0.35793522000312805 0.64884477853775024 0.82579272985458374
0.51757162809371948 0.69852280616760254 0.86806029081344604
0.67564314603805542 0.74693071842193604 0.92189091444015503
0.82980704307556152 0.78192687034606934 0.97875535488128662
0.97707879543304443 0.79451864957809448 0.98738402128219604
0.99931758642196655 0.82174587249755859 0.99504834413528442
0.29527100920677185 0.7265932559967041 0.79593300819396973
0.39260625839233398 0.74864012002944946 0.82827532291412354
0.53854656219482422 0.79050874710083008 0.87199944257736206
0.6948169469833374 0.83575236797332764 0.9227299690246582
0.84133660793304443 0.89719992876052856 0.97275620698928833
0.98788249492645264 0.92947936058044434 0.99358713626861572
0.9966052770614624 0.94269877672195435 0.99782180786132812
0.32035684585571289 0.87232685089111328 0.81364673376083374
0.43271851539611816 0.88526731729507446 0.83834183216094971
0.56497013568878174 0.91758328676223755 0.878642737865448
0.73157697916030884 0.95058530569076538 0.92486530542373657
0.8891831636428833 0.98859143257141113 0.97158569097518921
0.99758851528167725 1 0.99865055084228516
1 1 1
0.039124209433794022 0.067558884620666504 0.80962955951690674
0.17016716301441193 0.074608489871025085 0.81660610437393188
0.33588644862174988 0.11724509298801422 0.88540136814117432
0.50488966703414917 0.15884564816951752 0.94955134391784668
0.66915106773376465 0.16392651200294495 0.93728268146514893
0.83688068389892578 0.14357222616672516 0.92348098754882812
0.96619600057601929 0.27711361646652222 0.93307381868362427
0.058311671018600464 0.22681924700737 0.81566393375396729
0.18764135241508484 0.22646240890026093 0.81819087266921997
0.37479522824287415 0.26126423478126526 0.88959509134292603
0.55198013782501221 0.33815813064575195 0.97442036867141724
0.68877661228179932 0.37164407968521118 0.96463155746459961
0.84102386236190796 0.36411350965499878 0.94470870494842529
0.97918874025344849 0.42904490232467651 0.95045626163482666
0.1238672286272049 0.40690305829048157 0.86223137378692627
0.2482103705406189 0.42670577764511108 0.87432372570037842
0.43346858024597168 0.44770997762680054 0.93108272552490234
0.61850059032440186 0.49283716082572937 0.98854446411132812
0.76220321655273438 0.54023069143295288 0.99679183959960938
0.90845197439193726 0.56714802980422974 0.98921501636505127
0.99438512325286865 0.59121310710906982 0.99460715055465698
0.22691135108470917 0.53702908754348755 0.92924529314041138
0.34822186827659607 0.57130128145217896 0.94486278295516968
0.50030398368835449 0.60766398906707764 0.97569292783737183
0.66212409734725952 0.63603001832962036 0.99461895227432251
0.81262671947479248 0.67834937572479248 0.99935245513916016
0.95800048112869263 0.71860647201538086 0.99836039543151855
0.99863910675048828 0.74288260936737061 0.99965327978134155
0.30309981107711792 0.64944493770599365 0.96665948629379272
0.42030143737792969 0.67685031890869141 0.98513054847717285
0.56063365936279297 0.71294581890106201 0.99689978361129761
0.70704191923141479 0.75061368942260742 1
0.85068964958190918 0.79143697023391724 1
0.97515159845352173 0.81725525856018066 1
1 0.83661341667175293 1
0.35867798328399658 0.75781816244125366 0.97429203987121582
0.46607518196105957 0.77677863836288452 0.99152761697769165
0.58701497316360474 0.80750399827957153 0.99838721752166748
0.73091518878936768 0.84962111711502075 0.99986106157302856
0.87623399496078491 0.89739084243774414 0.9998469352722168
0.99605017900466919 0.93143212795257568 0.99983030557632446
0.9988219141960144 0.94041436910629272 1
0.38343155384063721 0.88567304611206055 0.98565125465393066
0.48293283581733704 0.90200281143188477 0.99111497402191162
0.59076416492462158 0.92411065101623535 0.99875360727310181
0.73511123657226562 0.9488556981086731 1
0.8837209939956665 0.98902308940887451 1
0.99527382850646973 0.99985009431838989 0.99958425760269165
1 1 1
