assets/lut/editingcorpw Enchanted Evening.cube
LUT_3D_SIZE 16
DOMAIN_MIN 0.0 0.0 0.0
DOMAIN_MAX 1.0 1.0 1.0
0.127871 0.121828 0.131685
0.143893 0.121871 0.131862
0.194333 0.122756 0.132150
0.255503 0.123879 0.133169
0.314519 0.126613 0.134365
0.373480 0.130526 0.135714
0.438123 0.135463 0.136575
0.513249 0.142855 0.136989
0.587054 0.153213 0.137392
0.661451 0.164901 0.136904
0.733974 0.176883 0.135836
0.805734 0.187576 0.134731
0.880461 0.197958 0.133425
0.951849 0.207383 0.133083
1.000000 0.216287 0.134988
1.000000 0.228855 0.144839
0.124990 0.135091 0.132595
0.142498 0.136172 0.132026
0.191819 0.138352 0.132298
0.251404 0.139306 0.133236
0.310034 0.140604 0.134380
0.369012 0.142941 0.136007
0.434890 0.147418 0.136611
0.508504 0.154406 0.137057
0.581540 0.163984 0.137601
0.656115 0.174469 0.137093
0.730116 0.185586 0.136043
0.803700 0.196700 0.134628
0.877911 0.205864 0.133284
0.947925 0.214786 0.132448
0.999950 0.223058 0.133797
1.000000 0.234916 0.143703
0.111861 0.178500 0.136452
0.122655 0.178619 0.137095
0.190318 0.182008 0.132816
0.253787 0.181307 0.133874
0.311601 0.185580 0.135601
0.372357 0.185922 0.136214
0.443695 0.190445 0.136750
0.515692 0.196913 0.137319
0.587709 0.204529 0.137469
0.661274 0.213485 0.136588
0.733474 0.222208 0.135030
0.805134 0.230284 0.133534
0.879603 0.238259 0.131979
0.950728 0.245316 0.131539
1.000000 0.251613 0.133878
1.000000 0.260685 0.143453
0.092079 0.219968 0.141976
0.101414 0.220980 0.142530
0.147906 0.222345 0.141619
0.239381 0.232178 0.134801
0.315459 0.229948 0.134839
0.375848 0.244493 0.137807
0.443972 0.251281 0.138508
0.514315 0.256516 0.138618
0.585443 0.262504 0.137601
0.658770 0.269773 0.135820
0.731899 0.276915 0.133272
0.805092 0.283296 0.131384
0.878692 0.289105 0.129614
0.947914 0.293664 0.128881
0.999777 0.297078 0.130937
1.000000 0.304094 0.142507
0.000159 0.271684 0.148794
0.007592 0.274677 0.149161
0.099723 0.271233 0.150277
0.191943 0.281496 0.146129
0.302733 0.299344 0.135212
0.392517 0.294657 0.134212
0.453642 0.309968 0.137720
0.519517 0.328235 0.140123
0.590716 0.333953 0.137359
0.663842 0.339702 0.133453
0.734920 0.344231 0.130569
0.806814 0.348257 0.127706
0.880715 0.352468 0.125611
0.950611 0.355647 0.125724
1.000000 0.356609 0.129246
1.000000 0.359271 0.140975
0.000000 0.312230 0.154208
0.000000 0.319030 0.154775
0.000000 0.314806 0.155679
0.130623 0.314165 0.154965
0.237461 0.331670 0.148074
0.353887 0.356329 0.133303
0.457898 0.354791 0.129311
0.522045 0.372802 0.131210
0.590057 0.395508 0.133394
0.662287 0.413080 0.131026
0.734432 0.416724 0.126192
0.808200 0.420093 0.122793
0.881077 0.422547 0.120241
0.948546 0.422803 0.121272
0.999548 0.420856 0.125575
1.000000 0.421363 0.140993
0.000000 0.353137 0.158217
0.000000 0.362640 0.159130
0.000000 0.357842 0.159663
0.000000 0.349413 0.160416
0.171438 0.360525 0.156626
0.283891 0.384363 0.146609
0.404722 0.416009 0.125312
0.521304 0.420992 0.116216
0.594652 0.441240 0.111329
0.665063 0.464612 0.115242
0.735799 0.487367 0.118745
0.809239 0.496217 0.116832
0.882374 0.497320 0.115908
0.950574 0.496197 0.119156
0.999890 0.491522 0.127209
1.000000 0.487803 0.144076
0.000000 0.387305 0.160110
0.000000 0.396478 0.160736
0.000000 0.392267 0.161146
0.000000 0.384816 0.161915
0.041631 0.382171 0.161774
0.211972 0.405878 0.154916
0.328071 0.437746 0.140405
0.455074 0.477841 0.107482
0.580690 0.490690 0.084495
0.665052 0.508719 0.057226
0.736122 0.529753 0.075874
0.810321 0.552021 0.096201
0.882352 0.571135 0.113273
0.947630 0.569018 0.121892
0.998835 0.560569 0.131081
1.000000 0.553955 0.150313
0.000000 0.419220 0.160372
0.000000 0.426109 0.160740
0.000000 0.422646 0.161150
0.000000 0.416455 0.161879
0.000000 0.407811 0.162910
0.114687 0.421296 0.159676
0.251216 0.452393 0.149481
0.371640 0.492586 0.127765
0.506048 0.542592 0.046212
0.639775 0.562351 0.000000
0.740035 0.577441 0.000000
0.813656 0.596454 0.000425
0.885132 0.614582 0.060433
0.950199 0.629008 0.120794
0.999054 0.633377 0.153923
1.000000 0.623700 0.175211
0.000000 0.453724 0.159023
0.000000 0.460042 0.159110
0.000000 0.456363 0.159562
0.000000 0.450791 0.160250
0.000000 0.443255 0.161367
0.000000 0.438648 0.161642
0.158630 0.468773 0.153701
0.291824 0.506983 0.137571
0.417537 0.554364 0.100271
0.559044 0.609006 0.000000
0.696785 0.629975 0.000000
0.815753 0.642470 0.000000
0.886971 0.656994 0.000000
0.948724 0.666963 0.051129
0.998259 0.672220 0.134552
1.000000 0.678523 0.185421
0.000000 0.491615 0.153689
0.000000 0.494392 0.153707
0.000000 0.491127 0.154055
0.000000 0.486433 0.154910
0.000000 0.479829 0.156039
0.000000 0.470649 0.157626
0.000000 0.486433 0.153133
0.195938 0.526122 0.138723
0.335479 0.575586 0.106086
0.472566 0.630653 0.000000
0.626337 0.686732 0.000000
0.769491 0.705086 0.000000
0.893687 0.704976 0.000000
0.956097 0.711745 0.000000
0.999628 0.713789 0.110316
1.000000 0.717189 0.183566
0.000000 0.535381 0.141061
0.000000 0.538292 0.140642
0.000000 0.534099 0.141481
0.000000 0.529795 0.142701
0.000000 0.524390 0.144031
0.000000 0.515978 0.145883
0.000000 0.508390 0.147083
0.000000 0.546372 0.131961
0.231749 0.593437 0.099650
0.381787 0.646836 0.000000
0.530229 0.703328 0.000000
0.694547 0.756341 0.000000
0.837298 0.770498 0.000000
0.953197 0.752340 0.000000
0.999159 0.750440 0.000000
1.000000 0.750668 0.146151
0.000000 0.601630 0.107314
0.000000 0.604462 0.106412
0.000000 0.599073 0.108731
0.000000 0.592653 0.111480
0.000000 0.585109 0.114375
0.000000 0.576636 0.117708
0.000000 0.566352 0.121578
0.000000 0.584662 0.109097
0.000000 0.633697 0.030352
0.276009 0.686499 0.000000
0.444587 0.739559 0.000000
0.606682 0.789020 0.000000
0.773428 0.830254 0.000000
0.907876 0.833094 0.000000
0.998772 0.797764 0.000000
1.000000 0.792166 0.149221
0.000000 0.671308 0.000000
0.000000 0.672420 0.000000
0.000000 0.666754 0.000000
0.000000 0.661748 0.000000
0.000000 0.657157 0.002800
0.000000 0.650990 0.006922
0.000000 0.641761 0.012761
0.000000 0.632180 0.015967
0.000000 0.674750 0.000000
0.026260 0.724511 0.000000
0.334069 0.775277 0.000000
0.513938 0.821755 0.000000
0.679870 0.859159 0.000000
0.836682 0.884664 0.000000
0.961078 0.878416 0.000000
1.000000 0.835214 0.106478
0.000000 0.792044 0.000000
0.000000 0.799554 0.000000
0.000000 0.794754 0.000000
0.000000 0.789424 0.000000
0.000000 0.784235 0.000000
0.000000 0.778628 0.000000
0.000000 0.772134 0.000000
0.000000 0.763363 0.000000
0.000000 0.775792 0.000000
0.000000 0.814588 0.000000
0.057581 0.851828 0.000000
0.422581 0.884997 0.000000
0.604411 0.911095 0.000000
0.760495 0.928894 0.000000
0.905632 0.938909 0.000000
1.000000 0.927923 0.009223
0.000000 0.912261 0.000000
0.000000 0.916546 0.000000
0.000000 0.913866 0.000000
0.000000 0.912053 0.000000
0.000000 0.911430 0.000000
0.000000 0.910491 0.000000
0.000000 0.908830 0.000000
0.000000 0.906462 0.000000
0.000000 0.904424 0.000000
0.000000 0.924645 0.000000
0.000000 0.945006 0.000000
0.302269 0.961346 0.000000
0.531804 0.973931 0.000000
0.694997 0.982410 0.096462
0.837974 0.986810 0.144833
0.974395 0.987396 0.177066
0.128341 0.123903 0.143013
0.143681 0.124181 0.142535
0.191158 0.123763 0.143886
0.253141 0.124817 0.144205
0.311825 0.128361 0.144909
0.370696 0.132070 0.145712
0.436503 0.137181 0.146533
0.509255 0.144981 0.147412
0.579504 0.154208 0.147988
0.650052 0.164391 0.147560
0.720925 0.175155 0.146218
0.792859 0.185681 0.144677
0.868956 0.195788 0.142779
0.942041 0.204675 0.141966
0.999197 0.213787 0.142607
1.000000 0.224155 0.149428
0.130573 0.136771 0.141893
0.143938 0.136975 0.142543
0.190392 0.137891 0.143153
0.248753 0.139687 0.144146
0.307295 0.141630 0.144716
0.366177 0.144551 0.145760
0.432516 0.148998 0.146612
0.503574 0.155960 0.147642
0.574677 0.164629 0.148073
0.646576 0.174382 0.147487
0.718836 0.184461 0.146128
0.791981 0.194401 0.144559
0.866827 0.203607 0.142618
0.937424 0.212026 0.141098
0.997901 0.219179 0.141491
1.000000 0.230410 0.148032
0.130819 0.180239 0.148488
0.134099 0.180863 0.146413
0.191764 0.183070 0.143879
0.252790 0.184284 0.145240
0.310738 0.186271 0.146257
0.371788 0.187122 0.146971
0.442515 0.191949 0.147789
0.512961 0.197806 0.148241
0.581828 0.204416 0.148156
0.652544 0.211800 0.147160
0.723368 0.219892 0.145430
0.795386 0.227914 0.143475
0.871159 0.235779 0.141676
0.943518 0.242995 0.140569
0.999359 0.249216 0.141878
1.000000 0.257814 0.148951
0.113059 0.222624 0.152023
0.114933 0.224047 0.150512
0.151911 0.223732 0.150448
0.240856 0.233658 0.144949
0.315064 0.232398 0.145709
0.374742 0.245965 0.149325
0.441804 0.251318 0.149756
0.510721 0.255865 0.149356
0.579558 0.260973 0.148311
0.650585 0.267120 0.146430
0.722778 0.273816 0.143726
0.796070 0.280276 0.141634
0.870336 0.286122 0.139247
0.939770 0.290521 0.138047
0.998192 0.293925 0.138766
1.000000 0.300835 0.147720
0.034748 0.275832 0.157649
0.034287 0.279208 0.156545
0.110882 0.275425 0.157172
0.194558 0.283565 0.154085
0.303573 0.300403 0.145046
0.391423 0.295449 0.144536
0.451378 0.310390 0.148794
0.515985 0.327032 0.151195
0.585331 0.331122 0.148266
0.656679 0.336192 0.144596
0.727093 0.340677 0.141108
0.799694 0.344970 0.138444
0.874890 0.349862 0.135903
0.945784 0.353323 0.135483
0.999530 0.354640 0.138356
1.000000 0.357500 0.147852
0.000000 0.315978 0.160965
0.000000 0.322870 0.160471
0.003638 0.318490 0.161000
0.132440 0.315739 0.160660
0.238537 0.332970 0.154442
0.354369 0.356573 0.141243
0.455438 0.353938 0.139326
0.517737 0.370736 0.142057
0.583811 0.392398 0.145066
0.655156 0.408346 0.142287
0.727242 0.412366 0.137448
0.801523 0.416366 0.133862
0.874915 0.419351 0.131272
0.942578 0.419759 0.131108
0.998387 0.417850 0.133624
1.000000 0.419299 0.146725
0.000000 0.356393 0.163642
0.000000 0.365419 0.163725
0.000000 0.360636 0.163926
0.004790 0.352076 0.164570
0.172201 0.361365 0.161229
0.283871 0.384879 0.152244
0.405190 0.416284 0.133046
0.520418 0.420398 0.126577
0.591747 0.439591 0.123132
0.660722 0.462090 0.127815
0.730802 0.484873 0.131546
0.804793 0.493332 0.129194
0.879026 0.495251 0.127348
0.947894 0.494385 0.130056
0.999491 0.490215 0.136979
1.000000 0.487296 0.152327
0.000000 0.390133 0.164496
0.000000 0.399514 0.164464
0.000000 0.395266 0.164789
0.000000 0.387653 0.165274
0.041939 0.383326 0.165257
0.212326 0.406367 0.159024
0.327754 0.437240 0.145860
0.453693 0.476197 0.116683
0.577628 0.488006 0.100907
0.660969 0.505904 0.089434
0.732006 0.527311 0.099828
0.806492 0.549980 0.111780
0.878576 0.568860 0.125488
0.943890 0.566484 0.131542
0.998135 0.558566 0.139000
1.000000 0.553113 0.158151
0.000000 0.422387 0.163883
0.000000 0.430061 0.163846
0.000000 0.426715 0.164194
0.000000 0.420291 0.164755
0.000000 0.411234 0.165673
0.114518 0.423391 0.162836
0.251907 0.454499 0.153272
0.372476 0.494219 0.133367
0.506301 0.542948 0.070717
0.638988 0.561381 0.005937
0.737790 0.576088 0.001084
0.811726 0.595420 0.016063
0.883670 0.614045 0.092621
0.948978 0.628736 0.132926
0.998903 0.633089 0.163298
1.000000 0.624322 0.184899
0.000000 0.456594 0.162100
0.000000 0.464415 0.161759
0.000000 0.461043 0.162195
0.000000 0.455138 0.162850
0.000000 0.446903 0.163787
0.000000 0.440345 0.164305
0.157640 0.469782 0.156835
0.291639 0.507387 0.141829
0.417362 0.554201 0.107779
0.558526 0.608454 0.000000
0.696126 0.629379 0.000000
0.814439 0.641761 0.000000
0.885172 0.656075 0.000081
0.946598 0.665918 0.083219
0.997957 0.671794 0.143779
1.000000 0.679352 0.195045
0.000000 0.495332 0.156057
0.000000 0.499759 0.155653
0.000000 0.496912 0.156281
0.000000 0.491910 0.157010
0.000000 0.484804 0.158053
0.000000 0.475111 0.159536
0.000000 0.489409 0.155571
0.195460 0.528811 0.141658
0.335736 0.577134 0.111662
0.472977 0.631159 0.004003
0.625891 0.686439 0.000000
0.769250 0.704876 0.000000
0.893316 0.705059 0.000000
0.955742 0.711844 0.000000
0.999648 0.714403 0.126076
1.000000 0.718667 0.196029
0.000000 0.539390 0.142997
0.000000 0.544854 0.141997
0.000000 0.541557 0.142788
0.000000 0.536883 0.143861
0.000000 0.530287 0.145428
0.000000 0.520562 0.147372
0.000000 0.510627 0.148989
0.000000 0.548063 0.134425
0.231293 0.594729 0.104139
0.381933 0.647921 0.001932
0.530667 0.704224 0.000000
0.694709 0.756704 0.000000
0.836988 0.770084 0.000000
0.952426 0.752025 0.000000
0.999070 0.750575 0.020011
1.000000 0.751588 0.159874
0.000000 0.606645 0.108942
0.000000 0.611510 0.107020
0.000000 0.607073 0.108741
0.000000 0.600542 0.111625
0.000000 0.592657 0.114622
0.000000 0.583719 0.118012
0.000000 0.572350 0.121903
0.000000 0.588007 0.111107
0.000000 0.635748 0.040752
0.275435 0.687474 0.000000
0.444361 0.739968 0.000000
0.607028 0.789412 0.000000
0.773822 0.830590 0.000000
0.908194 0.833275 0.000000
0.998844 0.798438 0.025470
1.000000 0.793526 0.166173
0.000000 0.676373 0.000000
0.000000 0.680697 0.000000
0.000000 0.676418 0.000000
0.000000 0.671161 0.000000
0.000000 0.665308 0.000916
0.000000 0.657602 0.005935
0.000000 0.647024 0.012389
0.000000 0.635750 0.017101
0.000000 0.677009 0.000000
0.021168 0.726412 0.000000
0.333763 0.776851 0.000000
0.514390 0.822745 0.000000
0.679918 0.859433 0.000000
0.836621 0.884656 0.000000
0.961210 0.878503 0.000000
1.000000 0.835680 0.123581
0.000000 0.796774 0.000000
0.000000 0.806362 0.000000
0.000000 0.802491 0.000000
0.000000 0.797228 0.000000
0.000000 0.791875 0.000000
0.000000 0.785840 0.000000
0.000000 0.778295 0.000000
0.000000 0.768034 0.000000
0.000000 0.777746 0.000000
0.000000 0.815370 0.000000
0.041693 0.852187 0.000000
0.422130 0.885247 0.000000
0.604282 0.911272 0.000000
0.760583 0.929087 0.000000
0.906234 0.939327 0.000000
1.000000 0.928513 0.047364
0.000000 0.915300 0.000000
0.000000 0.921257 0.000000
0.000000 0.919506 0.000000
0.000000 0.917612 0.000000
0.000000 0.916115 0.000000
0.000000 0.914159 0.000000
0.000000 0.911606 0.000000
0.000000 0.908641 0.000000
0.000000 0.905995 0.000000
0.000000 0.925681 0.000000
0.000000 0.945727 0.000000
0.301810 0.961810 0.000000
0.531502 0.974093 0.000000
0.694806 0.982416 0.105894
0.837907 0.986815 0.150752
0.974450 0.987402 0.183218
0.129836 0.133382 0.180600
0.146568 0.133650 0.179800
0.193339 0.134764 0.179177
0.248621 0.136243 0.180243
0.308008 0.138484 0.180020
0.366650 0.143349 0.180349
0.436180 0.147448 0.181704
0.505839 0.152278 0.182222
0.574099 0.157974 0.181575
0.644447 0.164979 0.180185
0.716183 0.173043 0.178482
0.789466 0.182032 0.176610
0.866496 0.190633 0.174992
0.940217 0.199593 0.173770
0.998916 0.208234 0.173872
1.000000 0.219870 0.179104
0.136090 0.149402 0.177660
0.146435 0.145705 0.179061
0.192190 0.145815 0.178115
0.246210 0.147966 0.179054
0.304570 0.150482 0.179318
0.363746 0.154183 0.179940
0.431797 0.157707 0.181095
0.500684 0.162286 0.181451
0.570379 0.167916 0.181125
0.641240 0.174236 0.180006
0.714185 0.182116 0.178129
0.788326 0.190752 0.176420
0.863976 0.198920 0.174416
0.935289 0.206707 0.172761
0.997584 0.213894 0.171984
1.000000 0.225804 0.177764
0.143266 0.190884 0.180667
0.156737 0.191397 0.181348
0.196798 0.189371 0.181345
0.251100 0.190406 0.181751
0.308092 0.191248 0.181746
0.372107 0.194343 0.183062
0.440136 0.197575 0.183478
0.508127 0.201068 0.183093
0.576314 0.205627 0.181888
0.647039 0.210893 0.180253
0.718746 0.217549 0.177819
0.792054 0.224600 0.176002
0.868781 0.231659 0.174210
0.941721 0.238537 0.173128
0.999089 0.244744 0.173349
1.000000 0.254070 0.179225
0.158764 0.231395 0.183917
0.166851 0.233299 0.185304
0.178559 0.231963 0.180392
0.246105 0.238407 0.178544
0.312130 0.242177 0.182346
0.371932 0.250648 0.185426
0.438497 0.253367 0.184800
0.506578 0.256503 0.183650
0.574512 0.260222 0.181861
0.645746 0.265103 0.179445
0.718616 0.271005 0.177036
0.792787 0.276980 0.174670
0.867722 0.282389 0.172565
0.937795 0.286898 0.170840
0.997926 0.290184 0.170499
1.000000 0.297736 0.177991
0.141028 0.286447 0.191309
0.141072 0.290496 0.191061
0.148817 0.287149 0.183668
0.202509 0.287232 0.181845
0.305875 0.302602 0.177224
0.387842 0.299762 0.178399
0.445989 0.314855 0.185416
0.511107 0.325315 0.186027
0.580252 0.328746 0.182823
0.651890 0.333213 0.179002
0.723145 0.337499 0.175573
0.796873 0.342164 0.172960
0.872827 0.346958 0.170824
0.944271 0.350334 0.170089
0.999296 0.351646 0.171282
1.000000 0.355164 0.178861
0.063594 0.324407 0.187637
0.052636 0.331930 0.188444
0.083463 0.328055 0.182118
0.147281 0.320653 0.181238
0.241792 0.335375 0.177814
0.355676 0.358385 0.169912
0.452640 0.356211 0.170881
0.514001 0.372737 0.176039
0.579484 0.394405 0.180897
0.651350 0.405363 0.177794
0.724160 0.409625 0.173550
0.798929 0.413689 0.170402
0.872838 0.416663 0.167864
0.941066 0.417109 0.166968
0.998185 0.415507 0.168013
1.000000 0.417615 0.178604
0.000000 0.364008 0.186305
0.000000 0.373114 0.187079
0.000000 0.368805 0.181574
0.050386 0.360269 0.180754
0.175466 0.362858 0.179123
0.284941 0.386295 0.173530
0.406126 0.417439 0.160874
0.519412 0.421270 0.159851
0.588805 0.440334 0.159884
0.657401 0.462888 0.166728
0.727740 0.485821 0.171698
0.802759 0.490933 0.168449
0.877546 0.493138 0.167089
0.946717 0.492467 0.168424
0.999299 0.488538 0.172379
1.000000 0.485787 0.184150
0.000000 0.397189 0.183738
0.000000 0.406702 0.184237
0.000000 0.402854 0.179445
0.000000 0.395366 0.179120
0.051168 0.386081 0.178974
0.213005 0.407578 0.175282
0.328053 0.438330 0.166117
0.454188 0.476992 0.146403
0.577853 0.488311 0.140216
0.659098 0.506428 0.136156
0.730233 0.528251 0.146677
0.804822 0.551211 0.157713
0.877018 0.568313 0.168443
0.942753 0.564956 0.171003
0.997974 0.557281 0.175274
1.000000 0.552479 0.190346
0.000000 0.429137 0.180607
0.000000 0.436943 0.180712
0.000000 0.433732 0.176679
0.000000 0.427248 0.176548
0.000000 0.418222 0.176957
0.115516 0.424461 0.175309
0.251829 0.455621 0.168805
0.372415 0.495211 0.154604
0.506730 0.543780 0.121488
0.640327 0.561492 0.108006
0.736610 0.576700 0.105744
0.810792 0.596439 0.120674
0.882782 0.615368 0.148520
0.947989 0.630303 0.176906
0.998701 0.632645 0.197511
1.000000 0.623748 0.213889
0.000000 0.462869 0.177226
0.000000 0.470934 0.176957
0.000000 0.467801 0.173299
0.000000 0.461777 0.173347
0.000000 0.453443 0.173821
0.000000 0.442486 0.174341
0.156832 0.470344 0.169294
0.290861 0.507962 0.157940
0.417129 0.554912 0.133523
0.559084 0.609283 0.053809
0.698046 0.630202 0.019099
0.813833 0.642669 0.033763
0.884546 0.656964 0.088101
0.945754 0.667039 0.145656
0.997791 0.673238 0.183310
1.000000 0.681192 0.226296
0.000000 0.501396 0.170584
0.000000 0.506120 0.169567
0.000000 0.503302 0.166327
0.000000 0.498244 0.166602
0.000000 0.491206 0.167356
0.000000 0.481306 0.168228
0.000000 0.490004 0.165944
0.193082 0.529346 0.155143
0.334594 0.577597 0.132757
0.472443 0.631660 0.075272
0.626423 0.687251 0.000000
0.770351 0.705143 0.000000
0.892973 0.706063 0.014580
0.955349 0.712814 0.107741
0.999519 0.715537 0.169981
1.000000 0.720040 0.226267
0.000000 0.545489 0.157530
0.000000 0.551308 0.155902
0.000000 0.548144 0.152258
0.000000 0.543161 0.152993
0.000000 0.536254 0.154117
0.000000 0.526198 0.155701
0.000000 0.513794 0.157062
0.000000 0.547857 0.146209
0.228512 0.594717 0.123054
0.380558 0.648232 0.054138
0.530434 0.704958 0.000000
0.695468 0.757527 0.000000
0.837782 0.770349 0.000000
0.952049 0.752796 0.024193
0.998987 0.751519 0.125401
1.000000 0.752799 0.194884
0.000000 0.610992 0.128342
0.000000 0.615620 0.125309
0.000000 0.611279 0.120915
0.000000 0.605032 0.122624
0.000000 0.597789 0.124729
0.000000 0.589365 0.127127
0.000000 0.577952 0.130182
0.000000 0.587552 0.123616
0.000000 0.635257 0.086554
0.271846 0.687112 0.000406
0.442990 0.740078 0.000000
0.606732 0.789897 0.000000
0.774281 0.831165 0.000000
0.908555 0.833338 0.000000
0.998885 0.798856 0.123366
1.000000 0.794376 0.199019
0.000000 0.680499 0.023457
0.000000 0.684918 0.015949
0.000000 0.680848 0.008735
0.000000 0.675679 0.011524
0.000000 0.669841 0.014873
0.000000 0.662115 0.018899
0.000000 0.651320 0.026854
0.000000 0.637831 0.043021
0.000000 0.676037 0.000000
0.004330 0.725972 0.000000
0.330440 0.776914 0.000000
0.513075 0.822994 0.000000
0.679476 0.859694 0.000000
0.836895 0.884935 0.000000
0.961408 0.878452 0.000000
1.000000 0.836074 0.168281
0.000000 0.798602 0.000000
0.000000 0.807616 0.000000
0.000000 0.803933 0.000000
0.000000 0.799074 0.000000
0.000000 0.794241 0.000000
0.000000 0.788499 0.000000
0.000000 0.781022 0.000000
0.000000 0.770515 0.000000
0.000000 0.776124 0.000000
0.000000 0.814289 0.000000
0.034988 0.851798 0.000000
0.419108 0.885273 0.000000
0.603035 0.911416 0.000000
0.760232 0.929228 0.000000
0.906262 0.939442 0.000000
1.000000 0.928264 0.132564
0.000000 0.916570 0.000000
0.000000 0.922472 0.000000
0.000000 0.920885 0.000000
0.000000 0.918970 0.000000
0.000000 0.917392 0.000000
0.000000 0.915343 0.000000
0.000000 0.912700 0.000000
0.000000 0.909708 0.000000
0.000000 0.907051 0.000000
0.000000 0.925369 0.000000
0.000000 0.945635 0.000000
0.295316 0.961834 0.000000
0.529364 0.974164 0.043974
0.693878 0.982513 0.136325
0.837646 0.986924 0.175552
0.974456 0.987500 0.207053
0.129671 0.146029 0.229471
0.145488 0.146313 0.229185
0.193172 0.146490 0.227699
0.249459 0.147026 0.225206
0.303150 0.151099 0.224338
0.361468 0.156734 0.225504
0.429633 0.159618 0.228842
0.497451 0.158983 0.228969
0.564988 0.156056 0.226240
0.635411 0.157155 0.224283
0.708400 0.161300 0.222891
0.783617 0.168274 0.221559
0.862111 0.175617 0.220469
0.936924 0.183685 0.219699
0.998403 0.193241 0.218966
1.000000 0.207804 0.223789
0.133400 0.157429 0.223884
0.143968 0.155636 0.226975
0.191401 0.155922 0.225507
0.247199 0.157458 0.223050
0.299766 0.161367 0.222677
0.359101 0.166134 0.224787
0.425809 0.167996 0.227219
0.493629 0.167252 0.227188
0.562260 0.165053 0.225215
0.632750 0.167095 0.223764
0.706997 0.171360 0.222495
0.782310 0.178129 0.221210
0.859163 0.184535 0.219846
0.931686 0.191495 0.218161
0.997011 0.199328 0.216804
1.000000 0.213853 0.222352
0.146736 0.209243 0.232914
0.160668 0.208391 0.233285
0.196281 0.197416 0.230953
0.251312 0.195104 0.226501
0.304959 0.198370 0.227100
0.367643 0.200743 0.229527
0.433809 0.200975 0.229896
0.499821 0.200111 0.228189
0.567339 0.201483 0.226732
0.638037 0.203800 0.225031
0.711026 0.207971 0.223059
0.786322 0.213665 0.221602
0.864390 0.219909 0.220544
0.938492 0.226442 0.219508
0.998590 0.233049 0.219148
1.000000 0.244497 0.224426
0.161288 0.246589 0.224834
0.170922 0.248967 0.227122
0.203727 0.248123 0.227384
0.251294 0.245300 0.226812
0.307303 0.248197 0.228872
0.367841 0.250493 0.229919
0.432467 0.252167 0.230027
0.498648 0.253661 0.228949
0.566140 0.255444 0.227016
0.637755 0.258467 0.224792
0.711934 0.263146 0.222904
0.787238 0.268168 0.221306
0.863209 0.273032 0.219473
0.934397 0.277132 0.217663
0.997433 0.280916 0.216626
1.000000 0.290226 0.223641
0.173102 0.300737 0.232676
0.181453 0.305545 0.236308
0.209289 0.302425 0.236069
0.229336 0.296588 0.226801
0.307853 0.304817 0.224660
0.378208 0.307402 0.230056
0.436474 0.318478 0.235200
0.503151 0.320377 0.232677
0.571908 0.322753 0.229660
0.643749 0.326250 0.226296
0.716214 0.330118 0.223354
0.791725 0.334785 0.221499
0.869000 0.339482 0.219954
0.941402 0.342989 0.219174
0.998849 0.344923 0.219386
1.000000 0.349693 0.225681
0.167642 0.338891 0.234641
0.171286 0.347434 0.239013
0.178479 0.343658 0.232246
0.186581 0.336762 0.218430
0.246187 0.338197 0.215842
0.357403 0.360686 0.213865
0.446904 0.359966 0.217303
0.505898 0.376837 0.227519
0.571568 0.394057 0.231313
0.644590 0.398846 0.227003
0.718428 0.403210 0.223880
0.794289 0.407495 0.221326
0.869038 0.410551 0.219181
0.938112 0.411293 0.217806
0.997756 0.410243 0.217595
1.000000 0.413855 0.226768
0.093203 0.378382 0.228625
0.082651 0.388123 0.231839
0.099011 0.383454 0.224738
0.123387 0.375570 0.212489
0.183494 0.365964 0.209639
0.285986 0.388246 0.208422
0.406907 0.419139 0.203681
0.515478 0.423153 0.208122
0.582781 0.442002 0.213001
0.650792 0.464817 0.222070
0.722119 0.482117 0.225605
0.798667 0.485997 0.223029
0.874489 0.488552 0.222106
0.944368 0.488422 0.222464
0.998924 0.484923 0.224422
1.000000 0.482900 0.232700
0.000000 0.411068 0.220274
0.000000 0.421092 0.222730
0.000000 0.417232 0.216860
0.000000 0.410125 0.206461
0.105559 0.399432 0.204420
0.213950 0.409205 0.203169
