assets/lut/editingcorpw Sunset Kiss.cube
LUT_3D_SIZE 6
DOMAIN_MIN 0.0 0.0 0.0
DOMAIN_MAX 1.0 1.0 1.0
0.098039 0.082353 0.078431
0.218823 0.086275 0.101961
0.370980 0.088628 0.098824
0.578039 0.084706 0.115294
0.806274 0.077647 0.124706
0.996078 0.098039 0.141176
0.114509 0.201569 0.101961
0.221894 0.205065 0.104605
0.380392 0.201569 0.120994
0.584314 0.210196 0.122353
0.818039 0.217255 0.130196
0.996862 0.238432 0.145098
0.132549 0.373333 0.123137
0.245699 0.373438 0.127373
0.410981 0.380392 0.127059
0.608628 0.392157 0.128627
0.830588 0.411765 0.134902
0.995294 0.425882 0.161569
0.111372 0.604706 0.111372
0.257255 0.606274 0.112941
0.447843 0.609412 0.121569
0.643376 0.614596 0.130435
0.849621 0.626562 0.148601
1.000000 0.629020 0.207058
0.156079 0.828235 0.166274
0.273725 0.832157 0.168627
0.469020 0.830588 0.180392
0.655582 0.827556 0.201569
0.845983 0.834510 0.229446
0.996862 0.836078 0.292549
0.407843 1.000000 0.407843
0.457255 0.995294 0.407843
0.561569 0.996078 0.419608
0.705098 0.997647 0.443922
0.848627 0.999216 0.485490
0.988235 1.000000 0.549020
0.146667 0.082353 0.208627
0.226308 0.088986 0.202286
0.373229 0.095791 0.208523
0.580392 0.061961 0.221176
0.814118 0.001569 0.225098
0.996862 0.005490 0.239215
0.142095 0.191798 0.214700
0.225188 0.197284 0.214261
0.382177 0.197389 0.214965
0.589804 0.190588 0.220392
0.819608 0.189512 0.226667
0.998857 0.207484 0.245692
0.116078 0.378719 0.227347
0.218882 0.378377 0.220521
0.410915 0.378605 0.226105
0.609726 0.387451 0.230693
0.832052 0.402353 0.237072
1.000000 0.418405 0.255686
0.002353 0.605490 0.224314
0.215686 0.608201 0.226734
0.436968 0.611660 0.225307
0.644706 0.614902 0.237408
0.845857 0.621961 0.246275
0.998431 0.625883 0.286274
0.094902 0.829804 0.253333
0.248986 0.829445 0.265165
0.456680 0.824314 0.267765
0.652759 0.826771 0.283347
0.838364 0.826241 0.305524
0.996862 0.830588 0.360784
0.403137 1.000000 0.432942
0.439574 0.999641 0.436146
0.551164 1.000000 0.451660
0.699608 0.996862 0.472941
0.847059 0.996078 0.509019
0.987451 1.000000 0.571765
0.248627 0.049412 0.371765
0.307033 0.051974 0.380967
0.427451 0.047537 0.382506
0.591373 0.036863 0.396079
0.825098 0.000000 0.421961
0.992157 0.002353 0.421961
0.221856 0.176157 0.380915
0.294536 0.182457 0.385628
0.435231 0.177079 0.396585
0.600209 0.174693 0.402248
0.825150 0.143425 0.418458
0.999111 0.140131 0.425202
0.142506 0.357102 0.405729
0.230667 0.359337 0.406186
0.411315 0.372051 0.405538
0.617188 0.377972 0.412243
0.841023 0.384859 0.421416
0.998431 0.411048 0.428646
0.003137 0.608627 0.443138
0.176680 0.609307 0.437438
0.398058 0.613266 0.417733
0.641023 0.614834 0.420870
0.845595 0.620183 0.435974
1.000000 0.624314 0.463529
0.100392 0.829019 0.454902
0.228078 0.829908 0.452967
0.441569 0.829565 0.450742
0.650980 0.827242 0.458144
0.838364 0.828661 0.477781
0.995294 0.832941 0.507451
0.430588 0.998431 0.567059
0.469699 0.997751 0.559111
0.577016 0.999761 0.569411
0.713726 1.000000 0.583529
0.852549 0.999216 0.610196
0.984314 1.000000 0.646275
0.389020 0.000000 0.603138
0.434510 0.001569 0.609412
0.542745 0.001569 0.610196
0.684945 0.002353 0.614596
0.832471 0.002249 0.618353
0.998431 0.003922 0.648628
0.374902 0.131765 0.614902
0.416829 0.129053 0.616112
0.531555 0.110588 0.618719
0.684945 0.083854 0.622200
0.837281 0.111059 0.621281
0.996862 0.122353 0.640000
0.214118 0.293333 0.634510
0.319215 0.312052 0.630693
0.499608 0.350110 0.627929
0.679216 0.352941 0.637647
0.841778 0.374902 0.636078
1.000000 0.396078 0.643921
0.120545 0.569651 0.647843
0.245557 0.574663 0.646274
0.434338 0.583051 0.649173
0.646370 0.601597 0.650263
0.845826 0.620376 0.652479
0.993897 0.640852 0.655208
0.115294 0.826667 0.670902
0.255634 0.828131 0.673046
0.453019 0.826562 0.667033
0.653962 0.825883 0.661357
0.840722 0.827263 0.668344
0.999320 0.828235 0.684497
0.441568 1.000000 0.698039
0.495686 0.997647 0.713726
0.586666 1.000000 0.714510
0.709497 1.000000 0.706906
0.852444 0.998431 0.730876
0.984314 0.998431 0.760784
0.527059 0.003138 0.829020
0.561569 0.002353 0.834510
0.644706 0.002353 0.836079
0.766170 0.002353 0.835294
0.914084 0.002779 0.847843
0.999216 0.001569 0.824314
0.516078 0.004706 0.832941
0.540683 0.002779 0.832157
0.629804 0.000680 0.831477
0.760784 0.000105 0.839216
0.908661 0.001143 0.837580
0.992941 0.095686 0.827451
0.456471 0.309804 0.838432
0.499608 0.312732 0.838536
0.601091 0.311851 0.843443
0.740602 0.320209 0.843137
0.897614 0.333333 0.844997
0.998431 0.380392 0.830588
0.263634 0.488837 0.848732
0.338196 0.492967 0.853804
0.507556 0.526379 0.844026
0.715058 0.584611 0.840889
0.872199 0.595460 0.843155
0.994510 0.618144 0.834510
0.323989 0.770554 0.846207
0.377546 0.773692 0.850913
0.516930 0.780392 0.853333
0.673170 0.797542 0.847477
0.841219 0.816256 0.845777
0.995720 0.838499 0.854611
0.440000 0.996862 0.886274
0.481569 0.998431 0.882353
0.577255 0.996862 0.877647
0.707451 0.995974 0.869229
0.865950 0.998924 0.867451
0.985098 1.000000 0.884706
0.635294 0.000000 0.996078
0.664314 0.000000 1.000000
0.725490 0.001569 1.000000
0.823529 0.000000 1.000000
0.950588 0.000000 0.999216
0.992157 0.003922 0.988235
0.627451 0.000784 0.998431
0.653759 0.000426 1.000000
0.715869 0.000000 0.997751
0.818824 0.002353 0.996862
0.942745 0.003922 0.996862
0.998431 0.076079 0.996078
0.596863 0.274510 1.000000
0.620392 0.277438 0.997751
0.692549 0.282898 0.998431
0.805490 0.294117 0.999216
0.934902 0.312941 1.000000
0.997647 0.361568 1.000000
0.515294 0.485490 0.998431
0.560000 0.509020 0.995294
0.665098 0.545882 1.000000
0.770913 0.556078 0.998192
0.915294 0.573333 0.997647
1.000000 0.598432 1.000000
0.467451 0.718431 0.999216
0.500392 0.720000 0.999216
0.582745 0.729412 0.998431
0.719634 0.750222 1.000000
0.894185 0.806700 0.999574
0.995294 0.820392 0.995294
0.545098 0.972549 1.000000
0.571765 0.982745 1.000000
0.641568 0.984314 0.996078
0.744313 0.983529 1.000000
0.892549 0.996078 1.000000
1.000000 1.000000 1.000000
