assets/lut/editingcorp jarklin.cube
# Created by: G'MIC (https://gmic.eu)
TITLE "jarklin"
# LUT size
LUT_3D_SIZE 13
# Data domain
DOMAIN_MIN 0.0 0.0 0.0
DOMAIN_MAX 1.0 1.0 1.0
# LUT data points
0.020369915291666985 0.014538618735969067 0.0090137701481580734
0.066768422722816467 0.017594760283827782 0.014554356224834919
0.14829537272453308 0.025181489065289497 0.020212315022945404
0.23867757618427277 0.035976439714431763 0.03304189071059227
0.34160679578781128 0.051732469350099564 0.05219675600528717
0.46715167164802551 0.077094212174415588 0.077025949954986572
0.59352779388427734 0.10678332298994064 0.10381602495908737
0.69456022977828979 0.12606455385684967 0.1248166412115097
0.75451236963272095 0.12028688937425613 0.13283045589923859
0.79068440198898315 0.11967423558235168 0.13601145148277283
0.82513058185577393 0.14314636588096619 0.14245399832725525
0.86175793409347534 0.13416212797164917 0.14108225703239441
0.89601284265518188 0.082403294742107391 0.12898968160152435
0.02813250944018364 0.06462300568819046 0.020309224724769592
0.07762744277715683 0.066236726939678192 0.021943395957350731
0.14801855385303497 0.073099710047245026 0.026215527206659317
0.22981294989585876 0.084737189114093781 0.036993976682424545
0.32684046030044556 0.098230414092540741 0.052108928561210632
0.45015600323677063 0.1179373636841774 0.073464758694171906
0.57524114847183228 0.13855984807014465 0.096647731959819794
0.67650133371353149 0.15547206997871399 0.11669013649225235
0.7423064112663269 0.16477431356906891 0.12944285571575165
0.78316628932952881 0.17360815405845642 0.13599491119384766
0.81781947612762451 0.18971891701221466 0.14142498373985291
0.85465890169143677 0.18677553534507751 0.14194484055042267
0.89175665378570557 0.15520644187927246 0.1340319961309433
0.032733377069234848 0.12852662801742554 0.025774907320737839
0.079626716673374176 0.13061904907226562 0.025733873248100281
0.1494603306055069 0.13456657528877258 0.032145675271749496
0.23140157759189606 0.14329563081264496 0.043141815811395645
0.32712090015411377 0.15422737598419189 0.055869698524475098
0.4428093433380127 0.16647078096866608 0.073231011629104614
0.56173896789550781 0.17874495685100555 0.093598246574401855
0.66215020418167114 0.19229961931705475 0.11324510723352432
0.73282355070114136 0.2056695967912674 0.12828251719474792
0.77679717540740967 0.21343255043029785 0.13541987538337708
0.81106173992156982 0.21977099776268005 0.13833558559417725
0.84910786151885986 0.22113850712776184 0.13922832906246185
0.89000886678695679 0.20916065573692322 0.13606002926826477
0.04303494468331337 0.1988738477230072 0.034296058118343353
0.086996443569660187 0.19909456372261047 0.035076484084129333
0.15078882873058319 0.20213742554187775 0.041186731308698654
0.23183594644069672 0.209499791264534 0.050828643143177032
0.3287293016910553 0.21970608830451965 0.062049731612205505
0.4413597583770752 0.22966824471950531 0.077964901924133301
0.55673855543136597 0.23996026813983917 0.097678631544113159
0.65852272510528564 0.2511657178401947 0.11800942569971085
0.73444420099258423 0.26097288727760315 0.13400742411613464
0.78292238712310791 0.26522013545036316 0.14130523800849915
0.81803488731384277 0.26701301336288452 0.14292722940444946
0.85480135679244995 0.26858583092689514 0.14260023832321167
0.89464658498764038 0.2656993567943573 0.14163878560066223
0.060391772538423538 0.27458411455154419 0.046878095716238022
0.09943988174200058 0.27332010865211487 0.048838835209608078
0.1546873152256012 0.27506318688392639 0.053876329213380814
0.23174768686294556 0.28300932049751282 0.061401322484016418
0.32884055376052856 0.29502522945404053 0.071769222617149353
0.44113433361053467 0.30660086870193481 0.087445564568042755
0.55754822492599487 0.31734049320220947 0.10731849074363708
0.66396689414978027 0.32713770866394043 0.12852959334850311
0.7470276951789856 0.33423367142677307 0.14590536057949066
0.80116742849349976 0.33702188730239868 0.15468223392963409
0.83676278591156006 0.3369147777557373 0.15602210164070129
0.87028217315673828 0.33633661270141602 0.15497639775276184
0.90888047218322754 0.33492845296859741 0.15407562255859375
0.08512299507856369 0.35966780781745911 0.063622497022151947
0.11946708709001541 0.35805809497833252 0.066074207425117493
0.16666880249977112 0.35891678929328918 0.069923684000968933
0.23654468357563019 0.36704239249229431 0.075900010764598846
0.32996359467506409 0.38047575950622559 0.085366718471050262
0.44126909971237183 0.394388347864151 0.10070934146642685
0.56076729297637939 0.40645703673362732 0.12160675972700119
0.67342954874038696 0.41570368409156799 0.14448729157447815
0.76527911424636841 0.42125493288040161 0.16386537253856659
0.82443314790725708 0.42261603474617004 0.17399831116199493
0.8586767315864563 0.42079067230224609 0.17535786330699921
0.89098334312438965 0.41808602213859558 0.17371003329753876
0.92830145359039307 0.41599175333976746 0.17258056998252869
0.11714926362037659 0.45316615700721741 0.085186965763568878
0.14773598313331604 0.4529411792755127 0.087158337235450745
0.18808579444885254 0.45336684584617615 0.089345969259738922
0.24803072214126587 0.45967760682106018 0.093306370079517365
0.33323168754577637 0.47241252660751343 0.10186450183391571
0.44144588708877563 0.48797020316123962 0.11760436743497849
0.56277525424957275 0.50235283374786377 0.13969482481479645
0.68064200878143311 0.51242977380752563 0.16436371207237244
0.77894008159637451 0.51690143346786499 0.18548257648944855
0.84364157915115356 0.51613271236419678 0.19681046903133392
0.87988960742950439 0.5123976469039917 0.19822205603122711
0.91291940212249756 0.50783956050872803 0.19645322859287262
0.9512627124786377 0.50504553318023682 0.19589275121688843
0.15206265449523926 0.54937559366226196 0.10936661064624786
0.17992734909057617 0.54909634590148926 0.11084437370300293
0.21353095769882202 0.54879075288772583 0.11134850233793259
0.26190775632858276 0.55229997634887695 0.11316860467195511
0.33613064885139465 0.56319916248321533 0.12037167698144913
0.44083049893379211 0.5812416672706604 0.13645860552787781
0.5619882345199585 0.59901732206344604 0.1601109653711319
0.68296027183532715 0.61133682727813721 0.18600687384605408
0.78598582744598389 0.61604136228561401 0.20826475322246552
0.85805684328079224 0.61436140537261963 0.22132416069507599
0.90082114934921265 0.6086154580116272 0.22406493127346039
0.93509387969970703 0.60270363092422485 0.2231600433588028
0.97274935245513916 0.59838402271270752 0.22251419723033905
0.18205942213535309 0.63687771558761597 0.13112154603004456
0.20881333947181702 0.63718116283416748 0.13273437321186066
0.23801082372665405 0.63633537292480469 0.13280484080314636
0.27737799286842346 0.6382555365562439 0.13375270366668701
0.34110286831855774 0.64790993928909302 0.13962522149085999
0.43895310163497925 0.66864484548568726 0.15588249266147614
0.55854314565658569 0.69110429286956787 0.18026846647262573
0.68105536699295044 0.70621174573898315 0.20669466257095337
0.78942149877548218 0.71146351099014282 0.22977109253406525
0.8707464337348938 0.71046340465545654 0.24509777128696442
0.92026418447494507 0.705485999584198 0.25108116865158081
0.95431995391845703 0.69902616739273071 0.25130113959312439
0.98799055814743042 0.69211965799331665 0.24977371096611023
0.20025511085987091 0.70556247234344482 0.14559482038021088
0.22886981070041656 0.70830124616622925 0.14901795983314514
0.2571510374546051 0.70916455984115601 0.15013204514980316
0.29229077696800232 0.71135896444320679 0.15120428800582886
0.34851935505867004 0.72154116630554199 0.15710614621639252
0.43673360347747803 0.74310344457626343 0.17274436354637146
0.55123710632324219 0.77016943693161011 0.19683922827243805
0.67378729581832886 0.78783327341079712 0.22342799603939056
0.78623950481414795 0.79517322778701782 0.24721856415271759
0.87390375137329102 0.79634261131286621 0.26468223333358765
0.92879199981689453 0.79413539171218872 0.27357494831085205
0.9625399112701416 0.7890508770942688 0.27583268284797668
0.99281042814254761 0.78078669309616089 0.27400639653205872
0.20923379063606262 0.75860875844955444 0.15406578779220581
0.23968538641929626 0.76275092363357544 0.15834721922874451
0.26802793145179749 0.76461625099182129 0.16038009524345398
0.29982119798660278 0.76693069934844971 0.16176281869411469
0.34890463948249817 0.77594280242919922 0.16745524108409882
0.42815965414047241 0.79632759094238281 0.1821669340133667
0.5380173921585083 0.82444435358047485 0.20583745837211609
0.66084718704223633 0.84710323810577393 0.23257791996002197
0.77643054723739624 0.85992306470870972 0.25753480195999146
0.867992103099823 0.8662598729133606 0.27708518505096436
0.92765414714813232 0.8679618239402771 0.2893049418926239
0.96450269222259521 0.86587798595428467 0.29434210062026978
0.99456572532653809 0.85821294784545898 0.2931998074054718
0.21244220435619354 0.80117696523666382 0.15797489881515503
0.24439612030982971 0.80519592761993408 0.16223406791687012
0.27284952998161316 0.80691665410995483 0.16432234644889832
0.30172070860862732 0.8080635666847229 0.16578565537929535
0.34350234270095825 0.81367951631546021 0.1708119809627533
0.41614207625389099 0.83107894659042358 0.18398275971412659
0.52322244644165039 0.85908198356628418 0.20734083652496338
0.64732396602630615 0.88676697015762329 0.2345135360956192
0.76660782098770142 0.90706884860992432 0.26089638471603394
0.86310821771621704 0.91907960176467896 0.28265434503555298
0.92788690328598022 0.92502462863922119 0.29761508107185364
0.96989583969116211 0.92564582824707031 0.30518889427185059
0.9978145956993103 0.92039889097213745 0.30596458911895752
0.21246707439422607 0.83795630931854248 0.15876638889312744
0.24604056775569916 0.84140682220458984 0.16275171935558319
0.27591577172279358 0.84292453527450562 0.16500161588191986
0.30416244268417358 0.84305834770202637 0.166312575340271
0.34225761890411377 0.84622019529342651 0.17057530581951141
0.41056591272354126 0.8610796332359314 0.18317334353923798
0.51563358306884766 0.88879662752151489 0.20565846562385559
0.63813400268554688 0.91843229532241821 0.23255400359630585
0.75840860605239868 0.94284236431121826 0.25920194387435913
0.85837870836257935 0.95974040031433105 0.28255876898765564
0.92716419696807861 0.96902275085449219 0.29973214864730835
0.97472542524337769 0.97239738702774048 0.30935931205749512
0.9996497631072998 0.97049111127853394 0.31262356042861938
0.015647094696760178 0.015083118341863155 0.051903817802667618
0.061474639922380447 0.016710065305233002 0.057964563369750977
0.14524988830089569 0.023661056533455849 0.065179996192455292
0.23852407932281494 0.034596927464008331 0.077159464359283447
0.34739223122596741 0.045849908143281937 0.093535780906677246
0.4741213321685791 0.062388073652982712 0.11432819813489914
0.5963863730430603 0.084698468446731567 0.13718314468860626
0.6921965479850769 0.095366023480892181 0.15464086830615997
0.7513468861579895 0.079705305397510529 0.16058351099491119
0.78743022680282593 0.060523539781570435 0.1602025032043457
0.8248559832572937 0.091864205896854401 0.16821064054965973
0.8643379807472229 0.11147967725992203 0.17290991544723511
0.89659202098846436 0.059487421065568924 0.16108942031860352
0.026683477684855461 0.066186882555484772 0.066948026418685913
0.080826297402381897 0.069215215742588043 0.066148482263088226
0.1551850289106369 0.076868347823619843 0.070758357644081116
0.23470781743526459 0.090170793235301971 0.079291701316833496
0.33478212356567383 0.10180678963661194 0.092011712491512299
0.45928153395652771 0.11444614082574844 0.10996285080909729
0.58231645822525024 0.13260798156261444 0.13148854672908783
0.68092018365859985 0.14691716432571411 0.14995184540748596
0.74605727195739746 0.14914733171463013 0.16042879223823547
0.78700548410415649 0.15329939126968384 0.16532336175441742
0.82350456714630127 0.17989598214626312 0.17204973101615906
0.86054372787475586 0.193608358502388 0.17573119699954987
0.89343434572219849 0.15485972166061401 0.16748066246509552
0.033138185739517212 0.13127945363521576 0.070471756160259247
0.081900686025619507 0.13396309316158295 0.068158410489559174
0.15406329929828644 0.13789288699626923 0.07333499938249588
0.23538802564144135 0.14779700338840485 0.081600114703178406
0.33322349190711975 0.1580883264541626 0.092282839119434357
0.45094162225723267 0.16725122928619385 0.10771560668945312
0.57044899463653564 0.18032576143741608 0.12753579020500183
0.67055141925811768 0.19426214694976807 0.14814296364784241
0.74102866649627686 0.2042994499206543 0.16217395663261414
0.78519493341445923 0.21188190579414368 0.16822418570518494
0.81946665048599243 0.22307482361793518 0.17030814290046692
0.85410475730895996 0.22697649896144867 0.17076686024665833
0.89046889543533325 0.21140687167644501 0.16820074617862701
0.044375624507665634 0.19998250901699066 0.076189659535884857
0.0883750319480896 0.20179514586925507 0.075015030801296234
0.15277059376239777 0.20559871196746826 0.079231888055801392
0.23377884924411774 0.21370019018650055 0.08576095849275589
0.3322051465511322 0.22264629602432251 0.095256626605987549
0.44700342416763306 0.23078726232051849 0.10998056083917618
0.56446361541748047 0.24118450284004211 0.12962950766086578
0.66727745532989502 0.2529207170009613 0.15092740952968597
0.74328804016113281 0.26249319314956665 0.16793133318424225
0.79051637649536133 0.26695364713668823 0.17440305650234222
0.82376205921173096 0.26931977272033691 0.17405021190643311
0.85703074932098389 0.26923346519470215 0.17272494733333588
0.89361333847045898 0.26480135321617126 0.17223717272281647
0.060879487544298172 0.27323034405708313 0.084549620747566223
0.099867500364780426 0.27508282661437988 0.085058219730854034
0.1560099720954895 0.27956891059875488 0.088288359344005585
0.23271998763084412 0.28749114274978638 0.093685925006866455
0.33051219582557678 0.2975459098815918 0.10212459415197372
0.44475054740905762 0.30746409296989441 0.11629297584295273
0.56309968233108521 0.31753110885620117 0.13594514131546021
0.67035317420959473 0.32714179158210754 0.15809527039527893
0.75255358219146729 0.33453285694122314 0.17674252390861511
0.80486565828323364 0.33716356754302979 0.18556642532348633
0.8386833667755127 0.33678171038627625 0.18628369271755219
0.87124776840209961 0.33550918102264404 0.18473607301712036
0.90870100259780884 0.33303561806678772 0.18497233092784882
0.084840185940265656 0.35676562786102295 0.097370356321334839
0.11935580521821976 0.35884183645248413 0.09857584536075592
0.16770082712173462 0.36336517333984375 0.10134890675544739
0.23729860782623291 0.37174239754676819 0.10552246868610382
0.33074620366096497 0.38366195559501648 0.11305784434080124
0.44352439045906067 0.39599472284317017 0.12707819044589996
0.56441277265548706 0.40650245547294617 0.14756950736045837
0.67722088098526001 0.41517224907875061 0.17140573263168335
0.76644951105117798 0.4206586480140686 0.19206798076629639
0.82370418310165405 0.42229706048965454 0.20375406742095947
0.85888218879699707 0.42105397582054138 0.20555838942527771
0.89255881309509277 0.41788843274116516 0.20392324030399323
0.93011921644210815 0.41593670845031738 0.20396150648593903
0.1169402003288269 0.45028972625732422 0.1163201704621315
0.14770114421844482 0.45318204164505005 0.11739754676818848
0.18894414603710175 0.45708748698234558 0.11938273161649704
0.24876897037029266 0.46446534991264343 0.12173669785261154
0.33351320028305054 0.47653892636299133 0.12816862761974335
0.44249531626701355 0.49085184931755066 0.1425977498292923
0.56542563438415527 0.50325685739517212 0.16483622789382935
0.68371087312698364 0.51245653629302979 0.1909746527671814
0.78043919801712036 0.51657891273498535 0.21478672325611115
0.84445548057556152 0.51601332426071167 0.22786127030849457
0.88282102346420288 0.51341146230697632 0.22977316379547119
0.91700637340545654 0.50912904739379883 0.22777664661407471
0.95488971471786499 0.50626134872436523 0.22741687297821045
0.15252429246902466 0.54832488298416138 0.13950587809085846
0.18180343508720398 0.55047255754470825 0.14093466103076935
0.21641154587268829 0.55349957942962646 0.14145487546920776
0.26492530107498169 0.55815339088439941 0.14194570481777191
0.33830836415290833 0.56820875406265259 0.14687155187129974
0.44170019030570984 0.58397066593170166 0.16163235902786255
0.5642736554145813 0.60049867630004883 0.18495737016201019
0.68645066022872925 0.61213165521621704 0.21316201984882355
0.78931176662445068 0.61642611026763916 0.23880147933959961
0.860645592212677 0.61509084701538086 0.25370004773139954
0.90435677766799927 0.6102796196937561 0.25671645998954773
0.93907076120376587 0.60508567094802856 0.25495761632919312
0.97584646940231323 0.60066771507263184 0.25419777631759644
0.18464104831218719 0.637107253074646 0.16148017346858978
0.21425966918468475 0.64094740152359009 0.16417583823204041
0.24546694755554199 0.64336884021759033 0.16492849588394165
0.28425520658493042 0.64551115036010742 0.16420374810695648
0.34531140327453613 0.65317702293395996 0.16765205562114716
0.44001573324203491 0.67007136344909668 0.1815548837184906
0.55946701765060425 0.69105947017669678 0.20557652413845062
0.68325650691986084 0.70671939849853516 0.23429481685161591
0.79156160354614258 0.71271055936813354 0.26062637567520142
0.87062615156173706 0.71187961101531982 0.27754062414169312
0.91950404644012451 0.70698356628417969 0.28340807557106018
0.95377540588378906 0.70136851072311401 0.28297945857048035
0.98782312870025635 0.69511646032333374 0.28144603967666626
0.20588579773902893 0.70808637142181396 0.17775408923625946
0.2374885082244873 0.71375113725662231 0.18198136985301971
0.26824399828910828 0.71719777584075928 0.18403016030788422
0.30086520314216614 0.71855312585830688 0.18314921855926514
0.3512459397315979 0.72482562065124512 0.18564134836196899
0.43533053994178772 0.74230307340621948 0.19898088276386261
0.5492742657661438 0.76669621467590332 0.22302064299583435
0.67329603433609009 0.7868276834487915 0.25195953249931335
0.78640079498291016 0.79677081108093262 0.2784939706325531
0.87220269441604614 0.79902940988540649 0.2973267138004303
0.92640900611877441 0.79567486047744751 0.30638319253921509
0.96137553453445435 0.79102271795272827 0.30778735876083374
0.99220985174179077 0.78373908996582031 0.30623137950897217
0.2163526862859726 0.76120686531066895 0.18765431642532349
0.24917367100715637 0.76709270477294922 0.19195695221424103
0.27881050109863281 0.77064871788024902 0.19382645189762115
0.30737930536270142 0.77169722318649292 0.19346989691257477
0.34993225336074829 0.77665561437606812 0.19627849757671356
0.42449086904525757 0.79324841499328613 0.20953787863254547
0.53335756063461304 0.82041096687316895 0.233354851603508
0.65817952156066895 0.84581673145294189 0.26265552639961243
0.77545386552810669 0.8616253137588501 0.28981775045394897
0.86740553379058838 0.86804461479187012 0.31061041355133057
0.92796987295150757 0.86976653337478638 0.32318618893623352
0.96609818935394287 0.86677068471908569 0.32736846804618835
0.99520909786224365 0.86028224229812622 0.3266788125038147
0.21922442317008972 0.80182749032974243 0.19248029589653015
0.25359949469566345 0.80716371536254883 0.19629891216754913
0.28355982899665833 0.81011766195297241 0.19738683104515076
0.30962556600570679 0.81056934595108032 0.19695839285850525
0.34581947326660156 0.81370431184768677 0.20004861056804657
0.41321074962615967 0.82871931791305542 0.21270936727523804
0.51866519451141357 0.85668152570724487 0.23626118898391724
0.64384466409683228 0.88646674156188965 0.26541006565093994
0.76430290937423706 0.9078337550163269 0.29343613982200623
0.86158949136734009 0.92041444778442383 0.3166256844997406
0.92892962694168091 0.92537927627563477 0.33282572031021118
0.97223055362701416 0.92578130960464478 0.34064012765884399
0.99838149547576904 0.92178553342819214 0.34129968285560608
0.21875791251659393 0.83684790134429932 0.19394116103649139
0.25470083951950073 0.84135681390762329 0.19719319045543671
0.28722977638244629 0.8446388840675354 0.19772915542125702
0.3136044442653656 0.84469330310821533 0.19784486293792725
0.34786814451217651 0.84703612327575684 0.20075030624866486
0.41260668635368347 0.86099374294281006 0.21297426521778107
0.51403927803039551 0.88781905174255371 0.23521177470684052
0.63513445854187012 0.91831731796264648 0.26316425204277039
0.75506037473678589 0.94347667694091797 0.29150894284248352
0.85550463199615479 0.95950174331665039 0.31651952862739563
0.92754697799682617 0.96816527843475342 0.33553013205528259
0.97692263126373291 0.97177940607070923 0.34630945324897766
0.99988585710525513 0.97095084190368652 0.34925338625907898
0.016006439924240112 0.021304052323102951 0.1165388822555542
0.068335652351379395 0.021444717422127724 0.12332582473754883
0.15155230462551117 0.024036198854446411 0.12952901422977448
0.24761521816253662 0.029590291902422905 0.13721923530101776
0.36164361238479614 0.034130439162254333 0.14766445755958557
0.48720422387123108 0.046890124678611755 0.16296425461769104
0.60282629728317261 0.073490962386131287 0.18251727521419525
0.69361263513565063 0.091968387365341187 0.19772520661354065
0.7523689866065979 0.08458506315946579 0.20314015448093414
0.78973937034606934 0.07096487283706665 0.20331242680549622
0.82547426223754883 0.085664011538028717 0.2075812965631485
0.86231881380081177 0.089523166418075562 0.20916090905666351
0.89313137531280518 0.053566157817840576 0.20102269947528839
0.033418107777833939 0.077658273279666901 0.12499047070741653
0.084213927388191223 0.078659102320671082 0.12546825408935547
0.15993225574493408 0.083148479461669922 0.13059492409229279
0.24425655603408813 0.092015959322452545 0.13653333485126495
0.34978458285331726 0.098461374640464783 0.14476926624774933
0.47350400686264038 0.10947193950414658 0.15832678973674774
0.59188389778137207 0.13340869545936584 0.17670974135398865
0.68687635660171509 0.1558917760848999 0.19380012154579163
0.75055360794067383 0.16285601258277893 0.20321828126907349
0.79156529903411865 0.16780015826225281 0.2069670557975769
0.82776862382888794 0.18433395028114319 0.21031610667705536
0.86098563671112061 0.18606962263584137 0.21159444749355316
0.89145410060882568 0.15440545976161957 0.20576204359531403
0.042478911578655243 0.13923268020153046 0.12809237837791443
0.089813530445098877 0.14115065336227417 0.12677702307701111
0.16005854308605194 0.14500740170478821 0.13095483183860779
0.24276265501976013 0.1516597718000412 0.13595947623252869
0.34428340196609497 0.15770818293094635 0.14235171675682068
0.46293705701828003 0.16668547689914703 0.1545959860086441
0.58028841018676758 0.18503931164741516 0.17252849042415619
0.67819821834564209 0.20375233888626099 0.19077511131763458
0.74756920337677002 0.21492113173007965 0.20360475778579712
0.79247397184371948 0.22268608212471008 0.20804029703140259
0.82623517513275146 0.23068995773792267 0.20825172960758209
0.8572458028793335 0.22931192815303802 0.20766445994377136
0.88931238651275635 0.21422937512397766 0.20630872249603271
0.051236364990472794 0.20511169731616974 0.13012327253818512
0.094367370009422302 0.20754310488700867 0.12905307114124298
0.15709869563579559 0.2118382453918457 0.13177198171615601
0.23809991776943207 0.21767915785312653 0.13542735576629639
0.33868733048439026 0.22331503033638 0.14113879203796387
0.45522278547286987 0.23133955895900726 0.1527780294418335
0.57250207662582397 0.24427904188632965 0.17040714621543884
0.67429125308990479 0.25860360264778137 0.18972103297710419
0.7496647834777832 0.26862889528274536 0.20585480332374573
0.79748499393463135 0.27342987060546875 0.21160218119621277
0.83025580644607544 0.27499502897262573 0.21072860062122345
0.86054176092147827 0.27179452776908875 0.20893010497093201
0.89451855421066284 0.26706385612487793 0.20983557403087616
0.064655393362045288 0.27689597010612488 0.13242314755916595
0.10313041508197784 0.28009271621704102 0.13239564001560211
0.15846504271030426 0.28555184602737427 0.13441266119480133
0.23486149311065674 0.29200434684753418 0.13745158910751343
0.33391526341438293 0.29931387305259705 0.1430584043264389
0.44973361492156982 0.30790847539901733 0.15423679351806641
0.56879884004592896 0.31862178444862366 0.17145423591136932
