assets/lut/editingcorp atusa.cube
# Created by: G'MIC (https://gmic.eu)
TITLE "atusa"
# LUT size
LUT_3D_SIZE 13
# Data domain
DOMAIN_MIN 0.0 0.0 0.0
DOMAIN_MAX 1.0 1.0 1.0
# LUT data points
0.023759191855788231 0.01819254644215107 0.026701953262090683
0.11691209673881531 0.016103945672512054 0.025369023904204369
0.23699347674846649 0.018746498972177505 0.024966655299067497
0.3531973659992218 0.024035271257162094 0.021131478250026703
0.46071046590805054 0.020497655496001244 0.020317167043685913
0.55943435430526733 0.013133284635841846 0.01950143463909626
0.64964598417282104 0.011055367067456245 0.014938219450414181
0.72900354862213135 0.011788072995841503 0.012406757101416588
0.79294151067733765 0.010979730635881424 0.012802318669855595
0.84050518274307251 0.0095769399777054787 0.01094207726418972
0.88028490543365479 0.0079916110262274742 0.0079608689993619919
0.92432922124862671 0.0074053294956684113 0.0068722446449100971
0.97469902038574219 0.0090972306206822395 0.0068407393991947174
0.019854780286550522 0.10070121288299561 0.025262346491217613
0.1033204197883606 0.097524918615818024 0.024326473474502563
0.22104774415493011 0.099245063960552216 0.027216698974370956
0.33996516466140747 0.10339292883872986 0.023806313052773476
0.45068144798278809 0.095704592764377594 0.024783549830317497
0.55206692218780518 0.079496331512928009 0.026851624250411987
0.64402246475219727 0.071970127522945404 0.022734489291906357
0.72776472568511963 0.070692189037799835 0.020923703908920288
0.79570865631103516 0.066210247576236725 0.023882653564214706
0.84330958127975464 0.060023542493581772 0.021188205108046532
0.87995213270187378 0.054965794086456299 0.01581522636115551
0.92256206274032593 0.054349951446056366 0.012282996438443661
0.97354525327682495 0.061231799423694611 0.010028121061623096
0.0152296032756567 0.20357057452201843 0.017221443355083466
0.085420407354831696 0.19897383451461792 0.019490454345941544
0.19842289388179779 0.19730730354785919 0.026283862069249153
0.32393175363540649 0.20017713308334351 0.026031523942947388
0.4428306519985199 0.19576358795166016 0.02753061056137085
0.54830712080001831 0.1804206520318985 0.029900150373578072
0.63977241516113281 0.16581942141056061 0.02731819823384285
0.72570180892944336 0.15769301354885101 0.02640666626393795
0.79551142454147339 0.14706699550151825 0.029633674770593643
0.84450030326843262 0.13557045161724091 0.029406454414129257
0.88083082437515259 0.12659581005573273 0.025536136701703072
0.92135363817214966 0.12256143242120743 0.022228989750146866
0.97362995147705078 0.1320262998342514 0.018067842349410057
0.012129959650337696 0.30271229147911072 0.017457550391554832
0.070056647062301636 0.30009812116622925 0.021187247708439827
0.16607928276062012 0.29845789074897766 0.028100151568651199
0.29677942395210266 0.30150899291038513 0.028033612295985222
0.43047258257865906 0.30516621470451355 0.027869071811437607
0.54476529359817505 0.29847392439842224 0.029536901041865349
0.63838618993759155 0.28172010183334351 0.027591809630393982
0.72474056482315063 0.26624995470046997 0.028881192207336426
0.79822909832000732 0.25160679221153259 0.030974414199590683
0.84936279058456421 0.23905941843986511 0.030983524397015572
0.88692867755889893 0.23004014790058136 0.02987620048224926
0.92841887474060059 0.22330722212791443 0.02955658920109272
0.98023200035095215 0.22700770199298859 0.027885062620043755
0.0096649769693613052 0.39549681544303894 0.033269230276346207
0.057354360818862915 0.39352738857269287 0.036810003221035004
0.13802053034305573 0.39086806774139404 0.039399284869432449
0.26006919145584106 0.39260593056678772 0.033303894102573395
0.4001554548740387 0.39888197183609009 0.028543001040816307
0.52492964267730713 0.39979323744773865 0.028441125527024269
0.62743085622787476 0.39060384035110474 0.030889697372913361
0.71902137994766235 0.37517482042312622 0.034832224249839783
0.80017662048339844 0.36078670620918274 0.036374051123857498
0.8563808798789978 0.35044398903846741 0.035151179879903793
0.89603126049041748 0.34465175867080688 0.034127268940210342
0.9395984411239624 0.33800336718559265 0.035476356744766235
0.9882081151008606 0.33450368046760559 0.036722324788570404
0.010620087385177612 0.48035767674446106 0.056658279150724411
0.051346182823181152 0.47753271460533142 0.059036463499069214
0.11713261157274246 0.47332483530044556 0.057536840438842773
0.22394917905330658 0.47094529867172241 0.045632276684045792
0.36096370220184326 0.47420001029968262 0.035568807274103165
0.49452802538871765 0.47849005460739136 0.032530929893255234
0.60756337642669678 0.47891396284103394 0.035371758043766022
0.70716333389282227 0.47075614333152771 0.041565898805856705
0.79586148262023926 0.45723369717597961 0.043559715151786804
0.86003488302230835 0.44685423374176025 0.043152108788490295
0.90373671054840088 0.44258224964141846 0.042885500937700272
0.94635695219039917 0.43884027004241943 0.042705025523900986
0.99145001173019409 0.43305867910385132 0.04280649870634079
0.014831991866230965 0.55536139011383057 0.074341416358947754
0.053902227431535721 0.55139648914337158 0.07548629492521286
0.10943156480789185 0.54760009050369263 0.073176831007003784
0.19939497113227844 0.54395586252212524 0.06318238377571106
0.32559671998023987 0.54375439882278442 0.048220060765743256
0.46158692240715027 0.54745477437973022 0.0371578149497509
0.58371275663375854 0.55268692970275879 0.037528257817029953
0.69163745641708374 0.551372230052948 0.045642074197530746
0.78975647687911987 0.53923225402832031 0.049596734344959259
0.86219239234924316 0.52876204252243042 0.049778763204813004
0.90805107355117798 0.52538114786148071 0.048145338892936707
0.94926202297210693 0.52284532785415649 0.046040479093790054
0.99182415008544922 0.51757878065109253 0.04564959928393364
0.019671930000185966 0.62273663282394409 0.080158308148384094
0.059620067477226257 0.61899250745773315 0.083335787057876587
0.10833977907896042 0.61866748332977295 0.082702696323394775
0.18370422720909119 0.61645346879959106 0.075144223868846893
0.29481399059295654 0.61440753936767578 0.058181267231702805
0.42715325951576233 0.61552101373672485 0.04075787216424942
0.55526971817016602 0.62090581655502319 0.037724126130342484
0.67127835750579834 0.62347167730331421 0.046591397374868393
0.77598243951797485 0.61619323492050171 0.054481044411659241
0.85630667209625244 0.60737961530685425 0.056482352316379547
0.90858614444732666 0.60322850942611694 0.052246034145355225
0.95095205307006836 0.59964323043823242 0.048481900244951248
0.99191468954086304 0.59507834911346436 0.048840302973985672
0.022055681794881821 0.69473397731781006 0.079545624554157257
0.064179390668869019 0.69184833765029907 0.084169499576091766
0.10891808569431305 0.69374799728393555 0.084306292235851288
0.17175716161727905 0.69207590818405151 0.079280942678451538
0.26684606075286865 0.68801432847976685 0.066497713327407837
0.39049533009529114 0.68805527687072754 0.048848755657672882
0.52054828405380249 0.69390398263931274 0.040519099682569504
0.64247292280197144 0.69911086559295654 0.046444792300462723
0.75359296798706055 0.6959264874458313 0.058240480720996857
0.84564894437789917 0.68848311901092529 0.065378747880458832
0.90915745496749878 0.68351346254348755 0.061438869684934616
0.95454615354537964 0.67961972951889038 0.056212510913610458
0.99303144216537476 0.67483872175216675 0.054872266948223114
0.021128889173269272 0.77482151985168457 0.075206413865089417
0.065677300095558167 0.77243888378143311 0.079793192446231842
0.10994555801153183 0.77282601594924927 0.079295352101325989
0.16499833762645721 0.77075648307800293 0.076271206140518188
0.24707010388374329 0.76393896341323853 0.068163312971591949
0.36020642518997192 0.76305842399597168 0.05272013321518898
0.48590323328971863 0.77043712139129639 0.040890950709581375
0.60744339227676392 0.77881485223770142 0.042580623179674149
0.72299188375473022 0.78039735555648804 0.055273693054914474
0.82965248823165894 0.77436286211013794 0.067530073225498199
0.90913635492324829 0.76970946788787842 0.068108715116977692
0.9576452374458313 0.76865488290786743 0.063699923455715179
0.993935227394104 0.76520836353302002 0.059328354895114899
0.019039902836084366 0.84388208389282227 0.067787647247314453
0.066390648484230042 0.84029072523117065 0.07359255850315094
0.11231699585914612 0.84037190675735474 0.072883918881416321
0.16461440920829773 0.83860456943511963 0.069482408463954926
0.23846860229969025 0.83148598670959473 0.063189275562763214
0.33858504891395569 0.83028483390808105 0.050587449222803116
0.45453587174415588 0.83882564306259155 0.038237012922763824
0.57063853740692139 0.85243582725524902 0.036925401538610458
0.68603914976119995 0.86237579584121704 0.046050935983657837
0.80526739358901978 0.86015105247497559 0.059385038912296295
0.90036135911941528 0.85660338401794434 0.065605118870735168
0.9560580849647522 0.85945183038711548 0.063237406313419342
0.99415922164916992 0.85829555988311768 0.056750472635030746
0.017487006261944771 0.89268320798873901 0.056235503405332565
0.066472344100475311 0.88690191507339478 0.065507031977176666
0.11472970992326736 0.88526898622512817 0.06659756600856781
0.16655014455318451 0.88606321811676025 0.062692262232303619
0.23408003151416779 0.88311201333999634 0.056544359773397446
0.32361635565757751 0.88340234756469727 0.04684033989906311
0.42962244153022766 0.89124935865402222 0.03709164634346962
0.5429452657699585 0.90884506702423096 0.034634534269571304
0.66080409288406372 0.92546200752258301 0.040851175785064697
0.784140944480896 0.92994022369384766 0.052733462303876877
0.88675582408905029 0.93082767724990845 0.058613002300262451
0.95442211627960205 0.93496501445770264 0.055051106959581375
0.99599802494049072 0.93496322631835938 0.047218922525644302
0.015008649788796902 0.93230950832366943 0.03714420273900032
0.064676530659198761 0.92605096101760864 0.047924656420946121
0.11481839418411255 0.92338162660598755 0.05184529721736908
0.16790972650051117 0.92457395792007446 0.049314327538013458
0.23346909880638123 0.92567336559295654 0.044783048331737518
0.31721484661102295 0.92816376686096191 0.0382053442299366
0.41823515295982361 0.93656355142593384 0.032384011894464493
0.53161418437957764 0.95330089330673218 0.031499452888965607
0.65300196409225464 0.96994900703430176 0.036882244050502777
0.77517729997634888 0.97962063550949097 0.045647937804460526
0.87803220748901367 0.98563426733016968 0.046839531511068344
0.95287889242172241 0.98976945877075195 0.040060169994831085
0.99727934598922729 0.99077397584915161 0.030702657997608185
0.031438101083040237 0.023634698241949081 0.12374435365200043
0.12311751395463943 0.016283221542835236 0.11968708783388138
0.24027086794376373 0.017882507294416428 0.11755676567554474
0.35686644911766052 0.025123940780758858 0.11129628866910934
0.46493697166442871 0.024154020473361015 0.10644994676113129
0.56484591960906982 0.018234716728329659 0.099897332489490509
0.6570136547088623 0.016739251092076302 0.088379606604576111
0.73761129379272461 0.017458537593483925 0.081445492804050446
0.79989326000213623 0.015771364793181419 0.080040737986564636
0.84427094459533691 0.014502177946269512 0.075386866927146912
0.88043826818466187 0.013847664929926395 0.070646770298480988
0.92532014846801758 0.013034147210419178 0.069970510900020599
0.97669839859008789 0.014721380546689034 0.070263251662254333
0.023843713104724884 0.10516658425331116 0.11738815158605576
0.099639043211936951 0.096845768392086029 0.10769829899072647
0.2108260840177536 0.097041487693786621 0.10563701391220093
0.33045241236686707 0.10435990244150162 0.10010980069637299
0.44627094268798828 0.098980039358139038 0.098188199102878571
0.55152338743209839 0.085289962589740753 0.09560827910900116
0.64630448818206787 0.076785936951637268 0.088085517287254333
0.73143476247787476 0.07335924357175827 0.081665143370628357
0.79853278398513794 0.06728961318731308 0.079479619860649109
0.84449845552444458 0.060682646930217743 0.077724471688270569
0.88006699085235596 0.057887475937604904 0.074019521474838257
0.92300105094909668 0.05921071395277977 0.070042647421360016
0.97647804021835327 0.067572787404060364 0.067385144531726837
0.016245404258370399 0.20469647645950317 0.096096232533454895
0.077531524002552032 0.19440829753875732 0.09247945249080658
0.18353499472141266 0.19127935171127319 0.092166468501091003
0.31057149171829224 0.19812996685504913 0.087543115019798279
0.43503326177597046 0.1955283135175705 0.087090164422988892
0.54399967193603516 0.18173712491989136 0.08641650527715683
0.63892382383346558 0.16745728254318237 0.081583954393863678
0.72609233856201172 0.15787990391254425 0.076585493981838226
0.79535204172134399 0.14464269578456879 0.076695412397384644
0.84189832210540771 0.13090847432613373 0.078390277922153473
0.87992680072784424 0.1254432201385498 0.075095891952514648
0.92031294107437134 0.12372090667486191 0.073371440172195435
0.97487634420394897 0.13399586081504822 0.07191099226474762
0.014632535167038441 0.30296695232391357 0.083455435931682587
0.067708000540733337 0.29500138759613037 0.082104414701461792
0.16118642687797546 0.28983145952224731 0.083225131034851074
0.29271826148033142 0.29460892081260681 0.080865450203418732
0.42833292484283447 0.30113467574119568 0.076892077922821045
0.54095935821533203 0.29572993516921997 0.075033716857433319
0.63589000701904297 0.28138452768325806 0.073752954602241516
0.72271972894668579 0.26559457182884216 0.072465859353542328
0.79575073719024658 0.24896608293056488 0.072853222489356995
0.8464961051940918 0.23487716913223267 0.073521755635738373
0.88523930311203003 0.22786535322666168 0.071385897696018219
0.92713725566864014 0.22261875867843628 0.07357681542634964
0.98054403066635132 0.22744078934192657 0.076575726270675659
0.012181838974356651 0.39549112319946289 0.091012872755527496
0.056073732674121857 0.38997012376785278 0.091143243014812469
0.13309760391712189 0.38324391841888428 0.091056555509567261
0.25932672619819641 0.3861963152885437 0.079236097633838654
0.40261709690093994 0.39585092663764954 0.06910436600446701
0.52632427215576172 0.39875751733779907 0.068593524396419525
0.62686789035797119 0.38969218730926514 0.073562085628509521
0.71551918983459473 0.37299975752830505 0.079091928899288177
0.79603379964828491 0.35753047466278076 0.077988564968109131
0.85382926464080811 0.34626984596252441 0.076527044177055359
0.89521950483322144 0.34023472666740417 0.076155707240104675
0.94008857011795044 0.33607950806617737 0.078129753470420837
0.98938208818435669 0.33561587333679199 0.082872919738292694
0.011616336181759834 0.47963890433311462 0.10585654526948929
0.049975991249084473 0.47783806920051575 0.10723105072975159
0.11299195885658264 0.47288396954536438 0.10537872463464737
0.22269189357757568 0.47023379802703857 0.088854275643825531
0.36403703689575195 0.47391051054000854 0.073805101215839386
0.49933204054832458 0.47870364785194397 0.072994858026504517
0.61041015386581421 0.47847610712051392 0.079771257936954498
0.70657587051391602 0.46821203827857971 0.087770886719226837
0.79410052299499512 0.45423603057861328 0.087872631847858429
0.85838717222213745 0.4428747296333313 0.087750978767871857
0.90287727117538452 0.43761536478996277 0.088368117809295654
0.9477418065071106 0.43585014343261719 0.086200475692749023
0.99277991056442261 0.43313553929328918 0.08840719610452652
0.01415716391056776 0.55460727214813232 0.1175943985581398
0.052720177918672562 0.55336683988571167 0.11920928955078125
0.10584333539009094 0.55042952299118042 0.11859804391860962
0.19340041279792786 0.54508417844772339 0.10957437008619308
0.32391417026519775 0.54372328519821167 0.089446663856506348
0.46361812949180603 0.54721981287002563 0.079401545226573944
0.58575379848480225 0.55166417360305786 0.08422146737575531
0.69266873598098755 0.54894304275512695 0.094079636037349701
0.78865748643875122 0.53768241405487061 0.096325799822807312
0.8611263632774353 0.52634346485137939 0.095190607011318207
0.90919065475463867 0.52115952968597412 0.092767812311649323
0.95167464017868042 0.51894325017929077 0.089101888239383698
0.99245345592498779 0.51618349552154541 0.090505845844745636
0.019244862720370293 0.62176418304443359 0.12436146289110184
0.058934260159730911 0.61895656585693359 0.12781287729740143
0.10480451583862305 0.61839187145233154 0.12836851179599762
0.17563772201538086 0.61575353145599365 0.12249221652746201
0.28759226202964783 0.61350125074386597 0.1032240018248558
0.42331591248512268 0.61482560634613037 0.086718238890171051
0.55370289087295532 0.61962699890136719 0.086197875440120697
0.67087197303771973 0.62162560224533081 0.095697872340679169
0.7756732702255249 0.61475712060928345 0.10145244002342224
0.85767024755477905 0.60524171590805054 0.10119398683309555
0.91217684745788574 0.59920257329940796 0.095700703561306
0.95422518253326416 0.59576189517974854 0.091042570769786835
0.99289560317993164 0.59229838848114014 0.093124404549598694
0.02336527593433857 0.69418138265609741 0.12693312764167786
0.065443418920040131 0.69024419784545898 0.13123504817485809
0.10669530183076859 0.69104444980621338 0.1309041827917099
0.16262951493263245 0.68816256523132324 0.1283460259437561
0.25369036197662354 0.68362432718276978 0.1166919469833374
0.38244956731796265 0.68422001600265503 0.098032630980014801
0.51785248517990112 0.69042247533798218 0.08874925971031189
0.64286643266677856 0.69614523649215698 0.093052849173545837
0.75487256050109863 0.69389665126800537 0.10313323140144348
0.84754693508148193 0.685810387134552 0.10885642468929291
0.91248577833175659 0.6795799732208252 0.10503825545310974
0.95717489719390869 0.67572802305221558 0.099502071738243103
0.993205726146698 0.67223995923995972 0.099528983235359192
0.023289205506443977 0.775177001953125 0.12259313464164734
0.068212516605854034 0.77195721864700317 0.12638083100318909
0.11037762463092804 0.77197158336639404 0.12514154613018036
0.1576702743768692 0.76659804582595825 0.12582378089427948
0.23314087092876434 0.75872325897216797 0.12115085124969482
0.35049277544021606 0.75910687446594238 0.1032910943031311
0.48357048630714417 0.767750084400177 0.088200315833091736
0.60957795381546021 0.77679675817489624 0.088447511196136475
0.72594869136810303 0.7778133749961853 0.10108111798763275
0.83058446645736694 0.77166080474853516 0.11276478320360184
0.90905302762985229 0.76684325933456421 0.11395178735256195
0.95926350355148315 0.76606208086013794 0.10894890874624252
0.99528992176055908 0.76271349191665649 0.10553959757089615
0.020758580416440964 0.84485876560211182 0.1156131699681282
0.068494699895381927 0.84191042184829712 0.12066714465618134
0.11386442184448242 0.840859055519104 0.1190357431769371
0.15981939435005188 0.83646690845489502 0.11856239289045334
0.22670695185661316 0.82934045791625977 0.11522744596004486
0.32797655463218689 0.82994288206100464 0.10131969302892685
0.45108392834663391 0.84011763334274292 0.085686147212982178
0.57377094030380249 0.85189670324325562 0.083820685744285583
0.69296157360076904 0.85818815231323242 0.094935111701488495
0.80800575017929077 0.85709744691848755 0.10767955332994461
0.89946722984313965 0.85553961992263794 0.1127617210149765
0.95857053995132446 0.85750281810760498 0.11012342572212219
0.99591803550720215 0.85575908422470093 0.10493551194667816
0.018827160820364952 0.89237123727798462 0.1061585396528244
0.067420840263366699 0.88678747415542603 0.11553272604942322
0.11321362107992172 0.88466858863830566 0.11569768935441971
0.15926901996135712 0.88326364755630493 0.11316070705652237
0.22090959548950195 0.88188177347183228 0.10911030322313309
0.31035497784614563 0.88419961929321289 0.098523758351802826
0.42290183901786804 0.89455866813659668 0.085649289190769196
0.54419434070587158 0.90929526090621948 0.082236349582672119
0.66772359609603882 0.92172706127166748 0.088566482067108154
0.78940045833587646 0.92728894948959351 0.09809499979019165
0.89027482271194458 0.93065917491912842 0.1021902933716774
0.95904219150543213 0.93488979339599609 0.099868521094322205
0.997894287109375 0.93431693315505981 0.094931945204734802
0.016247035935521126 0.93026828765869141 0.08676968514919281
0.064341284334659576 0.92345064878463745 0.098041638731956482
0.11077204346656799 0.92178589105606079 0.10064098984003067
0.15858589112758636 0.9218137264251709 0.098812147974967957
0.21917368471622467 0.92262572050094604 0.09557051956653595
0.30246171355247498 0.92761427164077759 0.088638290762901306
0.40860429406166077 0.9378853440284729 0.080639243125915527
0.52897161245346069 0.95340371131896973 0.077337183058261871
0.6549113392829895 0.96822774410247803 0.080807976424694061
0.77855157852172852 0.978790283203125 0.085097305476665497
0.88425749540328979 0.98551547527313232 0.084961012005805969
0.96019452810287476 0.9898073673248291 0.081190086901187897
0.99895685911178589 0.99087011814117432 0.0763535276055336
0.046525333076715469 0.024818390607833862 0.24833552539348602
0.13587577641010284 0.017586128786206245 0.24776788055896759
0.24456097185611725 0.017934970557689667 0.24601216614246368
0.35924971103668213 0.02113659493625164 0.24151051044464111
0.46593308448791504 0.021788593381643295 0.22745576500892639
0.56534832715988159 0.016999712213873863 0.2128148078918457
0.65888327360153198 0.015494522638618946 0.19919665157794952
0.7412337064743042 0.017392970621585846 0.19008946418762207
0.80325126647949219 0.018481967970728874 0.18138006329536438
0.84517621994018555 0.018927017226815224 0.17268466949462891
0.88044506311416626 0.017973581328988075 0.16815552115440369
0.92451626062393188 0.016758084297180176 0.16637891530990601
0.97755640745162964 0.018649023026227951 0.16416154801845551
0.033434115350246429 0.11277521401643753 0.24119679629802704
0.10567523539066315 0.10476531833410263 0.2302728146314621
0.20507967472076416 0.10348381847143173 0.22064381837844849
0.3244728147983551 0.10165976732969284 0.21685190498828888
0.4412456750869751 0.093959257006645203 0.20812384784221649
0.54583585262298584 0.079801611602306366 0.19784170389175415
0.6416395902633667 0.071390829980373383 0.18690326809883118
0.72878396511077881 0.069986052811145782 0.17616194486618042
0.79737788438796997 0.06706315279006958 0.16457398235797882
0.84353852272033691 0.062961623072624207 0.16028718650341034
0.88008195161819458 0.061070758849382401 0.1585516631603241
0.92498350143432617 0.063173972070217133 0.15458296239376068
0.97984707355499268 0.071479037404060364 0.15054939687252045
0.021446347236633301 0.21002893149852753 0.21878562867641449
0.074926041066646576 0.19560450315475464 0.20976811647415161
0.16469205915927887 0.18943935632705688 0.19965209066867828
0.29213538765907288 0.19269323348999023 0.19061228632926941
0.42192164063453674 0.18823924660682678 0.18406851589679718
0.53231918811798096 0.17344819009304047 0.17657037079334259
0.62904655933380127 0.15923650562763214 0.16839951276779175
0.7185661792755127 0.1528046727180481 0.15812669694423676
0.79071855545043945 0.14377261698246002 0.14975644648075104
0.8402218222618103 0.13371084630489349 0.14800252020359039
0.8799019455909729 0.12883587181568146 0.14590822160243988
0.92323845624923706 0.12825259566307068 0.14409652352333069
0.97880840301513672 0.13636748492717743 0.14428476989269257
0.017718087881803513 0.30596223473548889 0.19651804864406586
0.062636896967887878 0.29087516665458679 0.19246985018253326
0.1425047367811203 0.27608966827392578 0.18655198812484741
0.27180007100105286 0.28113123774528503 0.17533046007156372
0.41217377781867981 0.29115799069404602 0.16472664475440979
0.52882689237594604 0.28863894939422607 0.15574152767658234
0.62622886896133423 0.27463111281394958 0.14965669810771942
0.71493303775787354 0.26212230324745178 0.1425623744726181
0.78938579559326172 0.24830873310565948 0.13717317581176758
0.84250569343566895 0.23671580851078033 0.13390427827835083
0.88360393047332764 0.23103733360767365 0.13097520172595978
0.92791509628295898 0.22604750096797943 0.13208767771720886
0.98156428337097168 0.22864687442779541 0.1370856761932373
0.017224898561835289 0.39785566926002502 0.18246030807495117
0.056543178856372833 0.38670507073402405 0.18129575252532959
