assets/lut/editingcorpw Classic Charm.cube
LUT_3D_SIZE 6
DOMAIN_MIN 0.0 0.0 0.0
DOMAIN_MAX 1.0 1.0 1.0
0.095644 0.117830 0.121889
0.218997 0.129250 0.146072
0.416816 0.142825 0.140413
0.675832 0.201608 0.126082
0.891276 0.250999 0.121291
1.000000 0.288518 0.185885
0.217307 0.216416 0.127644
0.234608 0.197663 0.173656
0.440136 0.258643 0.105467
0.669199 0.293144 0.087148
0.885334 0.318924 0.083987
1.000000 0.339446 0.167306
0.412158 0.375946 0.084547
0.465778 0.396860 0.102901
0.509999 0.365503 0.271514
0.722108 0.420839 0.200163
0.886795 0.483198 0.000000
1.000000 0.482588 0.056635
0.553466 0.494764 0.000000
0.594664 0.516515 0.000000
0.697568 0.540424 0.012092
0.761402 0.521530 0.373046
0.936401 0.573886 0.424171
1.000000 0.604712 0.110189
0.791959 0.685395 0.000000
0.804996 0.686788 0.000000
0.877594 0.703216 0.000000
0.986926 0.703087 0.000000
0.997696 0.706677 0.553539
1.000000 0.781381 0.699019
1.000000 0.951934 0.000000
1.000000 0.949504 0.000000
1.000000 0.935565 0.000000
1.000000 0.902379 0.000000
1.000000 0.856907 0.424286
1.000000 0.877195 0.767575
0.137325 0.176089 0.252329
0.202734 0.155526 0.268875
0.392628 0.186482 0.257056
0.622521 0.231131 0.240490
0.863661 0.277529 0.185836
1.000000 0.305168 0.169675
0.172134 0.229825 0.245075
0.222477 0.247121 0.267615
0.401043 0.264858 0.261489
0.624448 0.294144 0.233546
0.861873 0.330452 0.176308
1.000000 0.350788 0.154623
0.372086 0.377907 0.218267
0.412026 0.386582 0.221762
0.469494 0.382706 0.347803
0.679112 0.429534 0.287086
0.874816 0.481247 0.126176
1.000000 0.487268 0.036426
0.528272 0.489075 0.117735
0.572774 0.515204 0.138481
0.668636 0.538957 0.220477
0.740180 0.535970 0.428380
0.925807 0.586568 0.455811
1.000000 0.606857 0.121464
0.777600 0.684810 0.000000
0.797604 0.691691 0.000000
0.875664 0.712965 0.000000
0.978387 0.710449 0.168158
0.995485 0.715988 0.575421
1.000000 0.784173 0.701362
1.000000 0.955969 0.000000
1.000000 0.955120 0.000000
1.000000 0.938363 0.000000
1.000000 0.904308 0.000000
1.000000 0.856911 0.419441
1.000000 0.877256 0.768039
0.227311 0.286504 0.464082
0.261452 0.285759 0.479700
0.388024 0.239912 0.492846
0.553565 0.245600 0.452317
0.820458 0.284362 0.463758
1.000000 0.349169 0.462434
0.284935 0.346846 0.461104
0.306090 0.350237 0.474274
0.380596 0.298087 0.473593
0.558245 0.298902 0.452544
0.815594 0.335930 0.460755
1.000000 0.380580 0.452940
0.306647 0.414562 0.438898
0.339161 0.430040 0.455599
0.420812 0.447312 0.476743
0.594807 0.445042 0.454500
0.837393 0.480907 0.457665
1.000000 0.500091 0.431129
0.463070 0.533131 0.398496
0.493314 0.543298 0.394941
0.559015 0.525687 0.360885
0.684743 0.588825 0.560899
0.885579 0.639378 0.561796
1.000000 0.648421 0.381070
0.718109 0.694356 0.226858
0.741142 0.701229 0.212837
0.806190 0.708100 0.236853
0.926321 0.731143 0.418119
0.967109 0.770474 0.689632
1.000000 0.804061 0.725365
1.000000 0.978064 0.000000
1.000000 0.976204 0.000000
1.000000 0.955731 0.000000
1.000000 0.915674 0.000000
1.000000 0.857146 0.388224
1.000000 0.877598 0.769851
0.397119 0.455988 0.709889
0.402888 0.444163 0.705031
0.442752 0.399327 0.692024
0.572880 0.318118 0.692222
0.769103 0.314247 0.667787
1.000000 0.410187 0.689192
0.408820 0.473366 0.675758
0.422672 0.473691 0.684513
0.449943 0.432528 0.677505
0.572288 0.361506 0.684963
0.756766 0.351478 0.655895
1.000000 0.441317 0.684067
0.474701 0.543087 0.642776
0.490862 0.553575 0.655302
0.501065 0.536201 0.653286
0.578100 0.483222 0.664771
0.775952 0.494105 0.661036
1.000000 0.581627 0.701564
0.440909 0.586942 0.603833
0.464974 0.597971 0.615060
0.517664 0.605239 0.625040
0.630033 0.645900 0.668603
0.821014 0.660345 0.665196
1.000000 0.690185 0.669709
0.593280 0.746989 0.584997
0.617649 0.755359 0.593677
0.678471 0.748362 0.580167
0.805566 0.736271 0.513252
0.930609 0.828428 0.788070
1.000000 0.851579 0.781846
0.966449 0.992945 0.433936
0.980969 0.994591 0.418659
1.000000 0.995844 0.350229
1.000000 0.971197 0.351645
1.000000 0.904398 0.578833
1.000000 0.884983 0.785538
0.602624 0.632886 0.850572
0.604970 0.628188 0.851096
0.619080 0.607859 0.854143
0.665003 0.560905 0.860584
0.779086 0.460129 0.868395
0.993182 0.457032 0.870170
0.619806 0.652236 0.844839
0.630178 0.655142 0.850645
0.637042 0.632636 0.851962
0.669863 0.581422 0.854187
0.775476 0.483869 0.860232
0.993048 0.488970 0.868200
0.656008 0.697294 0.827672
0.670389 0.704929 0.833513
0.682710 0.697214 0.838157
0.707459 0.663847 0.846641
0.795695 0.589048 0.855997
0.995421 0.592066 0.862398
0.700576 0.752757 0.809520
0.717282 0.761524 0.816280
0.740201 0.764743 0.819538
0.753970 0.755152 0.830028
0.813170 0.701509 0.840802
1.000000 0.725376 0.854606
0.683717 0.815479 0.802874
0.696685 0.820151 0.807382
0.726950 0.823796 0.812301
0.782716 0.831081 0.822141
0.873614 0.855433 0.848847
1.000000 0.892209 0.870112
0.868358 1.000000 0.849442
0.877415 1.000000 0.853759
0.899956 1.000000 0.854057
0.956106 1.000000 0.847278
1.000000 0.984314 0.751506
1.000000 0.958861 0.922326
0.850584 0.847257 0.992035
0.851255 0.845670 0.992859
0.855021 0.838627 0.996264
0.865910 0.822196 1.000000
0.893388 0.787985 1.000000
0.960052 0.714290 1.000000
0.856601 0.854795 0.991070
0.857474 0.853506 0.991871
0.860550 0.846415 0.995270
0.870124 0.829996 1.000000
0.895724 0.795556 1.000000
0.961370 0.723470 1.000000
0.879777 0.883073 0.987213
0.880346 0.882003 0.988012
0.882078 0.876092 0.991382
0.888951 0.862515 0.997961
0.909977 0.834100 1.000000
0.968499 0.773428 1.000000
0.895250 0.907439 0.978576
0.895952 0.907201 0.979575
0.899133 0.905801 0.983704
0.915011 0.907770 0.991089
0.928377 0.886667 1.000000
0.978344 0.843033 1.000000
0.916423 0.946020 0.975409
0.918833 0.946447 0.975720
0.928501 0.948180 0.977038
0.946851 0.952524 0.980062
0.962780 0.957195 0.992163
0.991107 0.939666 1.000000
0.922881 0.989532 0.979858
0.924846 0.989642 0.980109
0.934990 0.990191 0.981543
0.955077 0.991577 0.984949
0.984082 0.994653 0.991821
0.998047 0.997253 0.996826
