assets/lut/editingcorp satid.cube
# Created by: G'MIC (https://gmic.eu)
TITLE "satid"
# LUT size
LUT_3D_SIZE 7
# Data domain
DOMAIN_MIN 0.0 0.0 0.0
DOMAIN_MAX 1.0 1.0 1.0
# LUT data points
0.019407862797379494 0.011760173365473747 0.0040139141492545605
0.10754934698343277 0.025432705879211426 0.0063117980025708675
0.25988692045211792 0.043077908456325531 0.00022176107449922711
0.43077915906906128 0.067132391035556793 0.00098003307357430458
0.5363118052482605 0.089791059494018555 0.011778378859162331
0.57772177457809448 0.084689043462276459 0.0044438079930841923
0.61763876676559448 0.076304927468299866 0
0.018441323190927505 0.098224222660064697 0.034446701407432556
0.13265456259250641 0.096574224531650543 0.017038397490978241
0.30395928025245667 0.11012618243694305 0.012196050956845284
0.4687143862247467 0.15662914514541626 0.0081289997324347496
0.58140265941619873 0.19752268493175507 0.01243800763040781
0.65136700868606567 0.21785253286361694 0.009701448492705822
0.68410426378250122 0.21240828931331635 0.0071810702793300152
5.6008731917245314e-05 0.29028403759002686 0.082886762917041779
0.13732810318470001 0.28091549873352051 0.057447470724582672
0.39398923516273499 0.30082559585571289 0.025628542527556419
0.5526084303855896 0.30824390053749084 0.017247861251235008
0.62708032131195068 0.31914937496185303 0.011991194449365139
0.68700981140136719 0.33208408951759338 0.014605398289859295
0.73235976696014404 0.34875941276550293 0.021672312170267105
0.023773657158017159 0.40224531292915344 0.15469500422477722
0.11620806157588959 0.41954973340034485 0.12672176957130432
0.4237302839756012 0.43470680713653564 0.030872523784637451
0.60231953859329224 0.44183653593063354 0.020287502557039261
0.67315584421157837 0.42924553155899048 0.014276077970862389
0.72559237480163574 0.43158948421478271 0.015338344499468803
0.77441960573196411 0.45021313428878784 0.021377863362431526
0.023591687902808189 0.49070033431053162 0.21680577099323273
0.080489203333854675 0.51176279783248901 0.22159993648529053
0.4202304482460022 0.51693814992904663 0.079122357070446014
0.62374246120452881 0.517234206199646 0.013755274936556816
0.70015281438827515 0.52063846588134766 0.030228842049837112
0.76532852649688721 0.52292704582214355 0.020684365183115005
0.80972433090209961 0.54360556602478027 0.01766693964600563
0.03186943382024765 0.54792380332946777 0.2642960250377655
0.069112680852413177 0.57814514636993408 0.31285634636878967
0.38004386425018311 0.60166174173355103 0.20289501547813416
0.63264560699462891 0.58686357736587524 0.034391950815916061
0.73587977886199951 0.5934334397315979 0.017659759148955345
0.79195272922515869 0.60055989027023315 0.015307781286537647
0.8235933780670166 0.61976498365402222 0.059185881167650223
0.039100721478462219 0.6047675609588623 0.32491511106491089
0.080195136368274689 0.62594306468963623 0.35211533308029175
0.28067028522491455 0.66785335540771484 0.37064856290817261
0.63659775257110596 0.65949267148971558 0.13025471568107605
0.76271384954452515 0.66113543510437012 0.050010308623313904
0.81079381704330444 0.66490656137466431 0.054244067519903183
0.81498444080352783 0.71858590841293335 0.28638520836830139
0.022177422419190407 0.039782535284757614 0.089673511683940887
0.12112796306610107 0.04840870201587677 0.082346104085445404
0.25287267565727234 0.054176107048988342 0.064161531627178192
0.41419422626495361 0.07656656950712204 0.052696466445922852
0.52768748998641968 0.091807946562767029 0.043575495481491089
0.56298333406448364 0.06673896312713623 0.01873626746237278
0.60829567909240723 0.060910888016223907 0.004325223620980978
0.0030777426436543465 0.15731041133403778 0.12712277472019196
0.12455197423696518 0.1418236643075943 0.11944524943828583
0.334178626537323 0.13519231975078583 0.080838389694690704
0.47419285774230957 0.17376987636089325 0.062642984092235565
0.58035886287689209 0.20704570412635803 0.060900550335645676
0.65475702285766602 0.21991567313671112 0.036718808114528656
0.68395000696182251 0.20810899138450623 0.029882200062274933
0.0077783921733498573 0.31957387924194336 0.18610000610351562
0.076965317130088806 0.31948143243789673 0.19873695075511932
0.39093503355979919 0.33437559008598328 0.15556606650352478
0.54611748456954956 0.32660964131355286 0.10899035632610321
0.64493745565414429 0.32296130061149597 0.04958069697022438
0.70379716157913208 0.33510255813598633 0.030665064230561256
0.74365693330764771 0.359730064868927 0.057093244045972824
0.031359158456325531 0.42496973276138306 0.24580180644989014
0.040351495146751404 0.45668980479240417 0.27854591608047485
0.32952001690864563 0.47671344876289368 0.23439280688762665
0.59117639064788818 0.48936572670936584 0.18019306659698486
0.6957707405090332 0.4581877589225769 0.08346036821603775
0.74710273742675781 0.45364323258399963 0.041051123291254044
0.78696525096893311 0.47125536203384399 0.054916322231292725
0.035550031810998917 0.50599837303161621 0.2913510799407959
0.046257242560386658 0.51884227991104126 0.32264971733093262
0.27229973673820496 0.5516359806060791 0.30542400479316711
0.60801166296005249 0.55740994215011597 0.13338363170623779
0.72829985618591309 0.55144608020782471 0.055066261440515518
0.78006774187088013 0.54637247323989868 0.053070485591888428
0.8084532618522644 0.57021009922027588 0.11755380034446716
0.035326506942510605 0.5654909610748291 0.34570392966270447
0.071540072560310364 0.57797998189926147 0.36385750770568848
0.23003371059894562 0.62326252460479736 0.40707665681838989
0.59837204217910767 0.61719095706939697 0.1831410825252533
0.74446409940719604 0.61063849925994873 0.044439457356929779
0.79791855812072754 0.61168527603149414 0.043588273227214813
0.81245964765548706 0.65049201250076294 0.22883687913417816
0.041033606976270676 0.62051749229431152 0.40382590889930725
0.077638052403926849 0.63802731037139893 0.4262542724609375
0.21640931069850922 0.68223583698272705 0.48354652523994446
0.55498021841049194 0.69846612215042114 0.38971614837646484
0.73594194650650024 0.68362468481063843 0.20487850904464722
0.79488140344619751 0.68722963333129883 0.18077094852924347
0.8075709342956543 0.74563431739807129 0.45313760638237
0.022077567875385284 0.051239628344774246 0.23658029735088348
0.10315568000078201 0.058927096426486969 0.2406020313501358
0.2182752937078476 0.064376428723335266 0.21318820118904114
0.34397277235984802 0.087314888834953308 0.1775636225938797
0.4729403555393219 0.10448746383190155 0.15580970048904419
0.55953395366668701 0.099393092095851898 0.11071082949638367
0.61304670572280884 0.099405445158481598 0.092940777540206909
0.0021363501437008381 0.2212253212928772 0.26626920700073242
0.10179399698972702 0.17815062403678894 0.29220741987228394
0.27477410435676575 0.19345046579837799 0.27897384762763977
0.44219940900802612 0.19890822470188141 0.23797151446342468
0.56176435947418213 0.24122445285320282 0.22310431301593781
0.64309656620025635 0.25787839293479919 0.20284721255302429
0.67962169647216797 0.23529814183712006 0.1436096578836441
0.018568569794297218 0.35999318957328796 0.33032083511352539
0.020490564405918121 0.37109655141830444 0.36622187495231628
0.3050418496131897 0.36217394471168518 0.36031892895698547
0.54799538850784302 0.37202242016792297 0.29071134328842163
0.63446557521820068 0.37278449535369873 0.23577399551868439
0.69376689195632935 0.39166507124900818 0.24123592674732208
0.74252957105636597 0.42171388864517212 0.25868093967437744
0.036613747477531433 0.44890937209129333 0.38566601276397705
0.047429941594600677 0.46640792489051819 0.39724016189575195
0.21833693981170654 0.50588101148605347 0.42166507244110107
0.56933069229125977 0.52372449636459351 0.3767184317111969
0.68094170093536377 0.5113111138343811 0.31688329577445984
0.7384946346282959 0.50599879026412964 0.26796790957450867
0.77493518590927124 0.54316079616546631 0.34424731135368347
0.031460825353860855 0.52694934606552124 0.41452035307884216
0.049777235835790634 0.53862184286117554 0.41191962361335754
0.1683858186006546 0.58383387327194214 0.46437683701515198
0.52552306652069092 0.61011487245559692 0.43446004390716553
0.69247490167617798 0.62053245306015015 0.4054315984249115
0.75538778305053711 0.61745768785476685 0.37648290395736694
0.78799879550933838 0.63823926448822021 0.43196693062782288
0.03275604173541069 0.58189862966537476 0.43117073178291321
0.05223764106631279 0.59157645702362061 0.43852269649505615
0.13968433439731598 0.63232946395874023 0.48470467329025269
0.48494285345077515 0.66735398769378662 0.48133417963981628
0.71428894996643066 0.66525900363922119 0.34861025214195251
0.76608186960220337 0.67989838123321533 0.38585191965103149
0.79996508359909058 0.70647400617599487 0.49219462275505066
0.047095116227865219 0.63635611534118652 0.48072594404220581
0.089475847780704498 0.65410697460174561 0.49845132231712341
0.21265386044979095 0.69270628690719604 0.53832179307937622
0.50334304571151733 0.72889930009841919 0.55744004249572754
0.70358103513717651 0.73048281669616699 0.4749511182308197
0.77007782459259033 0.73846876621246338 0.45893537998199463
0.80935549736022949 0.76623570919036865 0.56532931327819824
0.027929358184337616 0.064984999597072601 0.37398117780685425
0.11187180131673813 0.05568370595574379 0.36296927928924561
0.1786641925573349 0.04432881623506546 0.3532860279083252
0.28162351250648499 0.072095073759555817 0.34051364660263062
0.4223080575466156 0.10126004368066788 0.33050966262817383
0.53130507469177246 0.13038443028926849 0.34171226620674133
0.61269658803939819 0.16187907755374908 0.35912773013114929
0.0062513016164302826 0.26526692509651184 0.42606130242347717
0.10379466414451599 0.18764548003673553 0.42141503095626831
0.23791545629501343 0.16802988946437836 0.43241879343986511
0.36585754156112671 0.16233192384243011 0.40552300214767456
0.48622798919677734 0.19731178879737854 0.37283825874328613
0.5932387113571167 0.24364230036735535 0.372661292552948
0.6741631031036377 0.28918895125389099 0.37901568412780762
0.017336063086986542 0.40527883172035217 0.46156591176986694
0.039570122957229614 0.38606539368629456 0.47853395342826843
0.24025522172451019 0.36298468708992004 0.49718821048736572
0.47524821758270264 0.38645428419113159 0.48583754897117615
0.58664745092391968 0.37322899699211121 0.43851584196090698
0.67978155612945557 0.42921194434165955 0.44761368632316589
0.74633395671844482 0.48606729507446289 0.4805743396282196
0.035108141601085663 0.47665309906005859 0.4921671450138092
0.051486536860466003 0.48016166687011719 0.5038752555847168
0.14343076944351196 0.52139908075332642 0.53375017642974854
0.51048344373703003 0.5461612343788147 0.53245258331298828
0.66824841499328613 0.55454444885253906 0.50504255294799805
0.72960299253463745 0.57034206390380859 0.5023200511932373
0.77720457315444946 0.60065412521362305 0.54684031009674072
0.036192666739225388 0.54402643442153931 0.51647001504898071
0.061095923185348511 0.5475623607635498 0.51884752511978149
0.12906554341316223 0.59385508298873901 0.54764282703399658
0.44441890716552734 0.62668824195861816 0.56659579277038574
0.67608857154846191 0.65521240234375 0.55663454532623291
0.74830585718154907 0.6678394079208374 0.56922060251235962
0.79252398014068604 0.67940062284469604 0.59000158309936523
0.036054275929927826 0.59626132249832153 0.53814911842346191
0.064536556601524353 0.60680758953094482 0.54096347093582153
0.1599452793598175 0.65041077136993408 0.56986385583877563
0.44733265042304993 0.69478327035903931 0.60783141851425171
0.67268109321594238 0.71808516979217529 0.59668570756912231
0.7524714469909668 0.73327881097793579 0.61011630296707153
0.80364042520523071 0.73845440149307251 0.62198930978775024
0.05985405296087265 0.6487501859664917 0.56766277551651001
0.10808654129505157 0.66723161935806274 0.57996684312820435
0.24385325610637665 0.7055475115776062 0.60978901386260986
0.49930423498153687 0.74543225765228271 0.64131349325180054
0.68893635272979736 0.76646691560745239 0.63875764608383179
0.76558214426040649 0.77487999200820923 0.62574976682662964
0.81152999401092529 0.78344118595123291 0.64919263124465942
0.052427299320697784 0.1149219423532486 0.46974390745162964
0.14704161882400513 0.074465595185756683 0.45355847477912903
0.20909206569194794 0.055087413638830185 0.44218489527702332
0.3178161084651947 0.075723297894001007 0.44965749979019165
0.43973007798194885 0.10897234827280045 0.44935381412506104
0.5472482442855835 0.14922134578227997 0.45679581165313721
0.63085752725601196 0.19990390539169312 0.49330294132232666
0.013649091124534607 0.3050931990146637 0.52563685178756714
0.13025785982608795 0.22475752234458923 0.51879090070724487
0.27083081007003784 0.19181413948535919 0.51299560070037842
0.34944093227386475 0.14411851763725281 0.49394825100898743
0.47037941217422485 0.18642503023147583 0.48042738437652588
0.57909888029098511 0.24788664281368256 0.49314478039741516
0.67808777093887329 0.33403244614601135 0.53197062015533447
0.020423155277967453 0.43189528584480286 0.55278885364532471
0.057208340615034103 0.42438095808029175 0.563690185546875
0.26532948017120361 0.37704169750213623 0.58355778455734253
0.44654300808906555 0.35447296500205994 0.58393436670303345
0.56344795227050781 0.36159780621528625 0.56238073110580444
0.64505380392074585 0.40674683451652527 0.55000036954879761
0.73054856061935425 0.4829649031162262 0.58483612537384033
0.03597259521484375 0.50052297115325928 0.56463742256164551
0.060395754873752594 0.50626963376998901 0.57739424705505371
0.15172678232192993 0.5427672266960144 0.6021343469619751
0.48637449741363525 0.56512552499771118 0.62376677989959717
0.6457783579826355 0.5839008092880249 0.62384241819381714
0.71564513444900513 0.5829424262046814 0.61524748802185059
0.77443277835845947 0.6209443211555481 0.64097946882247925
0.037499912083148956 0.56359750032424927 0.58440881967544556
0.057943291962146759 0.56740498542785645 0.59352093935012817
0.1012376993894577 0.60333830118179321 0.61786776781082153
0.40589648485183716 0.64533394575119019 0.64406764507293701
0.66175180673599243 0.67321962118148804 0.65286487340927124
0.74527812004089355 0.679526686668396 0.65201973915100098
0.79049897193908691 0.69631928205490112 0.66623103618621826
0.045846574008464813 0.61265331506729126 0.60904967784881592
0.063765794038772583 0.62507957220077515 0.61744654178619385
0.14862743020057678 0.66168057918548584 0.63811647891998291
0.44620057940483093 0.70472490787506104 0.67135494947433472
0.66236394643783569 0.72727972269058228 0.67569416761398315
0.75059670209884644 0.74626314640045166 0.68166238069534302
0.80060839653015137 0.75142961740493774 0.69193315505981445
0.075648993253707886 0.66763836145401001 0.64283853769302368
0.11854474246501923 0.68802905082702637 0.65179002285003662
0.27897873520851135 0.72086799144744873 0.67263936996459961
0.53198468685150146 0.75426173210144043 0.69484531879425049
0.69151812791824341 0.77350807189941406 0.70089000463485718
0.75795000791549683 0.78520047664642334 0.70623129606246948
0.80694252252578735 0.79380416870117188 0.71928626298904419
0.071436189115047455 0.13792268931865692 0.53142756223678589
0.17993229627609253 0.095084697008132935 0.51793509721755981
0.25341886281967163 0.064909793436527252 0.51023441553115845
0.37508741021156311 0.10060768574476242 0.52681803703308105
0.49145367741584778 0.13948641717433929 0.53848159313201904
0.57871896028518677 0.17593683302402496 0.55367821455001831
0.65918362140655518 0.24510613083839417 0.59382474422454834
0.032398521900177002 0.33454671502113342 0.59971410036087036
0.17453522980213165 0.26281553506851196 0.59616357088088989
0.31660580635070801 0.22128765285015106 0.58424884080886841
0.40373340249061584 0.18048180639743805 0.56564009189605713
0.52003318071365356 0.21853098273277283 0.57590222358703613
0.61535418033599854 0.28728052973747253 0.60097789764404297
0.71056407690048218 0.41365623474121094 0.63304811716079712
0.037277504801750183 0.45164933800697327 0.6101144552230835
0.089304938912391663 0.46339836716651917 0.6241072416305542
0.31020322442054749 0.41580700874328613 0.64761781692504883
0.48560810089111328 0.37517756223678589 0.6561470627784729
0.57098597288131714 0.35264492034912109 0.64407682418823242
0.66743284463882446 0.45058488845825195 0.64656823873519897
0.74275761842727661 0.53466343879699707 0.66625428199768066
0.038582462817430496 0.52284348011016846 0.62147617340087891
0.071686431765556335 0.53608065843582153 0.6340145468711853
0.20570512115955353 0.57031989097595215 0.65718883275985718
0.52062827348709106 0.59558522701263428 0.6831241250038147
0.64959394931793213 0.59715843200683594 0.68650311231613159
0.7202528715133667 0.61027246713638306 0.6859135627746582
0.76833236217498779 0.6311028003692627 0.69883137941360474
0.044513285160064697 0.5787164568901062 0.64029783010482788
0.074609138071537018 0.59308844804763794 0.65080070495605469
0.14942209422588348 0.62975680828094482 0.6715201735496521
0.45081794261932373 0.66537868976593018 0.70117932558059692
0.67189037799835205 0.69419980049133301 0.71371573209762573
0.73933660984039307 0.70191800594329834 0.71561485528945923
0.78626585006713867 0.70636957883834839 0.72241014242172241
0.059492297470569611 0.63657444715499878 0.66410869359970093
0.093629129230976105 0.65388786792755127 0.67270588874816895
0.21905496716499329 0.68427783250808716 0.69238007068634033
0.4924083948135376 0.71927160024642944 0.72186696529388428
0.67030704021453857 0.74494469165802002 0.73267799615859985
0.75052571296691895 0.75481462478637695 0.73534673452377319
0.80104130506515503 0.75655508041381836 0.73808598518371582
0.12165090441703796 0.69784975051879883 0.69915032386779785
0.19001483917236328 0.71752989292144775 0.70439833402633667
0.38335084915161133 0.74204015731811523 0.72294038534164429
0.58796960115432739 0.76713430881500244 0.73983579874038696
0.69361031055450439 0.78353643417358398 0.74357408285140991
0.75516694784164429 0.791492760181427 0.74807906150817871
0.80972856283187866 0.80159372091293335 0.76040053367614746
0.094208404421806335 0.17911189794540405 0.59199661016464233
0.21526359021663666 0.12509851157665253 0.57172572612762451
0.29695752263069153 0.091440968215465546 0.56862598657608032
0.42369219660758972 0.14558576047420502 0.5991021990776062
0.53492969274520874 0.18761023879051208 0.62537968158721924
0.61447525024414062 0.22363825142383575 0.65292298793792725
0.70377707481384277 0.34497442841529846 0.67898142337799072
0.061285309493541718 0.37324771285057068 0.6486588716506958
0.21289344131946564 0.2926480770111084 0.65026944875717163
0.36102890968322754 0.25612127780914307 0.65022605657577515
0.46538627147674561 0.25239488482475281 0.6459164023399353
0.57462739944458008 0.28687870502471924 0.66658806800842285
0.66238367557525635 0.36636626720428467 0.69188153743743896
0.74652612209320068 0.49387344717979431 0.70497685670852661
0.050326239317655563 0.49368375539779663 0.65907162427902222
0.12946291267871857 0.50409078598022461 0.6759260892868042
0.37792456150054932 0.47383835911750793 0.70062416791915894
0.52788567543029785 0.438059002161026 0.71100950241088867
0.6202271580696106 0.42715373635292053 0.70767927169799805
0.70861458778381348 0.52468854188919067 0.71537840366363525
0.76340502500534058 0.57939362525939941 0.72502720355987549
0.050969023257493973 0.55590808391571045 0.67460936307907104
0.10804992169141769 0.57758253812789917 0.69014626741409302
0.2954334020614624 0.60388737916946411 0.71037590503692627
0.55511391162872314 0.62370574474334717 0.73083901405334473
0.67029094696044922 0.61817067861557007 0.73289382457733154
0.73554468154907227 0.63139623403549194 0.73602378368377686
0.7768329381942749 0.65254050493240356 0.74585157632827759
0.067060299217700958 0.61284774541854858 0.69580882787704468
0.12381327152252197 0.63325810432434082 0.70752370357513428
0.27900180220603943 0.66515529155731201 0.72679024934768677
0.53830188512802124 0.69195568561553955 0.74975025653839111
0.68224513530731201 0.71040105819702148 0.75619548559188843
0.74643939733505249 0.71327763795852661 0.75728458166122437
0.79022508859634399 0.72078078985214233 0.76676779985427856
0.11171366274356842 0.67172777652740479 0.72064661979675293
0.18172080814838409 0.69093841314315796 0.72752374410629272
0.36635279655456543 0.71569359302520752 0.74420571327209473
0.56999361515045166 0.74016916751861572 0.76163667440414429
0.68891608715057373 0.75632709264755249 0.76561665534973145
0.75200408697128296 0.76212823390960693 0.76937305927276611
0.8040657639503479 0.77087110280990601 0.78385311365127563
0.21782034635543823 0.73256796598434448 0.75471174716949463
0.35600998997688293 0.74835741519927979 0.75615113973617554
0.52371120452880859 0.76737004518508911 0.76801460981369019
0.65017062425613403 0.7844586968421936 0.77809566259384155
0.71355009078979492 0.79326504468917847 0.7761656641960144
0.76230114698410034 0.801383376121521 0.78374451398849487
0.8209538459777832 0.81770110130310059 0.81104332208633423
