assets/lut/editingcorp loro.cube
# Created by: G'MIC (https://gmic.eu)
TITLE "loro"
# LUT size
LUT_3D_SIZE 13
# Data domain
DOMAIN_MIN 0.0 0.0 0.0
DOMAIN_MAX 1.0 1.0 1.0
# LUT data points
0.019293691962957382 0.019660081714391708 0.019604463130235672
0.095793195068836212 0.016499344259500504 0.016008295118808746
0.22853751480579376 0.017368525266647339 0.015621409751474857
0.36745616793632507 0.01924215629696846 0.015016622841358185
0.48067322373390198 0.022328589111566544 0.015669863671064377
0.57949405908584595 0.03458467498421669 0.017789937555789948
0.66866403818130493 0.057086046785116196 0.017668182030320168
0.74047225713729858 0.072207339107990265 0.016153253614902496
0.78930032253265381 0.061772186309099197 0.015699828043580055
0.8249962329864502 0.040023025125265121 0.018218126147985458
0.86009955406188965 0.026794867590069771 0.016036612913012505
0.89668238162994385 0.023259151726961136 0.012045826762914658
0.93571275472640991 0.021565889939665794 0.011320076882839203
0.022773563861846924 0.074504241347312927 0.037211056798696518
0.089806579053401947 0.069278255105018616 0.028213156387209892
0.20697131752967834 0.070339038968086243 0.02345600537955761
0.34195581078529358 0.073944732546806335 0.017029855400323868
0.46583989262580872 0.073957450687885284 0.01475861482322216
0.57215279340744019 0.080808557569980621 0.01784483902156353
0.66433876752853394 0.09984271228313446 0.019609279930591583
0.73659873008728027 0.11457217484712601 0.017706941813230515
0.78664296865463257 0.11280316859483719 0.016071110963821411
0.82456934452056885 0.10142683237791061 0.0161107387393713
0.85990244150161743 0.093425527215003967 0.015139232389628887
0.89533603191375732 0.090007692575454712 0.014193471521139145
0.93358075618743896 0.088251940906047821 0.014587641693651676
0.047965254634618759 0.14617836475372314 0.073094159364700317
0.093208014965057373 0.14191673696041107 0.063303090631961823
0.17895640432834625 0.14077414572238922 0.047586433589458466
0.31038886308670044 0.14428733289241791 0.0248691625893116
0.4484754204750061 0.14308489859104156 0.0089283064007759094
0.5649116039276123 0.14406725764274597 0.0092463623732328415
0.66012769937515259 0.15431050956249237 0.014452123083174229
0.73373568058013916 0.16499476134777069 0.015853224322199821
0.78708618879318237 0.16643604636192322 0.014271979220211506
0.82707333564758301 0.1620112806558609 0.013073071837425232
0.86307144165039062 0.15847273170948029 0.012806836515665054
0.89884620904922485 0.15540002286434174 0.013155529275536537
0.93613123893737793 0.15366190671920776 0.014391999691724777
0.092852301895618439 0.23203451931476593 0.12305869162082672
0.12496303766965866 0.22716374695301056 0.1154419407248497
0.17845337092876434 0.22447256743907928 0.099778957664966583
0.28410705924034119 0.22440657019615173 0.064003661274909973
0.42683672904968262 0.22226978838443756 0.019755734130740166
0.5558207631111145 0.22605197131633759 0.0065610995516180992
0.6566433310508728 0.23643353581428528 0.014181488193571568
0.73553621768951416 0.24253261089324951 0.02021891251206398
0.79556518793106079 0.24101512134075165 0.017680913209915161
0.83819246292114258 0.23660758137702942 0.014656620100140572
0.87334096431732178 0.23182229697704315 0.013946398161351681
0.90784698724746704 0.2262861430644989 0.014232082292437553
0.94504660367965698 0.2218153178691864 0.015003952197730541
0.14662165939807892 0.32522812485694885 0.18129943311214447
0.17436043918132782 0.32054403424263 0.17611709237098694
0.20468498766422272 0.31574615836143494 0.16767413914203644
0.27268055081367493 0.31459754705429077 0.13449850678443909
0.40110012888908386 0.31201249361038208 0.064069949090480804
0.54627585411071777 0.31482884287834167 0.010806139558553696
0.65696907043457031 0.32838684320449829 0.012628412805497646
0.74089658260345459 0.33414635062217712 0.023793373256921768
0.80847340822219849 0.32949164509773254 0.021146047860383987
0.8539731502532959 0.32232034206390381 0.01848735474050045
0.88764446973800659 0.31464496254920959 0.017310438677668571
0.92109388113021851 0.30576854944229126 0.01570994034409523
0.95766806602478027 0.29795145988464355 0.015053977258503437
0.20013345777988434 0.41933166980743408 0.24309097230434418
0.2294161319732666 0.41432824730873108 0.23746775090694427
0.25835639238357544 0.409871906042099 0.230329230427742
0.2975773811340332 0.41185829043388367 0.21336676180362701
0.3831784725189209 0.41802799701690674 0.1586778312921524
0.53111594915390015 0.41433554887771606 0.051584385335445404
0.66275554895401001 0.41401275992393494 0.0043818005360662937
0.74609589576721191 0.42070156335830688 0.015282963402569294
0.81743240356445312 0.41917324066162109 0.019098887220025063
0.86512774229049683 0.41252505779266357 0.019362745806574821
0.89993345737457275 0.40271556377410889 0.019329264760017395
0.933849036693573 0.39139667153358459 0.015875348821282387
0.97027873992919922 0.38092643022537231 0.012160671874880791
0.24656353890895844 0.50909847021102905 0.30091330409049988
0.27782222628593445 0.50426566600799561 0.29523757100105286
0.30774873495101929 0.4990423321723938 0.28986379504203796
0.33778777718544006 0.50163537263870239 0.28597572445869446
0.38870128989219666 0.51746046543121338 0.26785331964492798
0.49857646226882935 0.52649539709091187 0.1822812557220459
0.63781642913818359 0.51538288593292236 0.069825790822505951
0.74469053745269775 0.50517362356185913 0.017355570569634438
0.81819528341293335 0.5085759162902832 0.013869416899979115
0.8686099648475647 0.5040583610534668 0.017487663775682449
0.90753722190856934 0.4918636679649353 0.017241219058632851
0.94375306367874146 0.47789251804351807 0.012326259166002274
0.98081463575363159 0.46478870511054993 0.0072664595209062099
0.28095343708992004 0.58944571018218994 0.34769144654273987
0.31550604104995728 0.58620595932006836 0.34461739659309387
0.34906676411628723 0.5811651349067688 0.34139657020568848
0.38314557075500488 0.57981258630752563 0.33895939588546753
0.42064991593360901 0.59404093027114868 0.34071323275566101
0.47693654894828796 0.62473005056381226 0.3303368091583252
0.58863741159439087 0.6324196457862854 0.2372991144657135
0.72511154413223267 0.61389553546905518 0.097077406942844391
0.81568640470504761 0.60174620151519775 0.032541763037443161
0.87283378839492798 0.59020721912384033 0.01347560528665781
0.91443949937820435 0.57610368728637695 0.0094356611371040344
0.9514203667640686 0.5608295202255249 0.0062344567850232124
0.98815011978149414 0.54633408784866333 0.0024331635795533657
0.3027922511100769 0.6571841835975647 0.37925580143928528
0.34150582551956177 0.65780621767044067 0.38076579570770264
0.38009032607078552 0.65552222728729248 0.38064795732498169
0.41926902532577515 0.6522868275642395 0.37789127230644226
0.45605990290641785 0.65952545404434204 0.3813912570476532
0.49276900291442871 0.68875992298126221 0.39573958516120911
0.55900996923446655 0.72060948610305786 0.38071820139884949
0.66512215137481689 0.72830873727798462 0.30067873001098633
0.77471107244491577 0.7067827582359314 0.17424112558364868
0.86250382661819458 0.67762410640716553 0.065930567681789398
0.91908639669418335 0.65631651878356934 0.019919855520129204
0.95652127265930176 0.64136707782745361 0.012891223654150963
0.99072539806365967 0.62665873765945435 0.0060166600160300732
0.3159153163433075 0.71320652961730957 0.39823195338249207
0.35634920001029968 0.71609658002853394 0.40209397673606873
0.39686030149459839 0.7159760594367981 0.4032820463180542
0.43740630149841309 0.71153718233108521 0.3993782103061676
0.47578644752502441 0.71255534887313843 0.39814537763595581
0.51122242212295532 0.73296886682510376 0.41264781355857849
0.55532366037368774 0.76805692911148071 0.43144547939300537
0.62089776992797852 0.7971232533454895 0.42631733417510986
0.71035391092300415 0.79982525110244751 0.3623383641242981
0.82027781009674072 0.77144050598144531 0.22148017585277557
0.90435320138931274 0.74305963516235352 0.1164548397064209
0.95038127899169922 0.72647404670715332 0.083461612462997437
0.98562920093536377 0.71181422472000122 0.065156005322933197
0.32212379574775696 0.75885689258575439 0.40663796663284302
0.36237376928329468 0.76187211275100708 0.4093138575553894
0.40230035781860352 0.76050877571105957 0.409415602684021
0.44119608402252197 0.75576287508010864 0.40545904636383057
0.47946006059646606 0.75474309921264648 0.40326419472694397
0.51718533039093018 0.76797622442245483 0.41195696592330933
0.55858588218688965 0.79780447483062744 0.43097111582756042
0.60520428419113159 0.83337384462356567 0.4547654390335083
0.67066371440887451 0.85635358095169067 0.45626777410507202
0.77551037073135376 0.8482481837272644 0.36889487504959106
0.87789404392242432 0.8236393928527832 0.24848359823226929
0.93439161777496338 0.80969113111495972 0.19957366585731506
0.97220879793167114 0.7999718189239502 0.17760246992111206
0.32521727681159973 0.79832154512405396 0.40880396962165833
0.36372721195220947 0.79964059591293335 0.41002118587493896
0.40150505304336548 0.79736912250518799 0.4090878963470459
0.43924081325531006 0.79374194145202637 0.40594896674156189
0.47711214423179626 0.793110191822052 0.40417492389678955
0.51735949516296387 0.80257296562194824 0.40881133079528809
0.55908399820327759 0.82617855072021484 0.42287677526473999
0.60079079866409302 0.86033862829208374 0.44599884748458862
0.65504652261734009 0.89036804437637329 0.46384438872337341
0.74536049365997314 0.89653891324996948 0.41819903254508972
0.85473978519439697 0.87971901893615723 0.31474459171295166
0.92836642265319824 0.86910676956176758 0.25841784477233887
0.96982944011688232 0.86627757549285889 0.24362574517726898
0.32524511218070984 0.83668488264083862 0.41117420792579651
0.36261609196662903 0.83630484342575073 0.41128218173980713
0.39865913987159729 0.83514291048049927 0.41054004430770874
0.43589687347412109 0.83287239074707031 0.40901482105255127
0.47365403175354004 0.83364546298980713 0.40858033299446106
0.51366585493087769 0.84142351150512695 0.41266658902168274
0.55501270294189453 0.85987502336502075 0.42472720146179199
0.59386324882507324 0.89131742715835571 0.44790080189704895
0.64113348722457886 0.92317062616348267 0.46775957942008972
0.71593892574310303 0.93719571828842163 0.44287505745887756
0.82640260457992554 0.92562472820281982 0.34902313351631165
0.91954350471496582 0.91334140300750732 0.27488553524017334
0.9718506932258606 0.91239029169082642 0.25569456815719604
0.016358872875571251 0.022126156836748123 0.060750234872102737
0.076284892857074738 0.019562980160117149 0.061294510960578918
0.22856265306472778 0.01946524903178215 0.062000919133424759
0.38085177540779114 0.019105918705463409 0.059712354093790054
0.48741909861564636 0.019121117889881134 0.059189964085817337
0.58034294843673706 0.028487112373113632 0.060464732348918915
0.66556078195571899 0.046937979757785797 0.058462988585233688
0.73542612791061401 0.061558473855257034 0.053126048296689987
0.78460437059402466 0.059422317892313004 0.053013462573289871
0.82124465703964233 0.044768791645765305 0.055716376751661301
0.85692900419235229 0.033965554088354111 0.052977543324232101
0.89498603343963623 0.02873777411878109 0.049030706286430359
0.93595689535140991 0.026430809870362282 0.052280604839324951
0.021212499588727951 0.07694658637046814 0.07970835268497467
0.084078527987003326 0.074843339622020721 0.077435784041881561
0.21100014448165894 0.073363281786441803 0.074631661176681519
0.35165271162986755 0.072800926864147186 0.065274134278297424
0.47291409969329834 0.07048160582780838 0.059310451149940491
0.57502084970474243 0.078191123902797699 0.061626195907592773
0.66342258453369141 0.096734993159770966 0.063369214534759521
0.73484063148498535 0.11253058910369873 0.058148521929979324
0.78520113229751587 0.11527759581804276 0.056659981608390808
0.82194012403488159 0.10765650123357773 0.055448718369007111
0.85709744691848755 0.100788414478302 0.054193831980228424
0.89497548341751099 0.09482140839099884 0.05276184156537056
0.93383222818374634 0.090746723115444183 0.053965728729963303
0.044788792729377747 0.14596261084079742 0.11139500886201859
0.088953711092472076 0.14341937005519867 0.10592881590127945
0.18033020198345184 0.14248539507389069 0.091987743973731995
0.31291952729225159 0.14308013021945953 0.065758675336837769
0.45346152782440186 0.13955602049827576 0.048236846923828125
0.56916707754135132 0.14198166131973267 0.049226514995098114
0.66124939918518066 0.15384595096111298 0.054981786757707596
0.73484170436859131 0.16299992799758911 0.054392363876104355
0.78839963674545288 0.16580942273139954 0.051897250115871429
0.82644599676132202 0.1631656289100647 0.050673868507146835
0.86090493202209473 0.15926706790924072 0.050284098833799362
0.89750194549560547 0.1534552276134491 0.050169013440608978
0.93705940246582031 0.15074719488620758 0.051040336489677429
0.089517422020435333 0.23027628660202026 0.15891642868518829
0.12271520495414734 0.22648365795612335 0.15431225299835205
0.1792059987783432 0.22419045865535736 0.13835398852825165
0.28725826740264893 0.22344724833965302 0.099380061030387878
0.43203669786453247 0.220810666680336 0.057101454585790634
0.55977421998977661 0.22795011103153229 0.046601269394159317
0.65888321399688721 0.23819509148597717 0.054390162229537964
0.7382625937461853 0.24102896451950073 0.054912179708480835
0.79827624559402466 0.23837654292583466 0.051822572946548462
0.8381117582321167 0.23425903916358948 0.050440516322851181
0.87039047479629517 0.22909101843833923 0.050298638641834259
0.90595424175262451 0.22139550745487213 0.0501084104180336
0.94467765092849731 0.21701569855213165 0.050880864262580872
0.14569863677024841 0.32414063811302185 0.21809880435466766
0.17470356822013855 0.32038262486457825 0.21486043930053711
0.20820684731006622 0.31560051441192627 0.20569705963134766
0.27516463398933411 0.31429874897003174 0.17301894724369049
0.39949706196784973 0.31281864643096924 0.10672077536582947
0.54560184478759766 0.32068818807601929 0.053548462688922882
0.65921372175216675 0.33114215731620789 0.051427129656076431
0.74303007125854492 0.33376482129096985 0.059997841715812683
0.80994141101837158 0.32765141129493713 0.056790851056575775
0.85349756479263306 0.31867533922195435 0.053880356252193451
0.8854750394821167 0.31071370840072632 0.053496744483709335
0.91955059766769409 0.30104809999465942 0.051597163081169128
0.95729672908782959 0.29409795999526978 0.051584430038928986
0.20241503417491913 0.42044001817703247 0.28227773308753967
0.23046445846557617 0.41534531116485596 0.2768581211566925
0.25632771849632263 0.40999987721443176 0.27129921317100525
0.28993341326713562 0.41088998317718506 0.25786867737770081
0.37377503514289856 0.41730979084968567 0.20446382462978363
0.52854377031326294 0.41546556353569031 0.092880889773368835
0.66369467973709106 0.41374480724334717 0.036818724125623703
0.74572890996932983 0.4208381175994873 0.054104436188936234
0.81545335054397583 0.41652408242225647 0.056168738752603531
0.86515480279922485 0.40688616037368774 0.054648246616125107
0.89967447519302368 0.39799231290817261 0.055168613791465759
0.9337272047996521 0.38765636086463928 0.053894221782684326
0.97042065858840942 0.37800681591033936 0.051173623651266098
0.24865472316741943 0.51081687211990356 0.34033674001693726
0.27764058113098145 0.50539809465408325 0.33351960778236389
0.30685299634933472 0.49858871102333069 0.32832479476928711
0.33534237742424011 0.49835735559463501 0.32444292306900024
0.38343879580497742 0.51267409324645996 0.30753931403160095
0.49806344509124756 0.52339500188827515 0.22005821764469147
0.64233648777008057 0.51407212018966675 0.099669620394706726
0.7476995587348938 0.5037233829498291 0.04552122950553894
0.81980627775192261 0.50314474105834961 0.040911894291639328
0.87091070413589478 0.49751982092857361 0.047092452645301819
0.90847289562225342 0.48783954977989197 0.053234625607728958
0.94386917352676392 0.47610899806022644 0.052872601896524429
0.98240715265274048 0.46326988935470581 0.046953748911619186
0.28169149160385132 0.590587317943573 0.38629433512687683
0.31625628471374512 0.58793318271636963 0.38309779763221741
0.35064733028411865 0.58157217502593994 0.37912523746490479
0.38401675224304199 0.57877582311630249 0.37604564428329468
0.41895648837089539 0.59061640501022339 0.37671306729316711
0.47792541980743408 0.61994475126266479 0.36216473579406738
0.58969312906265259 0.63453096151351929 0.27907362580299377
0.72622275352478027 0.61184459924697876 0.12798000872135162
0.82105875015258789 0.59291964769363403 0.04986146092414856
0.87821143865585327 0.58243811130523682 0.035734169185161591
0.91509449481964111 0.57317781448364258 0.045920681208372116
0.95018100738525391 0.56021571159362793 0.045986071228981018
0.98901033401489258 0.54496538639068604 0.035043887794017792
0.30310633778572083 0.65846425294876099 0.41801548004150391
0.34180358052253723 0.65951728820800781 0.41935238242149353
0.38257816433906555 0.65635502338409424 0.41904935240745544
0.4212912917137146 0.65264058113098145 0.415728360414505
0.45752263069152832 0.65835058689117432 0.41767877340316772
0.49329665303230286 0.68486917018890381 0.43028822541236877
0.55128490924835205 0.72002983093261719 0.4295479953289032
0.66116857528686523 0.72415620088577271 0.33281692862510681
0.77953028678894043 0.69895869493484497 0.1918879896402359
0.86818498373031616 0.67304098606109619 0.09361228346824646
0.91769415140151978 0.65650218725204468 0.062630504369735718
0.95408624410629272 0.64026212692260742 0.050410956144332886
0.99105656147003174 0.62229728698730469 0.030742824077606201
0.31647595763206482 0.71394473314285278 0.4368140697479248
0.35650810599327087 0.71599233150482178 0.4392210841178894
0.39773055911064148 0.71484357118606567 0.43960675597190857
0.4394192099571228 0.71050602197647095 0.43566420674324036
0.47960516810417175 0.71157461404800415 0.43476185202598572
0.51591914892196655 0.73090416193008423 0.44968125224113464
0.55393397808074951 0.76625704765319824 0.47505119442939758
0.61527866125106812 0.79692983627319336 0.46958732604980469
0.71027952432632446 0.79880046844482422 0.39569798111915588
0.82447296380996704 0.77239769697189331 0.25947880744934082
0.90346479415893555 0.74491298198699951 0.16187363862991333
0.94963687658309937 0.72442948818206787 0.11737826466560364
0.98784512281417847 0.70546954870223999 0.082597993314266205
0.32133284211158752 0.75821614265441895 0.44329318404197693
0.36003729701042175 0.75892943143844604 0.44444087147712708
0.40047848224639893 0.75773751735687256 0.44376251101493835
0.44180849194526672 0.75349491834640503 0.4405616819858551
0.48330479860305786 0.75302988290786743 0.43905195593833923
0.52325201034545898 0.76704138517379761 0.44882908463478088
0.5616186261177063 0.79638898372650146 0.47084543108940125
0.60280120372772217 0.83270788192749023 0.49448540806770325
0.66785764694213867 0.85614269971847534 0.48976096510887146
0.77217048406600952 0.84924191236495972 0.41113489866256714
0.87556713819503784 0.8236091136932373 0.2925073504447937
0.9337841272354126 0.80763101577758789 0.23738482594490051
0.97428059577941895 0.79434496164321899 0.20081932842731476
0.32205206155776978 0.79694056510925293 0.44490909576416016
0.35938912630081177 0.79658538103103638 0.44420158863067627
0.39815935492515564 0.79437422752380371 0.4430660605430603
0.4378192126750946 0.79107987880706787 0.44097176194190979
0.47822916507720947 0.79123878479003906 0.44064247608184814
0.51976621150970459 0.8018842339515686 0.44665426015853882
0.56134802103042603 0.82563954591751099 0.46215841174125671
0.60069888830184937 0.85948532819747925 0.4869595468044281
0.65410608053207397 0.88934338092803955 0.50094515085220337
0.74601286649703979 0.89469116926193237 0.45486456155776978
0.85518676042556763 0.877147376537323 0.35167688131332397
0.92808026075363159 0.86618101596832275 0.2953178882598877
0.97186130285263062 0.86180883646011353 0.27276960015296936
0.32276791334152222 0.83553922176361084 0.44686046242713928
0.35948836803436279 0.83463221788406372 0.44587039947509766
0.39628520607948303 0.83216428756713867 0.44496452808380127
0.43374520540237427 0.83102810382843018 0.4442501962184906
0.47254911065101624 0.8324120044708252 0.44556429982185364
0.51264113187789917 0.84153234958648682 0.45157796144485474
0.55348259210586548 0.86158156394958496 0.46627742052078247
0.59260153770446777 0.89227521419525146 0.49012121558189392
0.64236438274383545 0.92223840951919556 0.50638109445571899
0.72236216068267822 0.93377888202667236 0.475026935338974
0.82837331295013428 0.92348086833953857 0.38608929514884949
0.91919910907745361 0.91154259443283081 0.31176331639289856
0.97463011741638184 0.90975147485733032 0.28660577535629272
0.015152007341384888 0.028863390907645226 0.10820262879133224
0.066370151937007904 0.028588747605681419 0.11197975277900696
0.20721425116062164 0.029139693826436996 0.11425729095935822
0.37689128518104553 0.025389697402715683 0.11039736866950989
0.49332359433174133 0.022757092490792274 0.105302594602108
0.5819162130355835 0.025850677862763405 0.1050763875246048
0.66122645139694214 0.038340922445058823 0.10608931630849838
0.72833788394927979 0.056170936673879623 0.106711745262146
0.77699297666549683 0.06355845183134079 0.10836775600910187
0.81558811664581299 0.057921361178159714 0.10680842399597168
0.85359293222427368 0.050264470279216766 0.10291585326194763
0.8919907808303833 0.037568621337413788 0.093945913016796112
0.93244951963424683 0.03249073401093483 0.09961719810962677
0.017782397568225861 0.092077650129795074 0.13457417488098145
0.066440746188163757 0.09152616560459137 0.1365152895450592
0.19044174253940582 0.089903362095355988 0.14229325950145721
0.35198336839675903 0.081627987325191498 0.13373400270938873
0.47999319434165955 0.074806392192840576 0.12106330692768097
0.5759543776512146 0.078756354749202728 0.11593718826770782
0.6586536169052124 0.096327871084213257 0.12042286992073059
0.72852861881256104 0.11565213650465012 0.123074010014534
0.77878391742706299 0.12586814165115356 0.12657247483730316
0.81644248962402344 0.12474317103624344 0.12266190350055695
0.85420787334442139 0.12021565437316895 0.11719946563243866
0.89279448986053467 0.10807003080844879 0.10783675312995911
0.93270719051361084 0.099661193788051605 0.10507407039403915
0.032605011016130447 0.15422946214675903 0.15459941327571869
0.06938597559928894 0.15254649519920349 0.15341705083847046
0.155830979347229 0.15172803401947021 0.14915943145751953
0.30478104948997498 0.14826543629169464 0.13036210834980011
0.457663893699646 0.14099109172821045 0.1103222444653511
0.57159256935119629 0.13940544426441193 0.10276852548122406
0.65870046615600586 0.15021666884422302 0.10655782371759415
0.73105102777481079 0.15925577282905579 0.10752245038747787
0.78476536273956299 0.1661040335893631 0.10958605259656906
0.82223361730575562 0.16761037707328796 0.10841500014066696
0.85708999633789062 0.16505959630012512 0.10581854730844498
0.89547920227050781 0.15836890041828156 0.10126780718564987
0.93587076663970947 0.15459609031677246 0.10030382871627808
0.074298083782196045 0.23079365491867065 0.19153222441673279
0.10778181999921799 0.22814345359802246 0.19203907251358032
0.1628212183713913 0.22736828029155731 0.18563206493854523
0.27638500928878784 0.22784790396690369 0.15659607946872711
0.43039754033088684 0.22485533356666565 0.1170780286192894
0.56264656782150269 0.2246653288602829 0.097371257841587067
0.65813153982162476 0.23029583692550659 0.098188556730747223
0.73615533113479614 0.23351360857486725 0.095190994441509247
0.79662573337554932 0.23336361348628998 0.095679372549057007
0.83484899997711182 0.2299618273973465 0.096926778554916382
0.86685961484909058 0.22570638358592987 0.097081921994686127
0.90356743335723877 0.21988740563392639 0.095431968569755554
0.94346588850021362 0.21827362477779388 0.097471155226230621
0.13510023057460785 0.32208505272865295 0.2489020824432373
0.17026390135288239 0.3197445273399353 0.24883373081684113
0.20605196058750153 0.31661465764045715 0.24528463184833527
0.27233901619911194 0.31561663746833801 0.22068598866462708
0.39799576997756958 0.31257328391075134 0.15346731245517731
