assets/lut/editingcorp wavefire.cube
# Created by: G'MIC (https://gmic.eu)
TITLE "wavefire"
# LUT size
LUT_3D_SIZE 7
# Data domain
DOMAIN_MIN 0.0 0.0 0.0
DOMAIN_MAX 1.0 1.0 1.0
# LUT data points
0.019273854792118073 0.015800341963768005 0.04201773926615715
0.32411888241767883 0.055141478776931763 0.070809997618198395
0.57127112150192261 0.073924347758293152 0.071155130863189697
0.75631231069564819 0.10423820465803146 0.089581415057182312
0.86644142866134644 0.074866816401481628 0.078077904880046844
0.90492802858352661 0.069150455296039581 0.083512760698795319
0.94739776849746704 0.1031077653169632 0.082691505551338196
0.0055783889256417751 0.23825421929359436 0.074162036180496216
0.27022188901901245 0.21802763640880585 0.070498794317245483
0.53923583030700684 0.21311935782432556 0.078990638256072998
0.73808139562606812 0.19896425306797028 0.087134957313537598
0.86491423845291138 0.17674534022808075 0.086886025965213776
0.90319222211837769 0.16736263036727905 0.084842860698699951
0.9489099383354187 0.1624109148979187 0.085021257400512695
0.05807901918888092 0.46457400918006897 0.11902130395174026
0.17869484424591064 0.44855943322181702 0.11099467426538467
0.49986705183982849 0.42724722623825073 0.089874371886253357
0.69925576448440552 0.39157798886299133 0.097215630114078522
0.85925579071044922 0.35300964117050171 0.093703083693981171
0.9171631932258606 0.32454970479011536 0.089682847261428833
0.957896888256073 0.30983531475067139 0.089657410979270935
0.11537860333919525 0.643818199634552 0.14410804212093353
0.14925049245357513 0.63288342952728271 0.14188015460968018
0.3917824923992157 0.62349265813827515 0.12016338109970093
0.6551857590675354 0.59533166885375977 0.10477251559495926
0.85466331243515015 0.55295264720916748 0.093223035335540771
0.93342757225036621 0.51569771766662598 0.093147039413452148
0.96977156400680542 0.4900411069393158 0.094343490898609161
0.1433713436126709 0.83580243587493896 0.14458951354026794
0.16813012957572937 0.82531130313873291 0.14894148707389832
0.30154085159301758 0.81324923038482666 0.1295236349105835
0.54564446210861206 0.80854219198226929 0.095587804913520813
0.79791039228439331 0.76995706558227539 0.08099713921546936
0.94983857870101929 0.70552688837051392 0.080573663115501404
0.98906868696212769 0.66081172227859497 0.083292089402675629
0.15226402878761292 0.9354669451713562 0.14692842960357666
0.17976197600364685 0.92910933494567871 0.14319257438182831
0.24509346485137939 0.924235999584198 0.13593527674674988
0.4372115433216095 0.94208961725234985 0.093315541744232178
0.6940578818321228 0.95141547918319702 0.067147500813007355
0.94356489181518555 0.9414406418800354 0.057144477963447571
0.99648725986480713 0.89928382635116577 0.061020750552415848
0.14354783296585083 0.97610718011856079 0.13750727474689484
0.15709604322910309 0.96855509281158447 0.13895392417907715
0.17451104521751404 0.97319269180297852 0.13943977653980255
0.33187758922576904 0.98736119270324707 0.096679329872131348
0.60726970434188843 0.99651950597763062 0.063900232315063477
0.88213026523590088 0.99770659208297729 0.053615793585777283
0.99719738960266113 0.99742805957794189 0.049332577735185623
0.0070068808272480965 0.037624388933181763 0.27774551510810852
0.29575955867767334 0.036903996020555496 0.26046735048294067
0.5672907829284668 0.053709305822849274 0.24775059521198273
0.76260948181152344 0.06805158406496048 0.21948733925819397
0.87297064065933228 0.061145797371864319 0.19269607961177826
0.90261745452880859 0.067379429936408997 0.18098923563957214
0.94421923160552979 0.038053549826145172 0.1620151698589325
0.006045621819794178 0.22651346027851105 0.25067505240440369
0.22218671441078186 0.21499614417552948 0.22743739187717438
0.53233546018600464 0.21096301078796387 0.20042364299297333
0.72941356897354126 0.19919125735759735 0.18775433301925659
0.86527085304260254 0.18285529315471649 0.16774506866931915
0.90432476997375488 0.17356474697589874 0.1579727977514267
0.95072078704833984 0.1634664386510849 0.15110145509243011
0.052558645606040955 0.45109659433364868 0.21021397411823273
0.15397673845291138 0.44216039776802063 0.19438156485557556
0.4926220178604126 0.4213641881942749 0.15875892341136932
0.69410407543182373 0.38800486922264099 0.1496579498052597
0.86393219232559204 0.35013386607170105 0.14067310094833374
0.91341215372085571 0.32630231976509094 0.13715450465679169
0.95562177896499634 0.3118358850479126 0.13468657433986664
0.13254895806312561 0.6429741382598877 0.19010186195373535
0.16070893406867981 0.63168776035308838 0.18151521682739258
0.39029526710510254 0.61840903759002686 0.15377712249755859
0.64898478984832764 0.5922664999961853 0.14195159077644348
0.85347610712051392 0.54900944232940674 0.12881085276603699
0.93128335475921631 0.5150262713432312 0.12190785259008408
0.97070968151092529 0.48909240961074829 0.12691082060337067
0.14242027699947357 0.824554443359375 0.17061352729797363
0.16598141193389893 0.81621366739273071 0.17742373049259186
0.2912851870059967 0.81014478206634521 0.16013959050178528
0.53897058963775635 0.80907279253005981 0.12852546572685242
0.79750269651412964 0.76600784063339233 0.12212845683097839
0.95361411571502686 0.70459222793579102 0.11229097098112106
0.98970311880111694 0.66330033540725708 0.11366773396730423
0.14477375149726868 0.92503708600997925 0.17992709577083588
0.1713578850030899 0.92848598957061768 0.17941451072692871
0.23722380399703979 0.92546588182449341 0.17372444272041321
0.42765933275222778 0.94326364994049072 0.12658406794071198
0.68934756517410278 0.94463992118835449 0.10514439642429352
0.93356418609619141 0.92860740423202515 0.097316011786460876
0.99887144565582275 0.89691531658172607 0.10199625045061111
0.13503441214561462 0.97387814521789551 0.12987492978572845
0.1642790287733078 0.97808194160461426 0.15197010338306427
0.19277293980121613 0.97547650337219238 0.14471347630023956
0.34607237577438354 0.9913899302482605 0.084781065583229065
0.59862637519836426 0.99543130397796631 0.074338175356388092
0.87804627418518066 0.99702125787734985 0.081214696168899536
0.9980577826499939 0.9995872974395752 0.082516871392726898
0.0033066095784306526 0.06758321076631546 0.51000344753265381
0.21308724582195282 0.061357475817203522 0.49494060873985291
0.54677689075469971 0.091408684849739075 0.47762277722358704
0.73895049095153809 0.1219012513756752 0.45116090774536133
0.83893072605133057 0.095431260764598846 0.42984762787818909
0.87609291076660156 0.10868021845817566 0.40353703498840332
0.92570120096206665 0.087450303137302399 0.37604501843452454
0.0081830490380525589 0.24341201782226562 0.48420530557632446
0.13920959830284119 0.23361116647720337 0.46934378147125244
0.50660055875778198 0.22974005341529846 0.44344374537467957
0.71420776844024658 0.25216594338417053 0.41512221097946167
0.84430068731307983 0.21296541392803192 0.39431855082511902
0.89062285423278809 0.19863155484199524 0.37174448370933533
0.93940150737762451 0.1892436146736145 0.3521265983581543
0.088401734828948975 0.43125265836715698 0.44750335812568665
0.13278922438621521 0.42495003342628479 0.44121122360229492
0.43919354677200317 0.42229026556015015 0.4120233952999115
0.68299943208694458 0.39871680736541748 0.3788667619228363
0.85132092237472534 0.36033222079277039 0.34748780727386475
0.9086492657661438 0.34749230742454529 0.33526980876922607
0.95241796970367432 0.33226403594017029 0.31825423240661621
0.16642493009567261 0.62213951349258423 0.39541351795196533
0.18275384604930878 0.61664164066314697 0.38560089468955994
0.37308219075202942 0.60610336065292358 0.34849554300308228
0.64368045330047607 0.5901491641998291 0.31326204538345337
0.84122693538665771 0.54705899953842163 0.28827250003814697
0.93133723735809326 0.52275770902633667 0.27391985058784485
0.97069895267486572 0.50921928882598877 0.2780754566192627
0.1786254495382309 0.8142433762550354 0.31289374828338623
0.21526598930358887 0.80800259113311768 0.30375659465789795
0.31262463331222534 0.79744178056716919 0.27976629137992859
0.54058980941772461 0.79831600189208984 0.23673489689826965
0.79631716012954712 0.75687599182128906 0.21680246293544769
0.95206838846206665 0.70164132118225098 0.20406505465507507
0.98499828577041626 0.66544348001480103 0.21727834641933441
0.15698438882827759 0.92366796731948853 0.2553744912147522
0.19442710280418396 0.92263740301132202 0.24819545447826385
0.2542751133441925 0.92193090915679932 0.23936308920383453
0.43895724415779114 0.94129198789596558 0.19875822961330414
0.68725544214248657 0.94816529750823975 0.17732727527618408
0.94457054138183594 0.93599599599838257 0.15189129114151001
0.99762332439422607 0.89818835258483887 0.15222695469856262
0.13222014904022217 0.9765394926071167 0.12701600790023804
0.16486425697803497 0.9767146110534668 0.12758733332157135
0.20884676277637482 0.97401732206344604 0.16095297038555145
0.36842399835586548 0.99258142709732056 0.1071062907576561
0.60875523090362549 0.99544668197631836 0.11738668382167816
0.88589358329772949 0.99686133861541748 0.094881080090999603
0.99754363298416138 0.99753576517105103 0.10228217393159866
0.0036210003308951855 0.086214430630207062 0.71588730812072754
0.16274087131023407 0.09633781760931015 0.70396119356155396
0.50940966606140137 0.11133336275815964 0.68781852722167969
0.73016542196273804 0.11374606192111969 0.70226716995239258
0.81485462188720703 0.1332874596118927 0.67068088054656982
0.83412474393844604 0.14984536170959473 0.62182140350341797
0.88469910621643066 0.12053044885396957 0.58922320604324341
0.00097781908698379993 0.26332592964172363 0.69047427177429199
0.061453517526388168 0.25283023715019226 0.68581664562225342
0.45175862312316895 0.26431605219841003 0.66097009181976318
0.70332032442092896 0.25137534737586975 0.66377657651901245
0.8045467734336853 0.29591327905654907 0.62536394596099854
0.84078741073608398 0.28468850255012512 0.58978354930877686
0.88981419801712036 0.27492156624794006 0.5538211464881897
0.10450498014688492 0.42563477158546448 0.67091101408004761
0.14972588419914246 0.41626822948455811 0.65774983167648315
0.3714020848274231 0.41590344905853271 0.64387470483779907
0.65585911273956299 0.4146764874458313 0.62188804149627686
0.80582308769226074 0.40720957517623901 0.58888369798660278
0.86043161153793335 0.39202111959457397 0.56403112411499023
0.91261070966720581 0.37712356448173523 0.54155522584915161
0.22803802788257599 0.59952813386917114 0.63601040840148926
0.2555900514125824 0.59173822402954102 0.62922912836074829
0.35080718994140625 0.58299154043197632 0.61503368616104126
0.61616379022598267 0.58529114723205566 0.59876912832260132
0.81565886735916138 0.56802713871002197 0.57372504472732544
0.9039766788482666 0.55430477857589722 0.55540162324905396
0.945953369140625 0.5492624044418335 0.54353684186935425
0.28702822327613831 0.77812540531158447 0.58271688222885132
0.31203380227088928 0.77367252111434937 0.57482540607452393
0.35833442211151123 0.7614932656288147 0.56371867656707764
0.55542343854904175 0.76348996162414551 0.53341424465179443
0.79043328762054443 0.74713349342346191 0.50159978866577148
0.94034618139266968 0.7090076208114624 0.4831412136554718
0.98005491495132446 0.68723767995834351 0.49042603373527527
0.27141404151916504 0.88284635543823242 0.49848043918609619
0.29850783944129944 0.88613802194595337 0.49404639005661011
0.32964989542961121 0.89202791452407837 0.48007762432098389
0.49002596735954285 0.91132116317749023 0.4680781364440918
0.69809800386428833 0.9336622953414917 0.43200942873954773
0.93544495105743408 0.92107325792312622 0.40290582180023193
0.99025565385818481 0.88729578256607056 0.39781084656715393
0.23939524590969086 0.94563800096511841 0.40113005042076111
0.26410841941833496 0.94700860977172852 0.39377743005752563
0.29265791177749634 0.94787204265594482 0.41840478777885437
0.44273826479911804 0.96083778142929077 0.40676477551460266
0.64051657915115356 0.98632133007049561 0.37452399730682373
0.88699817657470703 0.9947391152381897 0.31488147377967834
0.99686676263809204 0.99468785524368286 0.27140256762504578
0.0058526131324470043 0.093895435333251953 0.7850029468536377
0.11198576539754868 0.092126287519931793 0.7842831015586853
0.47278839349746704 0.11410626024007797 0.77524960041046143
0.69967687129974365 0.14888967573642731 0.80095452070236206
0.86842042207717896 0.073217682540416718 0.87479233741760254
0.89994138479232788 0.072996042668819427 0.86701929569244385
0.94210541248321533 0.079796731472015381 0.85527044534683228
0.011991972103714943 0.26531869173049927 0.78705090284347534
0.066610164940357208 0.25907894968986511 0.78482294082641602
0.41522908210754395 0.27018466591835022 0.78346914052963257
0.66825413703918457 0.29146093130111694 0.78095012903213501
0.85466378927230835 0.19367869198322296 0.85638970136642456
0.89936369657516479 0.19377551972866058 0.85514181852340698
0.91238468885421753 0.25308939814567566 0.79736733436584473
0.11873206496238708 0.41892755031585693 0.80405521392822266
0.16733373701572418 0.41312563419342041 0.79241323471069336
0.34608244895935059 0.41653287410736084 0.79255533218383789
0.61473262310028076 0.42263656854629517 0.78903132677078247
0.81067156791687012 0.39471423625946045 0.80538451671600342
0.8737633228302002 0.38449114561080933 0.80409979820251465
0.91060096025466919 0.37851735949516296 0.77363044023513794
0.25503787398338318 0.57718116044998169 0.81299912929534912
0.28403803706169128 0.5659712553024292 0.80369663238525391
0.3446199893951416 0.56012958288192749 0.79976993799209595
0.56050866842269897 0.56601536273956299 0.7963719367980957
0.79170703887939453 0.56477034091949463 0.80529481172561646
0.88404285907745361 0.55747777223587036 0.79645848274230957
0.91064167022705078 0.55891412496566772 0.75338375568389893
0.33014580607414246 0.75249737501144409 0.81087732315063477
0.36057141423225403 0.74279415607452393 0.80474084615707397
0.39412868022918701 0.73135793209075928 0.79472947120666504
0.52434098720550537 0.72045761346817017 0.7854076623916626
0.76672065258026123 0.72558897733688354 0.77935349941253662
0.89336937665939331 0.71678906679153442 0.75810074806213379
0.93943005800247192 0.7081303596496582 0.75372564792633057
0.35367053747177124 0.85943412780761719 0.75767606496810913
0.39108139276504517 0.86006319522857666 0.7546699047088623
0.41630911827087402 0.86018133163452148 0.73740929365158081
0.50910598039627075 0.86167162656784058 0.73491406440734863
0.72373348474502563 0.87772083282470703 0.72428691387176514
0.9093056321144104 0.89032238721847534 0.70940941572189331
0.96512573957443237 0.87608957290649414 0.70466822385787964
0.3464445173740387 0.91218352317810059 0.69383001327514648
0.37364411354064941 0.91033095121383667 0.69281744956970215
0.39379206299781799 0.91384035348892212 0.68431264162063599
0.48931527137756348 0.92063599824905396 0.69531190395355225
0.68851286172866821 0.94044399261474609 0.69324499368667603
0.89092487096786499 0.959830641746521 0.67766404151916504
0.97246742248535156 0.96335697174072266 0.6550823450088501
0.0074327657930552959 0.088614568114280701 0.81767106056213379
0.10014054179191589 0.089613772928714752 0.81535524129867554
0.45342743396759033 0.11544355750083923 0.80882096290588379
0.68017959594726562 0.1421714574098587 0.81639748811721802
0.8584219217300415 0.11417133361101151 0.89681154489517212
0.91990286111831665 0.066908881068229675 0.92446792125701904
0.95679056644439697 0.042254429310560226 0.91854238510131836
0.0016612183535471559 0.25719013810157776 0.82059574127197266
0.060706224292516708 0.25434467196464539 0.82008844614028931
0.39281156659126282 0.26581820845603943 0.81549715995788574
0.64467835426330566 0.28780734539031982 0.81596416234970093
0.84627354145050049 0.2047959566116333 0.88694733381271362
0.91829174757003784 0.16228607296943665 0.92197000980377197
0.96198099851608276 0.15879109501838684 0.92425012588500977
0.092813707888126373 0.40691536664962769 0.83374685049057007
0.14323981106281281 0.39987665414810181 0.83179640769958496
0.33645346760749817 0.40908989310264587 0.83504980802536011
0.59285140037536621 0.41592544317245483 0.83354514837265015
0.80886000394821167 0.38461855053901672 0.87351179122924805
0.92543387413024902 0.33329886198043823 0.93131214380264282
0.95514130592346191 0.32749232649803162 0.91887784004211426
0.24003994464874268 0.55698221921920776 0.85362905263900757
0.27530592679977417 0.55345487594604492 0.84980934858322144
0.34419542551040649 0.54971367120742798 0.85952913761138916
0.54006922245025635 0.5606502890586853 0.8588554859161377
0.76649981737136841 0.56222051382064819 0.86613267660140991
0.9190673828125 0.54081636667251587 0.93216037750244141
0.95500034093856812 0.53595322370529175 0.91954207420349121
0.3271058201789856 0.72502493858337402 0.88031476736068726
0.35676971077919006 0.71698689460754395 0.88052570819854736
0.39024129509925842 0.7086828351020813 0.88411027193069458
0.51404589414596558 0.70324385166168213 0.88300275802612305
0.74366152286529541 0.71220356225967407 0.885986328125
0.89737391471862793 0.71363812685012817 0.91360366344451904
0.94832885265350342 0.71258217096328735 0.91552162170410156
0.37033632397651672 0.85509347915649414 0.89950978755950928
0.40580794215202332 0.85252588987350464 0.89667081832885742
0.43567466735839844 0.84845131635665894 0.8940352201461792
0.50388771295547485 0.84651917219161987 0.88884776830673218
0.71494150161743164 0.84686887264251709 0.8903810977935791
0.88606959581375122 0.85521864891052246 0.8935050368309021
0.93924742937088013 0.85165548324584961 0.89145159721374512
0.37036529183387756 0.9066702127456665 0.88595890998840332
0.40332221984863281 0.90503126382827759 0.87947928905487061
0.43326109647750854 0.90668588876724243 0.88181358575820923
0.48530930280685425 0.90703296661376953 0.88002824783325195
0.68254286050796509 0.9115525484085083 0.88054347038269043
0.874256432056427 0.91441172361373901 0.88592404127120972
0.93415570259094238 0.91753304004669189 0.88232570886611938
0.0023091633338481188 0.085795819759368896 0.8716089129447937
0.082985192537307739 0.083303205668926239 0.87026703357696533
0.40811145305633545 0.11697264760732651 0.86318475008010864
0.65033650398254395 0.13013093173503876 0.87059938907623291
0.82452768087387085 0.13906167447566986 0.92755210399627686
0.91280710697174072 0.063041940331459045 0.964000403881073
0.95649194717407227 0.037070270627737045 0.96685200929641724
0.011761370114982128 0.25499245524406433 0.87536048889160156
0.068877920508384705 0.25211805105209351 0.87474101781845093
0.37063467502593994 0.26533490419387817 0.87303298711776733
0.61503535509109497 0.28237751126289368 0.87198632955551147
0.81849211454391479 0.22771084308624268 0.92871367931365967
0.92223560810089111 0.16004739701747894 0.97096312046051025
0.95620602369308472 0.16297750174999237 0.95810562372207642
0.093267880380153656 0.39229726791381836 0.88387560844421387
0.1415136307477951 0.39178791642189026 0.8795626163482666
0.33055853843688965 0.40382605791091919 0.88287758827209473
0.56893205642700195 0.41572725772857666 0.88788515329360962
0.77171963453292847 0.40203887224197388 0.91225934028625488
0.90969675779342651 0.3432256281375885 0.96896398067474365
0.95139384269714355 0.33319619297981262 0.96677941083908081
0.22717770934104919 0.53831106424331665 0.89844036102294922
0.26120439171791077 0.53477209806442261 0.89516109228134155
0.35439282655715942 0.54106777906417847 0.90258586406707764
0.5457688570022583 0.56119173765182495 0.9102785587310791
0.74639439582824707 0.56295764446258545 0.92072802782058716
0.91486090421676636 0.54418706893920898 0.97880971431732178
0.95222902297973633 0.53324747085571289 0.97139436006546021
0.31002470850944519 0.6888001561164856 0.92750734090805054
0.34134966135025024 0.6803930401802063 0.9239158034324646
0.38469716906547546 0.67666661739349365 0.92540019750595093
0.51888525485992432 0.68623101711273193 0.92741507291793823
0.73617398738861084 0.70682406425476074 0.93658626079559326
0.90119987726211548 0.71045380830764771 0.97069811820983887
0.95302248001098633 0.71004700660705566 0.96697527170181274
0.36580553650856018 0.84130358695983887 0.94664591550827026
0.39582806825637817 0.83204597234725952 0.93725442886352539
0.42494896054267883 0.82588458061218262 0.94025963544845581
0.5049172043800354 0.82958287000656128 0.9433971643447876
0.71379578113555908 0.837238609790802 0.94214475154876709
0.87796640396118164 0.84636020660400391 0.94753670692443848
0.9361797571182251 0.84892278909683228 0.95317047834396362
0.36819219589233398 0.89022451639175415 0.9480711817741394
0.4033893346786499 0.89210015535354614 0.94160479307174683
0.43794342875480652 0.89061582088470459 0.94675236940383911
0.49881866574287415 0.89181888103485107 0.94694513082504272
0.69177937507629395 0.89815634489059448 0.94975811243057251
0.87379378080368042 0.90226286649703979 0.94936114549636841
0.93172883987426758 0.90173614025115967 0.950614333152771
