assets/lut/editingcorp tutto.cube
# Created by: G'MIC (https://gmic.eu)
TITLE "tutto"
# LUT size
LUT_3D_SIZE 7
# Data domain
DOMAIN_MIN 0.0 0.0 0.0
DOMAIN_MAX 1.0 1.0 1.0
# LUT data points
0.019444379955530167 0.015945255756378174 0.01593412458896637
0.2932620644569397 0.013632366433739662 0.018428023904561996
0.54083263874053955 0.016773119568824768 0.019144663587212563
0.7404334545135498 0.015783436596393585 0.0017033446347340941
0.87140792608261108 0.015110359527170658 0.002475932938978076
0.93409538269042969 0.011233131401240826 0.0036061904393136501
0.98920869827270508 0.006896553561091423 0.0023276235442608595
0.0051529975607991219 0.14398370683193207 0.033375877887010574
0.18838338553905487 0.14086736738681793 0.027433926239609718
0.50225383043289185 0.14587315917015076 0.02647959440946579
0.7198607325553894 0.14136281609535217 0.017676079645752907
0.86136221885681152 0.13615028560161591 0.010445388965308666
0.93687182664871216 0.12286984175443649 0.012429420836269855
0.99242913722991943 0.11438141018152237 0.011689743027091026
0.0077507765963673592 0.33138230443000793 0.063429847359657288
0.10604200512170792 0.33015716075897217 0.060052189975976944
0.41172310709953308 0.34374916553497314 0.055168390274047852
0.69133585691452026 0.35104113817214966 0.016072681173682213
0.86195969581604004 0.32221382856369019 0.015625597909092903
0.94948071241378784 0.29784014821052551 0.010825153440237045
0.99653232097625732 0.28255170583724976 0.01666443794965744
0.029312537983059883 0.54554468393325806 0.10740357637405396
0.10440070927143097 0.53868770599365234 0.10646181553602219
0.31222078204154968 0.55152243375778198 0.10425479710102081
0.64436793327331543 0.57077622413635254 0.074895434081554413
0.84818023443222046 0.55491387844085693 0.011299447156488895
0.95898145437240601 0.51700478792190552 0.0081333983689546585
0.99840360879898071 0.49321934580802917 0.012721865437924862
0.056482084095478058 0.72952723503112793 0.13613131642341614
0.12297885119915009 0.72501558065414429 0.13672909140586853
0.25525206327438354 0.72761327028274536 0.14121530950069427
0.56704896688461304 0.75506812334060669 0.14405129849910736
0.81953334808349609 0.75625258684158325 0.099656336009502411
0.95382839441299438 0.7494390606880188 0.0067727332934737206
0.99767756462097168 0.70827370882034302 0.018016500398516655
0.075044207274913788 0.83954983949661255 0.14827533066272736
0.13569322228431702 0.83949726819992065 0.15043520927429199
0.22211083769798279 0.83413732051849365 0.14700527489185333
0.44209212064743042 0.8580329418182373 0.14418379962444305
0.74565142393112183 0.87388497591018677 0.15794800221920013
0.92595797777175903 0.87903010845184326 0.13398441672325134
0.99469262361526489 0.88019245862960815 0.095807261765003204
0.065324537456035614 0.91206377744674683 0.14841823279857635
0.11717696487903595 0.91060739755630493 0.15217196941375732
0.18344613909721375 0.90530890226364136 0.15068541467189789
0.33625990152359009 0.92356866598129272 0.15049757063388824
0.66757738590240479 0.95397096872329712 0.14147323369979858
0.90502959489822388 0.95974111557006836 0.15747478604316711
0.99727737903594971 0.9727637767791748 0.13473188877105713
0.020414479076862335 0.030619572848081589 0.20685924589633942
0.27294215559959412 0.018855584785342216 0.16959841549396515
0.54094702005386353 0.01693510077893734 0.15876193344593048
0.7414557933807373 0.016935894265770912 0.15252237021923065
0.87655794620513916 0.016413506120443344 0.13850422203540802
0.93620955944061279 0.017007401213049889 0.1249927282333374
0.99079376459121704 0.018286477774381638 0.12084920704364777
0.013166045770049095 0.1754845529794693 0.17943990230560303
0.16242241859436035 0.15349045395851135 0.16089156270027161
0.49236112833023071 0.14875921607017517 0.14714962244033813
0.71631342172622681 0.14105798304080963 0.13442876935005188
0.8632504940032959 0.13020443916320801 0.11531717330217361
0.9382859468460083 0.11494003236293793 0.11118470877408981
0.99518346786499023 0.11871851235628128 0.11902833729982376
0.017350828275084496 0.34399664402008057 0.17713919281959534
0.10766923427581787 0.33888351917266846 0.17486287653446198
0.40623006224632263 0.3435719907283783 0.14130280911922455
0.68757116794586182 0.3474351167678833 0.10164890438318253
0.86510765552520752 0.31904223561286926 0.096183329820632935
0.94678527116775513 0.29448217153549194 0.089055068790912628
0.99614125490188599 0.28424108028411865 0.1042177677154541
0.032466858625411987 0.54706841707229614 0.19191493093967438
0.10275398939847946 0.53790163993835449 0.19303344190120697
0.30179440975189209 0.54348558187484741 0.18174585700035095
0.64569383859634399 0.5712512731552124 0.14759752154350281
0.8473162055015564 0.55231088399887085 0.084635794162750244
0.95250135660171509 0.51479369401931763 0.083823196589946747
0.99770808219909668 0.49309855699539185 0.084121212363243103
0.058630220592021942 0.72570526599884033 0.20701427757740021
0.1150059849023819 0.71764105558395386 0.20665250718593597
0.24251163005828857 0.71909958124160767 0.21191814541816711
0.56465810537338257 0.745525062084198 0.22983367741107941
0.81445097923278809 0.75184023380279541 0.17983675003051758
0.95062220096588135 0.74521583318710327 0.082077294588088989
0.9976237416267395 0.70811766386032104 0.091888517141342163
0.080176576972007751 0.83450698852539062 0.21501970291137695
0.12999209761619568 0.82908433675765991 0.22241303324699402
0.2110191285610199 0.83035671710968018 0.22148989140987396
0.44376486539840698 0.85520541667938232 0.22035418450832367
0.74602419137954712 0.87165391445159912 0.24187876284122467
0.92928963899612427 0.87889367341995239 0.20432895421981812
0.99478554725646973 0.88062846660614014 0.16891837120056152
0.069961190223693848 0.90724879503250122 0.20977236330509186
0.11231197416782379 0.90663164854049683 0.22120432555675507
0.16606365144252777 0.91023433208465576 0.222681924700737
0.33602613210678101 0.92381829023361206 0.22006334364414215
0.6671329140663147 0.94863986968994141 0.21458105742931366
0.89899903535842896 0.95143014192581177 0.24031411111354828
0.99569284915924072 0.9713250994682312 0.20988206565380096
0.014383697882294655 0.060556776821613312 0.43768996000289917
0.21465432643890381 0.025591233745217323 0.37902095913887024
0.51901555061340332 0.028698327019810677 0.35393151640892029
0.73675185441970825 0.019211024045944214 0.38897758722305298
0.86786442995071411 0.011452304199337959 0.38367822766304016
0.93578684329986572 0.0094901137053966522 0.36504635214805603
0.99433761835098267 0.014390609227120876 0.34777480363845825
0.027813287451863289 0.24716901779174805 0.3903353214263916
0.13432987034320831 0.19769412279129028 0.37846076488494873
0.45930048823356628 0.16387279331684113 0.34101295471191406
0.71273976564407349 0.1423451155424118 0.34432461857795715
0.86434721946716309 0.12244400382041931 0.35766205191612244
0.93877482414245605 0.11320260912179947 0.34016904234886169
0.99687272310256958 0.11842638254165649 0.32973700761795044
0.012313319370150566 0.39333969354629517 0.37068507075309753
0.082216642796993256 0.38158729672431946 0.36129623651504517
0.33273366093635559 0.36182874441146851 0.34675225615501404
0.68213862180709839 0.34989151358604431 0.32783892750740051
0.85974341630935669 0.3296724259853363 0.32611459493637085
0.94487655162811279 0.31010156869888306 0.29800975322723389
0.99654543399810791 0.29198494553565979 0.30171725153923035
0.030200973153114319 0.56669193506240845 0.37631991505622864
0.10463846474885941 0.56077075004577637 0.36938038468360901
0.25700342655181885 0.5509573221206665 0.34954348206520081
0.62005484104156494 0.56653755903244019 0.31285873055458069
0.84673678874969482 0.5503770112991333 0.26552140712738037
0.95260298252105713 0.52149909734725952 0.25556224584579468
0.99773281812667847 0.50198531150817871 0.26235342025756836
0.057192903012037277 0.73792088031768799 0.34552887082099915
0.12397492676973343 0.73090529441833496 0.33877992630004883
0.24081778526306152 0.72776871919631958 0.32988491654396057
0.54629802703857422 0.75013214349746704 0.31323745846748352
0.81204736232757568 0.75311881303787231 0.26980254054069519
0.95137053728103638 0.74079138040542603 0.1909453421831131
0.99603188037872314 0.70794963836669922 0.21307069063186646
0.074693299829959869 0.84223943948745728 0.31733852624893188
0.12465108186006546 0.83841782808303833 0.31927138566970825
0.22000338137149811 0.83756524324417114 0.31786474585533142
0.45193237066268921 0.85188001394271851 0.31975516676902771
0.74218785762786865 0.87604528665542603 0.30887764692306519
0.92783498764038086 0.87668007612228394 0.28775769472122192
0.99341261386871338 0.87985503673553467 0.23775145411491394
0.063619919121265411 0.90941125154495239 0.28917542099952698
0.099837630987167358 0.9113389253616333 0.30266177654266357
0.17834949493408203 0.91401654481887817 0.31179404258728027
0.37996354699134827 0.926674485206604 0.31082728505134583
0.67674940824508667 0.9537346363067627 0.29292818903923035
0.89496076107025146 0.95577245950698853 0.30584853887557983
0.99082380533218384 0.97033423185348511 0.27531415224075317
0.025782236829400063 0.14034625887870789 0.62930434942245483
0.20462612807750702 0.027051528915762901 0.55778211355209351
0.47176438570022583 0.020796084776520729 0.53007835149765015
0.70541691780090332 0.057301614433526993 0.54117429256439209
0.83077788352966309 0.07435251772403717 0.5249866247177124
0.90414738655090332 0.068228445947170258 0.51705324649810791
0.97943115234375 0.043432347476482391 0.52481508255004883
0.057263918220996857 0.30241712927818298 0.60565769672393799
0.14870542287826538 0.23916366696357727 0.58394801616668701
0.39408504962921143 0.17038288712501526 0.53686130046844482
0.67714506387710571 0.18173587322235107 0.49405717849731445
0.83726447820663452 0.16868993639945984 0.52156740427017212
0.91421216726303101 0.15213485062122345 0.52180558443069458
0.98162615299224854 0.1472579687833786 0.50959163904190063
0.018778303638100624 0.44878605008125305 0.54167705774307251
0.093945235013961792 0.44148969650268555 0.54218184947967529
0.2668132483959198 0.39299106597900391 0.54906231164932251
0.63571643829345703 0.34735071659088135 0.49770492315292358
0.84673440456390381 0.33272752165794373 0.5246589183807373
0.92922651767730713 0.327871173620224 0.52024966478347778
0.98897212743759155 0.31327643990516663 0.52217817306518555
0.015335666015744209 0.58999127149581909 0.56436169147491455
0.090541020035743713 0.58243405818939209 0.55176740884780884
0.15663038194179535 0.58269208669662476 0.55055767297744751
0.53930538892745972 0.57328253984451294 0.54562795162200928
0.84744977951049805 0.5631909966468811 0.55602914094924927
0.95045149326324463 0.54488253593444824 0.55318224430084229
0.99707090854644775 0.53441137075424194 0.54845821857452393
0.05972602590918541 0.7501295804977417 0.56545507907867432
0.11296112835407257 0.74212169647216797 0.54799473285675049
0.19548910856246948 0.73672735691070557 0.54027211666107178
0.45742899179458618 0.74638527631759644 0.53031998872756958
0.80026233196258545 0.7623288631439209 0.51081645488739014
0.94911938905715942 0.74802869558334351 0.49684324860572815
0.99769896268844604 0.72719031572341919 0.50252926349639893
0.067276671528816223 0.85521513223648071 0.51743501424789429
0.1261468380689621 0.85272318124771118 0.51104533672332764
0.2245091050863266 0.84831523895263672 0.49792248010635376
0.41432952880859375 0.85383576154708862 0.4988085925579071
0.72762620449066162 0.87941485643386841 0.46859797835350037
0.92897534370422363 0.89048755168914795 0.4593469500541687
0.99339950084686279 0.89002525806427002 0.44732767343521118
0.049986373633146286 0.92380219697952271 0.46481627225875854
0.099855281412601471 0.92399048805236816 0.46927735209465027
0.1958581805229187 0.92226654291152954 0.47309666872024536
0.38672778010368347 0.9285656213760376 0.47908386588096619
0.6697201132774353 0.94937455654144287 0.46270754933357239
0.89222103357315063 0.96305996179580688 0.45604404807090759
0.98908048868179321 0.975616455078125 0.44062715768814087
0.021700242534279823 0.1556439995765686 0.72367018461227417
0.2053629457950592 0.038893934339284897 0.6608460545539856
0.45102378726005554 0.028979836031794548 0.63444793224334717
0.67890256643295288 0.074333697557449341 0.63365203142166138
0.81604945659637451 0.10416575521230698 0.61749362945556641
0.89042496681213379 0.10873129218816757 0.60586082935333252
0.96540391445159912 0.091753058135509491 0.60741287469863892
0.064442113041877747 0.31227508187294006 0.71835660934448242
0.14748671650886536 0.2546851634979248 0.69932931661605835
0.37621861696243286 0.17382638156414032 0.66025263071060181
0.65366780757904053 0.18398523330688477 0.62553733587265015
0.81838583946228027 0.19517131149768829 0.62109416723251343
0.88970655202865601 0.19398441910743713 0.60932624340057373
0.96323984861373901 0.19647201895713806 0.60682481527328491
0.055365856736898422 0.46835482120513916 0.67054778337478638
0.14138633012771606 0.46579405665397644 0.67772465944290161
0.27913749217987061 0.40527528524398804 0.69631606340408325
0.5742226243019104 0.33228954672813416 0.65566879510879517
0.81692647933959961 0.34189525246620178 0.61379498243331909
0.89894449710845947 0.33931681513786316 0.60716378688812256
0.9707564115524292 0.33452218770980835 0.60702508687973022
0.014859472401440144 0.61135280132293701 0.68699389696121216
0.088415883481502533 0.60614436864852905 0.68205791711807251
0.14798443019390106 0.60667210817337036 0.68272751569747925
0.4324309229850769 0.56936568021774292 0.68913531303405762
0.80666470527648926 0.53479796648025513 0.65053445100784302
0.91751813888549805 0.53426909446716309 0.64983731508255005
0.98142927885055542 0.53294879198074341 0.64665043354034424
0.031157460063695908 0.75670087337493896 0.71992987394332886
0.089141920208930969 0.75522792339324951 0.71544623374938965
0.14949531853199005 0.74991166591644287 0.7099379301071167
0.3316250741481781 0.75526797771453857 0.71949702501296997
0.74533021450042725 0.76210701465606689 0.72462505102157593
0.94294404983520508 0.75278741121292114 0.73490291833877563
0.99437624216079712 0.74883311986923218 0.73879247903823853
0.04310181736946106 0.86683279275894165 0.72354435920715332
0.11785028129816055 0.86766624450683594 0.72134745121002197
0.21480539441108704 0.85968363285064697 0.70859825611114502
0.34531974792480469 0.86428046226501465 0.70504617691040039
0.66370296478271484 0.88480603694915771 0.69314342737197876
0.92672580480575562 0.90462112426757812 0.70146858692169189
0.99315470457077026 0.90724176168441772 0.71277415752410889
0.032991927117109299 0.94040381908416748 0.68007272481918335
0.10876801609992981 0.93738090991973877 0.68961435556411743
0.20627884566783905 0.93316984176635742 0.68480956554412842
0.3492451012134552 0.9362494945526123 0.68453675508499146
0.62648850679397583 0.95188331604003906 0.67912465333938599
0.89178973436355591 0.9749215841293335 0.67148399353027344
0.99077701568603516 0.98188251256942749 0.6812325119972229
0.026525638997554779 0.14884503185749054 0.79275751113891602
0.19305004179477692 0.038131773471832275 0.73864597082138062
0.4367121160030365 0.027098024263978004 0.7022087574005127
0.66765284538269043 0.054442714899778366 0.70002263784408569
0.82133430242538452 0.086834847927093506 0.69898933172225952
0.89842039346694946 0.099136069416999817 0.69558823108673096
0.9675832986831665 0.087705142796039581 0.69428092241287231
0.053564619272947311 0.30541661381721497 0.78707587718963623
0.14979223906993866 0.24696025252342224 0.77094006538391113
0.36996632814407349 0.17437002062797546 0.73089641332626343
0.63144028186798096 0.17254482209682465 0.70124250650405884
0.81401908397674561 0.19116413593292236 0.69590574502944946
0.8946954607963562 0.19833186268806458 0.6977313756942749
0.96502101421356201 0.20664136111736298 0.7010301947593689
0.072918862104415894 0.46446216106414795 0.75266343355178833
0.14294348657131195 0.45749408006668091 0.75671052932739258
0.29642418026924133 0.40169915556907654 0.76779502630233765
0.56322681903839111 0.32962292432785034 0.73188525438308716
0.81084293127059937 0.33898121118545532 0.69879978895187378
0.90393573045730591 0.33541575074195862 0.69824028015136719
0.97128087282180786 0.33952397108078003 0.70300859212875366
0.010181098245084286 0.60969078540802002 0.75964623689651489
0.084963418543338776 0.60217964649200439 0.75694143772125244
0.16285359859466553 0.59868186712265015 0.75935590267181396
0.41644862294197083 0.56439322233200073 0.77123302221298218
0.78616869449615479 0.52444416284561157 0.74027597904205322
0.90889036655426025 0.52200746536254883 0.72062981128692627
0.97580820322036743 0.52181136608123779 0.71834838390350342
0.011663399636745453 0.75446552038192749 0.8001440167427063
0.084627695381641388 0.74891525506973267 0.79742109775543213
0.14620180428028107 0.74147129058837891 0.7979699969291687
0.29406625032424927 0.75121128559112549 0.80605602264404297
0.69329977035522461 0.75046449899673462 0.81794840097427368
0.92790424823760986 0.74465078115463257 0.80578494071960449
0.98509162664413452 0.74089568853378296 0.80185264348983765
0.019827598705887794 0.87274789810180664 0.8310285210609436
0.094673752784729004 0.8708147406578064 0.82978510856628418
0.1676686555147171 0.86656540632247925 0.82603281736373901
0.25238066911697388 0.86812794208526611 0.82941222190856934
0.53614681959152222 0.88365572690963745 0.84875011444091797
0.89265793561935425 0.91251581907272339 0.85705846548080444
0.98498249053955078 0.91492784023284912 0.85447299480438232
0.018572131171822548 0.94942182302474976 0.82555097341537476
0.097120173275470734 0.94600290060043335 0.83073359727859497
0.16926845908164978 0.94376951456069946 0.82365816831588745
0.25209805369377136 0.94601720571517944 0.82813650369644165
0.47826370596885681 0.96230649948120117 0.8431936502456665
0.87329280376434326 0.98586606979370117 0.85767954587936401
0.98741108179092407 0.9897838830947876 0.84713441133499146
0.033564802259206772 0.13777400553226471 0.86902391910552979
0.17944419384002686 0.036907706409692764 0.82363033294677734
0.42109745740890503 0.012203127145767212 0.78240478038787842
0.65281134843826294 0.018348589539527893 0.77596122026443481
0.8156280517578125 0.064530178904533386 0.77646350860595703
0.89644676446914673 0.07696571946144104 0.77491313219070435
0.9630243182182312 0.036424793303012848 0.76893210411071777
0.063154645264148712 0.29828214645385742 0.87000346183776855
0.16128979623317719 0.25017485022544861 0.85508835315704346
0.35381817817687988 0.17339968681335449 0.82295596599578857
0.60419648885726929 0.16582931578159332 0.79307466745376587
0.80169093608856201 0.19741210341453552 0.77849453687667847
0.89241373538970947 0.20027074217796326 0.77769660949707031
0.96268689632415771 0.18321160972118378 0.77803891897201538
0.078688450157642365 0.45222446322441101 0.8347938060760498
0.15192626416683197 0.44720891118049622 0.84229797124862671
0.26466861367225647 0.40062886476516724 0.85771274566650391
0.5289994478225708 0.33880865573883057 0.82446867227554321
0.7872612476348877 0.33560889959335327 0.79149037599563599
0.90387105941772461 0.33492735028266907 0.78144657611846924
0.97194010019302368 0.33242976665496826 0.78531956672668457
0.0029505111742764711 0.59562557935714722 0.83488845825195312
0.08042290061712265 0.5919530987739563 0.83151757717132568
0.1599700003862381 0.59049481153488159 0.83951276540756226
0.42142865061759949 0.56301254034042358 0.85143464803695679
0.76517391204833984 0.52413320541381836 0.83258628845214844
0.91559839248657227 0.5239938497543335 0.80957531929016113
0.98292082548141479 0.52059471607208252 0.81156265735626221
0.015441176481544971 0.73592698574066162 0.87481361627578735
0.081180870532989502 0.72900688648223877 0.86829525232315063
0.126424640417099 0.72976219654083252 0.87127816677093506
0.29473578929901123 0.74239033460617065 0.88105618953704834
0.68432503938674927 0.74339765310287476 0.89042335748672485
0.92524981498718262 0.7463916540145874 0.89173412322998047
0.98872995376586914 0.74059009552001953 0.89406663179397583
0.014412255026400089 0.86162376403808594 0.90705233812332153
0.081398874521255493 0.85318619012832642 0.89852160215377808
0.13321790099143982 0.85260283946990967 0.89603811502456665
0.23948019742965698 0.86186712980270386 0.90326237678527832
0.55564486980438232 0.88209360837936401 0.92673003673553467
0.89004749059677124 0.91075903177261353 0.94206970930099487
0.98425018787384033 0.912891685962677 0.94045096635818481
0.012631210498511791 0.94388729333877563 0.91730266809463501
0.089064881205558777 0.93889635801315308 0.91307097673416138
0.15239353477954865 0.94073867797851562 0.90504062175750732
0.23624338209629059 0.94734573364257812 0.91525536775588989
0.46775081753730774 0.96098488569259644 0.93622004985809326
0.86100572347640991 0.98246574401855469 0.94573438167572021
0.99358004331588745 0.99041712284088135 0.9437447190284729
