assets/lut/editingcorpw Whispering Waters.cube
LUT_3D_SIZE 6
DOMAIN_MIN 0.0 0.0 0.0
DOMAIN_MAX 1.0 1.0 1.0
0.105882 0.109804 0.125490
0.243921 0.118431 0.121569
0.388236 0.134118 0.137255
0.559216 0.146667 0.158431
0.755294 0.168627 0.174902
0.988235 0.180392 0.200000
0.083922 0.251765 0.128628
0.225883 0.251048 0.136403
0.383843 0.239895 0.161464
0.561568 0.246274 0.170980
0.763922 0.261177 0.189804
0.988235 0.276863 0.207059
0.023529 0.411765 0.152157
0.196758 0.410300 0.153725
0.383119 0.413333 0.156078
0.566275 0.409412 0.182745
0.755294 0.421176 0.211765
0.985883 0.441569 0.226667
0.007059 0.603921 0.152157
0.118431 0.608627 0.145098
0.363922 0.605490 0.143529
0.570435 0.606514 0.139608
0.780863 0.612654 0.152366
0.989020 0.626667 0.222745
0.003138 0.825882 0.094118
0.000000 0.821961 0.093333
0.331764 0.825098 0.083922
0.564131 0.821961 0.080785
0.790588 0.831372 0.072448
1.000000 0.836078 0.052549
0.007843 1.000000 0.000000
0.006274 1.000000 0.000000
0.274510 1.000000 0.000000
0.540392 0.997647 0.000000
0.772549 1.000000 0.000000
0.972549 1.000000 0.007843
0.094902 0.112941 0.270588
0.229603 0.120067 0.270655
0.386562 0.143738 0.258144
0.564706 0.159216 0.271372
0.765490 0.151373 0.279216
0.985098 0.152157 0.286274
0.081793 0.243429 0.271440
0.211267 0.243146 0.275998
0.377735 0.244724 0.270284
0.556862 0.249703 0.279216
0.761995 0.250555 0.280067
0.989804 0.261961 0.292123
0.000209 0.413909 0.265621
0.176332 0.409519 0.263402
0.371351 0.411454 0.260559
0.562562 0.407843 0.275294
0.760314 0.419503 0.294065
0.987242 0.434510 0.299817
0.001569 0.604706 0.251765
0.032964 0.611406 0.248336
0.346457 0.609412 0.245176
0.569957 0.612310 0.248389
0.781752 0.611451 0.256680
0.993725 0.622745 0.306667
0.003138 0.820392 0.208628
0.001793 0.821311 0.218824
0.304209 0.823529 0.213542
0.563712 0.827556 0.220497
0.790230 0.828303 0.216246
1.000000 0.837647 0.213333
0.000000 0.996862 0.162353
0.007059 0.998499 0.175328
0.269490 0.999320 0.174118
0.541961 1.000000 0.176470
0.762353 1.000000 0.174117
0.973333 1.000000 0.181177
0.072157 0.120784 0.450981
0.212758 0.121987 0.454222
0.386054 0.130502 0.442353
0.572549 0.123922 0.442353
0.778039 0.109020 0.450981
1.000000 0.055686 0.458039
0.029751 0.232471 0.449621
0.195636 0.236332 0.450383
0.380870 0.232941 0.451496
0.575686 0.226458 0.453543
0.779712 0.220706 0.452079
0.998902 0.213438 0.454118
0.002659 0.413027 0.452549
0.135154 0.407268 0.453862
0.363797 0.404256 0.447087
0.566992 0.406035 0.445797
0.775993 0.412616 0.451459
0.995533 0.427279 0.467757
0.000000 0.609412 0.443921
0.004967 0.608523 0.443712
0.312224 0.609890 0.431679
0.566820 0.609412 0.432396
0.780392 0.608627 0.452444
0.996862 0.629020 0.476079
0.004706 0.827451 0.418039
0.000680 0.827765 0.414431
0.260325 0.826428 0.415686
0.549804 0.828810 0.414797
0.790162 0.828168 0.415260
0.997647 0.834510 0.423529
0.000000 0.997647 0.390588
0.005176 0.994719 0.393046
0.236385 0.996556 0.391134
0.538823 1.000000 0.388235
0.760000 1.000000 0.392157
0.978039 0.998431 0.396079
0.044706 0.123922 0.648628
0.200784 0.123137 0.648627
0.388235 0.117647 0.647059
0.578039 0.100153 0.641979
0.780497 0.027922 0.649203
0.995294 0.003922 0.660392
0.001569 0.225883 0.656470
0.176964 0.223888 0.655328
0.379608 0.218719 0.655268
0.587824 0.206752 0.651698
0.786562 0.182640 0.654013
0.996078 0.131765 0.660392
0.000000 0.402353 0.656471
0.020967 0.398327 0.646379
0.335925 0.389565 0.654118
0.571526 0.386667 0.650980
0.797438 0.380287 0.656366
0.998431 0.379608 0.653333
0.004161 0.602286 0.649718
0.001330 0.603376 0.659130
0.295447 0.602047 0.653573
0.551927 0.598985 0.649698
0.790149 0.611265 0.652138
1.000000 0.622812 0.659608
0.001882 0.824419 0.645804
0.005072 0.828863 0.646222
0.165333 0.826667 0.634928
0.535635 0.830349 0.635672
0.788130 0.826835 0.631374
0.998797 0.830693 0.649046
0.000000 1.000000 0.590588
0.000784 1.000000 0.586667
0.247059 0.996863 0.625098
0.543462 0.996556 0.613027
0.771398 1.000000 0.615686
0.977255 1.000000 0.618039
0.000000 0.112941 0.862745
0.188235 0.109804 0.855686
0.385882 0.096470 0.856471
0.584889 0.056157 0.856941
0.787092 0.000359 0.858039
0.999216 0.003138 0.872157
0.002353 0.213333 0.861961
0.149446 0.210061 0.856762
0.372078 0.203817 0.857934
0.581385 0.189124 0.857360
0.789087 0.156504 0.859675
0.993725 0.054902 0.875294
0.003138 0.377255 0.858823
0.000889 0.376785 0.864105
0.324571 0.374424 0.857733
0.563242 0.372445 0.862745
0.783530 0.365490 0.861893
0.998431 0.341176 0.879215
0.003608 0.589124 0.862902
0.003137 0.591581 0.864209
0.262536 0.588810 0.859399
0.546446 0.581075 0.862024
0.783355 0.580752 0.863571
0.999895 0.574013 0.864209
0.001076 0.818107 0.856762
0.003070 0.813401 0.863888
0.182454 0.817748 0.869446
0.525765 0.817397 0.863616
0.794299 0.824242 0.865385
1.000000 0.831305 0.855910
0.003138 0.996862 0.852549
0.005490 0.996862 0.847059
0.104314 0.995294 0.832157
0.534117 0.997647 0.833934
0.825524 0.999641 0.850196
0.991373 0.999216 0.864314
0.003922 0.090196 0.996078
0.173333 0.090980 0.992941
0.378823 0.076078 0.997647
0.578039 0.021177 1.000000
0.764706 0.000000 1.000000
0.972549 0.000000 0.996078
0.000784 0.207843 0.993726
0.138174 0.196078 0.996862
0.361359 0.189595 1.000000
0.567843 0.178039 0.995294
0.768627 0.150588 1.000000
0.964706 0.104314 0.999216
0.002353 0.370980 0.996078
0.005386 0.367164 0.997647
0.330024 0.361024 1.000000
0.550588 0.361568 1.000000
0.765490 0.354510 0.998431
0.970980 0.345098 0.995294
0.008628 0.575687 1.000000
0.000000 0.571764 0.998431
0.305098 0.573333 0.996862
0.547997 0.569957 0.999522
0.766954 0.567268 0.995503
0.971765 0.576470 1.000000
0.000000 0.791372 1.000000
0.008628 0.785882 1.000000
0.313726 0.797647 0.996863
0.580287 0.796392 1.000000
0.806274 0.814118 0.999641
0.973333 0.829804 1.000000
0.000000 0.996078 0.996078
0.000000 0.996862 1.000000
0.346666 0.998431 0.995294
0.625883 0.998431 0.996863
0.887059 1.000000 0.999216
1.000000 0.996078 1.000000
