assets/lut/editingcorp bisogno.cube
# Created by: G'MIC (https://gmic.eu)
TITLE "bisogno"
# LUT size
LUT_3D_SIZE 5
# Data domain
DOMAIN_MIN 0.0 0.0 0.0
DOMAIN_MAX 1.0 1.0 1.0
# LUT data points
0.011575646698474884 0.012474523857235909 0.01423060055822134
0.3294798731803894 0.04002067819237709 0.010963783599436283
0.65567249059677124 0.044629205018281937 0.010763923637568951
0.76986473798751831 0.058439664542675018 0.0096661141142249107
0.8249661922454834 0.10900038480758667 0.01482843142002821
0.025152916088700294 0.26424860954284668 0.057050727307796478
0.24273335933685303 0.2575545608997345 0.062291193753480911
0.69109553098678589 0.27420690655708313 0.025558680295944214
0.84182137250900269 0.24319696426391602 0.017617722973227501
0.86913394927978516 0.21054866909980774 0.014517077244818211
0.15278452634811401 0.63478720188140869 0.14096350967884064
0.26116630434989929 0.63416975736618042 0.15329304337501526
0.68667006492614746 0.61830663681030273 0.14230279624462128
0.89679914712905884 0.57847493886947632 0.031010108068585396
0.93800228834152222 0.52998572587966919 0.033217128366231918
0.29568341374397278 0.87722909450531006 0.22217798233032227
0.34498906135559082 0.87441009283065796 0.22182036936283112
0.58164864778518677 0.88564252853393555 0.28431892395019531
0.90708696842193604 0.85171854496002197 0.29643628001213074
0.96640241146087646 0.82150423526763916 0.1353163868188858
0.32502093911170959 0.93180090188980103 0.22818627953529358
0.34503737092018127 0.93861579895019531 0.22766813635826111
0.48554828763008118 0.95786702632904053 0.28884845972061157
0.89384561777114868 0.92956346273422241 0.53040391206741333
0.95526224374771118 0.93860608339309692 0.41607701778411865
0.021882869303226471 0.026978645473718643 0.2029108852148056
0.2936820387840271 0.019521018490195274 0.19542287290096283
0.68923318386077881 0.020275430753827095 0.14076295495033264
0.80485355854034424 0.027526272460818291 0.098357103765010834
0.84668588638305664 0.028396172448992729 0.089564874768257141
0.0093968110159039497 0.24826239049434662 0.24340209364891052
0.19480150938034058 0.25774860382080078 0.23204898834228516
0.6968572735786438 0.26664069294929504 0.17798064649105072
0.8537285327911377 0.23278544843196869 0.13714085519313812
0.87993401288986206 0.21130093932151794 0.13671846687793732
0.10237476229667664 0.61368238925933838 0.26491594314575195
0.20648784935474396 0.61490029096603394 0.25513646006584167
0.67700445652008057 0.61689490079879761 0.2252226322889328
0.90166199207305908 0.57391709089279175 0.10324753075838089
0.94918793439865112 0.52615565061569214 0.098306648433208466
0.28807109594345093 0.87169873714447021 0.27248093485832214
0.33749869465827942 0.87043482065200806 0.27029874920845032
0.58041387796401978 0.88309866189956665 0.32385537028312683
0.90678375959396362 0.85778576135635376 0.33583199977874756
0.9691084623336792 0.82147306203842163 0.17121022939682007
0.31104573607444763 0.93589842319488525 0.26994797587394714
0.3467104434967041 0.93652462959289551 0.27427279949188232
0.49970319867134094 0.95616543292999268 0.32516640424728394
0.88775312900543213 0.92587721347808838 0.55860394239425659
0.97244364023208618 0.9480595588684082 0.44912269711494446
0.08457222580909729 0.060640014708042145 0.43438097834587097
0.20176661014556885 0.052148841321468353 0.46201148629188538
0.68108892440795898 0.026720009744167328 0.46677258610725403
0.78550344705581665 0.020873155444860458 0.31367585062980652
0.82560092210769653 0.027553228661417961 0.27500388026237488
0.031571511179208755 0.34496286511421204 0.50828021764755249
0.14683185517787933 0.31493085622787476 0.5038256049156189
0.64712005853652954 0.25905641913414001 0.50833690166473389
0.83627408742904663 0.23544466495513916 0.35394349694252014
0.88160079717636108 0.23026375472545624 0.34043598175048828
0.040335800498723984 0.58341193199157715 0.56503498554229736
0.09311414510011673 0.57886373996734619 0.55693405866622925
0.51980394124984741 0.60506373643875122 0.57049232721328735
0.90826374292373657 0.61619341373443604 0.5554928183555603
0.95633721351623535 0.60016036033630371 0.53534775972366333
0.19216890633106232 0.78486877679824829 0.55413603782653809
0.23841242492198944 0.78435128927230835 0.54290711879730225
0.4939599335193634 0.84649550914764404 0.55053508281707764
0.90069019794464111 0.87000459432601929 0.61488467454910278
0.96521031856536865 0.84787118434906006 0.53640782833099365
0.23439018428325653 0.88354074954986572 0.47279354929924011
0.27945667505264282 0.88109934329986572 0.47975823283195496
0.46983903646469116 0.9120330810546875 0.53498822450637817
0.87999671697616577 0.94321852922439575 0.68741309642791748
0.96414369344711304 0.93858343362808228 0.6626889705657959
0.10607018321752548 0.066748857498168945 0.49744752049446106
0.19243183732032776 0.066423900425434113 0.54027491807937622
0.62960666418075562 0.050616081804037094 0.52437663078308105
0.83411014080047607 0.049779210239648819 0.64040917158126831
0.87616258859634399 0.069971419870853424 0.63696366548538208
0.054408669471740723 0.35488599538803101 0.60287243127822876
0.16286233067512512 0.33650314807891846 0.61648321151733398
0.5267823338508606 0.28642979264259338 0.61263793706893921
0.85636943578720093 0.22521063685417175 0.68729865550994873
0.90091413259506226 0.20919950306415558 0.66525983810424805
0.047896858304738998 0.57335984706878662 0.68824702501296997
0.11719018965959549 0.5703844428062439 0.68988466262817383
0.35897955298423767 0.5696222186088562 0.7247622013092041
0.88877135515213013 0.58355402946472168 0.8171883225440979
0.9482036828994751 0.5810776948928833 0.76383501291275024
0.13387896120548248 0.74471360445022583 0.7483331561088562
0.17690096795558929 0.74123424291610718 0.74690544605255127
0.31861045956611633 0.76566505432128906 0.76620656251907349
0.77418941259384155 0.84829747676849365 0.83190524578094482
0.93533647060394287 0.86652892827987671 0.84683281183242798
0.1606145054101944 0.81739497184753418 0.74197053909301758
0.20656046271324158 0.8196837306022644 0.73874640464782715
0.33106568455696106 0.85207319259643555 0.75427389144897461
0.74079889059066772 0.93563270568847656 0.8163638710975647
0.92343175411224365 0.95511645078659058 0.86013352870941162
0.10655131936073303 0.067947253584861755 0.54896730184555054
0.18384894728660583 0.06381651759147644 0.58598887920379639
0.56547242403030396 0.057660523802042007 0.56338906288146973
0.82988035678863525 0.0578804612159729 0.6995013952255249
0.87580269575119019 0.087899148464202881 0.67436468601226807
0.067736141383647919 0.33729520440101624 0.64238172769546509
0.16925612092018127 0.32792195677757263 0.66685205698013306
0.4686979353427887 0.29080900549888611 0.65975737571716309
0.84553974866867065 0.2326207309961319 0.75960081815719604
0.89753156900405884 0.22516660392284393 0.75688570737838745
0.037812132388353348 0.55072170495986938 0.73464590311050415
0.1085333451628685 0.55156290531158447 0.73980319499969482
0.35066437721252441 0.56534403562545776 0.7760428786277771
0.85339951515197754 0.58400523662567139 0.85675948858261108
0.94910681247711182 0.5701979398727417 0.87678062915802002
0.11704861372709274 0.71920931339263916 0.79293346405029297
0.15877014398574829 0.71493923664093018 0.79706048965454102
0.31193223595619202 0.73940384387969971 0.82402092218399048
0.70917737483978271 0.82325214147567749 0.89988589286804199
0.93541818857192993 0.86336994171142578 0.94930708408355713
0.15223173797130585 0.80019468069076538 0.81966209411621094
0.18771566450595856 0.80376529693603516 0.81687057018280029
0.29281884431838989 0.82701188325881958 0.83426964282989502
0.65008652210235596 0.90136951208114624 0.89370810985565186
0.95079535245895386 0.97140395641326904 0.97350448369979858
