assets/lut/editingcorpw Celestial Shine.cube
LUT_3D_SIZE 6
DOMAIN_MIN 0.0 0.0 0.0
DOMAIN_MAX 1.0 1.0 1.0
0.070588 0.066667 0.058824
0.216470 0.072157 0.072941
0.378039 0.076863 0.087059
0.562353 0.091765 0.098824
0.765490 0.112941 0.117647
0.988235 0.145098 0.145098
0.104313 0.207059 0.065098
0.231305 0.199641 0.062678
0.385098 0.188235 0.097726
0.560000 0.196863 0.109804
0.763137 0.213333 0.121569
0.979608 0.243137 0.158431
0.134118 0.360000 0.025882
0.230327 0.360680 0.013334
0.400239 0.358977 0.008082
0.588235 0.358431 0.043922
0.758431 0.367843 0.149019
0.972549 0.392157 0.178039
0.130196 0.561568 0.000000
0.226666 0.562353 0.000000
0.400784 0.563137 0.000000
0.597169 0.557408 0.002659
0.794301 0.558536 0.004601
0.988235 0.563922 0.087843
0.009412 0.774902 0.001569
0.194510 0.770196 0.000000
0.383529 0.778823 0.000784
0.592941 0.773438 0.000680
0.800358 0.772190 0.000359
0.996862 0.770980 0.000000
0.003922 0.992157 0.000000
0.003138 1.000000 0.000000
0.338039 0.997647 0.000000
0.558431 1.000000 0.000000
0.784314 0.992941 0.003138
0.992157 0.996078 0.000000
0.141961 0.048628 0.196078
0.198723 0.090981 0.187384
0.353830 0.097359 0.192941
0.555294 0.080784 0.197647
0.763922 0.096471 0.216470
0.970196 0.130981 0.231373
0.111171 0.185950 0.198790
0.222257 0.187953 0.203630
0.374751 0.190359 0.204751
0.563137 0.192941 0.210846
0.758140 0.201210 0.222745
0.976180 0.227809 0.250823
0.105673 0.357542 0.174850
0.206528 0.359031 0.165535
0.397379 0.350233 0.144048
0.574013 0.350588 0.196445
0.756078 0.362457 0.228131
0.966850 0.384523 0.256889
0.054118 0.552941 0.096470
0.202353 0.553725 0.090555
0.387137 0.556079 0.060288
0.592224 0.551918 0.024859
0.793516 0.549804 0.095529
0.972549 0.558431 0.254118
0.000000 0.769412 0.001569
0.132975 0.767059 0.001569
0.357961 0.768418 0.002353
0.577464 0.765700 0.004706
0.795720 0.764706 0.000000
0.999216 0.766274 0.002353
0.003922 0.989019 0.001569
0.000717 0.989804 0.009054
0.299399 0.992157 0.003817
0.546667 0.989804 0.000000
0.778039 0.993725 0.001569
0.992941 0.992941 0.000000
0.223530 0.004706 0.414902
0.267451 0.024418 0.406379
0.349804 0.134902 0.356863
0.524706 0.132549 0.381961
0.746667 0.069804 0.410981
0.978039 0.001569 0.407843
0.216575 0.136732 0.420288
0.275926 0.160639 0.411823
0.365426 0.208713 0.376361
0.539503 0.205490 0.395294
0.760523 0.171190 0.404444
0.985255 0.177987 0.413438
0.018077 0.346495 0.408149
0.179418 0.343701 0.411279
0.382936 0.348283 0.400545
0.571220 0.351440 0.406581
0.769890 0.357647 0.419369
0.977322 0.380153 0.444228
0.001569 0.558431 0.360784
0.047373 0.562823 0.359425
0.349565 0.559933 0.344007
0.590349 0.551133 0.316250
0.796235 0.544209 0.379921
0.966274 0.570196 0.476863
0.002353 0.773333 0.319216
0.003922 0.771869 0.312732
0.297016 0.773094 0.280545
0.553935 0.771765 0.247059
0.789737 0.769838 0.215619
0.999216 0.760784 0.280000
0.002353 0.996863 0.222745
0.000784 0.993621 0.211451
0.204773 0.995055 0.182573
0.501176 0.994510 0.118431
0.757647 0.993725 0.097255
0.996078 0.996078 0.080000
0.334902 0.000000 0.659608
0.363922 0.000000 0.665098
0.433725 0.015686 0.629804
0.522114 0.166207 0.589871
0.716654 0.163817 0.618614
0.939608 0.198432 0.665098
0.323922 0.088628 0.655686
0.355294 0.100325 0.659249
0.434510 0.141490 0.640471
0.536299 0.236317 0.596624
0.719216 0.240784 0.620497
0.942745 0.264314 0.661177
0.163137 0.200784 0.657255
0.272680 0.235033 0.653647
0.435839 0.306428 0.650502
0.542745 0.375686 0.613333
0.738039 0.383425 0.635190
0.963922 0.384314 0.652549
0.001330 0.536777 0.647365
0.002898 0.538824 0.649412
0.312090 0.540288 0.646820
0.572636 0.542133 0.638728
0.771590 0.554732 0.650356
0.975313 0.568628 0.652310
0.000889 0.772340 0.589438
0.003346 0.772549 0.600366
0.216261 0.773647 0.592784
0.512426 0.777758 0.573522
0.779876 0.769925 0.546117
1.000000 0.757647 0.607268
0.001569 0.998431 0.554510
0.001569 0.997647 0.552157
0.028235 0.998431 0.550588
0.455686 0.998192 0.526513
0.727477 0.996183 0.500392
0.992157 0.990588 0.498039
0.452549 0.003922 0.848627
0.477647 0.002353 0.848627
0.539608 0.001569 0.847059
0.623634 0.063739 0.827347
0.735328 0.244280 0.795585
0.927843 0.272157 0.821961
0.444706 0.000784 0.856471
0.470588 0.000359 0.846633
0.535686 0.001673 0.847059
0.626562 0.167738 0.830797
0.736045 0.297613 0.799933
0.928627 0.323137 0.822745
0.414902 0.210980 0.850196
0.448314 0.228915 0.851451
0.519694 0.255141 0.847365
0.631738 0.323242 0.837333
0.739115 0.428235 0.809703
0.929412 0.450196 0.828235
0.006902 0.331242 0.861020
0.053542 0.343373 0.857151
0.401202 0.369255 0.846745
0.629053 0.498812 0.842643
0.753850 0.580031 0.812840
0.944418 0.606170 0.836549
0.004280 0.747944 0.844706
0.001569 0.747160 0.833725
0.153815 0.750297 0.838857
0.511842 0.755248 0.826323
0.780594 0.757297 0.832797
0.972549 0.779966 0.837647
0.000000 0.989804 0.790588
0.002353 0.993725 0.795294
0.111373 0.994510 0.791373
0.487791 0.992837 0.790222
0.733692 0.996437 0.798207
0.981961 0.992157 0.788236
0.600000 0.000000 1.000000
0.614902 0.000784 1.000000
0.659608 0.000000 1.000000
0.734902 0.000000 0.996078
0.839216 0.303529 0.989804
0.960784 0.462745 0.984314
0.596078 0.003922 0.996862
0.606991 0.000000 0.996437
0.647948 0.002249 0.999320
0.738039 0.003138 1.000000
0.836863 0.341961 0.995294
0.962353 0.490980 0.969411
0.574118 0.141961 1.000000
0.593830 0.145203 0.997072
0.647365 0.173027 0.995055
0.730981 0.223530 1.000000
0.847059 0.440784 0.996078
0.961569 0.567059 0.972549
0.473726 0.282353 0.997647
0.509804 0.314510 0.996863
0.614902 0.392157 0.998431
0.726954 0.451832 1.000000
0.852235 0.552366 0.999895
0.967059 0.672942 0.977255
0.000000 0.546667 0.996078
0.002353 0.534118 0.999216
0.183530 0.520784 1.000000
0.606797 0.570615 0.998902
0.841636 0.720000 0.993367
0.963921 0.817255 0.981176
0.007843 0.964706 0.996078
0.003922 0.962353 0.992941
0.041569 0.967059 0.995294
0.484706 0.974902 0.990588
0.764706 0.981176 1.000000
1.000000 1.000000 1.000000
