assets/lut/editingcorpw Dreamy Matte.cube
LUT_3D_SIZE 6
DOMAIN_MIN 0.0 0.0 0.0
DOMAIN_MAX 1.0 1.0 1.0
0.193118 0.144137 0.149294
0.243644 0.169076 0.157986
0.357146 0.224649 0.162643
0.534759 0.311229 0.159036
0.748037 0.406006 0.143691
1.000000 0.511437 0.150759
0.217844 0.194650 0.188602
0.243077 0.203312 0.198088
0.376771 0.242010 0.176795
0.542391 0.318561 0.168470
0.753085 0.410686 0.153765
1.000000 0.512853 0.162002
0.265964 0.296550 0.261540
0.284217 0.304017 0.267779
0.359248 0.326571 0.293689
0.585277 0.376959 0.234666
0.786989 0.438666 0.207174
1.000000 0.528246 0.206149
0.317778 0.394116 0.322484
0.330378 0.398146 0.325503
0.392911 0.420215 0.341057
0.524446 0.468860 0.382904
0.835884 0.544615 0.313867
1.000000 0.574975 0.297825
0.415784 0.542107 0.394262
0.422498 0.539098 0.393011
0.463796 0.543144 0.396794
0.614894 0.612997 0.442523
0.799449 0.693838 0.545670
1.000000 0.766195 0.513457
0.655879 0.815976 0.594995
0.663209 0.816196 0.595617
0.691792 0.815903 0.596014
0.813816 0.856950 0.694929
0.952593 0.915685 0.852219
1.000000 0.951049 0.933318
0.204355 0.169046 0.191781
0.231135 0.179266 0.203673
0.355710 0.243916 0.203701
0.520648 0.317113 0.198925
0.735948 0.407232 0.177254
0.996740 0.506755 0.153164
0.224936 0.211408 0.220987
0.253346 0.225848 0.234245
0.369633 0.262391 0.224284
0.530416 0.326793 0.211087
0.742676 0.413525 0.190036
0.999658 0.510334 0.165919
0.275225 0.315520 0.287326
0.292447 0.319757 0.291321
0.365215 0.337660 0.311875
0.574841 0.375623 0.261200
0.782176 0.445230 0.238754
1.000000 0.532606 0.227117
0.328246 0.410702 0.339575
0.342977 0.416588 0.343540
0.398026 0.428415 0.352710
0.529610 0.475888 0.392662
0.835446 0.547197 0.329941
1.000000 0.581546 0.316064
0.426074 0.555141 0.405762
0.434275 0.553592 0.405275
0.469083 0.551353 0.405373
0.618155 0.617834 0.450674
0.802960 0.699810 0.558167
1.000000 0.771349 0.527585
0.661280 0.822910 0.611164
0.670078 0.824355 0.613793
0.696333 0.821988 0.610664
0.811308 0.857672 0.699050
0.952191 0.916582 0.855418
1.000000 0.952075 0.934966
0.219253 0.214688 0.272606
0.237790 0.221945 0.286033
0.324382 0.252122 0.315249
0.535133 0.270592 0.302032
0.736101 0.438165 0.281783
1.000000 0.534002 0.271354
0.238821 0.252102 0.297530
0.259313 0.261388 0.310292
0.337394 0.280476 0.328916
0.533237 0.326309 0.313055
0.738355 0.444284 0.292206
1.000000 0.537864 0.278585
0.278405 0.341117 0.345518
0.302525 0.354239 0.355457
0.386263 0.374294 0.366075
0.556738 0.408773 0.344294
0.777978 0.479742 0.328693
1.000000 0.562804 0.314792
0.356894 0.457052 0.392525
0.378092 0.467811 0.398982
0.416630 0.458714 0.394341
0.553521 0.506358 0.431563
0.831824 0.558366 0.388332
1.000000 0.613847 0.378666
0.464608 0.603817 0.454052
0.475884 0.604636 0.454877
0.505988 0.594703 0.449324
0.622276 0.630827 0.479147
0.812644 0.719678 0.604737
1.000000 0.785974 0.575338
0.674629 0.844236 0.669819
0.682724 0.844881 0.671287
0.707936 0.841548 0.665282
0.792392 0.856440 0.704641
0.949237 0.919054 0.865183
1.000000 0.955902 0.940954
0.242179 0.282035 0.373998
0.256511 0.283861 0.379615
0.328214 0.301419 0.396355
0.463738 0.339362 0.424415
0.714756 0.392821 0.462539
1.000000 0.536743 0.424476
0.255547 0.301539 0.378414
0.273670 0.309143 0.387880
0.339639 0.322766 0.404389
0.476635 0.361005 0.432516
0.726524 0.399775 0.458237
1.000000 0.564857 0.426271
0.292484 0.370499 0.406234
0.311679 0.379509 0.413444
0.384164 0.401091 0.431948
0.521002 0.438407 0.459758
0.791758 0.478259 0.456410
1.000000 0.635370 0.444556
0.366717 0.486407 0.452991
0.387310 0.496369 0.460003
0.456046 0.516588 0.473713
0.590679 0.554404 0.498148
0.820864 0.601727 0.480791
1.000000 0.674710 0.480089
0.505644 0.665456 0.551036
0.520026 0.669779 0.555053
0.563760 0.672859 0.556238
0.626258 0.659561 0.542061
0.825850 0.752345 0.688184
1.000000 0.806528 0.668316
0.680195 0.876860 0.764791
0.692708 0.878355 0.768990
0.740578 0.881992 0.783667
0.787692 0.876194 0.771414
0.939297 0.921736 0.878404
1.000000 0.963378 0.952050
0.282322 0.365435 0.478438
0.299745 0.369953 0.485038
0.362694 0.380177 0.506186
0.511769 0.426327 0.549982
0.697285 0.483030 0.607229
0.909477 0.625757 0.738112
0.293165 0.381960 0.483793
0.312639 0.389342 0.493442
0.373187 0.398231 0.514895
0.518441 0.441328 0.555308
0.702151 0.497157 0.612909
0.915970 0.639224 0.748036
0.316113 0.430192 0.496034
0.335427 0.438263 0.505407
0.412843 0.463036 0.535662
0.550738 0.503793 0.587569
0.733811 0.561272 0.654040
0.956417 0.674561 0.771889
0.379391 0.534448 0.551227
0.395516 0.540269 0.558035
0.449554 0.550131 0.570634
0.583418 0.590689 0.626935
0.773864 0.658575 0.718086
1.000000 0.729571 0.769242
0.500831 0.698357 0.681814
0.515815 0.703708 0.689257
0.571487 0.719413 0.710679
0.679056 0.752228 0.754676
0.842649 0.801055 0.812472
1.000000 0.861741 0.832544
0.778311 0.922600 0.903276
0.786429 0.923887 0.904697
0.810654 0.926024 0.906294
0.850453 0.928293 0.905980
0.907362 0.923654 0.896291
1.000000 0.976672 0.970995
0.399542 0.561852 0.801297
0.422107 0.567156 0.808371
0.482552 0.575128 0.832065
0.630835 0.620575 0.868547
0.815677 0.699703 0.909801
0.960327 0.775753 0.935363
0.401916 0.569464 0.802079
0.424928 0.575326 0.810013
0.492686 0.587292 0.834386
0.633646 0.628504 0.870058
0.816805 0.706031 0.910193
0.960809 0.781997 0.936126
0.402374 0.601037 0.813766
0.425187 0.605930 0.820213
0.518176 0.629755 0.846488
0.649025 0.665289 0.882952
0.832924 0.743318 0.919806
0.967315 0.815476 0.943780
0.410467 0.665138 0.842515
0.420683 0.664654 0.843543
0.467980 0.663404 0.848898
0.656696 0.719186 0.892370
0.846391 0.792418 0.930337
0.976251 0.865788 0.955468
0.588592 0.816855 0.916643
0.596759 0.817345 0.917260
0.629318 0.818563 0.919254
0.693710 0.819697 0.922720
0.862559 0.860738 0.944261
0.987744 0.932885 0.973718
0.841459 0.953002 0.969451
0.845805 0.953564 0.969812
0.865946 0.956682 0.971917
0.906053 0.963830 0.976702
0.962005 0.978118 0.985864
0.999756 0.999420 0.999603
