assets/lut/editingcorp cosa.cube
# Created by: G'MIC (https://gmic.eu)
TITLE "cosa"
# LUT size
LUT_3D_SIZE 5
# Data domain
DOMAIN_MIN 0.0 0.0 0.0
DOMAIN_MAX 1.0 1.0 1.0
# LUT data points
0.010847323574125767 0.015169884078204632 0.012901141308248043
0.2668575644493103 0.022282006219029427 0.015718931332230568
0.57324844598770142 0.028467470780014992 0.0075269662775099277
0.74770474433898926 0.01400445681065321 0.00050030875718221068
0.80592256784439087 0.0047093410976231098 0
0.025534685701131821 0.22984586656093597 0.0064103966578841209
0.23280130326747894 0.22222869098186493 0.020573664456605911
0.56789875030517578 0.21111910045146942 0.033211860805749893
0.77740567922592163 0.18368223309516907 0.038555160164833069
0.84228461980819702 0.17239595949649811 0.033037535846233368
0.07548096776008606 0.52288758754730225 0.038779418915510178
0.20521348714828491 0.5239989161491394 0.068174861371517181
0.56462806463241577 0.53678339719772339 0.11256930977106094
0.85082602500915527 0.49945265054702759 0.10257765650749207
0.9187285304069519 0.47370132803916931 0.097157329320907593
0.11009775847196579 0.78558021783828735 0.092878751456737518
0.20658783614635468 0.78882956504821777 0.10728029906749725
0.49420931935310364 0.81150585412979126 0.13602973520755768
0.83931726217269897 0.79773229360580444 0.15072014927864075
0.97035932540893555 0.76774841547012329 0.14798417687416077
0.089069396257400513 0.89461219310760498 0.084578029811382294
0.17861625552177429 0.90358912944793701 0.10977361351251602
0.42841175198554993 0.91527563333511353 0.13570304214954376
0.77702510356903076 0.938862144947052 0.15756484866142273
0.97181570529937744 0.93985038995742798 0.17898412048816681
0.01234670914709568 0.016124187037348747 0.2437065988779068
0.29410442709922791 0.01754283532500267 0.24226638674736023
0.60583376884460449 0.015736762434244156 0.23614493012428284
0.77531039714813232 0.022107306867837906 0.20367199182510376
0.83585548400878906 0.020695945248007774 0.1836133748292923
0.042689751833677292 0.25936299562454224 0.22715131938457489
0.25994196534156799 0.25780186057090759 0.24927422404289246
0.59622204303741455 0.23754504323005676 0.22200652956962585
0.80637645721435547 0.21254269778728485 0.19555670022964478
0.86916822195053101 0.20603455603122711 0.18265047669410706
0.087426610291004181 0.54248088598251343 0.18215788900852203
0.21467463672161102 0.54026204347610474 0.19559374451637268
0.57545179128646851 0.54994463920593262 0.23000550270080566
0.85452091693878174 0.51225972175598145 0.21098554134368896
0.93281459808349609 0.48742461204528809 0.19806423783302307
0.13233841955661774 0.79772889614105225 0.18311265110969543
0.21901620924472809 0.80180507898330688 0.1879701167345047
0.49409505724906921 0.81473499536514282 0.22177077829837799
0.83973997831344604 0.80205470323562622 0.2351420670747757
0.97210842370986938 0.76692479848861694 0.23368836939334869
0.13125157356262207 0.89581799507141113 0.16455015540122986
0.20676438510417938 0.90482091903686523 0.18776749074459076
0.43117809295654297 0.93377459049224854 0.22749157249927521
0.78296619653701782 0.95358157157897949 0.24147938191890717
0.97259849309921265 0.94677448272705078 0.28423371911048889
0.046240951865911484 0.022777557373046875 0.50643068552017212
0.32176092267036438 0.025217438116669655 0.53549301624298096
0.66154122352600098 0.025735128670930862 0.53808856010437012
0.83737504482269287 0.035085026174783707 0.51096481084823608
0.89406019449234009 0.029594376683235168 0.49349191784858704
0.06900380551815033 0.29459711909294128 0.5225367546081543
0.29390007257461548 0.29359686374664307 0.54289466142654419
0.64288210868835449 0.28761336207389832 0.56354612112045288
0.86040568351745605 0.26763132214546204 0.51489180326461792
0.92454427480697632 0.25908154249191284 0.49430987238883972
0.13201990723609924 0.61151397228240967 0.52721691131591797
0.27092152833938599 0.61169159412384033 0.54850131273269653
0.61321097612380981 0.6202082633972168 0.61056339740753174
0.89092367887496948 0.58704566955566406 0.56725931167602539
0.96866363286972046 0.56838983297348022 0.55382317304611206
0.16208355128765106 0.84992694854736328 0.45511788129806519
0.25733929872512817 0.84592527151107788 0.45697611570358276
0.53066658973693848 0.85451817512512207 0.51396059989929199
0.84816187620162964 0.83134377002716064 0.50522416830062866
0.98437488079071045 0.7984626293182373 0.48618575930595398
0.16117699444293976 0.93935340642929077 0.37301921844482422
0.23666448891162872 0.93762516975402832 0.39517810940742493
0.44752922654151917 0.95560580492019653 0.42236286401748657
0.78956204652786255 0.963672935962677 0.448142409324646
0.97766506671905518 0.96521484851837158 0.45738846063613892
0.042482487857341766 0.031733613461256027 0.65505439043045044
0.32819899916648865 0.041603043675422668 0.68940281867980957
0.67672765254974365 0.05083325132727623 0.71465730667114258
0.86764430999755859 0.058282829821109772 0.70806634426116943
0.93676435947418213 0.087057091295719147 0.7129860520362854
0.087758876383304596 0.30363339185714722 0.70369541645050049
0.3148074746131897 0.30527153611183167 0.72703409194946289
0.66182231903076172 0.32371512055397034 0.77980726957321167
0.89696121215820312 0.31091403961181641 0.76235389709472656
0.96303004026412964 0.29605376720428467 0.7408941388130188
0.18018272519111633 0.63470578193664551 0.77893197536468506
0.31511294841766357 0.6314653754234314 0.79744946956634521
0.63869220018386841 0.64180612564086914 0.85350495576858521
0.90951550006866455 0.62493914365768433 0.84237301349639893
0.9903867244720459 0.60964560508728027 0.82830619812011719
0.1858479380607605 0.88846367597579956 0.77105635404586792
0.27302247285842896 0.88522797822952271 0.76579791307449341
0.54752779006958008 0.88304311037063599 0.81283020973205566
0.85601139068603516 0.86540120840072632 0.84515225887298584
0.99281042814254761 0.84468996524810791 0.82979667186737061
0.17906442284584045 0.97966998815536499 0.72755765914916992
0.25398963689804077 0.97731417417526245 0.72551482915878296
0.47181019186973572 0.98698556423187256 0.74806839227676392
0.807567298412323 0.99172127246856689 0.79019039869308472
0.97909039258956909 0.98827940225601196 0.79384207725524902
0.031496129930019379 0.030075088143348694 0.71716415882110596
0.32119289040565491 0.036709506064653397 0.73975378274917603
0.66630661487579346 0.030907515436410904 0.77028453350067139
0.87005823850631714 0.052483979612588882 0.78443551063537598
0.9398881196975708 0.045733656734228134 0.78186434507369995
0.097922652959823608 0.29442277550697327 0.77168583869934082
0.31474664807319641 0.30221748352050781 0.79321444034576416
0.65441536903381348 0.32219770550727844 0.84232175350189209
0.88995140790939331 0.30571973323822021 0.84517574310302734
0.96970254182815552 0.29016050696372986 0.83192777633666992
0.18667460978031158 0.62174099683761597 0.85052824020385742
0.32306069135665894 0.62066364288330078 0.86885654926300049
0.63498592376708984 0.63705074787139893 0.92479389905929565
0.90783584117889404 0.62282794713973999 0.9387933611869812
0.98726063966751099 0.60602498054504395 0.93218624591827393
0.18731255829334259 0.88360834121704102 0.89233487844467163
0.28704583644866943 0.88745784759521484 0.90278679132461548
0.55362021923065186 0.88242042064666748 0.94014090299606323
0.85749584436416626 0.86988085508346558 0.97537118196487427
0.99127596616744995 0.85329395532608032 0.98017245531082153
0.17195484042167664 0.97048079967498779 0.89764171838760376
0.25156837701797485 0.97659313678741455 0.90904980897903442
0.46226763725280762 0.98208022117614746 0.92569160461425781
0.80114704370498657 0.99277859926223755 0.97448569536209106
0.97697025537490845 0.98983705043792725 0.99066627025604248
