assets/lut/editingcorpw Enchanted Evening.cube
LUT_3D_SIZE 6
DOMAIN_MIN 0.0 0.0 0.0
DOMAIN_MAX 1.0 1.0 1.0
0.127871 0.121828 0.131685
0.255503 0.123879 0.133169
0.438123 0.135463 0.136575
0.661451 0.164901 0.136904
0.880461 0.197958 0.133425
1.000000 0.228855 0.144839
0.092079 0.219968 0.141976
0.239381 0.232178 0.134801
0.443972 0.251281 0.138508
0.658770 0.269773 0.135820
0.878692 0.289105 0.129614
1.000000 0.304094 0.142507
0.000000 0.353137 0.158217
0.000000 0.349413 0.160416
0.404722 0.416009 0.125312
0.665063 0.464612 0.115242
0.882374 0.497320 0.115908
1.000000 0.487803 0.144076
0.000000 0.453724 0.159023
0.000000 0.450791 0.160250
0.158630 0.468773 0.153701
0.559044 0.609006 0.000000
0.886971 0.656994 0.000000
1.000000 0.678523 0.185421
0.000000 0.601630 0.107314
0.000000 0.592653 0.111480
0.000000 0.566352 0.121578
0.276009 0.686499 0.000000
0.773428 0.830254 0.000000
1.000000 0.792166 0.149221
0.000000 0.912261 0.000000
0.000000 0.912053 0.000000
0.000000 0.908830 0.000000
0.000000 0.924645 0.000000
0.531804 0.973931 0.000000
0.974395 0.987396 0.177066
0.129671 0.146029 0.229471
0.249459 0.147026 0.225206
0.429633 0.159618 0.228842
0.635411 0.157155 0.224283
0.862111 0.175617 0.220469
1.000000 0.207804 0.223789
0.161288 0.246589 0.224834
0.251294 0.245300 0.226812
0.432467 0.252167 0.230027
0.637755 0.258467 0.224792
0.863209 0.273032 0.219473
1.000000 0.290226 0.223641
0.093203 0.378382 0.228625
0.123387 0.375570 0.212489
0.406907 0.419139 0.203681
0.650792 0.464817 0.222070
0.874489 0.488552 0.222106
1.000000 0.482900 0.232700
0.000000 0.475692 0.206712
0.000000 0.475103 0.194875
0.155311 0.471088 0.191555
0.560078 0.610966 0.145659
0.882853 0.658883 0.181509
1.000000 0.684346 0.277423
0.000000 0.620028 0.161345
0.000000 0.614607 0.143370
0.000000 0.588333 0.146494
0.264488 0.686258 0.081909
0.775211 0.832197 0.000000
1.000000 0.796275 0.251449
0.000000 0.918877 0.000000
0.000000 0.921443 0.000000
0.000000 0.914951 0.000000
0.000000 0.924842 0.000000
0.524910 0.974281 0.130163
0.974529 0.987647 0.246073
0.000000 0.192337 0.443390
0.222432 0.194690 0.438426
0.419546 0.196503 0.404981
0.585655 0.200950 0.401704
0.827389 0.156520 0.419695
1.000000 0.091994 0.410962
0.107480 0.307336 0.451572
0.207662 0.274323 0.447918
0.416382 0.257579 0.403647
0.591059 0.257753 0.403112
0.828388 0.232929 0.411736
1.000000 0.221845 0.405937
0.044234 0.448630 0.420058
0.202583 0.451156 0.424234
0.398438 0.420577 0.398317
0.607518 0.432710 0.405395
0.847887 0.452535 0.417996
1.000000 0.466373 0.429431
0.000000 0.558290 0.386274
0.041053 0.561219 0.388887
0.208936 0.522345 0.326722
0.562610 0.620001 0.354353
0.860565 0.675652 0.439366
1.000000 0.689324 0.484628
0.000000 0.687563 0.337547
0.000000 0.685768 0.323635
0.000000 0.656196 0.253989
0.187673 0.675393 0.247596
0.777501 0.836737 0.328509
1.000000 0.812652 0.472989
0.000000 0.933221 0.311644
0.000000 0.934789 0.294126
0.000000 0.930429 0.177123
0.000000 0.924798 0.152027
0.486786 0.974215 0.285461
0.974194 0.988324 0.416687
0.000000 0.266319 0.741549
0.000000 0.263214 0.728426
0.397574 0.250432 0.678040
0.583657 0.234591 0.623285
0.778950 0.227095 0.633087
1.000000 0.230997 0.651673
0.000000 0.339661 0.725095
0.000000 0.319351 0.722544
0.386482 0.300262 0.677001
0.582990 0.280080 0.624630
0.773794 0.274665 0.627016
1.000000 0.279191 0.646088
0.000000 0.558571 0.730945
0.000000 0.547656 0.728636
0.324273 0.455292 0.686054
0.575450 0.419851 0.626427
0.782636 0.427363 0.630227
1.000000 0.448392 0.647172
0.000000 0.671555 0.656877
0.000000 0.674357 0.660561
0.278471 0.658401 0.647287
0.543377 0.623690 0.617731
0.801426 0.653112 0.646941
1.000000 0.674303 0.670832
0.000000 0.800518 0.611171
0.000000 0.801410 0.611540
0.000000 0.781858 0.587949
0.105259 0.721955 0.461054
0.771927 0.840522 0.594349
1.000000 0.854745 0.727779
0.000000 0.959912 0.595947
0.000000 0.959829 0.592782
0.000000 0.957855 0.536278
0.000000 0.955270 0.393767
0.351338 0.971096 0.438778
0.973364 0.989325 0.633729
0.000000 0.353795 0.915404
0.000000 0.352769 0.912556
0.316445 0.346797 0.900401
0.582385 0.328362 0.873325
0.778919 0.296369 0.843659
0.981116 0.306773 0.843638
0.000000 0.399979 0.914720
0.000000 0.398788 0.914376
0.306036 0.389051 0.901712
0.577204 0.364648 0.872700
0.774244 0.328606 0.839896
0.981045 0.345650 0.843081
0.000000 0.605327 0.909191
0.000000 0.592469 0.909812
0.255985 0.529227 0.903195
0.562834 0.498888 0.878180
0.775798 0.454085 0.844518
0.979308 0.474579 0.840625
0.000000 0.778738 0.904349
0.000000 0.782698 0.906926
0.364127 0.777981 0.905260
0.539805 0.695235 0.883638
0.764204 0.628507 0.840185
0.969184 0.652351 0.834930
0.000000 0.892216 0.872834
0.000000 0.893329 0.874499
0.303742 0.889749 0.873572
0.564611 0.877431 0.867142
0.756661 0.839049 0.838888
0.970852 0.871005 0.872488
0.000000 0.994147 0.838041
0.000000 0.994263 0.839232
0.229794 0.991565 0.836328
0.413451 0.984078 0.819941
0.312602 0.974400 0.690498
0.978125 0.991187 0.845914
0.000000 0.534722 1.000000
0.132833 0.535814 1.000000
0.374316 0.540044 1.000000
0.576495 0.544207 1.000000
0.769644 0.538305 0.997491
0.951202 0.530999 0.991852
0.000000 0.563470 1.000000
0.175226 0.565406 1.000000
0.381948 0.567065 1.000000
0.577091 0.566916 1.000000
0.766855 0.554960 0.995733
0.949321 0.545433 0.990314
0.338604 0.697267 1.000000
0.353755 0.690187 1.000000
0.430326 0.669080 1.000000
0.595148 0.662726 1.000000
0.770268 0.643625 0.995508
0.949920 0.623407 0.990100
0.488032 0.837088 1.000000
0.510881 0.836710 1.000000
0.582009 0.830641 0.999059
0.630160 0.787409 0.999551
0.775812 0.761873 0.993359
0.950604 0.734481 0.987927
0.553576 0.931176 0.996118
0.573331 0.931803 0.996160
0.643812 0.933951 0.996228
0.751968 0.937753 0.996501
0.824752 0.905806 0.995026
0.963519 0.873051 0.989209
0.601190 1.000000 0.992554
0.614179 1.000000 0.992523
0.670668 1.000000 0.992932
0.764163 1.000000 0.993787
0.877452 1.000000 0.995239
0.996582 0.998108 0.997986
