assets/lut/editingcorpw Harvest Highlight.cube
LUT_3D_SIZE 6
DOMAIN_MIN 0.0 0.0 0.0
DOMAIN_MAX 1.0 1.0 1.0
0.125490 0.117647 0.137255
0.221961 0.120785 0.140392
0.378823 0.123922 0.149804
0.592157 0.117647 0.152941
0.816470 0.112941 0.156863
0.996078 0.125490 0.176471
0.145098 0.210196 0.149019
0.227810 0.212191 0.151731
0.386562 0.216470 0.159006
0.607059 0.230588 0.160000
0.825883 0.237647 0.169412
0.996862 0.250196 0.181176
0.138823 0.396862 0.161569
0.243242 0.399320 0.160889
0.414663 0.400545 0.164706
0.614118 0.415686 0.165490
0.825883 0.423529 0.170980
1.000000 0.429804 0.204706
0.083922 0.622745 0.157647
0.233726 0.623529 0.158431
0.425882 0.626667 0.165490
0.624075 0.624314 0.172310
0.819033 0.626196 0.198431
0.990588 0.624314 0.247843
0.134117 0.822745 0.227451
0.252549 0.821961 0.236079
0.431373 0.821961 0.243137
0.617359 0.817464 0.254327
0.811474 0.820034 0.282779
0.991373 0.827451 0.340392
0.372549 1.000000 0.435294
0.426667 0.992157 0.434510
0.524706 0.992157 0.450196
0.669020 0.992157 0.467451
0.820392 0.989804 0.501961
0.976471 0.992157 0.552941
0.129412 0.116863 0.226667
0.209345 0.121569 0.227025
0.373542 0.119216 0.241778
0.597647 0.059608 0.247059
0.818824 0.008628 0.248628
1.000000 0.052549 0.272157
0.137188 0.207059 0.234241
0.219832 0.207485 0.241636
0.388047 0.207885 0.242135
0.603922 0.203989 0.252975
0.821961 0.203989 0.254477
0.998073 0.221894 0.276213
0.079739 0.395085 0.248157
0.218527 0.393833 0.247906
0.409254 0.397647 0.254756
0.614118 0.406483 0.254327
0.824314 0.410196 0.263530
0.993255 0.424993 0.286275
0.003137 0.618039 0.261176
0.199216 0.621961 0.261535
0.412445 0.622850 0.260392
0.621176 0.622200 0.270655
0.817046 0.626667 0.285595
0.997647 0.629804 0.333333
0.129412 0.819608 0.312941
0.246992 0.820392 0.317221
0.430797 0.822745 0.326170
0.623320 0.818928 0.338823
0.810555 0.823462 0.362846
0.990588 0.825882 0.411765
0.398431 0.992157 0.476078
0.440852 0.991798 0.482779
0.535791 0.995294 0.495006
0.672941 0.993725 0.511372
0.826666 0.995294 0.542745
0.977255 0.995294 0.600785
0.123922 0.117647 0.419608
0.228131 0.113934 0.418144
0.396384 0.095619 0.424313
0.597647 0.033725 0.444706
0.818824 0.000000 0.447843
0.998431 0.001569 0.453333
0.072575 0.209882 0.430798
0.206463 0.202419 0.423906
0.400223 0.196216 0.433046
0.605386 0.181072 0.437752
0.819713 0.168627 0.445072
0.998222 0.192837 0.455372
0.007365 0.393419 0.435294
0.185997 0.395000 0.444966
0.400019 0.397073 0.445510
0.612243 0.394203 0.441195
0.820392 0.401569 0.448799
1.000000 0.427518 0.466121
0.005490 0.618039 0.451764
0.156288 0.620497 0.450091
0.402659 0.620392 0.452310
0.619130 0.620631 0.460392
0.817046 0.623634 0.468811
0.992941 0.633726 0.490980
0.174118 0.820392 0.492549
0.270118 0.819712 0.486588
0.437953 0.822267 0.489173
0.620602 0.817046 0.497255
0.807843 0.822745 0.511014
0.987451 0.828235 0.538824
0.418823 0.996863 0.571765
0.462536 0.989124 0.580288
0.557169 0.993008 0.587757
0.681568 0.989019 0.593726
0.830588 0.992941 0.623530
0.979608 0.991372 0.664314
0.121569 0.094902 0.642353
0.238431 0.092549 0.644706
0.418039 0.050980 0.644706
0.611220 0.001330 0.651048
0.811660 0.002928 0.650196
0.993725 0.006275 0.645491
0.005490 0.192157 0.656471
0.200426 0.189378 0.646140
0.402248 0.175686 0.648941
0.610502 0.160239 0.647843
0.816366 0.150379 0.649882
0.998431 0.189804 0.653333
0.007843 0.386667 0.650980
0.123608 0.388026 0.652549
0.387212 0.383051 0.649106
0.608627 0.385098 0.653640
0.817150 0.395190 0.655477
0.997647 0.415686 0.649412
0.003137 0.612310 0.647537
0.154816 0.611764 0.653333
0.396624 0.610674 0.656710
0.613381 0.614098 0.659388
0.809839 0.624281 0.657575
0.988235 0.638976 0.671306
0.145516 0.815791 0.655791
0.262065 0.815216 0.660497
0.433150 0.819033 0.658824
0.625936 0.817767 0.664436
0.808771 0.822282 0.673789
0.979137 0.829595 0.690092
0.409412 0.990588 0.690196
0.458823 0.990588 0.698824
0.568627 0.992157 0.709020
0.697255 0.991918 0.712635
0.839320 0.992941 0.731190
0.980392 0.996863 0.760000
0.112941 0.064314 0.841569
0.236863 0.050196 0.835294
0.414118 0.004706 0.833725
0.602353 0.000000 0.841359
0.796795 0.000359 0.832515
1.000000 0.003138 0.848627
0.009412 0.172549 0.835294
0.195720 0.173042 0.835294
0.397072 0.160575 0.837961
0.596287 0.150693 0.835503
0.800000 0.148594 0.836863
0.996862 0.178823 0.839216
0.003137 0.370196 0.840000
0.124183 0.368523 0.839791
0.381416 0.370196 0.839761
0.596078 0.378823 0.839425
0.798006 0.390947 0.837647
0.996078 0.411765 0.840000
0.013647 0.595190 0.840052
0.195765 0.597438 0.834824
0.402248 0.600575 0.835399
0.604089 0.606253 0.834626
0.797814 0.613438 0.831009
0.988706 0.625412 0.841464
0.211406 0.807126 0.830880
0.294544 0.807059 0.833591
0.456247 0.808202 0.838857
0.626883 0.812086 0.838840
0.807561 0.818895 0.838790
0.983462 0.831933 0.843138
0.421176 0.992157 0.861961
0.462745 0.992157 0.854118
0.549804 0.992941 0.846275
0.690300 0.992157 0.853333
0.852975 0.991014 0.862319
0.986666 0.992157 0.878431
0.133333 0.019608 1.000000
0.234510 0.001569 0.996862
0.403922 0.000000 1.000000
0.578039 0.001569 1.000000
0.774117 0.003138 1.000000
0.960784 0.094118 0.996078
0.032157 0.153725 0.996862
0.195944 0.151305 0.996795
0.390379 0.152261 0.997647
0.585098 0.152941 0.996078
0.774118 0.176471 1.000000
0.958432 0.232941 1.000000
0.002353 0.355294 0.998431
0.168209 0.355608 1.000000
0.382984 0.363683 1.000000
0.580392 0.370196 1.000000
0.774902 0.395294 0.998431
0.963137 0.430588 0.997647
0.174118 0.583530 0.996078
0.264314 0.585882 0.998431
0.425098 0.592157 0.998431
0.601808 0.595533 0.997102
0.788235 0.614693 0.997072
0.966274 0.636078 0.998431
0.341961 0.805490 0.996078
0.389804 0.806274 0.996078
0.499608 0.807059 0.996078
0.649412 0.809412 0.993516
0.822812 0.817613 0.992224
0.970980 0.831372 0.993726
0.521569 0.996078 0.992157
0.545098 0.996862 0.989019
0.619608 1.000000 0.994510
0.738039 1.000000 0.996078
0.887843 1.000000 0.993726
1.000000 1.000000 1.000000
