assets/lut/editingcorpw Mellow Merlot.cube
LUT_3D_SIZE 6
DOMAIN_MIN 0.0 0.0 0.0
DOMAIN_MAX 1.0 1.0 1.0
0.000309 0.000598 0.002091
0.097660 0.000000 0.000000
0.219663 0.000000 0.000000
0.530673 0.038497 0.005223
0.773657 0.073096 0.012581
0.924920 0.094775 0.013515
0.000000 0.063828 0.000000
0.085571 0.068383 0.000000
0.271782 0.100015 0.000000
0.599344 0.175055 0.000028
0.782040 0.199349 0.002093
0.922701 0.220124 0.002695
0.000000 0.165366 0.000000
0.082407 0.184062 0.000000
0.349997 0.222426 0.000000
0.633669 0.271937 0.000000
0.800795 0.344058 0.000641
0.940976 0.388447 0.008243
0.000000 0.298931 0.000000
0.106356 0.354417 0.000156
0.453810 0.469515 0.024118
0.678447 0.517318 0.032204
0.831062 0.521143 0.032585
0.969894 0.510126 0.032904
0.000000 0.412716 0.000000
0.226360 0.523752 0.028714
0.549739 0.651800 0.068947
0.718607 0.708108 0.081153
0.849419 0.729955 0.082317
0.970945 0.736319 0.078515
0.031959 0.569169 0.017808
0.358773 0.683604 0.060863
0.614494 0.794021 0.111035
0.760102 0.848209 0.132918
0.877445 0.876823 0.139700
0.970675 0.894544 0.146828
0.000000 0.000000 0.095662
0.081870 0.005799 0.114353
0.225520 0.023723 0.102503
0.507876 0.051731 0.123295
0.775526 0.107986 0.141416
0.933988 0.139089 0.153861
0.000000 0.065426 0.084031
0.066607 0.097530 0.101395
0.243798 0.118153 0.094714
0.607242 0.205253 0.126523
0.810563 0.257598 0.146414
0.958194 0.294187 0.165571
0.000000 0.172886 0.077274
0.055118 0.201975 0.092932
0.294422 0.244900 0.097363
0.658077 0.361336 0.130304
0.830129 0.408093 0.149056
0.966646 0.439101 0.169295
0.000000 0.285981 0.080732
0.088618 0.334082 0.109746
0.420207 0.456368 0.145258
0.699372 0.558395 0.172883
0.845404 0.567686 0.174228
0.975001 0.618486 0.190843
0.000000 0.398085 0.100908
0.186974 0.489898 0.153967
0.527030 0.625786 0.201230
0.743738 0.717618 0.228733
0.863517 0.744351 0.235082
0.980861 0.764478 0.253184
0.026603 0.561357 0.151373
0.332174 0.680324 0.219673
0.629076 0.810921 0.287241
0.794695 0.875777 0.314205
0.890206 0.892224 0.312657
0.971960 0.903425 0.311233
0.000000 0.000000 0.210861
0.075867 0.000000 0.221475
0.203480 0.009501 0.218982
0.447490 0.049715 0.255437
0.745315 0.116817 0.295392
0.916460 0.160966 0.313082
0.000000 0.096386 0.209974
0.063299 0.104230 0.234103
0.213766 0.129409 0.246923
0.539601 0.212634 0.274023
0.810353 0.302602 0.315078
0.958226 0.342677 0.332533
0.000000 0.186968 0.226107
0.060675 0.212738 0.241713
0.233937 0.264794 0.266535
0.645380 0.397268 0.299336
0.859086 0.477650 0.332628
0.989509 0.519568 0.358422
0.000000 0.301231 0.234390
0.087327 0.344758 0.255258
0.348131 0.456092 0.312170
0.704080 0.584422 0.346746
0.866811 0.627261 0.361930
0.995723 0.677207 0.399615
0.000000 0.426277 0.252348
0.163115 0.506158 0.301040
0.502214 0.654117 0.389656
0.763781 0.765623 0.436572
0.883161 0.787919 0.432858
0.984224 0.784163 0.439458
0.026893 0.584528 0.305677
0.306901 0.714535 0.401942
0.628663 0.852712 0.489508
0.803760 0.914169 0.516929
0.895855 0.921322 0.503122
0.974695 0.919508 0.487439
0.000000 0.000000 0.330977
0.078818 0.006292 0.346332
0.213337 0.025872 0.364708
0.426351 0.063084 0.397480
0.755186 0.161309 0.474327
0.944012 0.229454 0.523248
0.000000 0.109630 0.339536
0.080517 0.123367 0.371829
0.235962 0.157592 0.403155
0.495355 0.250149 0.460041
0.834625 0.382166 0.539594
0.981524 0.430621 0.575149
0.000000 0.210933 0.351656
0.082536 0.247024 0.381363
0.262898 0.293001 0.427196
0.585677 0.437272 0.525321
0.880920 0.555736 0.577842
1.000000 0.601747 0.605531
0.000000 0.314905 0.356941
0.105490 0.355821 0.401724
0.329145 0.453834 0.470411
0.668686 0.609997 0.573960
0.888848 0.680630 0.593026
1.000000 0.710721 0.607365
0.000000 0.447328 0.379741
0.175361 0.533910 0.450566
0.467099 0.674689 0.552372
0.749783 0.800644 0.637208
0.883532 0.816290 0.626932
0.978130 0.821472 0.614133
0.037687 0.628164 0.448313
0.295382 0.741066 0.544625
0.581579 0.862991 0.640858
0.785905 0.933950 0.683405
0.887977 0.943186 0.673116
0.976284 0.931782 0.642290
0.000000 0.000081 0.456761
0.103008 0.031619 0.488670
0.252896 0.061820 0.528887
0.466293 0.124748 0.600001
0.783568 0.258018 0.698144
0.985209 0.336774 0.750249
0.000000 0.117966 0.464333
0.114594 0.150665 0.515397
0.284670 0.200219 0.566957
0.545278 0.314651 0.658433
0.841120 0.466859 0.767792
1.000000 0.526286 0.801009
0.000000 0.234956 0.473468
0.116268 0.277943 0.523799
0.316053 0.337378 0.588904
0.611869 0.483055 0.693673
0.873855 0.619375 0.793525
1.000000 0.662757 0.809579
0.000000 0.344195 0.487416
0.137121 0.401767 0.550394
0.370906 0.508114 0.627869
0.663508 0.647055 0.735963
0.886782 0.744042 0.809624
1.000000 0.760796 0.796408
0.000000 0.492397 0.516448
0.204726 0.567059 0.606401
0.467432 0.676911 0.696943
0.711204 0.788302 0.782468
0.872569 0.842103 0.811060
0.986029 0.845476 0.785699
0.057290 0.660706 0.580640
0.311325 0.758324 0.678276
0.572959 0.869041 0.759780
0.751180 0.936890 0.818026
0.875174 0.954267 0.826251
0.977111 0.944647 0.799979
0.000000 0.012366 0.593554
0.133132 0.058721 0.643644
0.297770 0.097154 0.699912
0.536937 0.198079 0.812800
0.816946 0.336382 0.919695
1.000000 0.441907 0.975164
0.000000 0.128112 0.598189
0.143396 0.176499 0.663786
0.333197 0.237534 0.733731
0.602190 0.362383 0.841138
0.858463 0.510400 0.943947
1.000000 0.599342 1.000000
0.000000 0.262594 0.607868
0.142205 0.305528 0.671551
0.369841 0.382056 0.759252
0.667001 0.528938 0.863956
0.885879 0.661836 0.952030
1.000000 0.718388 0.998517
0.000000 0.376529 0.627879
0.169925 0.455030 0.705723
0.421027 0.560941 0.796398
0.710486 0.684257 0.883305
0.894480 0.776234 0.948131
1.000000 0.811357 0.975260
0.010233 0.533619 0.668699
0.232493 0.605230 0.755789
0.489303 0.710886 0.836218
0.725224 0.813587 0.897927
0.870213 0.859985 0.931834
0.990139 0.883525 0.954003
0.085568 0.692560 0.712553
0.330175 0.771448 0.805449
0.575561 0.863328 0.880143
0.741421 0.921460 0.928183
0.861101 0.957577 0.951109
0.975237 0.970669 0.950938
