assets/lut/editingcorpw First Dance.cube
LUT_3D_SIZE 6
DOMAIN_MIN 0.0 0.0 0.0
DOMAIN_MAX 1.0 1.0 1.0
0.078431 0.078431 0.070588
0.222745 0.086275 0.087844
0.398431 0.100392 0.104314
0.597647 0.127059 0.130980
0.804706 0.164706 0.166275
1.000000 0.215686 0.219608
0.055686 0.234510 0.079215
0.215260 0.220325 0.093759
0.398431 0.228026 0.114719
0.592157 0.242353 0.140392
0.807059 0.261961 0.175686
1.000000 0.301177 0.226667
0.003922 0.389804 0.101176
0.197333 0.391843 0.097360
0.367365 0.373266 0.139369
0.563922 0.394510 0.166275
0.805490 0.434510 0.167059
0.997647 0.451764 0.218823
0.003922 0.578039 0.050981
0.114510 0.584314 0.061176
0.362353 0.582745 0.083137
0.546495 0.565012 0.153554
0.737673 0.581281 0.196079
0.995294 0.626667 0.233726
0.000000 0.792941 0.001569
0.006274 0.789804 0.001569
0.332549 0.793726 0.005490
0.556758 0.787137 0.032784
0.748661 0.772907 0.184672
0.946667 0.782745 0.297255
0.007843 0.992157 0.000000
0.000000 0.996078 0.000000
0.259608 1.000000 0.000000
0.544314 1.000000 0.003137
0.775686 0.992941 0.148235
0.972549 0.992157 0.345098
0.135686 0.066667 0.220392
0.240359 0.070521 0.219966
0.374327 0.104523 0.227556
0.574118 0.145098 0.256471
0.789020 0.173333 0.276078
0.993726 0.225882 0.319216
0.084056 0.207417 0.232583
0.211908 0.214691 0.232646
0.373737 0.228089 0.238860
0.571406 0.241501 0.253983
0.791014 0.261535 0.276504
0.993725 0.305523 0.312941
0.000105 0.388131 0.228131
0.169102 0.387604 0.218042
0.358521 0.373740 0.231915
0.567059 0.396758 0.248627
0.794301 0.425882 0.273621
0.994980 0.451974 0.314301
0.003138 0.576470 0.191373
0.031104 0.579608 0.192090
0.349804 0.575791 0.200209
0.541005 0.558192 0.236146
0.750274 0.581072 0.269804
0.990588 0.628235 0.309020
0.000000 0.783529 0.134118
0.000359 0.781960 0.135978
0.296941 0.786353 0.131660
0.545882 0.775791 0.175216
0.746443 0.763496 0.250062
0.940392 0.781961 0.339608
0.000000 1.000000 0.000000
0.006700 0.996078 0.003138
0.208418 0.994614 0.001359
0.530196 0.996862 0.003137
0.763137 0.995294 0.221176
0.968627 0.989019 0.381961
0.236862 0.025882 0.421176
0.309804 0.038536 0.417935
0.424247 0.047843 0.405729
0.562353 0.065098 0.396863
0.780392 0.083137 0.423529
0.996863 0.210980 0.469019
0.208000 0.190274 0.423895
0.285547 0.196591 0.411986
0.412845 0.195902 0.410960
0.561778 0.193255 0.399007
0.781491 0.228131 0.430222
0.990588 0.320105 0.474510
0.024620 0.365968 0.408254
0.178471 0.368112 0.417776
0.369125 0.370607 0.402123
0.559148 0.397169 0.426562
0.778211 0.431918 0.456232
0.993965 0.480306 0.497322
0.000000 0.583529 0.419608
0.002039 0.580183 0.416471
0.305815 0.580937 0.387623
0.545949 0.567776 0.399761
0.769882 0.600000 0.442039
0.993725 0.640000 0.484706
0.001569 0.795294 0.368628
0.000000 0.792366 0.364235
0.235361 0.789565 0.359216
0.536366 0.784784 0.359006
0.754577 0.773759 0.409770
0.956079 0.796863 0.481569
0.001569 0.998431 0.319216
0.000209 0.999111 0.314196
0.100698 0.999761 0.316385
0.510588 0.997647 0.304314
0.764706 0.993725 0.381176
0.968627 0.987451 0.495686
0.364706 0.000000 0.618823
0.407059 0.000000 0.614118
0.508236 0.003138 0.614902
0.633965 0.000239 0.607604
0.766275 0.000889 0.586771
0.986667 0.006275 0.618040
0.336471 0.160000 0.615686
0.383955 0.157289 0.620885
0.490980 0.148131 0.609203
0.635055 0.130674 0.606753
0.765804 0.141751 0.595503
0.995294 0.099608 0.625098
0.149020 0.298039 0.619608
0.267869 0.319634 0.617830
0.437953 0.349804 0.609651
0.609479 0.344552 0.605251
0.774902 0.349909 0.600680
0.990588 0.394509 0.626667
0.000239 0.540937 0.613640
0.045318 0.543290 0.611287
0.329001 0.547690 0.609412
0.556155 0.561568 0.602066
0.774503 0.604656 0.632284
0.982984 0.660460 0.672463
0.000889 0.785987 0.622065
0.006065 0.789229 0.618457
0.160471 0.789909 0.606954
0.509250 0.790065 0.580586
0.755682 0.778439 0.597143
0.975007 0.811974 0.650301
0.003137 0.998431 0.563922
0.000000 1.000000 0.570196
0.000000 1.000000 0.556863
0.480784 0.996317 0.549498
0.757229 0.999895 0.566850
0.970196 0.992941 0.637647
0.481568 0.000000 0.818824
0.505098 0.002353 0.815686
0.591373 0.001569 0.812549
0.715085 0.001569 0.816837
0.860033 0.000000 0.813334
0.992157 0.003922 0.796863
0.455686 0.070588 0.818824
0.489345 0.063955 0.812773
0.577150 0.044235 0.813647
0.700811 0.008314 0.816471
0.852191 0.003563 0.812549
0.983529 0.003138 0.796078
0.387451 0.312157 0.820392
0.437700 0.314405 0.818196
0.535141 0.311918 0.815380
0.674980 0.303634 0.816471
0.839216 0.295328 0.812975
0.989804 0.295686 0.805490
0.008052 0.456157 0.820288
0.146039 0.463948 0.824419
0.389490 0.486170 0.817621
0.632590 0.532577 0.813992
0.816492 0.531315 0.810551
0.994405 0.533543 0.806850
0.002779 0.734969 0.815261
0.001995 0.730487 0.813692
0.269804 0.739182 0.816336
0.529285 0.749867 0.808565
0.762721 0.771061 0.812684
0.988168 0.828638 0.846835
0.000784 1.000000 0.839216
0.006274 0.998431 0.833726
0.006275 0.997647 0.827451
0.444340 0.997751 0.810301
0.759148 0.999216 0.779832
0.973333 0.995294 0.825098
0.596078 0.000000 1.000000
0.626667 0.003138 0.996862
0.683922 0.002353 1.000000
0.787451 0.000000 1.000000
0.926275 0.000000 1.000000
0.988235 0.003922 1.000000
0.582745 0.002353 0.996863
0.601434 0.000717 0.997221
0.674405 0.003242 0.994405
0.778823 0.000000 1.000000
0.920000 0.003138 1.000000
1.000000 0.000000 0.996862
0.543529 0.261177 1.000000
0.565961 0.265987 1.000000
0.641568 0.259914 0.999761
0.759216 0.246274 1.000000
0.904314 0.221176 1.000000
1.000000 0.196078 1.000000
0.389019 0.446274 0.997647
0.450196 0.457255 0.995294
0.575686 0.501177 0.999216
0.716930 0.494663 0.997408
0.875294 0.493908 0.999895
1.000000 0.488628 0.995294
0.000000 0.661961 0.999216
0.013333 0.660392 0.998431
0.338039 0.663530 1.000000
0.575320 0.685020 0.994614
0.839216 0.747877 1.000000
1.000000 0.752157 1.000000
0.000000 0.972549 1.000000
0.009412 0.968627 0.996863
0.001569 0.978824 0.990588
0.488628 0.981961 1.000000
0.803137 0.992941 1.000000
1.000000 1.000000 1.000000
