assets/lut/editingcorp mercato.cube
# Created by: G'MIC (https://gmic.eu)
TITLE "mercato"
# LUT size
LUT_3D_SIZE 7
# Data domain
DOMAIN_MIN 0.0 0.0 0.0
DOMAIN_MAX 1.0 1.0 1.0
# LUT data points
0.010543583892285824 0.0085177402943372726 0.011520400643348694
0.32601821422576904 0.023416556417942047 0.024601761251688004
0.5926092267036438 0.063706792891025543 0.05269164964556694
0.78469151258468628 0.084191955626010895 0.062485143542289734
0.88889205455780029 0.079208210110664368 0.056404486298561096
0.92271637916564941 0.075852334499359131 0.049965336918830872
0.95438051223754883 0.080378256738185883 0.05499044805765152
0.0098300855606794357 0.11160683631896973 0.026401638984680176
0.17493902146816254 0.12287335842847824 0.031702466309070587
0.53613406419754028 0.19022855162620544 0.062765680253505707
0.76464623212814331 0.18459057807922363 0.065168537199497223
0.88543373346328735 0.16980746388435364 0.063074462115764618
0.92437648773193359 0.15149641036987305 0.060483686625957489
0.95211100578308105 0.15821091830730438 0.062584638595581055
0.0083621600642800331 0.35816475749015808 0.077837653458118439
0.092372968792915344 0.34890568256378174 0.072019346058368683
0.43641912937164307 0.37692853808403015 0.092417605221271515
0.72201359272003174 0.3978581428527832 0.073483392596244812
0.89907711744308472 0.35931587219238281 0.062116421759128571
0.94030523300170898 0.33474785089492798 0.06276964396238327
0.96800458431243896 0.31380483508110046 0.06330166757106781
0.015482150949537754 0.56521987915039062 0.15041007101535797
0.06142546609044075 0.5556567907333374 0.14608548581600189
0.31842467188835144 0.56533408164978027 0.13647535443305969
0.66397225856781006 0.5880160927772522 0.16076759994029999
0.88661980628967285 0.58292418718338013 0.054198950529098511
0.95968377590179443 0.5442320704460144 0.047613810747861862
0.98602825403213501 0.50702446699142456 0.052483368664979935
0.036440335214138031 0.72283846139907837 0.19887761771678925
0.074737280607223511 0.71580225229263306 0.19599954783916473
0.21756796538829803 0.71529358625411987 0.19795016944408417
0.57113271951675415 0.7417522668838501 0.19236519932746887
0.8191036581993103 0.74929690361022949 0.19270092248916626
0.95970511436462402 0.75917822122573853 0.056185435503721237
0.99180632829666138 0.72176754474639893 0.039942499250173569
0.045510206371545792 0.79028773307800293 0.2162247896194458
0.074908144772052765 0.78730291128158569 0.21563805639743805
0.15092048048973083 0.79059028625488281 0.21888576447963715
0.43631270527839661 0.81272119283676147 0.21986854076385498
0.73733246326446533 0.82908284664154053 0.22090364992618561
0.88571172952651978 0.83085888624191284 0.26928669214248657
0.94408351182937622 0.83722537755966187 0.21388264000415802
0.044786956161260605 0.82995486259460449 0.21627958118915558
0.062231369316577911 0.82849800586700439 0.21687059104442596
0.10225658118724823 0.83208352327346802 0.21642096340656281
0.28700792789459229 0.84198886156082153 0.21985645592212677
0.6632346510887146 0.86939740180969238 0.21394887566566467
0.84986275434494019 0.86590361595153809 0.28798398375511169
0.92143815755844116 0.87337660789489746 0.30133593082427979
0.012662371620535851 0.031787797808647156 0.16960851848125458
0.3020922839641571 0.010013251565396786 0.18098743259906769
0.59969425201416016 0.026407323777675629 0.16456100344657898
0.77928608655929565 0.063020624220371246 0.16763664782047272
0.88140052556991577 0.044445216655731201 0.15915994346141815
0.91392427682876587 0.039890889078378677 0.12666039168834686
0.94905418157577515 0.031597256660461426 0.11758973449468613
0.020921429619193077 0.16286058723926544 0.17717979848384857
0.15569472312927246 0.13884265720844269 0.16239386796951294
0.53857517242431641 0.16512855887413025 0.15147975087165833
0.75826573371887207 0.17561408877372742 0.15012101829051971
0.88676995038986206 0.17348401248455048 0.14090465009212494
0.92199808359146118 0.16462314128875732 0.12765035033226013
0.95469295978546143 0.15786731243133545 0.12502147257328033
0.017349483445286751 0.37388476729393005 0.18905997276306152
0.082333147525787354 0.3605671226978302 0.17143839597702026
0.42552363872528076 0.37434396147727966 0.15591588616371155
0.71842074394226074 0.39328417181968689 0.13141721487045288
0.89842075109481812 0.35668584704399109 0.11248929053544998
0.94068211317062378 0.33344089984893799 0.11144370585680008
0.96693253517150879 0.32021981477737427 0.11364822089672089
0.015487745404243469 0.56705409288406372 0.20969921350479126
0.060683678835630417 0.55687427520751953 0.19782845675945282
0.30825966596603394 0.56140816211700439 0.18233838677406311
0.66083133220672607 0.5843505859375 0.19965121150016785
0.88587695360183716 0.57987892627716064 0.093801192939281464
0.95995473861694336 0.54104870557785034 0.090416193008422852
0.98288899660110474 0.51243937015533447 0.10003868490457535
0.036334589123725891 0.71905750036239624 0.23966187238693237
0.076234824955463409 0.71681118011474609 0.23864911496639252
0.21972404420375824 0.71587914228439331 0.23597806692123413
0.57030171155929565 0.74044466018676758 0.22867222130298615
0.82018184661865234 0.74834734201431274 0.23545508086681366
0.96144181489944458 0.75642114877700806 0.091481514275074005
0.99157333374023438 0.72278249263763428 0.068443000316619873
0.050213277339935303 0.79231292009353638 0.25330278277397156
0.080210380256175995 0.78897058963775635 0.25115305185317993
0.17703616619110107 0.79227715730667114 0.25115421414375305
0.43681910634040833 0.81211757659912109 0.2553260326385498
0.73630106449127197 0.83046877384185791 0.25773710012435913
0.88648569583892822 0.82966071367263794 0.30451115965843201
0.94442248344421387 0.83834397792816162 0.25280612707138062
0.05097859725356102 0.83095341920852661 0.25300353765487671
0.064619444310665131 0.82812589406967163 0.25019058585166931
0.10980019718408585 0.82996779680252075 0.24874646961688995
0.29212725162506104 0.84074312448501587 0.25196957588195801
0.66258198022842407 0.86825859546661377 0.24875761568546295
0.84734773635864258 0.86554050445556641 0.3190365731716156
0.92068827152252197 0.8705260157585144 0.33696728944778442
0.0078444685786962509 0.10253942012786865 0.39337542653083801
0.20820897817611694 0.028895478695631027 0.40923199057579041
0.5758017897605896 0.020965816453099251 0.40300384163856506
0.7553253173828125 0.039319444447755814 0.36429372429847717
0.8456839919090271 0.031205959618091583 0.34123522043228149
0.88203966617584229 0.030740251764655113 0.32366818189620972
0.91835486888885498 0.058367170393466949 0.30718958377838135
0.03280971571803093 0.29282087087631226 0.41044610738754272
0.095811374485492706 0.22004547715187073 0.39085036516189575
0.50213581323623657 0.15430173277854919 0.37839013338088989
0.73551255464553833 0.16043737530708313 0.3278842568397522
0.85271680355072021 0.14760744571685791 0.32211747765541077
0.89353519678115845 0.15205970406532288 0.30686736106872559
0.92787462472915649 0.13644564151763916 0.2907203733921051
0.10168265551328659 0.42859870195388794 0.41507405042648315
0.13890869915485382 0.41182166337966919 0.39765655994415283
0.37580826878547668 0.38843324780464172 0.37182673811912537
0.70361196994781494 0.38663122057914734 0.34021547436714172
0.88294088840484619 0.36563068628311157 0.32569560408592224
0.92765724658966064 0.35271665453910828 0.31500542163848877
0.95733165740966797 0.34527456760406494 0.31032368540763855
0.034951675683259964 0.59120231866836548 0.41060546040534973
0.077127881348133087 0.58126956224441528 0.3972230851650238
0.26737239956855774 0.57310974597930908 0.36908090114593506
0.63853991031646729 0.58551698923110962 0.33851751685142517
0.88068270683288574 0.57971906661987305 0.28792682290077209
0.95882564783096313 0.54762035608291626 0.2764945924282074
0.97995591163635254 0.53231477737426758 0.27352219820022583
0.041962388902902603 0.72844594717025757 0.36689317226409912
0.080254711210727692 0.72508895397186279 0.3614763617515564
0.21287550032138824 0.71817284822463989 0.35059669613838196
0.54444557428359985 0.73820388317108154 0.31959983706474304
0.81740039587020874 0.74933797121047974 0.31636351346969604
0.96673578023910522 0.76031005382537842 0.19040672481060028
0.99294203519821167 0.72875148057937622 0.18002578616142273
0.058500446379184723 0.79449647665023804 0.32987767457962036
0.085254952311515808 0.79415500164031982 0.32341530919075012
0.16919991374015808 0.79600757360458374 0.32281583547592163
0.43117052316665649 0.80902957916259766 0.32221367955207825
0.73227828741073608 0.82946699857711792 0.30926963686943054
0.88693332672119141 0.83037847280502319 0.3492605984210968
0.94966894388198853 0.83886533975601196 0.30466184020042419
0.050991326570510864 0.83212244510650635 0.30573275685310364
0.062711335718631744 0.83291351795196533 0.30269169807434082
0.11648834496736526 0.83410650491714478 0.30279791355133057
0.30112788081169128 0.84486651420593262 0.30374661087989807
0.66427302360534668 0.86939424276351929 0.29440134763717651
0.85434478521347046 0.85586166381835938 0.36470058560371399
0.91942119598388672 0.8733135461807251 0.38212382793426514
0.0082061914727091789 0.23695319890975952 0.54335743188858032
0.13951621949672699 0.071651563048362732 0.55921828746795654
0.52805244922637939 0.029869109392166138 0.55957198143005371
0.75528711080551147 0.044873002916574478 0.59571027755737305
0.8315579891204834 0.054668083786964417 0.52796906232833862
0.85549652576446533 0.062829546630382538 0.49329465627670288
0.8857492208480835 0.075929917395114899 0.46643117070198059
0.029662203043699265 0.36901557445526123 0.57151228189468384
0.070209771394729614 0.3018035888671875 0.55331921577453613
0.39734652638435364 0.16681860387325287 0.55374181270599365
0.72315055131912231 0.1605769544839859 0.56169527769088745
0.82625877857208252 0.18258437514305115 0.49453422427177429
0.86263680458068848 0.16706877946853638 0.47606319189071655
0.89296060800552368 0.15971237421035767 0.44751989841461182
0.13014777004718781 0.4871559739112854 0.57219874858856201
0.15974611043930054 0.47536185383796692 0.56597399711608887
0.28053057193756104 0.42730697989463806 0.55146437883377075
0.66330993175506592 0.36979532241821289 0.54555457830429077
0.82878583669662476 0.36288809776306152 0.46978533267974854
0.87589949369430542 0.34992456436157227 0.45564687252044678
0.91525077819824219 0.34707528352737427 0.45029765367507935
0.17428213357925415 0.60569655895233154 0.58211982250213623
0.21286803483963013 0.59724128246307373 0.57416260242462158
0.29328775405883789 0.5920674204826355 0.56768310070037842
0.57122606039047241 0.58636128902435303 0.55443137884140015
0.85333901643753052 0.5823671817779541 0.54377651214599609
0.9328845739364624 0.56492155790328979 0.53276658058166504
0.96282970905303955 0.55757194757461548 0.52826428413391113
0.082808524370193481 0.74366664886474609 0.57417112588882446
0.10877701640129089 0.7372404932975769 0.57066482305526733
0.20461329817771912 0.73138153553009033 0.55533009767532349
0.473319411277771 0.73627752065658569 0.53582078218460083
0.80447739362716675 0.75958025455474854 0.5205991268157959
0.96626192331314087 0.77012068033218384 0.50739187002182007
0.99068653583526611 0.74972867965698242 0.51166117191314697
0.070919275283813477 0.80536568164825439 0.529643714427948
0.099067166447639465 0.80451583862304688 0.52034521102905273
0.17592030763626099 0.80425357818603516 0.50999289751052856
0.39821937680244446 0.81001591682434082 0.501537024974823
0.71298813819885254 0.83238285779953003 0.47165518999099731
0.89070069789886475 0.84772616624832153 0.48395133018493652
0.95285379886627197 0.85400891304016113 0.48695948719978333
0.05537751317024231 0.84234577417373657 0.47504904866218567
0.073059767484664917 0.8421396017074585 0.47145509719848633
0.12536104023456573 0.84346038103103638 0.4707990288734436
0.29332429170608521 0.85014265775680542 0.47074988484382629
0.65362823009490967 0.87018764019012451 0.44524818658828735
0.85016357898712158 0.87449312210083008 0.45975872874259949
0.92061489820480347 0.88059031963348389 0.48217958211898804
0.009520452469587326 0.26140680909156799 0.60151153802871704
0.11852916330099106 0.089480258524417877 0.61784559488296509
0.50107187032699585 0.033064328134059906 0.63328135013580322
0.71921086311340332 0.059939693659543991 0.62695670127868652
0.90215033292770386 0.04115753248333931 0.81817924976348877
0.93736112117767334 0.032689951360225677 0.82763230800628662
0.96110284328460693 0.040235497057437897 0.80790317058563232
0.0228118896484375 0.3864995539188385 0.64207351207733154
0.069805890321731567 0.32587882876396179 0.62971168756484985
0.36129108071327209 0.17302247881889343 0.64047521352767944
0.67765724658966064 0.17161762714385986 0.62915515899658203
0.89229494333267212 0.11688438802957535 0.79984480142593384
0.93343323469161987 0.1148492842912674 0.81379663944244385
0.92318809032440186 0.15597350895404816 0.69301474094390869
0.11311540752649307 0.51746320724487305 0.66824769973754883
0.14328758418560028 0.50525414943695068 0.6661837100982666
0.21182592213153839 0.45304176211357117 0.66021609306335449
0.57384276390075684 0.36164000630378723 0.65107786655426025
0.84623390436172485 0.34846958518028259 0.70458722114562988
0.895885169506073 0.33991158008575439 0.68734586238861084
0.91261982917785645 0.34043598175048828 0.6394694447517395
0.2281716912984848 0.62549513578414917 0.68408805131912231
0.26150983572006226 0.62031382322311401 0.68155962228775024
0.31514444947242737 0.6098017692565918 0.6777147650718689
0.47688233852386475 0.58308893442153931 0.680633544921875
0.80967414379119873 0.55480366945266724 0.68681067228317261
0.89423257112503052 0.54364639520645142 0.67528825998306274
0.91132289171218872 0.54030495882034302 0.62694978713989258
0.23459829390048981 0.74512636661529541 0.71337133646011353
0.27231001853942871 0.74079996347427368 0.71035099029541016
0.32498857378959656 0.73435628414154053 0.70441722869873047
0.4663703441619873 0.73377299308776855 0.70019596815109253
0.74358201026916504 0.75275516510009766 0.7159380316734314
0.90576183795928955 0.76219558715820312 0.72654885053634644
0.93946540355682373 0.75505578517913818 0.71901488304138184
0.14346039295196533 0.81782031059265137 0.7066422700881958
0.16591320931911469 0.81864035129547119 0.70691180229187012
0.23316435515880585 0.81545203924179077 0.69472593069076538
0.376983642578125 0.81848526000976562 0.69005674123764038
0.64633578062057495 0.83493590354919434 0.67918366193771362
0.88050246238708496 0.86218100786209106 0.69360297918319702
0.94921493530273438 0.87431365251541138 0.71839988231658936
0.10586249828338623 0.8540041446685791 0.67708057165145874
0.13006679713726044 0.85335737466812134 0.66955441236495972
0.17269027233123779 0.84589302539825439 0.6658395528793335
0.26661831140518188 0.86061328649520874 0.66018867492675781
0.60197615623474121 0.87593024969100952 0.65437918901443481
0.84622067213058472 0.89412659406661987 0.6443248987197876
0.92156606912612915 0.89779531955718994 0.65423542261123657
0.0094362441450357437 0.26002195477485657 0.63139039278030396
0.088388510048389435 0.10254774242639542 0.6455683708190918
0.48602578043937683 0.025997042655944824 0.66351473331451416
0.70057791471481323 0.056884437799453735 0.65459907054901123
0.90336555242538452 0.039182011038064957 0.85430681705474854
0.94768857955932617 0.035505525767803192 0.89175915718078613
0.98184514045715332 0.03181704506278038 0.90211212635040283
0.01559555996209383 0.38062700629234314 0.67256331443786621
0.066893063485622406 0.32085627317428589 0.66018998622894287
0.34065890312194824 0.17357192933559418 0.67327487468719482
0.64848333597183228 0.17870762944221497 0.6637454628944397
0.88054066896438599 0.14320123195648193 0.820090651512146
0.94863665103912354 0.11487145721912384 0.89262562990188599
0.97789090871810913 0.11635249853134155 0.89611661434173584
0.099998340010643005 0.51074272394180298 0.70033150911331177
0.13596254587173462 0.50092357397079468 0.69904345273971558
0.19920890033245087 0.45218402147293091 0.69350206851959229
0.54549658298492432 0.3592413067817688 0.68976223468780518
0.83089804649353027 0.34712481498718262 0.72291237115859985
0.95265036821365356 0.31875336170196533 0.90474987030029297
0.97845292091369629 0.31697028875350952 0.9037853479385376
0.21464717388153076 0.61984574794769287 0.72030436992645264
0.24760495126247406 0.61656767129898071 0.71849638223648071
0.30127385258674622 0.60682082176208496 0.71942329406738281
0.45399183034896851 0.578724205493927 0.72021198272705078
0.78337991237640381 0.54089045524597168 0.72195416688919067
0.96096229553222656 0.55380785465240479 0.92384284734725952
0.98640412092208862 0.54765123128890991 0.92835623025894165
0.28412336111068726 0.7304985523223877 0.75271552801132202
0.31048792600631714 0.72907000780105591 0.75231778621673584
0.3715115487575531 0.72295260429382324 0.75063550472259521
0.4765738844871521 0.72534984350204468 0.75835895538330078
0.70821255445480347 0.736011803150177 0.77065622806549072
0.91336852312088013 0.75824463367462158 0.85654699802398682
0.95373439788818359 0.75316160917282104 0.86541903018951416
0.25024563074111938 0.81421375274658203 0.77627426385879517
0.28366920351982117 0.81472676992416382 0.776134192943573
0.33788153529167175 0.8149452805519104 0.77664268016815186
0.43414810299873352 0.81596112251281738 0.78301715850830078
0.61152654886245728 0.83245348930358887 0.79671317338943481
0.8496432900428772 0.86399537324905396 0.81587857007980347
0.91728347539901733 0.87156766653060913 0.82622402906417847
0.24095156788825989 0.85240620374679565 0.77868235111236572
0.26435926556587219 0.85552322864532471 0.77616232633590698
0.2941763699054718 0.85733211040496826 0.77695012092590332
0.37098300457000732 0.86384481191635132 0.77983415126800537
0.55308467149734497 0.87740707397460938 0.79349535703659058
0.81294149160385132 0.90161401033401489 0.79333066940307617
0.91079437732696533 0.91683375835418701 0.78800469636917114
0.010014418512582779 0.25811439752578735 0.67172634601593018
0.082929708063602448 0.10960590094327927 0.68779486417770386
0.46091991662979126 0.02612832747399807 0.70151859521865845
0.67785179615020752 0.04685458168387413 0.69013071060180664
0.87747299671173096 0.031468231230974197 0.84107542037963867
0.95271897315979004 0.022463824599981308 0.94460564851760864
0.98402172327041626 0.019712604582309723 0.94735473394393921
0.018357967957854271 0.3864256739616394 0.71111088991165161
0.062475182116031647 0.32098034024238586 0.70048880577087402
0.31814694404602051 0.18216843903064728 0.71206212043762207
0.62752801179885864 0.17229913175106049 0.69592905044555664
0.84771144390106201 0.15527172386646271 0.78948593139648438
0.95019257068634033 0.11245914548635483 0.94153344631195068
0.98177272081375122 0.1050904244184494 0.94777947664260864
0.095682792365550995 0.50221383571624756 0.73765772581100464
0.13220511376857758 0.49204382300376892 0.74198740720748901
0.20256546139717102 0.45023515820503235 0.73370653390884399
0.50949573516845703 0.36351275444030762 0.7329675555229187
0.79847437143325806 0.34816572070121765 0.7351534366607666
0.94933050870895386 0.31800386309623718 0.9399530291557312
0.9852556586265564 0.31988456845283508 0.96491867303848267
0.19464823603630066 0.60368400812149048 0.75990909337997437
0.22887395322322845 0.60310882329940796 0.75802397727966309
0.29941472411155701 0.5993538498878479 0.75150668621063232
0.45231723785400391 0.57799637317657471 0.75838738679885864
0.75405871868133545 0.54023265838623047 0.74521541595458984
0.96157652139663696 0.55459129810333252 0.96949237585067749
0.98731428384780884 0.54882001876831055 0.97205251455307007
0.27960684895515442 0.71288961172103882 0.78843605518341064
0.30471166968345642 0.71214473247528076 0.78807193040847778
0.371917724609375 0.70848220586776733 0.78936159610748291
0.47527018189430237 0.71597039699554443 0.79803687334060669
0.70277386903762817 0.72990208864212036 0.8121764063835144
0.90892261266708374 0.75653153657913208 0.89145135879516602
0.96953421831130981 0.75871938467025757 0.94213515520095825
0.26292279362678528 0.80908316373825073 0.82216191291809082
0.30134034156799316 0.80654716491699219 0.82049822807312012
0.34888356924057007 0.8060678243637085 0.8213774561882019
0.44265443086624146 0.81151854991912842 0.82799047231674194
0.61878275871276855 0.8300057053565979 0.84503811597824097
0.84684103727340698 0.86563050746917725 0.86946088075637817
0.92258298397064209 0.87424790859222412 0.88076764345169067
0.25583189725875854 0.84929919242858887 0.82954549789428711
0.29419741034507751 0.84888958930969238 0.82502013444900513
0.33393865823745728 0.85081404447555542 0.82731157541275024
0.41806957125663757 0.85604214668273926 0.83295154571533203
0.56796050071716309 0.87135893106460571 0.8450579047203064
0.81408208608627319 0.90389555692672729 0.85937529802322388
0.91037666797637939 0.91256797313690186 0.85705232620239258
