assets/lut/editingcorp scrittle.cube
# Created by: G'MIC (https://gmic.eu)
TITLE "scrittle"
# LUT size
LUT_3D_SIZE 5
# Data domain
DOMAIN_MIN 0.0 0.0 0.0
DOMAIN_MAX 1.0 1.0 1.0
# LUT data points
0.016129571944475174 0.024423711001873016 0.19458404183387756
0.22707247734069824 0.040552325546741486 0.20295493304729462
0.50089573860168457 0.086764015257358551 0.20920927822589874
0.74146926403045654 0.18096263706684113 0.2343534529209137
0.92432302236557007 0.24772407114505768 0.25500130653381348
0.028380943462252617 0.20194807648658752 0.20400433242321014
0.22656366229057312 0.21898375451564789 0.20906996726989746
0.50818818807601929 0.25455847382545471 0.21936170756816864
0.76097565889358521 0.34247660636901855 0.24586433172225952
0.94024765491485596 0.38454297184944153 0.25377160310745239
0.076790317893028259 0.41966384649276733 0.21671150624752045
0.22148425877094269 0.43732789158821106 0.22209490835666656
0.50033098459243774 0.48388469219207764 0.24080975353717804
0.8055572509765625 0.53168964385986328 0.25749415159225464
0.96829605102539062 0.55749678611755371 0.26012113690376282
0.15258118510246277 0.65854167938232422 0.24740879237651825
0.26605135202407837 0.67623835802078247 0.25830516219139099
0.42436337471008301 0.73414444923400879 0.27090346813201904
0.81633877754211426 0.78613150119781494 0.27127000689506531
0.9910094141960144 0.80257308483123779 0.25934430956840515
0.20415003597736359 0.9012378454208374 0.28191670775413513
0.30419155955314636 0.91129606962203979 0.29157540202140808
0.4360954761505127 0.94413477182388306 0.30095472931861877
0.79066550731658936 0.97170716524124146 0.27569511532783508
0.99583673477172852 0.97239047288894653 0.26366317272186279
0.019706157967448235 0.025231754407286644 0.27214401960372925
0.21002092957496643 0.030855171382427216 0.27747341990470886
0.48938187956809998 0.078298904001712799 0.28745010495185852
0.74479901790618896 0.17951911687850952 0.3182186484336853
0.91937536001205444 0.23319573700428009 0.33162382245063782
0.025615766644477844 0.19220760464668274 0.27968120574951172
0.21380408108234406 0.20556947588920593 0.28178969025611877
0.49687841534614563 0.25123804807662964 0.29602283239364624
0.7595512866973877 0.33900037407875061 0.32667595148086548
0.9370153546333313 0.3818109929561615 0.33553853631019592
0.068763449788093567 0.40989494323730469 0.29279389977455139
0.21293799579143524 0.42753353714942932 0.29883885383605957
0.48491451144218445 0.4721909761428833 0.31668797135353088
0.80111104249954224 0.53587967157363892 0.34338271617889404
0.96798491477966309 0.56076204776763916 0.34408125281333923
0.1506122350692749 0.65602362155914307 0.32883182168006897
0.27192285656929016 0.67026448249816895 0.33944922685623169
0.42082116007804871 0.7214011549949646 0.34771573543548584
0.81625139713287354 0.78428548574447632 0.35328128933906555
0.98939085006713867 0.80043411254882812 0.33394345641136169
0.20015498995780945 0.89467674493789673 0.36854749917984009
0.31325823068618774 0.90437978506088257 0.38070496916770935
0.43196830153465271 0.94217550754547119 0.39686837792396545
0.77177667617797852 0.96632784605026245 0.36173281073570251
1 0.98361754417419434 0.33055612444877625
0.021843135356903076 0.024968734011054039 0.37910637259483337
0.17713423073291779 0.024703934788703918 0.38549637794494629
0.43318182229995728 0.03478572890162468 0.38926804065704346
0.71282702684402466 0.11840712279081345 0.42918464541435242
0.91450947523117065 0.2073008120059967 0.46745726466178894
0.026710210368037224 0.17570747435092926 0.37647408246994019
0.18829432129859924 0.18204064667224884 0.38140526413917542
0.43271031975746155 0.2006637305021286 0.39082595705986023
0.73833072185516357 0.30231013894081116 0.45390960574150085
0.93264079093933105 0.36394879221916199 0.47785300016403198
0.059202559292316437 0.38106915354728699 0.3888154923915863
0.21126076579093933 0.39031669497489929 0.39859810471534729
0.42872157692909241 0.42299899458885193 0.41441932320594788
0.78864783048629761 0.51674890518188477 0.4755730926990509
0.96929359436035156 0.54621905088424683 0.49170389771461487
0.13580533862113953 0.62847775220870972 0.43537276983261108
0.2617223858833313 0.63775652647018433 0.4441121518611908
0.39580881595611572 0.69398397207260132 0.46552035212516785
0.78908383846282959 0.76970213651657104 0.48167356848716736
0.99140423536300659 0.79536116123199463 0.45767900347709656
0.18958547711372375 0.88008934259414673 0.48067253828048706
0.31435111165046692 0.8853297233581543 0.48631200194358826
0.41604623198509216 0.93276679515838623 0.52242898941040039
0.75063252449035645 0.96390295028686523 0.49200558662414551
1 0.98929667472839355 0.4421316385269165
0.030981594696640968 0.022079333662986755 0.53347492218017578
0.17468716204166412 0.027387311682105064 0.5428537130355835
0.386636883020401 0.019351555034518242 0.55228924751281738
0.65333038568496704 0.026465620845556259 0.5709344744682312
0.86055070161819458 0.11779134720563889 0.63097327947616577
0.045883044600486755 0.16165722906589508 0.52844661474227905
0.19220846891403198 0.16693773865699768 0.53630870580673218
0.37398248910903931 0.16460682451725006 0.55059021711349487
0.67798954248428345 0.20201292634010315 0.59560304880142212
0.89796650409698486 0.29722535610198975 0.6605302095413208
0.059809155762195587 0.36443954706192017 0.53342467546463013
0.20280008018016815 0.36646464467048645 0.53557610511779785
0.35494726896286011 0.39445573091506958 0.57006877660751343
0.76221591234207153 0.48723423480987549 0.67914152145385742
0.96265292167663574 0.52431917190551758 0.71319234371185303
0.12272690236568451 0.5879216194152832 0.57618021965026855
0.25908181071281433 0.60405045747756958 0.58832788467407227
0.37941816449165344 0.67257499694824219 0.64137208461761475
0.77634912729263306 0.76611953973770142 0.72097736597061157
0.99407178163528442 0.78877073526382446 0.73144257068634033
0.17479704320430756 0.84940129518508911 0.62893092632293701
0.29495000839233398 0.85958683490753174 0.64128249883651733
0.39256885647773743 0.91478025913238525 0.70074331760406494
0.72388148307800293 0.96655070781707764 0.74914997816085815
0.998543381690979 0.97992658615112305 0.7197234034538269
0.025545606389641762 0.019122164696455002 0.71450388431549072
0.17510998249053955 0.024019608274102211 0.72463935613632202
0.36863860487937927 0.023539450019598007 0.73863780498504639
0.64341217279434204 0.051733426749706268 0.76469439268112183
0.90206712484359741 0.17355082929134369 0.83609789609909058
0.053345054388046265 0.15861807763576508 0.70669823884963989
0.20648004114627838 0.16205444931983948 0.71717864274978638
0.38378563523292542 0.16070696711540222 0.7265775203704834
0.67064517736434937 0.19604447484016418 0.77171963453292847
0.92764520645141602 0.33615705370903015 0.85455089807510376
0.069106064736843109 0.3479861319065094 0.71188372373580933
0.21591712534427643 0.35882222652435303 0.72527962923049927
0.35465681552886963 0.39342033863067627 0.76086151599884033
0.74650281667709351 0.48295336961746216 0.84885513782501221
0.983551025390625 0.56504219770431519 0.89270561933517456
0.11841697245836258 0.58504736423492432 0.74959909915924072
0.25385120511054993 0.59901696443557739 0.76429265737533569
0.38828739523887634 0.66901153326034546 0.81048548221588135
0.77032095193862915 0.78167307376861572 0.88013100624084473
0.99544346332550049 0.80429601669311523 0.89536499977111816
0.17642194032669067 0.8399931788444519 0.80069321393966675
0.30034354329109192 0.85628759860992432 0.81418532133102417
0.44113802909851074 0.91250669956207275 0.85599106550216675
0.75739848613739014 0.97189652919769287 0.90058797597885132
0.99527585506439209 0.97824758291244507 0.90318721532821655
