assets/lut/editingcorpw Celestial Shine.cube
LUT_3D_SIZE 16
DOMAIN_MIN 0.0 0.0 0.0
DOMAIN_MAX 1.0 1.0 1.0
0.070588 0.066667 0.058824
0.123137 0.065098 0.063530
0.166274 0.065883 0.066667
0.216470 0.072157 0.072941
0.269020 0.072941 0.082353
0.325490 0.074510 0.078431
0.378039 0.076863 0.087059
0.439216 0.085491 0.090980
0.505098 0.085491 0.097255
0.562353 0.091765 0.098824
0.627451 0.098039 0.094118
0.698823 0.102745 0.106667
0.765490 0.112941 0.117647
0.837647 0.119216 0.120785
0.910588 0.128627 0.129412
0.988235 0.145098 0.145098
0.080784 0.104313 0.062745
0.121636 0.101110 0.062984
0.174902 0.099608 0.062745
0.217725 0.098928 0.068131
0.267451 0.102745 0.078431
0.323922 0.104313 0.079216
0.377016 0.105643 0.084467
0.431373 0.110588 0.089412
0.495686 0.112366 0.097934
0.560784 0.119216 0.103529
0.629804 0.120784 0.105882
0.693266 0.127843 0.105815
0.763137 0.135686 0.120000
0.836654 0.139712 0.121569
0.907451 0.152157 0.134902
0.987451 0.167843 0.152157
0.091765 0.144314 0.058824
0.119215 0.149804 0.058824
0.165423 0.151866 0.063036
0.228235 0.139608 0.072157
0.269700 0.139503 0.077543
0.317647 0.137255 0.083922
0.375686 0.144314 0.095686
0.434084 0.143238 0.096112
0.490196 0.151373 0.101961
0.557072 0.152941 0.108915
0.625098 0.153726 0.106666
0.694117 0.158431 0.116863
0.762488 0.166274 0.124773
0.822745 0.172549 0.123137
0.894432 0.185098 0.134431
0.970196 0.192941 0.155294
0.104313 0.207059 0.065098
0.136471 0.202667 0.064209
0.177255 0.203137 0.065098
0.231305 0.199641 0.062678
0.286275 0.193726 0.058039
0.345883 0.187451 0.083922
0.385098 0.188235 0.097726
0.436863 0.185882 0.106667
0.495753 0.193793 0.111439
0.560000 0.196863 0.109804
0.634510 0.197647 0.125490
0.694117 0.203922 0.121778
0.763137 0.213333 0.121569
0.829804 0.214050 0.131047
0.899608 0.227451 0.144314
0.979608 0.243137 0.158431
0.113725 0.252549 0.052549
0.143529 0.259608 0.061961
0.177255 0.258039 0.054431
0.227451 0.254902 0.058039
0.280478 0.246274 0.050913
0.341176 0.243137 0.056471
0.396863 0.240000 0.074510
0.443242 0.237647 0.093908
0.498823 0.239216 0.112941
0.562353 0.246274 0.122831
0.629020 0.251765 0.125490
0.698039 0.254902 0.129412
0.764706 0.262640 0.130980
0.829020 0.266667 0.137255
0.901416 0.274271 0.147451
0.974902 0.288628 0.164706
0.133333 0.298039 0.050980
0.150588 0.308235 0.050196
0.185882 0.309020 0.039216
0.226667 0.305882 0.045490
0.282353 0.306667 0.047843
0.337255 0.294118 0.035294
0.400785 0.290196 0.039216
0.458823 0.294902 0.054117
0.524706 0.301177 0.082353
0.571764 0.295686 0.117647
0.623529 0.298039 0.133333
0.688627 0.308235 0.129412
0.756863 0.313725 0.137255
0.825882 0.313725 0.143529
0.901177 0.325490 0.148235
0.972549 0.333333 0.164706
0.134118 0.360000 0.025882
0.155772 0.367126 0.027996
0.191373 0.361569 0.018039
0.230327 0.360680 0.013334
0.286274 0.363921 0.013334
0.341176 0.363137 0.006274
0.400239 0.358977 0.008082
0.462745 0.355294 0.012549
0.528627 0.357542 0.025098
0.588235 0.358431 0.043922
0.644706 0.362353 0.079216
0.694051 0.356011 0.140183
0.758431 0.367843 0.149019
0.825883 0.375686 0.151007
0.902745 0.381961 0.161568
0.972549 0.392157 0.178039
0.136471 0.425098 0.000000
0.161569 0.426667 0.003922
0.196997 0.428594 0.011966
0.233726 0.425098 0.002353
0.287948 0.424314 0.000889
0.343529 0.421177 0.000000
0.408627 0.421961 0.000784
0.466667 0.417255 0.000426
0.529412 0.416470 0.004706
0.596967 0.421281 0.004026
0.665883 0.423529 0.003138
0.727843 0.427451 0.032941
0.771764 0.427877 0.108795
0.828235 0.429804 0.161568
0.899294 0.439687 0.173124
0.967843 0.446275 0.196079
0.139607 0.494118 0.003138
0.155294 0.497516 0.000994
0.189804 0.492549 0.004706
0.231866 0.493759 0.000852
0.285490 0.491765 0.000000
0.340392 0.487059 0.003138
0.403242 0.492340 0.003242
0.464314 0.488627 0.000000
0.532190 0.488695 0.001501
0.592941 0.486275 0.000000
0.665883 0.489412 0.000000
0.731190 0.489516 0.000889
0.798432 0.490196 0.004706
0.855754 0.490622 0.038879
0.898823 0.492549 0.154510
0.961569 0.505882 0.208627
0.130196 0.561568 0.000000
0.149804 0.563921 0.004706
0.184994 0.563033 0.006065
0.226666 0.562353 0.000000
0.284534 0.561329 0.005012
0.341961 0.563137 0.003922
0.400784 0.563137 0.000000
0.476549 0.560784 0.000000
0.538824 0.557647 0.000000
0.597169 0.557408 0.002659
0.665098 0.556863 0.000000
0.730196 0.554510 0.001569
0.794301 0.558536 0.004601
0.860392 0.560784 0.003922
0.928934 0.561568 0.008942
0.988235 0.563922 0.087843
0.117647 0.627451 0.000000
0.135686 0.635294 0.000000
0.171765 0.635294 0.000000
0.215686 0.638432 0.009412
0.283137 0.632941 0.000000
0.341176 0.631373 0.000000
0.405490 0.634510 0.003922
0.466667 0.632157 0.003138
0.529412 0.635294 0.000000
0.603921 0.636863 0.000000
0.670588 0.635294 0.000000
0.741177 0.631373 0.000000
0.804706 0.632157 0.003922
0.873726 0.635294 0.000784
0.935687 0.632941 0.000000
0.996078 0.635294 0.003922
0.071373 0.702745 0.005490
0.112463 0.701348 0.000717
0.150588 0.707451 0.000000
0.210667 0.703634 0.000000
0.266666 0.705883 0.000000
0.330196 0.705098 0.001569
0.395294 0.707451 0.001330
0.464314 0.703529 0.001569
0.535791 0.707137 0.002458
0.601569 0.704314 0.006275
0.666667 0.705883 0.000000
0.734835 0.700870 0.001569
0.806275 0.701961 0.002353
0.869490 0.699032 0.000994
0.934118 0.698823 0.002353
1.000000 0.700392 0.000000
0.009412 0.774902 0.001569
0.055686 0.776471 0.000000
0.128897 0.777188 0.000784
0.194510 0.770196 0.000000
0.253438 0.781856 0.000000
0.323137 0.779607 0.000000
0.383529 0.778823 0.000784
0.452549 0.780033 0.000717
0.526274 0.780392 0.008628
0.592941 0.773438 0.000680
0.657255 0.776471 0.000000
0.727843 0.777255 0.001569
0.800358 0.772190 0.000359
0.869020 0.769412 0.002353
0.937830 0.766379 0.000680
0.996862 0.770980 0.000000
0.000000 0.856471 0.004706
0.004549 0.858928 0.000000
0.054118 0.860392 0.005490
0.156504 0.857681 0.000426
0.233726 0.856471 0.000000
0.301176 0.861176 0.000000
0.370301 0.861281 0.000105
0.444706 0.858824 0.000000
0.518431 0.859182 0.000000
0.591372 0.860392 0.001569
0.663529 0.854902 0.003138
0.731870 0.857255 0.000889
0.807059 0.854118 0.002353
0.875294 0.856897 0.006274
0.942745 0.851765 0.006275
1.000000 0.855687 0.000000
0.010196 0.925490 0.001569
0.000000 0.932549 0.000000
0.003713 0.930980 0.001203
0.097255 0.932549 0.002353
0.202248 0.930980 0.002659
0.280000 0.928628 0.001569
0.357647 0.928628 0.001569
0.424418 0.931085 0.000680
0.505098 0.931765 0.004706
0.578824 0.926752 0.005184
0.656471 0.930196 0.007059
0.723137 0.927059 0.000000
0.797072 0.926379 0.000889
0.869020 0.922353 0.000000
0.933572 0.925251 0.000000
0.997647 0.927843 0.000000
0.003922 0.992157 0.000000
0.000000 0.998431 0.000000
0.006274 0.996862 0.003138
0.003138 1.000000 0.000000
0.141961 0.998431 0.002353
0.247059 0.996078 0.000000
0.338039 0.997647 0.000000
0.406274 0.996862 0.000784
0.481569 0.996862 0.003922
0.558431 1.000000 0.000000
0.635294 1.000000 0.000000
0.711372 0.996078 0.000000
0.784314 0.992941 0.003138
0.850196 0.996078 0.000000
0.923137 0.997647 0.000000
0.992157 0.996078 0.000000
0.088628 0.061961 0.106667
0.118432 0.065337 0.104247
0.158431 0.069020 0.098824
0.211085 0.070797 0.108026
0.259608 0.080000 0.108235
0.319216 0.083137 0.108235
0.372482 0.085490 0.115533
0.431372 0.090196 0.118431
0.496366 0.095111 0.123817
0.558432 0.099608 0.123137
0.625098 0.100392 0.126275
0.685968 0.103223 0.139675
0.752941 0.110588 0.141177
0.825778 0.119791 0.139607
0.897255 0.128627 0.149804
0.971765 0.143529 0.156863
0.088799 0.099675 0.101893
0.119866 0.097781 0.109661
0.165968 0.104314 0.104897
0.208583 0.106461 0.104058
0.269326 0.107451 0.115227
0.318193 0.109804 0.120067
0.369459 0.110425 0.119053
0.433248 0.115055 0.122353
0.498974 0.122009 0.128426
0.552702 0.121568 0.128627
0.620631 0.124160 0.142880
0.688082 0.129173 0.138556
0.757408 0.131765 0.136097
0.826416 0.138874 0.145990
0.899369 0.146428 0.152396
0.970980 0.159522 0.168560
0.092549 0.145882 0.103529
0.125184 0.144552 0.096403
0.173558 0.146017 0.100258
0.219712 0.141751 0.111739
0.266981 0.139033 0.114876
0.309804 0.140392 0.116078
0.363137 0.144553 0.122046
0.430230 0.147810 0.125356
0.494588 0.147869 0.130196
0.553150 0.152837 0.134327
0.621177 0.158431 0.139608
0.686035 0.160784 0.136709
0.751731 0.167126 0.139541
0.815686 0.170876 0.145307
0.886484 0.180392 0.155974
0.964706 0.190588 0.166275
0.107817 0.200575 0.099503
0.134042 0.200677 0.102135
0.176105 0.201934 0.102536
0.223144 0.194686 0.095982
0.281569 0.190588 0.102536
0.323712 0.186562 0.114980
0.377528 0.187723 0.128051
0.427870 0.189699 0.134013
0.492630 0.191819 0.137956
0.556026 0.196758 0.131399
0.622954 0.199216 0.138248
0.688363 0.201880 0.142304
0.752889 0.210980 0.143529
0.824060 0.213813 0.151752
0.899503 0.221386 0.163608
0.977464 0.236549 0.179033
0.109019 0.247843 0.089412
0.141415 0.254357 0.100937
0.176366 0.251451 0.091765
0.227921 0.247163 0.093124
0.285423 0.240306 0.088388
0.335686 0.237647 0.089412
0.390588 0.238192 0.108542
0.437438 0.235399 0.125961
0.492549 0.239216 0.138039
0.557341 0.242659 0.140631
0.627451 0.247843 0.147451
0.693333 0.252788 0.148168
0.755294 0.257359 0.148810
0.825883 0.265882 0.154614
0.894357 0.273793 0.158193
0.974118 0.286274 0.178824
0.113725 0.294902 0.079216
0.141281 0.309393 0.084400
0.182745 0.302745 0.075295
0.225778 0.301856 0.078013
0.280784 0.297255 0.072941
0.336470 0.299608 0.068236
0.397647 0.291765 0.075295
0.457255 0.293333 0.090196
0.508078 0.295791 0.110118
0.561568 0.289412 0.138824
0.622745 0.296471 0.158432
0.686035 0.301722 0.151918
0.758431 0.309019 0.152941
0.824993 0.318432 0.163712
0.890981 0.323137 0.171765
0.972549 0.336470 0.183529
0.126753 0.359387 0.069259
0.149880 0.363548 0.073076
0.178995 0.364639 0.064926
0.227024 0.361502 0.059274
0.278193 0.357035 0.053879
0.342028 0.357102 0.049240
0.397408 0.353486 0.040000
0.464926 0.349430 0.041569
0.521430 0.349787 0.057440
0.587929 0.356863 0.084400
0.635227 0.356079 0.119283
0.693792 0.354873 0.158872
0.757169 0.363922 0.170502
0.823518 0.371240 0.168054
0.895926 0.377016 0.180325
0.972138 0.391612 0.196691
0.129412 0.424314 0.040000
0.150655 0.427212 0.041531
0.185031 0.428303 0.027159
0.229804 0.424000 0.018562
0.279216 0.425987 0.013020
0.338824 0.424314 0.009412
0.401569 0.425404 0.003854
0.463888 0.418824 0.003855
0.527738 0.416680 0.006065
0.594405 0.418928 0.020130
0.659608 0.423530 0.048628
0.721330 0.424075 0.083750
0.769479 0.424381 0.136246
0.827555 0.427556 0.178144
0.899503 0.437542 0.199686
0.968627 0.447843 0.201568
0.126484 0.484810 0.005700
0.150097 0.493040 0.002405
0.182170 0.496261 0.002458
0.222276 0.495223 0.001119
0.279216 0.491660 0.000680
0.339503 0.488628 0.000680
0.401796 0.482736 0.001234
0.466092 0.486379 0.000889
0.526721 0.484473 0.000952
0.591268 0.481464 0.001569
0.655791 0.486954 0.000418
0.726697 0.487142 0.003324
0.790745 0.487843 0.026301
0.850075 0.491384 0.099730
0.902850 0.494222 0.178405
0.968627 0.504993 0.222850
0.115294 0.560784 0.001569
0.146121 0.565012 0.002659
0.180078 0.564131 0.001360
0.225987 0.560575 0.003817
0.280239 0.561329 0.001569
0.338823 0.557647 0.001569
0.400306 0.556863 0.000000
0.467346 0.560000 0.000000
0.532340 0.554614 0.000889
0.598193 0.552702 0.005251
0.661961 0.552157 0.003137
0.724945 0.552463 0.000000
0.798222 0.556078 0.003451
0.858928 0.556549 0.000314
0.928456 0.560306 0.016000
0.984314 0.559216 0.132549
0.095687 0.629020 0.002353
0.131899 0.629737 0.003683
0.165490 0.630588 0.000784
0.215948 0.631477 0.001464
0.275294 0.630588 0.001569
0.331765 0.631373 0.001569
0.398670 0.630827 0.001808
0.467451 0.629804 0.000784
0.537150 0.629804 0.000105
0.601569 0.629804 0.000000
0.667451 0.630588 0.000000
0.737561 0.627145 0.000000
0.799216 0.625098 0.001569
0.868235 0.626667 0.002928
0.934902 0.630588 0.003137
0.995294 0.627451 0.007059
0.051085 0.700086 0.005557
0.100172 0.699541 0.000239
0.146188 0.699780 0.000478
0.204915 0.698216 0.001581
0.261416 0.698585 0.004161
0.319933 0.702439 0.004228
0.388972 0.703692 0.000096
0.455380 0.700937 0.000000
0.526987 0.699973 0.001200
0.596556 0.699847 0.004400
0.661177 0.701483 0.002114
0.728330 0.699799 0.000574
0.798125 0.697561 0.000478
0.866386 0.702510 0.002302
0.935753 0.698278 0.000239
0.996078 0.698278 0.001330
0.004706 0.774902 0.000784
0.036079 0.776710 0.000239
0.110230 0.777614 0.000000
0.178248 0.772340 0.000000
0.245281 0.772549 0.003817
0.310588 0.770196 0.004706
0.379063 0.773878 0.000000
0.446700 0.771339 0.001569
0.517438 0.771765 0.002249
0.589699 0.770091 0.002039
0.656471 0.770980 0.003137
0.725490 0.768082 0.001569
0.795361 0.769053 0.000000
0.860392 0.767164 0.002353
0.930876 0.767948 0.000680
0.992941 0.768627 0.006274
0.006954 0.847687 0.000105
0.000687 0.855576 0.000466
0.034980 0.858144 0.001464
0.145221 0.851339 0.002779
0.225359 0.852967 0.000000
0.296261 0.854902 0.000000
0.363364 0.853677 0.000596
0.438432 0.855477 0.000680
0.514151 0.854476 0.000359
0.583634 0.852549 0.000680
0.656680 0.854118 0.002249
0.729517 0.854798 0.002093
0.803137 0.851765 0.001673
0.871077 0.849621 0.000063
0.935111 0.848837 0.003137
0.999216 0.852863 0.002719
0.001569 0.924706 0.000000
0.001808 0.928456 0.003615
0.003033 0.921778 0.000889
0.070484 0.920000 0.000000
0.190790 0.922898 0.000239
0.274510 0.928627 0.000784
0.350110 0.924467 0.000784
0.422065 0.924131 0.003817
0.496680 0.925699 0.004026
0.575208 0.923615 0.003376
0.648627 0.924706 0.001569
0.722592 0.923376 0.000000
0.793150 0.924497 0.003137
0.861961 0.921569 0.000000
0.934969 0.924706 0.001875
0.996078 0.930196 0.000000
0.007059 0.992157 0.008628
0.000000 0.995294 0.001569
0.003137 0.995294 0.002353
0.000000 0.995294 0.000784
0.130196 0.995294 0.003922
0.233726 0.993726 0.000000
0.324706 0.989020 0.003137
0.402353 0.996078 0.003138
0.477438 0.991372 0.004497
0.557647 0.994510 0.001569
0.633726 0.995294 0.000000
0.704007 0.995055 0.000000
0.780392 0.995294 0.001569
0.850981 0.992157 0.000000
0.923922 0.992157 0.003137
0.989804 0.990588 0.001569
0.107451 0.061176 0.161569
0.132549 0.061177 0.150588
0.151664 0.074936 0.137188
0.199216 0.082353 0.144313
0.256941 0.085595 0.146562
0.309804 0.084706 0.148235
0.368628 0.088628 0.155294
0.427518 0.096470 0.157289
0.488628 0.100392 0.157647
0.556183 0.098928 0.157752
0.618039 0.104313 0.162353
0.689412 0.105098 0.164706
0.757647 0.105882 0.174117
0.829804 0.115294 0.184314
0.900288 0.126850 0.181072
0.973333 0.137255 0.187451
0.101177 0.089412 0.149019
0.140221 0.094663 0.150282
0.160941 0.103731 0.141759
0.204026 0.110588 0.145830
0.251660 0.110693 0.146771
0.310588 0.112941 0.150588
0.367604 0.113180 0.155055
0.423103 0.116146 0.154936
0.483242 0.119320 0.159216
0.550013 0.121778 0.162248
0.619608 0.123922 0.162353
0.688388 0.122592 0.168149
0.755294 0.129770 0.176179
0.825778 0.138719 0.177935
0.892235 0.143320 0.177935
0.977255 0.155294 0.192941
0.092348 0.143731 0.155137
0.126073 0.139742 0.145591
0.165141 0.145591 0.150512
0.212840 0.142387 0.145030
0.255963 0.144506 0.144904
0.306600 0.148370 0.154936
0.361994 0.146241 0.155720
0.423310 0.147948 0.154160
0.478364 0.151014 0.161927
0.545687 0.153454 0.162716
0.616896 0.156863 0.164639
0.680852 0.155720 0.172616
0.746815 0.164768 0.170340
0.817681 0.166274 0.180683
0.886651 0.177232 0.186008
0.965781 0.186667 0.193367
0.111372 0.194510 0.145882
0.137255 0.193621 0.142379
0.171048 0.193725 0.142745
0.223104 0.188661 0.143529
0.271686 0.184993 0.146980
0.309804 0.185098 0.156863
0.368627 0.187346 0.159791
0.425883 0.189019 0.164773
0.488202 0.191731 0.167417
0.553830 0.193046 0.170405
0.621961 0.199216 0.174118
0.687059 0.203712 0.170876
0.753658 0.207126 0.176403
0.827518 0.211765 0.179182
0.898824 0.219712 0.190170
0.971765 0.232157 0.203137
0.113150 0.243504 0.136837
0.136157 0.239216 0.141176
0.172895 0.242857 0.143238
0.217569 0.239111 0.132340
0.274791 0.234958 0.125646
0.328627 0.230693 0.130405
0.382954 0.229908 0.152157
0.432729 0.233404 0.167421
0.486170 0.237438 0.168941
0.552911 0.243934 0.170837
0.619608 0.244706 0.175686
0.689307 0.250667 0.178039
0.757689 0.258761 0.178927
0.825778 0.265673 0.187242
0.899109 0.274741 0.193990
0.971294 0.282039 0.209150
0.120000 0.291765 0.128628
0.141177 0.291765 0.124706
0.165849 0.298106 0.119574
0.215686 0.294118 0.121568
0.269908 0.288732 0.108445
0.330196 0.291765 0.104314
0.394510 0.286275 0.113726
0.449345 0.287485 0.127843
0.498039 0.289412 0.153726
0.558431 0.287059 0.174797
0.621177 0.294902 0.181961
0.686274 0.301961 0.180392
0.749020 0.303888 0.187227
0.819608 0.310588 0.185098
0.890196 0.321464 0.199530
0.974902 0.334117 0.207843
0.123137 0.356863 0.119216
0.145337 0.357102 0.109258
0.170622 0.358006 0.107742
0.215791 0.355870 0.100392
0.276183 0.352052 0.100288
0.332549 0.349020 0.098823
0.395055 0.352463 0.090196
0.457255 0.350162 0.091406
0.516967 0.349908 0.111843
0.582745 0.352157 0.129412
0.631372 0.352157 0.163137
0.690129 0.354271 0.190962
0.756145 0.363496 0.191014
0.819817 0.369412 0.200784
0.889516 0.378928 0.206170
0.965491 0.384314 0.223530
0.108101 0.423238 0.085647
0.140751 0.422678 0.091473
0.173750 0.427379 0.080363
0.217972 0.427092 0.080918
0.273372 0.418102 0.077782
0.333333 0.417255 0.063597
0.400000 0.418398 0.061669
0.460961 0.415615 0.056394
0.525199 0.410980 0.052258
0.592378 0.412246 0.077700
0.659608 0.421535 0.100392
0.716796 0.419967 0.132907
0.772477 0.421038 0.185295
0.830163 0.424964 0.213759
0.897403 0.431795 0.218229
0.963496 0.447843 0.238140
0.111372 0.487059 0.056471
0.133333 0.491294 0.055164
0.173692 0.488135 0.058891
0.221961 0.489770 0.045064
0.272052 0.486170 0.033726
0.331765 0.486275 0.020392
0.400680 0.483921 0.016366
0.463597 0.482711 0.013333
0.527059 0.481994 0.009838
0.588131 0.481464 0.005281
0.656471 0.483922 0.020392
0.721673 0.482562 0.059399
0.789020 0.485849 0.093400
0.849837 0.486633 0.149154
0.898510 0.492549 0.218824
0.962353 0.505882 0.247059
0.095791 0.554719 0.011713
0.127059 0.557542 0.008680
0.163478 0.555828 0.008399
0.213438 0.559006 0.003817
0.270191 0.556896 0.005316
0.331189 0.554980 0.001516
0.399896 0.555869 0.000209
0.461607 0.554380 0.000188
0.527059 0.554405 0.001569
0.595631 0.550278 0.002887
0.658510 0.545987 0.000680
0.724601 0.550588 0.000837
0.793171 0.553323 0.008693
0.859608 0.553621 0.027974
0.921258 0.558327 0.081466
0.974117 0.559320 0.188706
0.072157 0.625882 0.007059
0.109804 0.630588 0.005490
0.148168 0.629020 0.001076
0.205490 0.628235 0.003922
0.260967 0.629909 0.000000
0.321569 0.625882 0.003922
0.392941 0.629804 0.002353
0.460033 0.625882 0.000359
0.529412 0.625098 0.000000
0.599320 0.625987 0.000000
0.660393 0.627451 0.000000
0.730196 0.629020 0.001569
0.800717 0.628168 0.000000
0.869804 0.628235 0.000000
0.933229 0.628445 0.007687
0.999216 0.632942 0.013334
0.017255 0.696471 0.001569
0.071029 0.698278 0.003444
0.132190 0.694969 0.000000
0.191477 0.694222 0.003451
0.248523 0.690981 0.000994
0.316078 0.696471 0.003922
0.378517 0.697322 0.003615
0.449344 0.697322 0.002353
0.520366 0.695791 0.003137
0.592052 0.694013 0.003922
0.658824 0.696471 0.000000
0.726207 0.696470 0.000478
0.796078 0.694118 0.001143
0.864523 0.693438 0.000209
0.930405 0.694484 0.000680
0.992941 0.699608 0.000000
0.003496 0.773042 0.003855
0.007977 0.770981 0.002420
0.087825 0.767910 0.000430
0.163361 0.767059 0.000000
0.233790 0.766084 0.000977
0.300751 0.767350 0.002779
0.369277 0.767350 0.001927
0.443706 0.766700 0.005772
0.514151 0.769412 0.002711
0.581639 0.768986 0.001126
0.657255 0.765490 0.005916
0.721860 0.763138 0.000000
0.792798 0.763353 0.005553
0.860325 0.762712 0.002712
0.928283 0.763033 0.000296
0.994084 0.768269 0.000359
0.001569 0.849412 0.000784
0.004235 0.854693 0.002353
0.016560 0.853042 0.005849
0.124415 0.843137 0.001076
0.213543 0.846484 0.001778
0.288628 0.848628 0.002353
0.354719 0.850301 0.000784
0.427451 0.851765 0.001569
0.503103 0.852482 0.002286
0.580706 0.853438 0.004131
0.658039 0.850196 0.004706
0.726588 0.851765 0.000000
0.798924 0.848986 0.000426
0.870588 0.851406 0.002353
0.936471 0.850562 0.000000
1.000000 0.847059 0.009412
0.005386 0.923817 0.000000
0.002928 0.917072 0.005595
0.002842 0.920892 0.000296
0.034980 0.919320 0.001464
0.174584 0.917614 0.001467
0.260602 0.917542 0.002928
0.334222 0.919216 0.002039
0.414306 0.921080 0.000000
0.496627 0.920105 0.000105
0.573556 0.923712 0.000323
0.642353 0.923032 0.002458
0.719216 0.921778 0.000889
0.787639 0.923095 0.000593
0.855425 0.920470 0.001464
0.933898 0.919800 0.001724
0.998536 0.922353 0.004026
0.013333 0.985883 0.007843
0.001569 0.992941 0.000000
0.006274 0.992224 0.000359
0.004706 0.989019 0.001569
0.091451 0.990483 0.000680
0.232941 0.984314 0.000000
0.315294 0.990588 0.000000
0.396504 0.987810 0.000717
0.469804 0.992941 0.003922
0.552261 0.992262 0.000000
0.634510 0.992941 0.006274
0.701177 0.990588 0.000000
0.772056 0.991731 0.003855
0.852549 0.988235 0.005491
0.923137 0.992052 0.000889
0.992941 0.996078 0.009412
0.141961 0.048628 0.196078
0.152941 0.053542 0.196288
0.174902 0.066667 0.189020
0.198723 0.090981 0.187384
0.245490 0.097255 0.188235
0.300392 0.106667 0.198432
0.353830 0.097359 0.192941
0.421961 0.094118 0.198432
0.485423 0.082218 0.196011
0.555294 0.080784 0.197647
0.621177 0.091765 0.212549
0.694797 0.091869 0.209726
0.763922 0.096471 0.216470
0.833300 0.103104 0.215978
0.899608 0.119215 0.225882
0.970196 0.130981 0.231373
0.145360 0.089882 0.201725
0.156069 0.090780 0.194375
0.179922 0.101438 0.195660
0.210494 0.113874 0.192327
0.246745 0.118327 0.190745
0.301176 0.120784 0.196549
0.361896 0.117958 0.201536
0.427137 0.113830 0.199896
0.492320 0.107400 0.191174
0.558327 0.110170 0.200366
0.622954 0.113621 0.203137
0.689247 0.118410 0.204432
0.755869 0.122248 0.213438
0.828573 0.127226 0.221051
0.895582 0.136366 0.229229
0.970091 0.149699 0.233517
0.125490 0.115294 0.191372
0.147660 0.119320 0.197438
0.189356 0.131474 0.197356
0.210420 0.144381 0.192582
0.251974 0.146666 0.189804
0.298824 0.146667 0.185883
0.365647 0.145307 0.192261
0.427944 0.143103 0.198566
0.483070 0.148728 0.205916
0.549229 0.151477 0.207739
0.614902 0.153726 0.207059
0.680889 0.151373 0.212549
0.754577 0.158499 0.215686
0.822678 0.160785 0.214207
0.892444 0.167059 0.225987
0.965490 0.175686 0.235294
0.111171 0.185950 0.198790
0.136977 0.182216 0.198478
0.176896 0.187160 0.202420
0.222257 0.187953 0.203630
0.265524 0.187451 0.200852
0.316997 0.187451 0.199574
0.374751 0.190359 0.204751
0.425165 0.190655 0.203272
0.494964 0.191368 0.207207
0.563137 0.192941 0.210846
0.625950 0.195227 0.212684
0.693893 0.200913 0.215837
0.758140 0.201210 0.222745
0.830947 0.208905 0.223960
0.899675 0.217255 0.228594
0.976180 0.227809 0.250823
0.119216 0.237647 0.184314
0.143948 0.239896 0.187346
0.175948 0.240105 0.188706
0.211048 0.240067 0.185098
0.275974 0.236317 0.177494
0.327059 0.232941 0.189804
0.374484 0.231477 0.200575
0.426771 0.237438 0.207268
0.491339 0.239283 0.210062
0.554271 0.240546 0.208627
0.622745 0.244706 0.214902
0.690196 0.247739 0.218144
0.755294 0.257359 0.218039
0.827093 0.262678 0.229938
0.899675 0.265576 0.233487
0.976471 0.276863 0.245490
0.113725 0.288628 0.175686
0.129098 0.293333 0.178667
0.165490 0.293333 0.180392
0.211473 0.292549 0.170846
0.267451 0.292549 0.166274
0.327059 0.291765 0.160784
0.394510 0.285595 0.171765
0.450980 0.283922 0.196079
0.492191 0.287126 0.208067
0.555294 0.290196 0.214902
0.621177 0.294902 0.219608
0.687843 0.298823 0.225674
0.755294 0.304314 0.225098
0.821176 0.307383 0.232583
0.891765 0.314510 0.236079
0.971765 0.330981 0.254902
0.105673 0.357542 0.174850
0.125465 0.357774 0.171354
0.163242 0.361935 0.170196
0.206528 0.359031 0.165535
0.265882 0.357438 0.152732
0.328523 0.351268 0.144785
0.397379 0.350233 0.144048
0.460183 0.343843 0.149124
0.520708 0.348915 0.173853
0.574013 0.350588 0.196445
0.625307 0.349909 0.220340
0.689192 0.355315 0.230490
0.756078 0.362457 0.228131
0.826178 0.367163 0.241827
0.895373 0.377360 0.242039
0.966850 0.384523 0.256889
0.089412 0.416470 0.151373
0.120105 0.418928 0.157647
0.162286 0.424448 0.153009
0.208986 0.417188 0.146667
0.266562 0.418248 0.135686
0.326274 0.416471 0.134118
