assets/lut/editingcorpw Crystal Clear.cube
LUT_3D_SIZE 16
DOMAIN_MIN 0.0 0.0 0.0
DOMAIN_MAX 1.0 1.0 1.0
0.070588 0.066667 0.047059
0.101176 0.060392 0.053333
0.142745 0.054902 0.050980
0.189804 0.054902 0.054118
0.242353 0.049412 0.049412
0.286275 0.043137 0.047059
0.341177 0.043137 0.040784
0.403921 0.036078 0.039216
0.466667 0.039216 0.036078
0.535687 0.030588 0.033726
0.611765 0.015686 0.027451
0.684706 0.010980 0.020392
0.759216 0.003922 0.009412
0.834510 0.000784 0.000000
0.926274 0.000000 0.007843
0.984314 0.000000 0.003922
0.070588 0.086275 0.050196
0.101654 0.095753 0.048388
0.149020 0.084706 0.046275
0.188444 0.084706 0.048105
0.241569 0.086275 0.047059
0.294902 0.083138 0.046274
0.347757 0.078432 0.045251
0.400784 0.079216 0.041569
0.462850 0.076288 0.035503
0.531765 0.076863 0.037647
0.608628 0.072157 0.025882
0.679933 0.063769 0.020220
0.760784 0.055686 0.007843
0.842353 0.048314 0.003138
0.915294 0.034510 0.003922
0.996863 0.021176 0.000000
0.086275 0.126275 0.050196
0.102745 0.127843 0.050981
0.143888 0.132975 0.041210
0.195294 0.132549 0.047059
0.240209 0.126275 0.056471
0.286275 0.124706 0.051764
0.346666 0.123922 0.042353
0.404706 0.123630 0.045423
0.470588 0.123137 0.036078
0.537359 0.124601 0.032471
0.612549 0.123922 0.029804
0.684706 0.120000 0.013333
0.759933 0.118431 0.003563
0.833726 0.114510 0.000784
0.924183 0.110797 0.000000
0.993726 0.110588 0.007843
0.095686 0.170196 0.062745
0.115556 0.171085 0.063530
0.152157 0.171765 0.044706
0.197580 0.174118 0.045423
0.250980 0.176471 0.047059
0.295686 0.171765 0.054902
0.337673 0.173908 0.057150
0.398431 0.174118 0.050196
0.467093 0.183238 0.048560
0.539608 0.180392 0.032941
0.612549 0.183530 0.026667
0.681569 0.183425 0.005699
0.764706 0.185098 0.000000
0.844280 0.183955 0.000426
0.917647 0.182745 0.000000
1.000000 0.179608 0.001569
0.109019 0.209412 0.061961
0.127059 0.211765 0.059608
0.148235 0.212863 0.057150
0.196863 0.225882 0.047059
0.242592 0.227451 0.035055
0.311372 0.231372 0.030588
0.358432 0.230589 0.041568
0.405490 0.224418 0.058301
0.461961 0.226667 0.069020
0.529345 0.236385 0.052071
0.614118 0.239215 0.025882
0.691765 0.243137 0.003922
0.770092 0.245490 0.004706
0.847844 0.250196 0.003137
0.921502 0.248628 0.000239
0.994510 0.250980 0.003137
0.113725 0.262745 0.070588
0.127059 0.257255 0.058823
0.160785 0.262745 0.064314
0.195294 0.265883 0.054902
0.253334 0.277647 0.044706
0.301961 0.282353 0.015686
0.368628 0.290196 0.004706
0.424314 0.290196 0.007059
0.487059 0.293334 0.041569
0.534118 0.290196 0.067451
0.603922 0.298039 0.062745
0.683137 0.304314 0.014118
0.770196 0.309804 0.000000
0.845490 0.312941 0.000000
0.928628 0.317647 0.003137
0.996078 0.321569 0.000000
0.117647 0.307451 0.064314
0.141789 0.309804 0.067451
0.167843 0.307451 0.072941
0.202771 0.314405 0.065307
0.244706 0.329412 0.040000
0.301961 0.338823 0.010980
0.370741 0.349020 0.001569
0.444706 0.357647 0.003137
0.510118 0.361464 0.000889
0.571765 0.363922 0.000000
0.623530 0.360000 0.023530
0.678297 0.363854 0.057830
0.757647 0.375686 0.036078
0.842562 0.379033 0.000627
0.923921 0.383529 0.003137
0.996863 0.388236 0.001569
0.134902 0.361568 0.068236
0.149020 0.365490 0.069020
0.175260 0.363854 0.078499
0.213333 0.368627 0.064314
0.250771 0.378928 0.048419
0.303530 0.391373 0.012549
0.370196 0.409412 0.002353
0.441210 0.424381 0.001076
0.520784 0.437647 0.000784
0.593308 0.445386 0.000000
0.650981 0.449412 0.000000
0.709804 0.441569 0.003137
0.766207 0.439574 0.019272
0.833725 0.446275 0.034510
0.909334 0.456941 0.010039
0.997647 0.458039 0.000000
0.144314 0.411764 0.061961
0.157961 0.420601 0.062745
0.180392 0.425883 0.057255
0.213983 0.423821 0.062095
0.258823 0.432941 0.050196
0.309804 0.447843 0.009412
0.376680 0.466562 0.002353
0.440785 0.480785 0.001569
0.516504 0.500034 0.000000
0.603137 0.518431 0.000000
0.682353 0.527843 0.000000
0.740706 0.527843 0.000680
0.805490 0.527059 0.000784
0.862745 0.521143 0.006633
0.922353 0.516078 0.023530
0.985098 0.533333 0.031373
0.143529 0.485490 0.030588
0.160784 0.486274 0.031373
0.183739 0.492340 0.033987
0.224314 0.490980 0.038431
0.264859 0.495447 0.038738
0.316078 0.509020 0.002353
0.379608 0.523921 0.003138
0.448314 0.548026 0.002249
0.516863 0.565490 0.000000
0.599216 0.575619 0.001330
0.687059 0.598432 0.000000
0.764706 0.611765 0.000000
0.826092 0.606484 0.006745
0.891765 0.603138 0.000000
0.946360 0.602420 0.001569
0.997647 0.599216 0.000000
0.133333 0.556863 0.007843
0.155294 0.563921 0.001569
0.179608 0.562353 0.000000
0.217255 0.562353 0.000000
0.272157 0.567843 0.003137
0.321569 0.580392 0.000000
0.378039 0.595294 0.000000
0.447843 0.610980 0.003922
0.523137 0.632941 0.000784
0.595294 0.646274 0.000000
0.674510 0.662745 0.007843
0.762353 0.679216 0.004706
0.843137 0.696470 0.001569
0.909020 0.683922 0.001569
0.970981 0.672941 0.000000
0.992157 0.682353 0.000000
0.117647 0.637647 0.001569
0.140870 0.649001 0.000000
0.181961 0.639216 0.003922
0.227033 0.640785 0.003033
0.273725 0.643138 0.000000
0.327059 0.650196 0.000000
0.382439 0.662506 0.000239
0.442353 0.678431 0.000000
0.515869 0.699294 0.007634
0.592157 0.717647 0.000784
0.670588 0.729412 0.001569
0.752396 0.741721 0.002114
0.834510 0.758431 0.001569
0.919477 0.769882 0.002458
0.974117 0.758431 0.004706
0.998431 0.751372 0.004706
0.117647 0.723921 0.000000
0.132549 0.720000 0.004706
0.172257 0.717647 0.000000
0.217255 0.725490 0.000000
0.271791 0.728052 0.000000
0.333333 0.725490 0.012549
0.388235 0.736471 0.003922
0.448336 0.748235 0.000359
0.516078 0.765490 0.000784
0.588130 0.780601 0.007634
0.665098 0.800000 0.000784
0.741961 0.805490 0.004706
0.826241 0.819608 0.000000
0.908235 0.830588 0.002353
0.977725 0.836549 0.002249
1.000000 0.823529 0.000784
0.086275 0.808628 0.000000
0.121569 0.804497 0.000680
0.170980 0.803921 0.000000
0.217255 0.807911 0.000000
0.280785 0.807843 0.000000
0.339607 0.810196 0.000000
0.391582 0.815791 0.002353
0.454118 0.823530 0.003922
0.521210 0.836079 0.000717
0.589019 0.850980 0.001569
0.665098 0.862745 0.000784
0.735895 0.869804 0.002928
0.812549 0.880000 0.002353
0.888986 0.885849 0.000000
0.969412 0.892549 0.000000
0.996862 0.892549 0.000784
0.087843 0.888628 0.001569
0.118431 0.889412 0.003922
0.170980 0.888261 0.000889
0.221176 0.892549 0.000000
0.275840 0.893879 0.000000
0.340392 0.897255 0.000000
0.403137 0.895686 0.000000
0.468235 0.898928 0.000000
0.530980 0.907451 0.004706
0.590043 0.918192 0.002353
0.661177 0.929411 0.000000
0.725490 0.938039 0.003137
0.802562 0.944314 0.000000
0.876079 0.944313 0.000000
0.949804 0.956145 0.000000
1.000000 0.949804 0.000000
0.133333 0.976471 0.011765
0.157647 0.974118 0.003137
0.193725 0.973333 0.000000
0.243921 0.973333 0.000000
0.305882 0.972549 0.001569
0.364706 0.980392 0.000000
0.421961 0.978824 0.010980
0.491765 0.980392 0.051765
0.548235 0.983530 0.023529
0.600784 0.992157 0.004706
0.658824 0.992157 0.000000
0.727843 0.998431 0.001569
0.793726 1.000000 0.003138
0.869019 1.000000 0.003138
0.942745 1.000000 0.000000
1.000000 1.000000 0.003922
0.068235 0.062745 0.086275
0.100870 0.060153 0.080000
0.144314 0.053333 0.080000
0.196288 0.054222 0.085595
0.239216 0.050196 0.074510
0.287843 0.050980 0.082353
0.345098 0.048866 0.074510
0.403921 0.045490 0.075294
0.468026 0.036078 0.075765
0.534117 0.022745 0.067451
0.616471 0.007843 0.066667
0.681262 0.002898 0.054902
0.757647 0.002353 0.046275
0.840575 0.000105 0.027660
0.919216 0.001569 0.007059
0.988235 0.006275 0.003137
0.072090 0.088866 0.081740
0.108331 0.089909 0.081234
0.142984 0.085662 0.080785
0.195589 0.087612 0.081476
0.242898 0.086581 0.085012
0.290674 0.086514 0.080784
0.345691 0.082735 0.078805
0.406274 0.079216 0.076318
0.468918 0.079483 0.069518
0.535753 0.073554 0.068780
0.609106 0.063530 0.064381
0.685108 0.054424 0.058298
0.762114 0.040306 0.042592
0.840230 0.021492 0.028867
0.917169 0.010607 0.014185
0.995600 0.001434 0.000239
0.081568 0.127059 0.079216
0.109326 0.126446 0.085251
0.152874 0.127776 0.077939
0.191006 0.130980 0.081046
0.238327 0.127059 0.088314
0.288628 0.123922 0.087843
0.349565 0.123376 0.076796
0.408269 0.123563 0.077781
0.469699 0.120575 0.069542
0.535111 0.120000 0.066196
0.610981 0.118431 0.058824
0.684160 0.114510 0.051526
0.759283 0.110947 0.038723
0.842248 0.101281 0.021961
0.921569 0.095477 0.007843
0.995294 0.090981 0.003137
0.098824 0.167843 0.081255
0.119979 0.170331 0.085896
0.155869 0.172654 0.083242
0.197559 0.178295 0.075592
0.246170 0.177255 0.073935
0.285020 0.174118 0.086954
0.343977 0.171229 0.089879
0.406170 0.172444 0.082510
0.471461 0.179340 0.077460
0.536000 0.178719 0.064627
0.607843 0.177830 0.056366
0.683242 0.177476 0.048985
0.764601 0.178510 0.031895
0.846934 0.174990 0.015450
0.919111 0.173229 0.008732
0.998431 0.168732 0.000000
0.100392 0.216471 0.088627
0.122764 0.211287 0.083070
0.151843 0.218248 0.085072
0.192157 0.220288 0.074771
0.249173 0.230827 0.073486
0.304314 0.229804 0.065098
0.354204 0.226428 0.071850
0.398745 0.224993 0.084183
0.458823 0.231268 0.089516
0.533572 0.236930 0.074204
0.616470 0.236863 0.051765
0.693879 0.242114 0.043683
0.770562 0.243137 0.024523
0.850981 0.243347 0.005229
0.919626 0.245251 0.004706
0.996863 0.241569 0.001569
0.116078 0.259608 0.086275
0.137322 0.259130 0.093229
0.160000 0.264314 0.090981
0.195399 0.266771 0.083817
0.250196 0.272157 0.069019
0.302745 0.284706 0.050981
0.370980 0.291459 0.043989
0.429804 0.289412 0.054902
0.482928 0.287164 0.077543
0.532549 0.290981 0.085490
0.601569 0.295686 0.081569
0.685490 0.307757 0.056299
0.772549 0.305882 0.014902
0.850562 0.311947 0.007059
0.926274 0.313725 0.003922
0.993725 0.316078 0.001569
0.124706 0.309259 0.094118
0.141932 0.313200 0.084993
0.166753 0.309804 0.085968
0.203690 0.314867 0.087530
0.249890 0.323989 0.073659
0.306121 0.339062 0.051899
0.368867 0.344955 0.019062
0.441330 0.359761 0.001912
0.504619 0.364128 0.007250
0.567126 0.360956 0.016403
0.617016 0.364773 0.055515
0.681740 0.366868 0.087184
0.756317 0.375753 0.062439
0.842080 0.381785 0.011694
0.926035 0.387690 0.002899
0.997647 0.387997 0.007126
0.127843 0.362353 0.072941
0.150895 0.365729 0.084228
0.168202 0.362420 0.090689
0.212235 0.368627 0.086170
0.250876 0.374222 0.076444
0.304314 0.389804 0.045490
0.368082 0.406581 0.013266
0.438499 0.418039 0.002779
0.521568 0.436863 0.000784
0.595294 0.441778 0.002249
0.655686 0.443922 0.001569
0.710894 0.441502 0.013296
0.767776 0.438790 0.053894
0.834824 0.444915 0.067346
0.912261 0.454222 0.022118
0.996863 0.458039 0.008628
0.132810 0.418144 0.072523
0.148576 0.421365 0.077239
0.179503 0.421072 0.072262
0.214558 0.429044 0.077710
0.256470 0.430484 0.074614
0.307451 0.444236 0.043451
0.374696 0.464335 0.007147
0.440785 0.480785 0.000784
0.515696 0.496829 0.000359
0.600209 0.517072 0.000000
0.677176 0.521883 0.002667
0.743281 0.522931 0.000000
0.803608 0.522353 0.000889
0.862303 0.519786 0.005383
0.919634 0.520104 0.058614
0.986091 0.527948 0.068235
0.133333 0.490980 0.058823
0.159283 0.486752 0.056060
0.182432 0.490876 0.062641
0.221856 0.494013 0.061281
0.267518 0.496164 0.068302
0.314510 0.509020 0.042353
0.372310 0.523922 0.002286
0.439425 0.546876 0.000680
0.516549 0.563033 0.004026
0.595533 0.579062 0.000239
0.682353 0.596078 0.000784
0.762047 0.608866 0.000717
0.828235 0.605804 0.000680
0.889412 0.601569 0.004915
0.954510 0.598431 0.000000
0.999216 0.599216 0.018039
0.132549 0.560784 0.018824
0.151985 0.561262 0.017800
0.182745 0.562353 0.014902
0.221072 0.565699 0.017830
0.264314 0.571765 0.023529
0.320000 0.572549 0.021961
0.379914 0.589259 0.000717
0.444706 0.612549 0.001569
0.520679 0.632941 0.000680
0.596863 0.649412 0.006275
0.676078 0.665098 0.000000
0.763444 0.677647 0.000239
0.844706 0.693334 0.001569
0.907242 0.684811 0.000000
0.964706 0.677647 0.005490
0.993725 0.674510 0.000000
0.116862 0.635772 0.002831
0.134854 0.644324 0.001569
0.172377 0.636490 0.001330
0.218526 0.643984 0.000680
0.270043 0.645729 0.002047
0.323854 0.652003 0.006820
0.380822 0.664458 0.000287
0.446035 0.678737 0.000239
0.518545 0.700132 0.000000
0.591612 0.717102 0.000239
0.664553 0.727604 0.000000
0.752587 0.744075 0.000191
0.840239 0.756385 0.000000
0.919343 0.765135 0.003476
0.975141 0.758431 0.001636
0.998670 0.748302 0.000000
0.094902 0.722353 0.003137
0.120784 0.723682 0.001808
0.168403 0.727126 0.000426
0.215686 0.725281 0.004392
0.269700 0.730876 0.000680
0.329412 0.729412 0.000000
0.391373 0.737800 0.001023
0.452549 0.749087 0.002286
0.521464 0.766850 0.002458
0.591268 0.783739 0.000000
0.663530 0.800784 0.001569
0.744313 0.809412 0.000000
0.827877 0.818891 0.002353
0.907451 0.829699 0.001673
0.979294 0.835660 0.001569
0.999216 0.828235 0.000000
0.070484 0.802144 0.000889
0.117466 0.802425 0.002063
0.157542 0.804915 0.001673
0.214756 0.806484 0.002353
0.266771 0.808837 0.002248
0.332340 0.813438 0.001778
0.396645 0.815862 0.003170
0.457464 0.820601 0.002353
0.517665 0.833830 0.000000
0.583843 0.847634 0.000000
0.658824 0.861961 0.000000
0.735195 0.869103 0.003608
0.811869 0.879111 0.003138
0.893930 0.887083 0.002586
0.967163 0.894117 0.000000
0.996758 0.897935 0.002039
0.073725 0.892549 0.003137
0.109632 0.889173 0.003137
0.158849 0.890091 0.001569
0.219817 0.888732 0.002249
0.277647 0.893879 0.000000
0.339607 0.896471 0.001569
0.404945 0.895925 0.000239
0.470484 0.898928 0.002458
0.530300 0.905673 0.000889
0.590827 0.918977 0.004706
0.660392 0.926274 0.001569
0.728628 0.938824 0.005797
0.802353 0.942065 0.000000
0.877647 0.945882 0.000000
0.953180 0.949871 0.000545
0.996863 0.954510 0.004706
0.129412 0.970980 0.002353
0.152396 0.978585 0.002592
0.189804 0.975687 0.007059
0.246066 0.978824 0.000105
0.301961 0.979608 0.000000
0.363137 0.978039 0.009412
0.427451 0.981177 0.058346
0.492549 0.981177 0.108235
0.555294 0.984314 0.074614
0.607059 0.995294 0.003137
0.663530 0.996863 0.003922
0.725729 1.000000 0.000478
0.797647 1.000000 0.003138
0.872262 0.999111 0.001778
0.943530 0.997647 0.000000
0.997647 0.993725 0.006275
0.069020 0.065098 0.120000
0.101177 0.058039 0.121568
0.146599 0.054118 0.119148
0.195294 0.056471 0.120000
0.241673 0.057150 0.112941
0.286275 0.047843 0.117647
0.348235 0.042353 0.112941
0.403070 0.028168 0.109512
0.468235 0.017255 0.109020
0.531869 0.006065 0.102850
0.611765 0.004706 0.101961
0.684706 0.000000 0.097255
0.760785 0.002779 0.089053
0.842353 0.002353 0.077647
0.919320 0.002249 0.066353
0.999216 0.000784 0.053333
0.076078 0.091765 0.116078
0.109020 0.091697 0.120000
0.145322 0.091339 0.122219
0.190013 0.093333 0.111373
0.242144 0.089307 0.114248
0.292549 0.083138 0.112157
0.349326 0.078192 0.110349
0.405064 0.066241 0.111372
0.468340 0.063216 0.105987
0.535111 0.054222 0.109909
0.609412 0.041568 0.101176
0.682659 0.024314 0.094663
0.765132 0.012325 0.088695
0.845490 0.000418 0.083033
0.921935 0.003608 0.064209
0.996863 0.001569 0.052549
0.080426 0.130980 0.127395
0.113165 0.130622 0.118364
0.147236 0.132684 0.115720
0.192582 0.128986 0.127059
0.236925 0.128990 0.116013
0.291339 0.123137 0.118140
0.345389 0.120067 0.111305
0.404271 0.121927 0.112507
0.470588 0.114084 0.105031
0.539650 0.112690 0.102398
0.609412 0.107093 0.096112
0.685916 0.098600 0.092908
0.762420 0.093248 0.084701
0.844639 0.080919 0.076930
0.925516 0.071682 0.062254
0.998431 0.051540 0.045692
0.091765 0.171765 0.120000
0.120000 0.171660 0.116496
0.152941 0.171698 0.114935
0.194936 0.174185 0.114935
0.240209 0.174432 0.114719
0.287059 0.177255 0.120000
0.344104 0.172340 0.119686
0.406274 0.175754 0.115720
0.469378 0.169838 0.110454
0.542954 0.169987 0.103634
0.611765 0.170196 0.096471
0.685386 0.170091 0.087634
0.763496 0.164280 0.082846
0.847059 0.161636 0.070880
0.921778 0.161464 0.053647
0.997647 0.152157 0.043137
0.108340 0.214223 0.109229
0.125490 0.217255 0.116758
0.157630 0.213735 0.113830
0.193255 0.217673 0.113150
0.247310 0.224725 0.109032
0.298039 0.225778 0.101595
0.347190 0.226771 0.116758
0.400699 0.229725 0.124988
0.464993 0.229908 0.117647
0.540668 0.229187 0.107924
0.608732 0.233621 0.096575
0.688732 0.234510 0.090719
0.770492 0.235844 0.077059
0.848523 0.238327 0.059190
0.921966 0.235016 0.046261
1.000000 0.232836 0.025673
0.112156 0.262745 0.107451
0.134902 0.256471 0.125490
0.157580 0.263171 0.116571
0.195294 0.265883 0.109804
0.246745 0.268026 0.107921
0.301961 0.279215 0.089412
0.366274 0.287843 0.084706
0.422678 0.286208 0.095687
0.472941 0.287059 0.124706
0.529412 0.287843 0.120784
0.611765 0.294118 0.112941
0.688627 0.298039 0.089412
0.773759 0.300751 0.069871
0.848628 0.301961 0.055686
0.924288 0.308915 0.031163
0.996078 0.311372 0.013334
0.120000 0.308236 0.110588
0.142573 0.311372 0.113419
0.170622 0.309020 0.118431
0.203137 0.312157 0.117385
0.247843 0.320889 0.112261
0.299608 0.335686 0.093333
0.370502 0.343529 0.074577
0.441636 0.358005 0.059675
0.501176 0.359216 0.063530
0.561464 0.361778 0.085804
0.614902 0.361568 0.109804
0.681501 0.362592 0.124056
0.763138 0.374118 0.092549
0.846693 0.375111 0.063739
0.929516 0.377934 0.023529
1.000000 0.379608 0.006275
0.127485 0.366700 0.107810
0.140392 0.363921 0.110812
0.171258 0.364778 0.116298
0.204773 0.368695 0.118924
0.251114 0.374180 0.109413
0.308303 0.387809 0.094611
0.367417 0.400784 0.069087
0.442707 0.420751 0.035209
0.519574 0.432941 0.007641
0.591482 0.439152 0.009760
0.659743 0.436863 0.029670
0.709087 0.436504 0.059742
0.765140 0.441215 0.105860
0.836302 0.443854 0.105457
0.916392 0.450411 0.075828
0.987317 0.455686 0.028101
0.123922 0.426667 0.102745
0.148235 0.421386 0.104994
0.172190 0.420190 0.100258
0.213401 0.427025 0.111731
0.252549 0.431948 0.110484
0.302745 0.447843 0.091765
0.370876 0.464889 0.050876
0.440426 0.480426 0.012908
0.516437 0.494185 0.000717
0.601569 0.517752 0.004497
0.676078 0.519216 0.000000
0.738144 0.517647 0.000000
0.801210 0.521210 0.009121
0.861109 0.518364 0.042801
0.918693 0.522353 0.105725
0.992941 0.520000 0.111373
0.123608 0.487843 0.085699
0.148340 0.491765 0.087059
0.177872 0.491599 0.091560
0.214118 0.491660 0.095477
0.257934 0.496941 0.099852
0.307764 0.502641 0.096052
0.370301 0.526170 0.045804
0.438387 0.547621 0.006944
0.518327 0.561359 0.003242
0.595480 0.575401 0.002845
0.682353 0.596078 0.002353
0.760000 0.608523 0.001359
0.823316 0.604026 0.006808
0.889203 0.602144 0.004915
0.942934 0.597009 0.003687
0.993830 0.597438 0.063373
0.117647 0.561568 0.065883
0.139608 0.563922 0.061961
0.174835 0.561927 0.070521
0.221961 0.565490 0.065883
0.264418 0.569307 0.071007
0.320785 0.575687 0.080000
0.373333 0.588235 0.029804
0.443630 0.609838 0.003720
0.516078 0.629020 0.005490
0.588340 0.648418 0.000000
0.677647 0.663529 0.000000
0.767843 0.681569 0.001569
0.839574 0.692549 0.000717
0.903529 0.684706 0.001569
0.968941 0.678118 0.000209
0.998431 0.670588 0.003138
0.098039 0.641569 0.010980
0.126207 0.640546 0.021177
0.163989 0.643922 0.025367
0.209935 0.643922 0.019451
0.262850 0.646170 0.028810
0.323921 0.652549 0.033725
0.381176 0.658823 0.026562
0.440852 0.676930 0.002644
0.512837 0.697150 0.000000
0.592262 0.717751 0.000000
0.669020 0.726274 0.002353
0.752090 0.742745 0.001330
0.838073 0.754935 0.000784
0.913830 0.765281 0.000784
0.980758 0.753830 0.000889
0.996078 0.746666 0.000000
0.071664 0.723204 0.000000
0.103037 0.720426 0.000359
0.149513 0.726198 0.000923
0.206700 0.725916 0.000784
0.265861 0.727972 0.005719
0.327911 0.731698 0.002151
0.387877 0.740034 0.007574
0.450272 0.745528 0.006696
0.516863 0.765916 0.000000
0.586601 0.782491 0.003163
0.665098 0.796078 0.003138
0.749087 0.807485 0.000784
0.824605 0.823099 0.000287
0.914151 0.831798 0.005064
0.975564 0.835869 0.002374
0.999641 0.825524 0.000000
0.031373 0.802353 0.000784
0.083242 0.805386 0.003712
0.137322 0.805557 0.000784
0.197647 0.804639 0.005983
0.262170 0.811869 0.000889
0.327059 0.810980 0.003138
0.387242 0.815006 0.004811
0.451697 0.819249 0.003653
0.521210 0.832941 0.000784
0.587242 0.847373 0.000000
0.658040 0.861176 0.004706
0.733647 0.869804 0.002353
0.808986 0.876795 0.000000
0.891048 0.886275 0.000784
0.969412 0.894327 0.003817
0.999216 0.893333 0.000000
0.027085 0.887163 0.004915
0.081673 0.888523 0.003242
0.147200 0.891996 0.001401
0.203347 0.896366 0.003817
0.272233 0.895376 0.000042
0.330510 0.896680 0.006065
0.400000 0.895582 0.017412
0.462384 0.899245 0.030302
0.528314 0.909700 0.009830
0.591885 0.919320 0.004592
0.657935 0.924131 0.000000
0.730405 0.937255 0.005386
0.805828 0.944400 0.000296
0.881673 0.947555 0.001569
0.951255 0.949217 0.003066
0.998902 0.949908 0.008837
0.107451 0.972549 0.000000
0.135687 0.978824 0.005490
0.179250 0.977255 0.003272
0.239216 0.979608 0.010981
0.302431 0.982641 0.043242
0.362353 0.981176 0.078432
0.425883 0.983530 0.112941
0.488269 0.986734 0.145255
0.548236 0.985882 0.137255
0.601568 0.993621 0.037438
0.670588 0.995294 0.003922
0.733333 0.998431 0.000000
0.793726 1.000000 0.003138
0.871373 0.999216 0.000000
0.944209 0.999320 0.000889
0.996862 1.000000 0.010196
0.075294 0.058824 0.160784
0.104313 0.057151 0.160314
0.139608 0.054902 0.157647
0.187025 0.057255 0.159574
0.239216 0.061177 0.160000
0.280000 0.063530 0.164706
0.338823 0.047059 0.159582
0.400784 0.029804 0.154510
0.465098 0.005849 0.149311
0.534118 0.003138 0.139608
0.611765 0.001569 0.139608
0.688523 0.001569 0.135791
0.767059 0.000000 0.133333
0.851406 0.002779 0.132616
0.924706 0.000000 0.123922
0.999216 0.000784 0.125490
0.087059 0.089516 0.155712
0.107237 0.091839 0.159466
0.149019 0.092444 0.159320
0.193987 0.090193 0.154779
0.240575 0.092235 0.165333
0.287373 0.088732 0.160104
0.340298 0.078872 0.150343
0.405386 0.060497 0.155556
0.466601 0.035611 0.148616
0.537360 0.006902 0.146196
0.610092 0.001830 0.139922
0.690425 0.001286 0.140141
0.770353 0.000889 0.133438
0.840714 0.000889 0.128331
0.918327 0.001569 0.123347
0.996862 0.005176 0.119791
0.089412 0.126274 0.155294
0.111895 0.128053 0.158902
0.148303 0.129412 0.163989
0.187809 0.130980 0.161434
0.235974 0.125595 0.158327
0.289412 0.119215 0.156078
0.348235 0.111582 0.149438
0.405423 0.104739 0.144672
0.469311 0.091272 0.145457
0.538353 0.080889 0.137568
0.614902 0.070588 0.145882
0.690876 0.053229 0.139033
0.766700 0.032874 0.131697
0.847350 0.025165 0.130398
0.925176 0.019137 0.123817
0.996863 0.010980 0.106667
0.093692 0.168986 0.161994
0.112448 0.170494 0.153613
0.149378 0.170129 0.155586
0.191802 0.171048 0.157364
0.243137 0.167059 0.156078
0.291339 0.164997 0.156862
0.349441 0.165940 0.148908
0.406991 0.161636 0.148302
0.470512 0.156078 0.145600
0.544246 0.153725 0.147025
0.612549 0.153792 0.149446
0.690301 0.151377 0.138335
0.766992 0.146017 0.136963
0.845566 0.139734 0.123496
0.921502 0.129053 0.119574
0.998431 0.123339 0.113726
0.099608 0.211765 0.143530
0.123242 0.215007 0.151477
0.153150 0.217255 0.150902
0.196437 0.217255 0.160358
0.244773 0.222267 0.148101
0.294902 0.221961 0.157647
0.342745 0.221177 0.155033
0.400889 0.224209 0.153830
0.469445 0.225524 0.153300
0.543836 0.222506 0.149632
0.617255 0.225098 0.145882
0.691660 0.221961 0.137830
0.768627 0.222640 0.129516
0.852482 0.224381 0.127059
0.927776 0.217733 0.117714
0.996863 0.218039 0.107451
0.105882 0.256471 0.148235
0.129307 0.257569 0.146510
0.152941 0.265098 0.142745
0.194510 0.263529 0.146241
0.240000 0.268235 0.149804
0.301961 0.279215 0.133333
0.363347 0.284236 0.137621
0.410196 0.280784 0.156078
0.465165 0.277154 0.162644
0.535686 0.287843 0.160000
0.611765 0.287844 0.147451
0.695582 0.294223 0.146353
0.776470 0.293333 0.135686
0.853266 0.296896 0.118723
0.926275 0.298823 0.109804
0.992941 0.301961 0.098039
0.114196 0.306196 0.148967
0.135100 0.310860 0.151846
0.161464 0.314092 0.152941
0.198427 0.317864 0.156335
0.244706 0.318222 0.152628
0.296941 0.333438 0.138144
0.366053 0.343135 0.124715
0.438222 0.352941 0.121359
0.497896 0.351523 0.127289
0.555189 0.354824 0.149438
0.607006 0.356392 0.162510
0.686952 0.361833 0.163034
0.773334 0.363346 0.142379
0.853142 0.370704 0.129007
0.931765 0.371660 0.098144
0.993935 0.370406 0.086745
0.118431 0.369412 0.148236
0.132444 0.365385 0.147556
0.166476 0.365423 0.147877
0.203630 0.367126 0.144672
0.251347 0.371869 0.147765
0.298823 0.381176 0.139608
