assets/lut/editingcorp padre.cube
# Created by: G'MIC (https://gmic.eu)
TITLE "padre"
# LUT size
LUT_3D_SIZE 13
# Data domain
DOMAIN_MIN 0.0 0.0 0.0
DOMAIN_MAX 1.0 1.0 1.0
# LUT data points
0.01874198205769062 0.019865447655320168 0.025825081393122673
0.070620819926261902 0.018858067691326141 0.024275925010442734
0.13253942131996155 0.022268915548920631 0.025425989180803299
0.20604127645492554 0.031257256865501404 0.036901019513607025
0.29294180870056152 0.040476076304912567 0.055343478918075562
0.39324682950973511 0.051170393824577332 0.077316015958786011
0.50191229581832886 0.068790078163146973 0.10210463404655457
0.60156041383743286 0.082633882761001587 0.12010151147842407
0.67279905080795288 0.076573498547077179 0.12532775104045868
0.72184556722640991 0.062039125710725784 0.12528885900974274
0.76299214363098145 0.058819640427827835 0.12661364674568176
0.80738210678100586 0.075897246599197388 0.13326157629489899
0.85490942001342773 0.09979432076215744 0.14196538925170898
0.017372714355587959 0.076991349458694458 0.035245407372713089
0.066409304738044739 0.072691567242145538 0.034333351999521255
0.12790162861347198 0.072296410799026489 0.034540798515081406
0.20111683011054993 0.078732326626777649 0.045568607747554779
0.28478512167930603 0.086192622780799866 0.060878902673721313
0.38011887669563293 0.094594843685626984 0.07701391726732254
0.48754420876502991 0.1114012748003006 0.097960047423839569
0.59039616584777832 0.12649978697299957 0.11548746377229691
0.66878080368041992 0.12909235060214996 0.12413027882575989
0.72098475694656372 0.12269697338342667 0.12710669636726379
0.76292473077774048 0.11946187913417816 0.12940588593482971
0.80742621421813965 0.12789241969585419 0.13442949950695038
0.8548470139503479 0.14289291203022003 0.14060546457767487
0.01558450423181057 0.14259430766105652 0.042353194206953049
0.060986343771219254 0.13838416337966919 0.039251934736967087
0.12033890187740326 0.13564996421337128 0.038570761680603027
0.1947380006313324 0.13600005209445953 0.044707458466291428
0.28155094385147095 0.13739736378192902 0.054828286170959473
0.37513041496276855 0.14229574799537659 0.069028206169605255
0.47774988412857056 0.15452569723129272 0.089259035885334015
0.58306777477264404 0.16810415685176849 0.10729631781578064
0.66740405559539795 0.17515787482261658 0.11877302080392838
0.72367757558822632 0.17464713752269745 0.12473570555448532
0.76709961891174316 0.17219078540802002 0.12786847352981567
0.81191831827163696 0.17394642531871796 0.13058331608772278
0.85858428478240967 0.18219937384128571 0.13540314137935638
0.014021765440702438 0.21640285849571228 0.055925793945789337
0.054615214467048645 0.2141149640083313 0.051850412040948868
0.10756243765354156 0.21305264532566071 0.050572115927934647
0.18035197257995605 0.21050365269184113 0.051541794091463089
0.27505072951316833 0.2045699805021286 0.052607458084821701
0.37254995107650757 0.20275890827178955 0.06352793425321579
0.47516760230064392 0.20812587440013885 0.082008257508277893
0.58275318145751953 0.21764244139194489 0.09885697066783905
0.67196589708328247 0.22352229058742523 0.11106313019990921
0.73307651281356812 0.22413589060306549 0.11782783269882202
0.77887529134750366 0.22200927138328552 0.12031785398721695
0.82273775339126587 0.22069482505321503 0.12202978879213333
0.86705905199050903 0.22573783993721008 0.12624636292457581
0.013376452960073948 0.29997405409812927 0.07457047700881958
0.049558840692043304 0.29919499158859253 0.07082550972700119
0.093463867902755737 0.30024611949920654 0.070209205150604248
0.15706811845302582 0.29956185817718506 0.070003986358642578
0.25057706236839294 0.29306685924530029 0.066567197442054749
0.36091765761375427 0.28767994046211243 0.068164646625518799
0.47616174817085266 0.28612247109413147 0.077106431126594543
0.58855694532394409 0.28640171885490417 0.090284205973148346
0.68151313066482544 0.28501683473587036 0.10322817414999008
0.74602246284484863 0.28247189521789551 0.11013838648796082
0.79327422380447388 0.28058859705924988 0.11333600431680679
0.83544242382049561 0.27862086892127991 0.11525057256221771
0.87714928388595581 0.28116005659103394 0.11949806660413742
0.014291366562247276 0.39441773295402527 0.096375137567520142
0.048395734280347824 0.39236253499984741 0.09354110062122345
0.086576811969280243 0.39241832494735718 0.092868104577064514
0.13856057822704315 0.39292940497398376 0.092400357127189636
0.2167108952999115 0.39185282588005066 0.089273013174533844
0.33046397566795349 0.38947191834449768 0.083386197686195374
0.46464276313781738 0.38525563478469849 0.07872694730758667
0.58807981014251709 0.37685173749923706 0.083585582673549652
0.68777292966842651 0.36508285999298096 0.09461231529712677
0.75900989770889282 0.35663232207298279 0.10409737378358841
0.80765944719314575 0.35542619228363037 0.1109044998884201
0.84737676382064819 0.35399717092514038 0.11580680310726166
0.88635951280593872 0.35303765535354614 0.12101171165704727
0.018486741930246353 0.49672886729240417 0.1235477402806282
0.053092103451490402 0.49196967482566833 0.12048458307981491
0.089000210165977478 0.48849183320999146 0.11849169433116913
0.12999330461025238 0.48841676115989685 0.11898741126060486
0.18974490463733673 0.49147436022758484 0.11851010471582413
0.29111847281455994 0.49223962426185608 0.11076480895280838
0.43297603726387024 0.49011856317520142 0.095537044107913971
0.57248055934906006 0.47965723276138306 0.086941272020339966
0.69008517265319824 0.46134349703788757 0.08854202926158905
0.7735481858253479 0.44667148590087891 0.097677133977413177
0.82499074935913086 0.44458433985710144 0.10891687870025635
0.86111533641815186 0.44168370962142944 0.11924874037504196
0.89570838212966919 0.43837106227874756 0.12768498063087463
0.02441437728703022 0.6017727255821228 0.15533116459846497
0.059973817318677902 0.59543073177337646 0.15249711275100708
0.095094524323940277 0.58904540538787842 0.14982910454273224
0.13031677901744843 0.58756649494171143 0.15072157979011536
0.1776556670665741 0.58878368139266968 0.15265820920467377
0.25774076581001282 0.59122782945632935 0.14977081120014191
0.3835848867893219 0.59169936180114746 0.13426131010055542
0.53615421056747437 0.58532601594924927 0.11127445101737976
0.68450546264648438 0.57028162479400635 0.092128798365592957
0.78791862726211548 0.5555959939956665 0.092557154595851898
0.8439786434173584 0.54894375801086426 0.10709487646818161
0.87656146287918091 0.54341083765029907 0.12322609126567841
0.90646934509277344 0.53803926706314087 0.1356445699930191
0.029732948169112206 0.70230346918106079 0.18826903402805328
0.065793476998806 0.69599223136901855 0.18618986010551453
0.10063815861940384 0.68988794088363647 0.18474619090557098
0.13576844334602356 0.68645554780960083 0.18506163358688354
0.17758792638778687 0.68508255481719971 0.18763095140457153
0.23800505697727203 0.68786942958831787 0.18991801142692566
0.33102932572364807 0.69114798307418823 0.18442904949188232
0.46920937299728394 0.69075381755828857 0.16192257404327393
0.64102131128311157 0.68258082866668701 0.12603016197681427
0.77671581506729126 0.67273372411727905 0.10948287695646286
0.85144460201263428 0.66531938314437866 0.12028120458126068
0.88875937461853027 0.65811502933502197 0.13844819366931915
0.91639566421508789 0.65022218227386475 0.15044517815113068
0.032791033387184143 0.78681838512420654 0.21415562927722931
0.069920241832733154 0.78296852111816406 0.21481430530548096
0.10620736330747604 0.77901041507720947 0.2142837792634964
0.14413748681545258 0.77576541900634766 0.21391117572784424
0.18597747385501862 0.7735588550567627 0.21535873413085938
0.23413050174713135 0.77562153339385986 0.22118043899536133
0.29366269707679749 0.78159141540527344 0.22893513739109039
0.39529749751091003 0.78597193956375122 0.22250591218471527
0.56293654441833496 0.78376835584640503 0.18923039734363556
0.73020488023757935 0.77979779243469238 0.16116215288639069
0.83801352977752686 0.77726107835769653 0.16455794870853424
0.89186066389083862 0.77275365591049194 0.18179315328598022
0.92553430795669556 0.76307415962219238 0.18982502818107605
0.032996144145727158 0.8530811071395874 0.23072674870491028
0.071822144091129303 0.85182005167007446 0.23310814797878265
0.11049830168485641 0.84946364164352417 0.23318688571453094
0.15152564644813538 0.84634429216384888 0.23180928826332092
0.19490283727645874 0.84370356798171997 0.23166470229625702
0.23749947547912598 0.84618097543716431 0.23906378448009491
0.28114360570907593 0.85389554500579834 0.2535490095615387
0.36158189177513123 0.86101776361465454 0.25845992565155029
0.51093369722366333 0.86402410268783569 0.23946838080883026
0.68944674730300903 0.86497628688812256 0.21605050563812256
0.82183408737182617 0.86903500556945801 0.21914230287075043
0.89130890369415283 0.87115663290023804 0.23908954858779907
0.93424040079116821 0.86180770397186279 0.24399136006832123
0.030817817896604538 0.90769946575164795 0.23947878181934357
0.070894710719585419 0.90611249208450317 0.24244621396064758
0.11105529218912125 0.9041895866394043 0.24231575429439545
0.15338689088821411 0.90099489688873291 0.24020400643348694
0.19670334458351135 0.89783018827438354 0.23959513008594513
0.23558291792869568 0.9004744291305542 0.24765112996101379
0.27454346418380737 0.9099724292755127 0.26424166560173035
0.34704363346099854 0.91929274797439575 0.27424544095993042
0.48629316687583923 0.9249541163444519 0.26524797081947327
0.67101073265075684 0.92861086130142212 0.24682818353176117
0.81595224142074585 0.93524515628814697 0.24994660913944244
0.89391666650772095 0.94081377983093262 0.27071842551231384
0.94134378433227539 0.93715918064117432 0.28230592608451843
0.027190504595637321 0.95740032196044922 0.24326047301292419
0.067499347031116486 0.95508205890655518 0.24608114361763
0.10805230587720871 0.95243567228317261 0.2464560866355896
0.14940622448921204 0.94920969009399414 0.2456047385931015
0.19075492024421692 0.9469681978225708 0.24655617773532867
0.22881193459033966 0.95004713535308838 0.25494951009750366
0.27000001072883606 0.9589613676071167 0.27023202180862427
0.33978983759880066 0.96892702579498291 0.28193172812461853
0.46942275762557983 0.97596484422683716 0.27870368957519531
0.65040940046310425 0.98081177473068237 0.26516282558441162
0.80094927549362183 0.98603790998458862 0.26651719212532043
0.88786071538925171 0.99022680521011353 0.28601536154747009
0.9412151575088501 0.99056029319763184 0.30348929762840271
0.017606249079108238 0.018175462260842323 0.067339770495891571
0.06711287796497345 0.01649850606918335 0.068260639905929565
0.12976212799549103 0.018940959125757217 0.065501868724822998
0.20674353837966919 0.023307545110583305 0.065423496067523956
0.29455208778381348 0.029080858454108238 0.079400457441806793
0.39417877793312073 0.036973152309656143 0.11196409910917282
0.50257235765457153 0.049183234572410583 0.14178180694580078
0.60267883539199829 0.059777144342660904 0.1603582352399826
0.67453455924987793 0.05810922384262085 0.1663547158241272
0.7215505838394165 0.044928770512342453 0.16486635804176331
0.76101797819137573 0.039482954889535904 0.1656351238489151
0.8049699068069458 0.058376986533403397 0.17454740405082703
0.8522413969039917 0.084113717079162598 0.18551690876483917
0.014933671802282333 0.075248852372169495 0.085512436926364899
0.062032513320446014 0.071646265685558319 0.084634684026241302
0.12617748975753784 0.071002289652824402 0.084799870848655701
0.20080099999904633 0.078075125813484192 0.092324383556842804
0.2848343551158905 0.085951969027519226 0.10365590453147888
0.38078200817108154 0.093137167394161224 0.11919094622135162
0.48903873562812805 0.10558485239744186 0.1402256190776825
0.59464335441589355 0.11894220113754272 0.15708017349243164
0.67405074834823608 0.12490428984165192 0.16502951085567474
0.72419863939285278 0.12061215937137604 0.16696292161941528
0.76390177011489868 0.11496739089488983 0.16881522536277771
0.80683219432830811 0.12068256735801697 0.17520999908447266
0.85317432880401611 0.13517022132873535 0.1839127242565155
0.012747731059789658 0.1422891765832901 0.089889690279960632
0.057281643152236938 0.13875482976436615 0.085950560867786407
0.11924666166305542 0.13547369837760925 0.083726577460765839
0.19475007057189941 0.13645368814468384 0.089415669441223145
0.28067159652709961 0.13989733159542084 0.098858729004859924
0.37272295355796814 0.14669126272201538 0.11171649396419525
0.47799083590507507 0.15686218440532684 0.13054729998111725
0.58788949251174927 0.16881340742111206 0.14836105704307556
0.67508137226104736 0.17811401188373566 0.15911924839019775
0.72952890396118164 0.17881739139556885 0.16368147730827332
0.77076441049575806 0.1743956059217453 0.16637842357158661
0.81267243623733521 0.17293792963027954 0.17087270319461823
0.85751783847808838 0.17917811870574951 0.17807777225971222
0.012316714972257614 0.21559053659439087 0.10085619986057281
0.05276176705956459 0.21323534846305847 0.095647998154163361
0.10772618651390076 0.21168164908885956 0.092688433825969696
0.18308581411838531 0.20836769044399261 0.091861322522163391
0.27524155378341675 0.20427404344081879 0.093088008463382721
0.37134110927581787 0.20470938086509705 0.10260187834501266
0.4753795862197876 0.20929397642612457 0.11953452974557877
0.58523344993591309 0.21826227009296417 0.13714095950126648
0.67577958106994629 0.22618713974952698 0.14925451576709747
0.73680728673934937 0.22744795680046082 0.15468040108680725
0.78091764450073242 0.22416703402996063 0.15694910287857056
0.82251638174057007 0.22194136679172516 0.16081951558589935
0.86522144079208374 0.22560343146324158 0.16742831468582153
0.012343013659119606 0.29848787188529968 0.11629016697406769
0.048591911792755127 0.29730609059333801 0.11197994649410248
0.095425866544246674 0.29729539155960083 0.10973476618528366
0.16227784752845764 0.29526302218437195 0.10710790008306503
0.25455418229103088 0.29006916284561157 0.10384802520275116
0.36376121640205383 0.28548386693000793 0.10421723127365112
0.47740292549133301 0.2830720841884613 0.11168751120567322
0.58909857273101807 0.28474259376525879 0.12533460557460785
0.68147987127304077 0.28534278273582458 0.13867051899433136
0.74655413627624512 0.28330755233764648 0.14488483965396881
0.79255551099777222 0.28096175193786621 0.14783644676208496
0.83328235149383545 0.27925613522529602 0.1521909087896347
0.87444567680358887 0.28130954504013062 0.1587100625038147
0.013531733304262161 0.39228257536888123 0.13585960865020752
0.047544725239276886 0.39111629128456116 0.13299942016601562
0.087056100368499756 0.39060831069946289 0.13180886209011078
0.14052104949951172 0.39111363887786865 0.13031738996505737
0.21910026669502258 0.39005786180496216 0.12699791789054871
0.33402392268180847 0.38802388310432434 0.11942414194345474
0.46795356273651123 0.38335508108139038 0.11152638494968414
0.58979666233062744 0.37523794174194336 0.11711135506629944
0.68792074918746948 0.36460906267166138 0.12975730001926422
0.75826382637023926 0.35705393552780151 0.13872146606445312
0.8048890233039856 0.3551669716835022 0.14563333988189697
0.84323060512542725 0.3526323139667511 0.15164142847061157
0.88267785310745239 0.35160845518112183 0.15798167884349823
0.018132811412215233 0.49465170502662659 0.16223543882369995
0.052084516733884811 0.49078962206840515 0.15943035483360291
0.087106563150882721 0.48860564827919006 0.15803046524524689
0.12862840294837952 0.48823234438896179 0.15787330269813538
0.18690487742424011 0.48969545960426331 0.15750683844089508
0.28451329469680786 0.49121421575546265 0.15003661811351776
0.42673149704933167 0.48803353309631348 0.13245224952697754
0.57213616371154785 0.47872188687324524 0.12191696465015411
0.69171303510665894 0.4626886248588562 0.12319829314947128
0.77327060699462891 0.449453204870224 0.13307450711727142
0.81987881660461426 0.44452899694442749 0.14702998101711273
0.85424792766571045 0.44029271602630615 0.1574636697769165
0.89096933603286743 0.43733879923820496 0.16448749601840973
0.024545647203922272 0.600014328956604 0.19338162243366241
0.059499103575944901 0.59527939558029175 0.19110026955604553
0.094081312417984009 0.59044933319091797 0.1889730840921402
0.1296250969171524 0.58780640363693237 0.18899834156036377
0.17381308972835541 0.58797818422317505 0.19177243113517761
0.24485002458095551 0.58786725997924805 0.19249388575553894
0.37041980028152466 0.58882707357406616 0.175826296210289
0.53361958265304565 0.58526206016540527 0.14818546175956726
0.68573778867721558 0.5728071928024292 0.12885893881320953
0.78673785924911499 0.55844259262084961 0.13218019902706146
0.83782172203063965 0.54929441213607788 0.1506010890007019
0.86907470226287842 0.54248583316802979 0.16644746065139771
0.90199124813079834 0.53736758232116699 0.17619624733924866
0.030475646257400513 0.69951325654983521 0.225354865193367
0.066891089081764221 0.69588834047317505 0.2245098352432251
0.10250061750411987 0.69229763746261597 0.22354808449745178
0.13870920240879059 0.68895232677459717 0.22313667833805084
0.17927668988704681 0.68570530414581299 0.22526256740093231
0.23517929017543793 0.68641215562820435 0.22948770225048065
0.3283747136592865 0.68996095657348633 0.22450961172580719
0.47009560465812683 0.69101619720458984 0.20096364617347717
0.63911527395248413 0.68473494052886963 0.1685456782579422
0.7749219536781311 0.67437601089477539 0.15488313138484955
0.84899449348449707 0.66555613279342651 0.16672076284885406
0.8863261342048645 0.65790683031082153 0.18498595058917999
0.91566592454910278 0.65046519041061401 0.19810572266578674
0.034894276410341263 0.7837182879447937 0.25229939818382263
0.07239532470703125 0.7832714319229126 0.2537577748298645
0.10998125374317169 0.78307533264160156 0.25498557090759277
0.14950184524059296 0.78145253658294678 0.25410434603691101
0.193942591547966 0.77780330181121826 0.25336962938308716
0.24468117952346802 0.77870655059814453 0.25809556245803833
0.30423697829246521 0.78339606523513794 0.26630273461341858
0.40304559469223022 0.78700906038284302 0.26195457577705383
0.55972498655319214 0.78639101982116699 0.23613020777702332
0.72651153802871704 0.78199714422225952 0.21021337807178497
0.83827716112136841 0.77846056222915649 0.21114194393157959
0.89424097537994385 0.77376842498779297 0.22779630124568939
0.9277271032333374 0.76564127206802368 0.2404949814081192
0.035799361765384674 0.84931915998458862 0.27119982242584229
0.074965305626392365 0.85036790370941162 0.27400100231170654
0.11479287594556808 0.85270017385482788 0.2754991352558136
0.15739816427230835 0.85232645273208618 0.27352389693260193
0.20436257123947144 0.85015088319778442 0.27143332362174988
0.25303733348846436 0.85227435827255249 0.27639368176460266
0.29606419801712036 0.85839742422103882 0.29183399677276611
0.36664912104606628 0.86466687917709351 0.30155286192893982
0.5033034086227417 0.86801248788833618 0.29048648476600647
0.68072772026062012 0.86877918243408203 0.26738187670707703
0.82024979591369629 0.87112200260162354 0.26477542519569397
0.89518564939498901 0.87228661775588989 0.28208687901496887
0.93708169460296631 0.8666684627532959 0.29377734661102295
0.035284679383039474 0.90300339460372925 0.28155598044395447
0.075034014880657196 0.90332245826721191 0.2847442626953125
0.11552746593952179 0.9046550989151001 0.28488367795944214
0.15791638195514679 0.90459811687469482 0.28268575668334961
0.20255815982818604 0.90385526418685913 0.28166034817695618
0.24490444362163544 0.90711450576782227 0.28837347030639648
0.28647390007972717 0.91483587026596069 0.30394864082336426
0.3570798933506012 0.92291593551635742 0.31654059886932373
0.4907645583152771 0.92854881286621094 0.31128904223442078
0.66885006427764893 0.93211203813552856 0.29570308327674866
0.81696480512619019 0.93753969669342041 0.29683932662010193
0.89858311414718628 0.94273686408996582 0.31754577159881592
0.94418370723724365 0.94201862812042236 0.33427456021308899
0.032714918255805969 0.95247900485992432 0.28548797965049744
0.072346076369285583 0.95113503932952881 0.28874894976615906
0.11228320747613907 0.95086652040481567 0.2891194224357605
0.15322898328304291 0.95026153326034546 0.28819692134857178
0.19485130906105042 0.950126051902771 0.28907659649848938
0.23571695387363434 0.95391422510147095 0.29616168141365051
0.28282088041305542 0.96184581518173218 0.30944502353668213
0.35985419154167175 0.97039544582366943 0.31974104046821594
0.49206864833831787 0.97701048851013184 0.3177034854888916
0.6658700704574585 0.98155170679092407 0.30719384551048279
0.81389075517654419 0.98641359806060791 0.31071627140045166
0.89612752199172974 0.9909062385559082 0.33506098389625549
0.9454464316368103 0.99247080087661743 0.35715809464454651
0.016854215413331985 0.019480537623167038 0.12685024738311768
0.064999029040336609 0.01909567229449749 0.1296553909778595
0.12677368521690369 0.019571162760257721 0.13153569400310516
0.2036173939704895 0.020437996834516525 0.13024596869945526
0.2919599711894989 0.023241380229592323 0.13725766539573669
0.3925744891166687 0.02634328231215477 0.16474929451942444
0.5029107928276062 0.03306853398680687 0.19252634048461914
0.60522317886352539 0.042685370892286301 0.21043115854263306
0.67777615785598755 0.050091851502656937 0.21744947135448456
0.72314971685409546 0.048643957823514938 0.21727451682090759
0.76145535707473755 0.043949514627456665 0.21799410879611969
0.80526828765869141 0.057081710547208786 0.22515416145324707
0.85284698009490967 0.080046728253364563 0.23543092608451843
0.014768443070352077 0.076782435178756714 0.14987769722938538
0.060412313789129257 0.075741864740848541 0.14694146811962128
0.12340015918016434 0.074612125754356384 0.14899538457393646
0.19803281128406525 0.078161738812923431 0.15218374133110046
0.2828458845615387 0.084257327020168304 0.15809540450572968
0.38004609942436218 0.091336056590080261 0.17277199029922485
0.49047639966011047 0.10110583156347275 0.19231376051902771
0.59697419404983521 0.11541427671909332 0.20886372029781342
0.67612284421920776 0.13080419600009918 0.21706016361713409
0.72485172748565674 0.1357724666595459 0.21775500476360321
0.76545310020446777 0.12712189555168152 0.21848398447036743
0.80868434906005859 0.12695755064487457 0.22382760047912598
0.8550301194190979 0.13811559975147247 0.23214238882064819
0.01289074495434761 0.14360670745372772 0.15318785607814789
0.056386537849903107 0.14162541925907135 0.14814755320549011
0.11650002002716064 0.1393243819475174 0.14552542567253113
0.19151018559932709 0.13957706093788147 0.14809124171733856
0.27808040380477905 0.14217615127563477 0.15429677069187164
0.37250775098800659 0.14929664134979248 0.1666426956653595
0.47878938913345337 0.15864716470241547 0.18349805474281311
0.58816087245941162 0.17288483679294586 0.20054022967815399
0.67529082298278809 0.18801271915435791 0.21098881959915161
0.73176223039627075 0.1933734118938446 0.21424894034862518
0.77408099174499512 0.18737909197807312 0.21490281820297241
0.81561613082885742 0.1825142502784729 0.21788667142391205
0.85944372415542603 0.18614970147609711 0.2246895432472229
0.012322010472416878 0.21697846055030823 0.15980081260204315
0.052249204367399216 0.21545621752738953 0.15412509441375732
0.10587576776742935 0.21451012790203094 0.15095199644565582
0.17997454106807709 0.21154023706912994 0.14794053137302399
0.2726479172706604 0.20690874755382538 0.1464555412530899
0.36950942873954773 0.20699703693389893 0.15392154455184937
0.47350475192070007 0.21150325238704681 0.16977031528949738
0.58283954858779907 0.22311690449714661 0.18710000813007355
0.6754382848739624 0.23417939245700836 0.19848841428756714
0.73896771669387817 0.23797152936458588 0.20247632265090942
0.78391820192337036 0.23446977138519287 0.20315934717655182
0.82478255033493042 0.23066775500774384 0.20646868646144867
0.86676853895187378 0.23254124820232391 0.21321070194244385
0.012402523308992386 0.29974848031997681 0.17097778618335724
0.049672354012727737 0.29824280738830566 0.16634592413902283
0.095949910581111908 0.29811099171638489 0.16305159032344818
0.16251359879970551 0.29599440097808838 0.15855982899665833
0.25301602482795715 0.29109516739845276 0.15263693034648895
0.3593468964099884 0.28541502356529236 0.15049785375595093
