assets/lut/editingcorpw Radiant Rose.cube
LUT_3D_SIZE 16
DOMAIN_MIN 0.0 0.0 0.0
DOMAIN_MAX 1.0 1.0 1.0
0.159243 0.144625 0.155154
0.159243 0.144625 0.155154
0.165334 0.150259 0.161123
0.203140 0.185495 0.198203
0.242264 0.222995 0.236850
0.287938 0.268406 0.282414
0.343596 0.326201 0.338640
0.407447 0.394818 0.403815
0.476228 0.467884 0.473793
0.544841 0.538390 0.542968
0.602869 0.597345 0.601251
0.651123 0.646619 0.649824
0.697065 0.693477 0.696022
0.744173 0.741451 0.743374
0.794406 0.792557 0.793869
0.844388 0.843290 0.844083
0.159243 0.144625 0.155154
0.159243 0.144625 0.155154
0.168384 0.153037 0.164095
0.204825 0.187161 0.199871
0.243471 0.224166 0.238031
0.289568 0.270012 0.284019
0.345231 0.327959 0.340291
0.409153 0.396563 0.405519
0.477712 0.469439 0.475320
0.546113 0.539670 0.544234
0.603577 0.598145 0.601990
0.651579 0.647054 0.650253
0.697572 0.693969 0.696529
0.744946 0.742238 0.744159
0.795371 0.793553 0.794834
0.845066 0.843974 0.844737
0.161892 0.146951 0.157723
0.161870 0.147105 0.157742
0.181845 0.165513 0.177277
0.202425 0.184942 0.197529
0.241785 0.222557 0.236368
0.287834 0.268266 0.282292
0.343777 0.326433 0.338833
0.408011 0.395414 0.404380
0.476883 0.468559 0.474455
0.545544 0.539090 0.543663
0.603424 0.597980 0.601838
0.651757 0.647253 0.650436
0.697771 0.694153 0.696723
0.745016 0.742301 0.744223
0.795352 0.793521 0.794806
0.845847 0.844743 0.845512
0.174551 0.158822 0.170150
0.179994 0.163793 0.175463
0.201751 0.184202 0.196828
0.222363 0.203821 0.217165
0.237848 0.218711 0.232455
0.286033 0.266380 0.280461
0.344750 0.327529 0.339838
0.410078 0.397593 0.406477
0.478867 0.470664 0.476488
0.547220 0.540801 0.545355
0.604468 0.599066 0.602899
0.652562 0.648062 0.651250
0.698881 0.695285 0.697830
0.746530 0.743860 0.745743
0.797272 0.795466 0.796744
0.847520 0.846452 0.847202
0.196554 0.179251 0.191709
0.200251 0.182785 0.195354
0.217861 0.199566 0.212727
0.252714 0.233212 0.247214
0.269448 0.249857 0.263907
0.285325 0.265800 0.279795
0.337327 0.319651 0.332285
0.405183 0.392291 0.401464
0.477102 0.468795 0.474691
0.547950 0.541541 0.546095
0.605157 0.599786 0.603577
0.653689 0.649218 0.652387
0.700116 0.696588 0.699078
0.747762 0.745114 0.746979
0.798654 0.796872 0.798124
0.850064 0.849051 0.849784
0.222843 0.204257 0.217624
0.225241 0.206662 0.220017
0.240867 0.221713 0.235483
0.272734 0.253171 0.267204
0.313482 0.294578 0.308110
0.331456 0.313359 0.326299
0.350786 0.333916 0.345946
0.397638 0.384222 0.393768
0.471510 0.462934 0.469020
0.544128 0.537676 0.542253
0.604150 0.598718 0.602564
0.654938 0.650470 0.653639
0.702290 0.698762 0.701265
0.750588 0.748000 0.749831
0.802072 0.800357 0.801572
0.853483 0.852506 0.853178
0.252921 0.233445 0.247446
0.254316 0.234774 0.248805
0.268666 0.249066 0.263123
0.297883 0.278565 0.292408
0.344291 0.327075 0.339374
0.384473 0.370019 0.380298
0.405203 0.392362 0.401487
0.427471 0.416216 0.424222
0.463340 0.454354 0.460732
0.536567 0.529942 0.534630
0.599860 0.594360 0.598267
0.653017 0.648539 0.651712
0.702388 0.698865 0.701351
0.752675 0.750106 0.751920
0.805215 0.803507 0.804716
0.857725 0.856809 0.857475
0.288566 0.269065 0.283055
0.289459 0.269885 0.283907
0.303053 0.283857 0.297601
0.330748 0.312635 0.325598
0.373757 0.358468 0.369360
0.431458 0.420545 0.428284
0.463968 0.455032 0.461380
0.485911 0.477994 0.483616
0.509313 0.502197 0.507240
0.534412 0.527759 0.532461
0.594507 0.588910 0.592859
0.650062 0.645519 0.648739
0.701658 0.698155 0.700645
0.753464 0.750914 0.752726
0.808778 0.807157 0.808304
0.863914 0.863059 0.863670
0.329589 0.311443 0.324401
0.330579 0.312560 0.325440
0.343644 0.326362 0.338701
0.369674 0.354087 0.365201
0.409451 0.396929 0.405840
0.462342 0.453340 0.459730
0.523549 0.516741 0.521572
0.545093 0.538634 0.543207
0.564410 0.558261 0.562608
0.583850 0.578060 0.582165
0.601892 0.596454 0.600299
0.646678 0.642067 0.645333
0.699880 0.696315 0.698836
0.753441 0.750908 0.752710
0.809800 0.808201 0.809331
0.866362 0.865525 0.866105
0.375226 0.360052 0.370874
0.376065 0.360941 0.371726
0.388493 0.374335 0.384427
0.412707 0.400427 0.409169
0.449217 0.439416 0.446378
0.497615 0.490163 0.495460
0.553722 0.547413 0.551891
0.600049 0.594548 0.598446
0.614626 0.609380 0.613085
0.630467 0.625538 0.629044
0.647090 0.642499 0.645741
0.665094 0.660839 0.663841
0.699447 0.695875 0.698400
0.754662 0.752125 0.753923
0.814596 0.813057 0.814137
0.872996 0.872276 0.872776
0.428138 0.416999 0.424903
0.429670 0.418622 0.426471
0.441480 0.431250 0.438514
0.464002 0.455079 0.461402
0.497969 0.490474 0.495790
0.541741 0.535210 0.539849
0.588177 0.582452 0.586511
0.633069 0.628211 0.631660
0.663380 0.659113 0.662129
0.676209 0.672218 0.675044
0.690517 0.686763 0.689418
0.706050 0.702620 0.705050
0.726278 0.723250 0.725393
0.755758 0.753249 0.755032
0.815366 0.813828 0.814920
0.875700 0.874968 0.875486
0.490245 0.482564 0.488017
0.491225 0.483540 0.488992
0.502938 0.495656 0.500819
0.523933 0.517104 0.521943
0.553637 0.547312 0.551786
0.588849 0.583173 0.587207
0.626816 0.621838 0.625364
0.666246 0.662011 0.665001
0.706479 0.703053 0.705474
0.728526 0.725511 0.727633
0.741097 0.738289 0.740292
0.754911 0.752383 0.754171
0.770586 0.768336 0.769939
0.795485 0.793659 0.794961
0.827454 0.826107 0.827057
0.884001 0.883366 0.883818
0.554131 0.547820 0.552294
0.555005 0.548684 0.553156
0.565357 0.559247 0.563575
0.583207 0.577398 0.581507
0.607388 0.602011 0.605815
0.636219 0.631403 0.634821
0.668248 0.664046 0.667013
0.703003 0.699495 0.701972
0.740311 0.737515 0.739494
0.779734 0.777641 0.779111
0.795437 0.793612 0.794913
0.808524 0.806921 0.808060
0.822680 0.821279 0.822266
0.838618 0.837423 0.838264
0.867060 0.866226 0.866822
0.900602 0.900139 0.900462
0.621228 0.616101 0.619727
0.622473 0.617368 0.620976
0.630853 0.625899 0.629401
0.644825 0.640186 0.643476
0.664413 0.660123 0.663165
0.689302 0.685530 0.688179
0.718892 0.715670 0.717945
0.752624 0.750066 0.751880
0.789423 0.787494 0.788855
0.827125 0.825798 0.826753
0.861741 0.860844 0.861473
0.872767 0.872016 0.872544
0.885192 0.884575 0.885015
0.899388 0.898918 0.899249
0.915006 0.914656 0.914900
0.941363 0.941186 0.941320
0.680818 0.676868 0.679664
0.680083 0.676144 0.678930
0.687360 0.683578 0.686252
0.700513 0.696957 0.699472
0.719316 0.716122 0.718381
0.743715 0.740993 0.742928
0.772951 0.770738 0.772302
0.806103 0.804439 0.805611
0.841342 0.840182 0.840995
0.876835 0.876094 0.876614
0.910893 0.910497 0.910765
0.935205 0.934979 0.935144
0.945186 0.945038 0.945140
0.956214 0.956100 0.956177
0.968308 0.968280 0.968297
0.978112 0.978106 0.978112
0.761715 0.759304 0.761013
0.761172 0.758737 0.760446
0.768527 0.766232 0.767855
0.781332 0.779263 0.780722
0.799631 0.797818 0.799106
0.823453 0.822049 0.823056
0.852104 0.851090 0.851805
0.883946 0.883299 0.883763
0.916704 0.916362 0.916601
0.947661 0.947509 0.947606
0.974273 0.974243 0.974273
0.994250 0.994250 0.994250
1.000000 1.000000 1.000000
1.000000 1.000000 1.000000
1.000000 1.000000 1.000000
1.000000 1.000000 1.000000
0.159243 0.144625 0.155154
0.159243 0.144625 0.155154
0.172461 0.156860 0.168102
0.207747 0.189911 0.202748
0.246138 0.226699 0.240665
0.291740 0.272246 0.286216
0.347091 0.329973 0.342184
0.410838 0.398396 0.407241
0.479863 0.471715 0.477492
0.548644 0.542247 0.546775
0.605896 0.600531 0.604315
0.653766 0.649296 0.652461
0.699317 0.695747 0.698276
0.746265 0.743585 0.745482
0.796353 0.794541 0.795822
0.847209 0.846141 0.846879
0.159243 0.144625 0.155154
0.159243 0.144625 0.155154
0.175419 0.159559 0.170984
0.209421 0.191470 0.204387
0.247466 0.228138 0.242018
0.293239 0.273873 0.287741
0.348919 0.331964 0.344075
0.412796 0.400510 0.409238
0.481294 0.473186 0.478936
0.549450 0.543055 0.547582
0.606354 0.600989 0.604773
0.653964 0.649492 0.652664
0.699758 0.696192 0.698718
0.747154 0.744487 0.746379
0.797976 0.796193 0.797446
0.847916 0.846858 0.847611
0.161593 0.146881 0.157480
0.162511 0.147643 0.158344
0.184166 0.167808 0.179586
0.206220 0.188421 0.201221
0.245086 0.225738 0.239643
0.290960 0.271490 0.285447
0.346855 0.329720 0.341952
0.410942 0.398514 0.407362
0.480100 0.471940 0.477734
0.548766 0.542366 0.546902
0.605963 0.600580 0.604376
0.653865 0.649392 0.652549
0.699583 0.696020 0.698543
0.746662 0.743996 0.745888
0.796896 0.795091 0.796367
0.847715 0.846674 0.847410
0.176749 0.160766 0.172287
0.182234 0.166018 0.177701
0.204614 0.186962 0.199662
0.223813 0.205234 0.218600
0.241036 0.221855 0.235641
0.288918 0.269460 0.283414
0.347700 0.330637 0.342836
0.413132 0.400884 0.409596
0.482026 0.473943 0.479676
0.550276 0.543900 0.548422
0.606823 0.601459 0.605255
0.654589 0.650128 0.653291
0.700665 0.697120 0.699626
0.748380 0.745731 0.747609
0.799448 0.797672 0.798928
0.849536 0.848509 0.849241
0.197624 0.180349 0.192783
0.201074 0.183569 0.196166
0.218326 0.199990 0.213171
0.252884 0.233422 0.247392
0.269859 0.250234 0.264319
0.286238 0.266631 0.280684
0.339707 0.322159 0.334694
0.407933 0.395267 0.404285
0.479936 0.471769 0.477557
0.550558 0.544191 0.548695
0.607337 0.601952 0.605761
0.655450 0.650990 0.654149
0.701547 0.698027 0.700527
0.749091 0.746442 0.748320
0.799800 0.798030 0.799273
0.851185 0.850177 0.850904
0.223460 0.204904 0.218235
0.225842 0.207119 0.220589
0.241202 0.221994 0.235792
0.272629 0.253045 0.267087
0.313879 0.294988 0.308513
0.331805 0.313841 0.326678
0.351525 0.334678 0.346706
0.400010 0.386729 0.396180
0.473877 0.465417 0.471408
0.546677 0.540239 0.544796
0.606189 0.600787 0.604602
0.656578 0.652165 0.655283
0.703798 0.700308 0.702785
0.752117 0.749547 0.751363
0.804104 0.802415 0.803604
0.854844 0.853874 0.854569
0.253188 0.233736 0.247713
0.254504 0.234959 0.248996
0.268877 0.249208 0.263321
0.297913 0.278637 0.292444
0.344086 0.326848 0.339153
0.384782 0.370355 0.380638
0.405531 0.392741 0.401851
0.427911 0.416737 0.424675
0.465027 0.456124 0.462438
0.538413 0.531829 0.536484
0.601284 0.595785 0.599671
0.654320 0.649877 0.653020
0.703473 0.699964 0.702461
0.753643 0.751100 0.752894
0.806041 0.804378 0.805558
0.858256 0.857336 0.857981
0.288554 0.269071 0.283043
0.289387 0.269894 0.283857
0.302912 0.283737 0.297467
0.330457 0.312388 0.325300
0.373359 0.358094 0.368977
0.431122 0.420196 0.427963
0.464498 0.455576 0.461910
0.486667 0.478774 0.484369
0.510196 0.503110 0.508124
0.535751 0.529123 0.533823
0.595888 0.590294 0.594255
0.651155 0.646647 0.649828
0.702726 0.699221 0.701697
0.754727 0.752187 0.753978
0.810358 0.808769 0.809898
0.864768 0.863924 0.864522
0.329279 0.311108 0.324096
0.330021 0.311951 0.324862
0.342965 0.325647 0.338021
0.368815 0.353205 0.364345
0.408572 0.395945 0.404941
0.461289 0.452203 0.458646
0.522795 0.515941 0.520805
0.544899 0.538422 0.543004
0.564554 0.558428 0.562774
0.584185 0.578412 0.582503
0.602379 0.596938 0.600796
0.647492 0.642912 0.646150
0.700553 0.697018 0.699519
0.754062 0.751530 0.753318
0.810392 0.808793 0.809923
0.866218 0.865366 0.865974
0.374895 0.359696 0.370523
0.375128 0.359965 0.370764
0.387396 0.373147 0.383287
0.411495 0.399143 0.407938
0.448125 0.438263 0.445256
0.496694 0.489163 0.494508
0.553097 0.546768 0.551266
0.600123 0.594635 0.598526
0.614845 0.609611 0.613322
0.630717 0.625812 0.629291
0.647340 0.642734 0.645989
0.665421 0.661166 0.664172
0.700180 0.696631 0.699148
0.755761 0.753251 0.755033
0.815468 0.813943 0.815013
0.873094 0.872337 0.872861
0.426971 0.415778 0.423737
0.428310 0.417108 0.425081
0.439802 0.429403 0.436788
0.462392 0.453370 0.459776
0.496286 0.488790 0.494100
0.540178 0.533617 0.538256
0.586984 0.581252 0.585312
0.632267 0.627367 0.630837
0.663188 0.658910 0.661953
0.676283 0.672252 0.675098
0.690651 0.686903 0.689552
0.706215 0.702759 0.705214
0.726458 0.723394 0.725557
0.756219 0.753711 0.755483
0.815556 0.814029 0.815112
0.875200 0.874443 0.874986
0.488681 0.480878 0.486402
0.488494 0.480701 0.486235
0.499600 0.492186 0.497439
0.520582 0.513704 0.518575
0.551078 0.544714 0.549223
0.587147 0.581430 0.585490
0.625785 0.620747 0.624315
0.665426 0.661178 0.664179
0.705924 0.702483 0.704924
0.728276 0.725257 0.727398
0.740900 0.738132 0.740084
0.754920 0.752397 0.754180
0.770832 0.768591 0.770183
0.795913 0.794092 0.795381
0.827639 0.826282 0.827243
0.883749 0.883134 0.883566
0.552045 0.545706 0.550208
0.552545 0.546196 0.550690
0.562358 0.556197 0.560563
0.580144 0.574276 0.578429
0.604603 0.599179 0.603015
0.633707 0.628851 0.632296
0.666280 0.662058 0.665057
0.701731 0.698215 0.700704
0.739592 0.736780 0.738775
0.779340 0.777232 0.778715
0.795391 0.793545 0.794852
0.808488 0.806860 0.808016
0.822644 0.821234 0.822221
0.838560 0.837373 0.838217
0.866732 0.865908 0.866495
0.899639 0.899174 0.899492
0.619291 0.614141 0.617800
0.619546 0.614413 0.618053
0.627502 0.622521 0.626031
0.641681 0.636975 0.640309
0.661750 0.657449 0.660497
0.687170 0.683369 0.686062
0.717251 0.714023 0.716305
0.751381 0.748787 0.750620
0.788399 0.786446 0.787833
0.826298 0.824925 0.825889
0.861185 0.860277 0.860918
0.872451 0.871698 0.872227
0.885131 0.884506 0.884937
0.899475 0.898993 0.899338
0.914988 0.914654 0.914884
0.941125 0.940933 0.941064
0.678939 0.674941 0.677771
0.678406 0.674418 0.677254
0.685169 0.681325 0.684051
0.697979 0.694388 0.696934
0.716813 0.713564 0.715853
0.741293 0.738522 0.740485
0.770928 0.768683 0.770279
0.804577 0.802895 0.804085
0.840404 0.839236 0.840064
0.876322 0.875593 0.876105
0.910575 0.910204 0.910453
0.935120 0.934894 0.935054
0.945115 0.944957 0.945064
0.956129 0.956045 0.956095
0.968036 0.967968 0.968010
0.977502 0.977490 0.977496
0.759694 0.757247 0.758987
0.758252 0.755766 0.757531
0.765232 0.762894 0.764557
0.778078 0.775950 0.777455
0.796832 0.795027 0.796307
0.821311 0.819895 0.820908
0.850433 0.849408 0.850133
0.882714 0.882078 0.882528
0.915787 0.915440 0.915693
0.946958 0.946806 0.946908
0.973798 0.973773 0.973773
0.994020 0.994020 0.994020
1.000000 1.000000 1.000000
1.000000 1.000000 1.000000
1.000000 1.000000 1.000000
1.000000 1.000000 1.000000
0.166366 0.150979 0.162063
0.163245 0.148254 0.159061
0.159243 0.144625 0.155154
0.190160 0.173419 0.185471
0.255860 0.236334 0.250359
0.300292 0.281016 0.294829
0.355994 0.339492 0.351270
0.419562 0.407774 0.416143
0.487918 0.480070 0.485634
0.554782 0.548486 0.552939
0.610126 0.604816 0.608570
0.656850 0.652425 0.655553
0.701875 0.698355 0.700857
0.748475 0.745826 0.747695
0.798272 0.796489 0.797755
0.848777 0.847721 0.848472
0.165826 0.150621 0.161573
0.162689 0.147868 0.158546
0.159457 0.144830 0.155363
0.204795 0.187120 0.199838
0.256278 0.236740 0.250767
0.301325 0.282139 0.295886
0.357553 0.341129 0.352847
0.421239 0.409572 0.417864
0.489010 0.481215 0.486746
0.555569 0.549279 0.553750
0.610542 0.605244 0.609002
0.657128 0.652728 0.655838
0.702352 0.698832 0.701312
0.749407 0.746783 0.748645
0.799995 0.798238 0.799484
0.849550 0.848512 0.849245
0.163352 0.148426 0.159172
0.167003 0.151736 0.162734
0.187110 0.170534 0.182469
0.215681 0.197480 0.210574
0.252742 0.233293 0.247264
0.298466 0.279210 0.292998
0.354953 0.338325 0.350194
0.419520 0.407740 0.416126
0.488056 0.480228 0.485781
0.554944 0.548648 0.553103
0.610188 0.604865 0.608637
0.656983 0.652569 0.655685
0.702138 0.698621 0.701105
0.748878 0.746235 0.748104
0.798858 0.797080 0.798341
0.849296 0.848263 0.848996
0.173014 0.157389 0.168650
0.180115 0.164003 0.175610
0.203691 0.186072 0.198746
0.225306 0.206636 0.220065
0.248907 0.229531 0.243446
0.296411 0.277087 0.290936
0.354704 0.338083 0.349953
0.419975 0.408208 0.416578
0.489276 0.481493 0.487012
0.556328 0.550046 0.554497
0.610999 0.605705 0.609453
0.657722 0.653333 0.656445
0.703273 0.699771 0.702249
0.750624 0.748019 0.749864
0.801444 0.799706 0.800938
0.851138 0.850124 0.850840
0.197809 0.180471 0.192944
0.202281 0.184768 0.197376
0.219575 0.201162 0.214399
0.252309 0.232849 0.246827
0.271482 0.251784 0.265920
0.289376 0.269832 0.283838
0.346578 0.329422 0.341671
0.413903 0.401727 0.410396
0.485760 0.477823 0.483460
0.555694 0.549414 0.553865
0.611447 0.606161 0.609890
0.658566 0.654204 0.657293
0.704076 0.700594 0.703057
0.751295 0.748696 0.750528
0.801732 0.799991 0.801217
0.852787 0.851780 0.852482
0.225168 0.206448 0.219919
0.227538 0.208820 0.222286
0.242413 0.223149 0.236987
0.272560 0.252907 0.267013
0.315061 0.296303 0.309724
0.333214 0.315282 0.328106
0.352988 0.336189 0.348188
0.406327 0.393535 0.402653
0.479050 0.470888 0.476676
0.550630 0.544267 0.548781
0.609333 0.603986 0.607770
0.659462 0.655098 0.658189
0.706395 0.702957 0.705386
0.754348 0.751828 0.753622
0.806032 0.804366 0.805544
0.856315 0.855357 0.856041
0.254185 0.234681 0.248694
0.255713 0.236179 0.250195
0.269691 0.250091 0.264156
0.298060 0.278757 0.292584
0.343443 0.326153 0.338501
0.386379 0.372088 0.382264
0.406799 0.394082 0.403132
0.429052 0.417930 0.425833
0.470115 0.461473 0.467599
0.542824 0.536327 0.540929
0.604225 0.598793 0.602638
0.656488 0.652089 0.655211
0.705833 0.702381 0.704819
0.755771 0.753260 0.755037
0.807958 0.806338 0.807487
0.859953 0.859043 0.859696
0.289009 0.269515 0.283476
0.289811 0.270308 0.284292
0.303208 0.284042 0.297768
0.330385 0.312337 0.325234
0.372788 0.357428 0.368376
0.429912 0.418902 0.426727
0.465778 0.456940 0.463206
0.487768 0.479934 0.485490
0.511074 0.503983 0.509015
0.538414 0.531830 0.536499
0.598931 0.593384 0.597290
0.653420 0.648940 0.652109
0.704594 0.701108 0.703577
0.756873 0.754370 0.756131
0.812256 0.810702 0.811793
0.866148 0.865317 0.865915
0.329164 0.311012 0.323991
0.329938 0.311838 0.324768
0.342859 0.325538 0.337916
0.368536 0.352905 0.364047
0.407859 0.395223 0.404209
0.460321 0.451235 0.457671
0.522037 0.515175 0.520040
0.545782 0.539324 0.543900
0.565319 0.559189 0.563531
0.584791 0.579002 0.583107
0.603146 0.597693 0.601558
0.649770 0.645230 0.648448
0.702462 0.698956 0.701442
0.755777 0.753253 0.755033
0.812343 0.810774 0.811877
0.867941 0.867125 0.867697
0.374465 0.359230 0.370085
0.374853 0.359668 0.370482
0.386929 0.372674 0.382838
0.410960 0.398547 0.407375
0.447521 0.437624 0.444648
0.495880 0.488360 0.493693
0.552250 0.545906 0.550406
0.600827 0.595337 0.599228
0.615459 0.610254 0.613938
0.631229 0.626305 0.629786
0.647732 0.643149 0.646393
0.665880 0.661644 0.664653
0.702005 0.698490 0.700983
0.757562 0.755072 0.756828
0.816991 0.815487 0.816552
0.874583 0.873861 0.874369
0.426178 0.414911 0.422931
0.427388 0.416210 0.424155
0.438859 0.428477 0.435862
0.461432 0.452365 0.458806
0.495270 0.487700 0.493058
0.539123 0.532561 0.537200
0.586059 0.580300 0.584375
0.631557 0.626638 0.630116
0.663653 0.659356 0.662397
0.676704 0.672683 0.675539
0.691023 0.687300 0.689937
0.706508 0.703080 0.705507
0.726841 0.723807 0.725961
0.757806 0.755317 0.757075
0.817138 0.815639 0.816707
0.876701 0.875999 0.876500
0.486965 0.479104 0.484694
0.486846 0.478969 0.484560
0.497903 0.490412 0.495718
0.519046 0.512119 0.517030
0.549654 0.543262 0.547796
0.586092 0.580327 0.584412
0.624892 0.619862 0.623421
0.664739 0.660478 0.663491
0.705340 0.701898 0.704342
0.728578 0.725570 0.727707
0.741137 0.738365 0.740328
0.755138 0.752616 0.754403
0.771155 0.768917 0.770491
0.796340 0.794526 0.795805
0.828555 0.827231 0.828161
0.884957 0.884338 0.884777
0.550295 0.543923 0.548450
0.550838 0.544464 0.548977
0.560767 0.554560 0.558959
0.578631 0.572744 0.576917
0.603102 0.597656 0.601509
0.632233 0.627349 0.630798
0.665040 0.660790 0.663799
0.700768 0.697204 0.699734
0.738831 0.736005 0.738007
0.778728 0.776616 0.778108
0.795627 0.793795 0.795094
0.808671 0.807071 0.808205
0.822842 0.821441 0.822428
0.838785 0.837606 0.838439
0.867159 0.866327 0.866916
0.900157 0.899675 0.900017
0.617005 0.611808 0.615480
0.617198 0.612004 0.615684
0.625218 0.620198 0.623756
0.639585 0.634834 0.638191
0.659837 0.655476 0.658572
0.685417 0.681597 0.684305
0.715772 0.712518 0.714833
0.750156 0.747537 0.749388
0.787404 0.785440 0.786829
0.825502 0.824113 0.825095
0.860809 0.859911 0.860545
0.872525 0.871761 0.872303
0.885277 0.884640 0.885086
0.899669 0.899178 0.899523
0.915159 0.914814 0.915066
0.941420 0.941247 0.941366
0.676470 0.672437 0.675289
0.675934 0.671907 0.674755
0.682793 0.678885 0.681647
0.695721 0.692072 0.694647
0.714655 0.711378 0.713700
0.739327 0.736524 0.738506
0.769180 0.766917 0.768516
0.803179 0.801495 0.802686
0.839342 0.838166 0.838996
0.875538 0.874817 0.875329
0.909956 0.909580 0.909846
0.935136 0.934934 0.935084
0.945151 0.944999 0.945102
0.956222 0.956121 0.956191
0.968166 0.968110 0.968155
0.977737 0.977703 0.977737
0.756161 0.753664 0.755429
0.754844 0.752311 0.754112
0.761873 0.759469 0.761166
0.774917 0.772751 0.774287
0.793976 0.792133 0.793442
0.818881 0.817404 0.818442
0.848462 0.847401 0.848144
0.881173 0.880522 0.880978
0.914635 0.914282 0.914538
0.946139 0.946001 0.946099
0.973285 0.973224 0.973285
0.993824 0.993824 0.993824
1.000000 1.000000 1.000000
1.000000 1.000000 1.000000
1.000000 1.000000 1.000000
1.000000 1.000000 1.000000
0.167770 0.152377 0.163461
0.165160 0.150033 0.160927
0.159243 0.144625 0.155154
0.160144 0.145438 0.156029
0.186330 0.169767 0.181696
0.290007 0.270597 0.284514
0.364933 0.348955 0.360346
0.427526 0.416313 0.424282
0.495270 0.487687 0.493065
0.561547 0.555355 0.559734
0.615797 0.610608 0.614271
0.662065 0.657771 0.660805
0.706689 0.703267 0.705683
0.752672 0.750115 0.751915
0.802048 0.800315 0.801547
0.851884 0.850895 0.851609
0.170966 0.155566 0.166667
0.169164 0.153838 0.164875
0.165233 0.150251 0.161032
0.168090 0.152829 0.163813
0.198676 0.181402 0.193828
0.298683 0.279365 0.293204
0.365895 0.350093 0.361361
0.428493 0.417375 0.425271
0.495995 0.488439 0.493797
0.562168 0.555973 0.560370
0.616120 0.610929 0.614604
0.662305 0.657992 0.661044
0.707223 0.703817 0.706234
0.753702 0.751154 0.752951
0.803847 0.802146 0.803348
0.852702 0.851697 0.852396
0.195728 0.178637 0.190935
0.195278 0.178165 0.190474
0.193048 0.176016 0.188278
0.192425 0.175417 0.187659
0.241619 0.222528 0.236245
0.307459 0.288398 0.302046
0.362681 0.346657 0.358095
0.426406 0.415114 0.423132
0.494831 0.487260 0.492640
0.561260 0.555056 0.559448
0.615563 0.610351 0.614032
0.661967 0.657648 0.660702
0.706911 0.703479 0.705906
0.753131 0.750570 0.752386
0.802623 0.800904 0.802123
0.852456 0.851444 0.852158
0.188754 0.171990 0.184053
0.190943 0.174044 0.186210
0.202617 0.185012 0.197679
0.229006 0.210200 0.223726
0.262418 0.242855 0.256900
0.307494 0.288432 0.302080
0.363263 0.347241 0.358669
0.427170 0.415918 0.423909
0.495572 0.488003 0.493369
0.561699 0.555510 0.559901
0.615629 0.610432 0.614114
0.662290 0.657992 0.661035
0.707942 0.704540 0.706945
0.754955 0.752438 0.754218
0.805277 0.803600 0.804791
0.854234 0.853270 0.853954
0.191536 0.174534 0.186779
0.195081 0.177951 0.190280
0.213776 0.195619 0.208684
0.249070 0.229679 0.243599
0.274008 0.254380 0.268457
0.301721 0.282488 0.296260
0.359111 0.342782 0.354430
0.424929 0.413537 0.421632
0.494708 0.487124 0.492498
0.561107 0.554892 0.559294
0.615356 0.610144 0.613830
0.662402 0.658107 0.661144
0.708265 0.704868 0.707278
0.755582 0.753068 0.754845
0.805490 0.803826 0.805004
0.855916 0.854954 0.855629
0.219351 0.200937 0.214194
0.222048 0.203460 0.216833
0.239218 0.220060 0.233825
0.270462 0.250865 0.264938
0.316304 0.297567 0.310971
0.335577 0.317821 0.330511
0.356519 0.340003 0.351785
0.418145 0.406252 0.414715
0.489069 0.481281 0.486812
0.558099 0.551857 0.556280
0.614356 0.609095 0.612811
0.663225 0.658940 0.661986
0.709881 0.706501 0.708883
0.758478 0.756000 0.757751
0.809846 0.808233 0.809373
0.859300 0.858415 0.859056
0.248152 0.228736 0.242687
0.250994 0.231497 0.245504
0.268613 0.248980 0.263065
0.296602 0.277227 0.291112
0.340709 0.323200 0.335706
0.389038 0.374932 0.384979
0.409065 0.396465 0.405437
0.431121 0.420200 0.427951
0.480241 0.472073 0.477861
0.550988 0.544619 0.549130
0.609753 0.604433 0.608211
0.660654 0.656338 0.659397
0.709335 0.705968 0.708352
0.759469 0.757023 0.758747
0.811718 0.810130 0.811263
0.863232 0.862381 0.862976
0.286418 0.266865 0.280876
0.288280 0.268759 0.282747
0.302230 0.283006 0.296780
0.328904 0.310754 0.323730
0.370692 0.355174 0.366230
0.427123 0.415883 0.423870
