assets/lut/editingcorpw Opal Opulence.cube
LUT_3D_SIZE 16
DOMAIN_MIN 0.0 0.0 0.0
DOMAIN_MAX 1.0 1.0 1.0
0.137255 0.109804 0.137255
0.160000 0.113725 0.141176
0.187451 0.114509 0.138039
0.231372 0.120785 0.141176
0.287059 0.112157 0.145098
0.345098 0.109804 0.141176
0.412549 0.105882 0.145098
0.493333 0.101177 0.143529
0.578039 0.094902 0.149804
0.654118 0.086275 0.150588
0.729412 0.074510 0.152941
0.796079 0.073725 0.152157
0.855686 0.069804 0.142745
0.918431 0.066667 0.152157
0.967059 0.072157 0.158431
1.000000 0.070588 0.164706
0.134902 0.143529 0.135686
0.160545 0.138585 0.144859
0.185098 0.138039 0.145882
0.225412 0.140288 0.150379
0.277647 0.135686 0.150588
0.339608 0.135686 0.145882
0.407604 0.133811 0.148064
0.484706 0.132549 0.149020
0.568732 0.128523 0.152836
0.648628 0.126275 0.147451
0.721569 0.122353 0.145882
0.792463 0.117647 0.151372
0.858039 0.113725 0.156079
0.910693 0.115085 0.156549
0.965490 0.111373 0.160000
1.000000 0.114510 0.168627
0.134117 0.175686 0.142745
0.160000 0.167843 0.141176
0.194219 0.167485 0.145255
0.224314 0.162353 0.152941
0.270379 0.168523 0.155869
0.321569 0.171764 0.151373
0.400784 0.171765 0.152941
0.482420 0.170263 0.149804
0.560000 0.167843 0.150589
0.643922 0.172654 0.154196
0.716863 0.170980 0.150589
0.785098 0.168627 0.153726
0.846275 0.164639 0.153367
0.904314 0.166274 0.155294
0.959425 0.163817 0.160784
1.000000 0.167059 0.162353
0.140392 0.216470 0.155294
0.164497 0.211765 0.148811
0.192941 0.210196 0.149020
0.229445 0.205490 0.154577
0.270588 0.202353 0.165490
0.321569 0.206275 0.160784
0.391843 0.214797 0.160575
0.464314 0.221177 0.160784
0.548303 0.224314 0.160291
0.634510 0.229804 0.158431
0.707451 0.227451 0.150589
0.773438 0.230693 0.150589
0.843137 0.230588 0.157647
0.903104 0.223888 0.166633
0.957647 0.219608 0.160784
0.996862 0.226667 0.165490
0.141176 0.266666 0.149804
0.167059 0.267451 0.148235
0.195660 0.268915 0.148026
0.236863 0.257255 0.152941
0.278192 0.255447 0.157953
0.326275 0.251765 0.172549
0.389020 0.259608 0.171765
0.461856 0.270484 0.167947
0.538039 0.274510 0.165490
0.619847 0.283989 0.167776
0.696471 0.283922 0.162353
0.767843 0.288627 0.156863
0.832052 0.290091 0.163137
0.889412 0.286274 0.161568
0.946054 0.285729 0.161808
0.997647 0.282353 0.179608
0.129412 0.333333 0.141176
0.158432 0.337255 0.146667
0.192157 0.339607 0.144314
0.248627 0.330196 0.147451
0.301176 0.323922 0.152157
0.345098 0.313725 0.168627
0.389804 0.308235 0.167059
0.452549 0.319216 0.170196
0.534118 0.334902 0.173333
0.603138 0.338823 0.170196
0.674510 0.345098 0.172549
0.749020 0.347451 0.163921
0.815686 0.345098 0.159216
0.884706 0.345098 0.174902
0.934118 0.346667 0.170980
0.992157 0.337255 0.172549
0.113725 0.406274 0.130981
0.146360 0.404160 0.132310
0.191373 0.407843 0.129412
0.247634 0.402458 0.132758
0.299608 0.404706 0.136471
0.357647 0.392941 0.147451
0.407604 0.384553 0.160000
0.458039 0.377255 0.170196
0.528628 0.385098 0.175582
0.599216 0.393725 0.175686
0.672157 0.397647 0.178039
0.735141 0.402353 0.176232
0.801569 0.407843 0.179608
0.864104 0.410300 0.178248
0.928628 0.407843 0.189804
0.986667 0.407059 0.196078
0.084706 0.481568 0.116863
0.121569 0.483921 0.109019
0.180684 0.483137 0.115003
0.232941 0.481569 0.107451
0.301751 0.479111 0.109699
0.363922 0.475294 0.121568
0.419608 0.465883 0.132549
0.475294 0.459249 0.158140
0.530980 0.449412 0.170981
0.592941 0.452079 0.181908
0.660393 0.458039 0.178040
0.728628 0.463530 0.187451
0.790947 0.466241 0.186308
0.849412 0.469804 0.190588
0.907817 0.469229 0.203922
0.982745 0.469020 0.207843
0.012549 0.550588 0.079216
0.080784 0.556758 0.082823
0.153725 0.552157 0.084706
0.215193 0.555294 0.085064
0.287843 0.552157 0.082353
0.357647 0.547451 0.093333
0.423843 0.542066 0.112366
0.483922 0.534902 0.125490
0.541535 0.525490 0.145591
0.596079 0.523137 0.162353
0.657255 0.520785 0.193725
0.718536 0.523817 0.193255
0.781961 0.528628 0.192941
0.838723 0.531764 0.202353
0.897255 0.525490 0.219608
0.957647 0.528628 0.236079
0.003137 0.619608 0.051765
0.018039 0.624314 0.048627
0.115085 0.619137 0.056052
0.196862 0.618039 0.045490
0.264792 0.620699 0.046036
0.341176 0.619608 0.044706
0.418039 0.610196 0.073725
0.479215 0.605386 0.098719
0.543529 0.600000 0.123137
0.601875 0.596078 0.152157
0.658039 0.585882 0.174118
0.714510 0.583529 0.200784
0.779399 0.582275 0.217255
0.836079 0.590589 0.220392
0.893333 0.584552 0.237475
0.945098 0.589020 0.250980
0.000000 0.674510 0.000000
0.003922 0.684706 0.003137
0.052549 0.681569 0.000784
0.165491 0.684706 0.003922
0.252549 0.680784 0.003922
0.329412 0.678431 0.003922
0.402353 0.677647 0.023530
0.476863 0.670588 0.065882
0.533333 0.667451 0.094117
0.598432 0.661961 0.137255
0.658824 0.654902 0.160784
0.715294 0.644706 0.192942
0.770980 0.643137 0.229804
0.830588 0.646275 0.245490
0.884706 0.644706 0.259608
0.945098 0.654902 0.282353
0.001569 0.739608 0.000000
0.001808 0.744075 0.002286
0.010981 0.742745 0.006275
0.132026 0.738719 0.000209
0.229804 0.737255 0.000000
0.309804 0.738823 0.004706
0.377733 0.735925 0.000000
0.453333 0.734118 0.014118
0.524392 0.729203 0.068393
0.590589 0.720784 0.110588
0.650196 0.721569 0.152157
0.706667 0.712702 0.186189
0.766274 0.706667 0.218039
0.822745 0.701961 0.261543
0.872942 0.705098 0.287843
0.934902 0.713726 0.298824
0.003138 0.796078 0.000000
0.000784 0.795294 0.003137
0.005916 0.792515 0.003138
0.083922 0.797647 0.003138
0.205961 0.791582 0.001464
0.283922 0.795294 0.000000
0.362353 0.795294 0.000784
0.432515 0.794151 0.000000
0.507451 0.788235 0.021961
0.576366 0.782641 0.079896
0.637647 0.774902 0.131764
0.700392 0.774118 0.178039
0.761636 0.771765 0.208919
0.814118 0.768627 0.256471
0.872941 0.764706 0.300863
0.924706 0.767059 0.339608
0.000000 0.852549 0.000000
0.001673 0.851556 0.006954
0.007059 0.850981 0.000784
0.033972 0.854185 0.008695
0.175686 0.847843 0.002353
0.261961 0.854902 0.000000
0.343738 0.852654 0.000784
0.420392 0.848627 0.000000
0.494902 0.845064 0.004213
0.567843 0.844706 0.052549
0.631373 0.843921 0.112941
0.694118 0.835294 0.170876
0.752941 0.831373 0.215687
0.812908 0.828235 0.255978
0.871373 0.822745 0.294117
0.924706 0.823530 0.345882
0.010196 0.905882 0.003137
0.003922 0.909804 0.003137
0.001987 0.908026 0.001778
0.006275 0.905098 0.000000
0.141617 0.905882 0.001569
0.238431 0.910588 0.001569
0.327843 0.906667 0.001569
0.404497 0.907451 0.002249
0.475294 0.907451 0.000000
0.550349 0.905882 0.005288
0.623529 0.901961 0.090196
0.688627 0.898039 0.164706
0.755085 0.897255 0.215582
0.810196 0.890980 0.258824
0.872396 0.889651 0.316930
0.927059 0.890980 0.365490
0.007843 0.972549 0.000000
0.007059 0.974118 0.000000
0.003138 0.971765 0.003922
0.000000 0.968627 0.000784
0.057255 0.973333 0.001569
0.215686 0.976471 0.007843
0.309020 0.970980 0.000000
0.396078 0.977255 0.006274
0.461961 0.977255 0.000000
0.538824 0.974902 0.001569
0.619608 0.972549 0.043137
0.698823 0.970196 0.149804
0.768627 0.965490 0.236078
0.831373 0.971765 0.292549
0.891765 0.974118 0.350588
0.945098 0.976471 0.407843
0.149020 0.117647 0.165490
0.160717 0.116078 0.165797
0.198431 0.115294 0.163137
0.236078 0.116863 0.165386
0.282353 0.111372 0.174902
0.341961 0.107451 0.164706
0.414357 0.102984 0.172549
0.495686 0.092549 0.172549
0.578824 0.075504 0.168052
0.657255 0.061961 0.168627
0.729412 0.047843 0.168628
0.791305 0.039455 0.169106
0.858824 0.035294 0.177255
0.913046 0.034405 0.179033
0.967059 0.040000 0.174902
1.000000 0.049412 0.176471
0.137561 0.134357 0.175993
0.162018 0.142315 0.169384
0.187929 0.143051 0.168627
0.229208 0.138622 0.169983
0.279933 0.139436 0.174902
0.343051 0.135686 0.173401
0.413305 0.129957 0.174357
0.490741 0.124467 0.169890
0.575220 0.120255 0.175204
0.653334 0.109871 0.176777
0.723922 0.105404 0.167776
0.786580 0.099751 0.170435
0.851697 0.096232 0.172004
0.911405 0.097561 0.173077
0.964706 0.098039 0.175208
0.998431 0.103291 0.182133
0.134118 0.167059 0.168628
0.158192 0.169957 0.177255
0.193950 0.167059 0.165558
0.226667 0.168418 0.175582
0.274615 0.164601 0.176837
0.327059 0.168628 0.170196
0.398431 0.169412 0.172071
0.485423 0.167126 0.173333
0.563242 0.164601 0.176471
0.639111 0.163921 0.169830
0.717647 0.163137 0.167059
0.784075 0.156078 0.169651
0.848560 0.154442 0.172191
0.904732 0.154405 0.176941
0.959634 0.152732 0.181281
1.000000 0.155294 0.186667
0.139922 0.211869 0.173124
0.160960 0.214863 0.168435
0.188549 0.213229 0.172654
0.225883 0.208051 0.175216
0.271477 0.206954 0.179712
0.329098 0.204026 0.189699
0.394102 0.211639 0.183719
0.469229 0.218510 0.182170
0.555615 0.222771 0.182337
0.638222 0.220392 0.176366
0.708444 0.222065 0.177150
0.775707 0.224221 0.171273
0.839425 0.219712 0.168941
0.901176 0.213668 0.178858
0.958536 0.218144 0.179242
0.997333 0.216000 0.185098
0.133333 0.265098 0.174902
0.157102 0.267690 0.167059
0.196288 0.265307 0.172706
0.236392 0.265307 0.173752
0.282659 0.257016 0.179301
0.325490 0.253334 0.182745
0.389020 0.259847 0.185098
0.461856 0.269019 0.184628
0.541177 0.274614 0.182640
0.620564 0.280546 0.184314
0.699608 0.283137 0.181177
0.771765 0.283682 0.181176
0.834300 0.278536 0.181072
0.892758 0.281673 0.186876
0.950588 0.278909 0.192224
0.992941 0.285490 0.194510
0.116078 0.333333 0.167843
0.150282 0.329412 0.166581
0.186667 0.332549 0.169412
0.240679 0.328523 0.170980
0.294902 0.320000 0.171765
0.342745 0.312157 0.181177
0.394749 0.311918 0.190043
0.463529 0.321569 0.189804
0.534118 0.328053 0.183268
0.608628 0.332549 0.189020
0.682353 0.338823 0.184314
0.753486 0.342984 0.189565
0.818824 0.342745 0.183529
0.883608 0.344993 0.193412
0.934902 0.345098 0.195294
0.992941 0.345882 0.196079
0.092175 0.405012 0.157169
0.129355 0.404141 0.150990
0.179063 0.405729 0.153180
0.238037 0.405574 0.152907
0.294835 0.403137 0.150043
0.356317 0.397169 0.165557
0.411450 0.384199 0.180813
0.462200 0.379847 0.186428
0.528010 0.387094 0.186943
0.598671 0.392396 0.189737
0.672396 0.395533 0.194443
0.737475 0.405987 0.198145
0.802898 0.407910 0.195055
0.868495 0.408418 0.199827
0.930263 0.407843 0.206103
0.982200 0.408866 0.216471
0.047059 0.474510 0.138039
0.100459 0.481808 0.141483
0.157938 0.480358 0.134252
0.224628 0.482928 0.143320
0.290666 0.479216 0.133229
0.354510 0.473726 0.145098
0.421176 0.465337 0.158738
0.480067 0.458174 0.172482
0.534117 0.449412 0.189020
0.597752 0.456784 0.195189
0.661961 0.462745 0.197647
0.728321 0.466734 0.202114
0.790656 0.461893 0.207059
0.850196 0.467451 0.212444
0.912837 0.469334 0.215268
0.966274 0.472157 0.232157
0.009464 0.550066 0.108653
0.043930 0.552414 0.113399
0.130719 0.554719 0.112314
0.209522 0.553875 0.112226
0.278536 0.551581 0.106562
0.351373 0.549229 0.121150
0.422423 0.543458 0.131929
0.484706 0.534013 0.142484
0.539246 0.530158 0.173170
0.598431 0.519529 0.191373
0.654797 0.520784 0.200994
0.718640 0.523921 0.205133
0.780392 0.524706 0.211660
0.838809 0.526442 0.229574
0.903425 0.528941 0.232523
0.961359 0.527948 0.251189
0.001569 0.619608 0.087843
0.003720 0.623051 0.085117
0.087111 0.620497 0.093490
0.185046 0.620497 0.092131
0.263291 0.617733 0.088627
0.334117 0.616470 0.087843
0.414730 0.612549 0.104075
0.479320 0.606170 0.124967
0.540967 0.600784 0.150274
0.597886 0.594271 0.167126
0.654902 0.584314 0.198431
0.710827 0.582984 0.220153
0.773908 0.584314 0.225569
0.833046 0.589019 0.237647
0.894357 0.588235 0.254118
0.951373 0.588235 0.266667
0.000000 0.685490 0.057255
0.001808 0.685558 0.060325
0.026667 0.683137 0.056471
0.153046 0.682458 0.049516
0.243137 0.681569 0.055686
0.321569 0.678431 0.054902
0.397953 0.676078 0.067451
0.469020 0.672157 0.095686
0.532653 0.666562 0.119425
0.597647 0.661177 0.153726
0.657255 0.657255 0.180392
0.713726 0.649957 0.211287
0.766274 0.645490 0.244706
0.824993 0.644601 0.256366
0.889412 0.644706 0.269020
0.939608 0.647059 0.280784
0.002659 0.743768 0.026667
0.002114 0.739349 0.025509
0.005251 0.737016 0.028579
0.117918 0.739355 0.024755
0.222267 0.741415 0.026054
0.306667 0.740153 0.023940
0.374768 0.737016 0.021740
0.450980 0.732549 0.060392
0.518533 0.731219 0.102624
0.589191 0.721501 0.131697
0.649957 0.717886 0.166820
0.707977 0.713965 0.198900
0.761569 0.706361 0.234682
0.819524 0.707832 0.275530
0.878499 0.708474 0.296030
0.933027 0.704792 0.312874
0.000000 0.800000 0.010980
0.004228 0.797102 0.010263
0.001995 0.797221 0.005423
0.072627 0.797176 0.008628
0.197333 0.796653 0.010980
0.277647 0.793725 0.009412
0.363376 0.793180 0.004467
0.437289 0.794084 0.018330
0.508026 0.788235 0.075190
0.577935 0.781752 0.121778
0.643922 0.777255 0.163921
0.702745 0.777255 0.197341
0.764415 0.772191 0.227451
0.816470 0.768732 0.267451
0.874615 0.766954 0.313046
0.926275 0.765490 0.355294
0.005176 0.849046 0.002458
0.002601 0.850494 0.000520
0.004497 0.850981 0.000209
0.024169 0.849282 0.005344
0.169307 0.850196 0.000889
0.260863 0.854013 0.000000
0.345131 0.849591 0.000155
0.420706 0.847059 0.001778
0.490277 0.846554 0.034779
0.562457 0.839791 0.094066
0.632261 0.838222 0.147347
0.695820 0.832909 0.189699
0.759111 0.830693 0.227347
0.813017 0.825140 0.268407
0.865203 0.822066 0.311687
0.927164 0.824419 0.364496
0.000000 0.909020 0.003137
0.004945 0.906189 0.004467
0.000784 0.905307 0.001569
0.003242 0.905307 0.005176
0.127365 0.906428 0.000717
0.243137 0.908235 0.004706
0.329651 0.908474 0.001808
0.403346 0.909908 0.004497
0.480889 0.904105 0.000000
0.549019 0.901961 0.047365
0.621176 0.898823 0.126275
0.690980 0.897561 0.184246
0.755974 0.896470 0.232052
0.814902 0.890196 0.280000
0.870110 0.893572 0.326342
0.927059 0.890196 0.375686
0.005490 0.972549 0.002353
0.002831 0.973640 0.002592
0.003922 0.977255 0.003137
0.000994 0.972340 0.000000
0.053334 0.978823 0.001569
0.214902 0.980392 0.001569
0.308474 0.973572 0.000000
0.385098 0.978824 0.001569
0.468706 0.975686 0.000000
0.541961 0.979608 0.000000
0.618823 0.973333 0.098039
0.692549 0.978039 0.176642
0.764706 0.974902 0.257255
0.827660 0.973124 0.305882
0.894118 0.975687 0.366275
0.949804 0.972549 0.420392
0.163137 0.114509 0.198431
0.175686 0.123138 0.196078
0.185457 0.124840 0.193434
0.222745 0.118431 0.195294
0.285490 0.114719 0.209307
0.349804 0.102745 0.211765
0.421961 0.088627 0.210981
0.497614 0.059115 0.199933
0.575686 0.025882 0.198431
0.661072 0.002353 0.204706
0.738824 0.000000 0.202353
0.800784 0.000000 0.206275
0.863036 0.000426 0.205064
0.919216 0.002353 0.208628
0.970092 0.000105 0.210301
0.996862 0.006274 0.207059
0.152157 0.129412 0.194510
0.173572 0.137800 0.201875
0.192650 0.144807 0.197288
0.225987 0.137935 0.197490
0.281673 0.135007 0.206170
0.344314 0.127843 0.207059
0.418107 0.115294 0.203682
0.495619 0.099406 0.206633
0.578144 0.085176 0.205176
0.656575 0.069125 0.204810
0.728627 0.059608 0.199216
0.792635 0.049957 0.202353
0.858465 0.046700 0.207911
0.916758 0.049621 0.209778
0.974379 0.057725 0.206954
0.997647 0.070588 0.214902
0.146532 0.164056 0.208336
0.159642 0.165064 0.209053
0.192659 0.165490 0.199937
0.227518 0.167485 0.202711
0.281890 0.165572 0.202944
0.345457 0.168336 0.209412
0.409053 0.158499 0.206700
0.489698 0.153439 0.210541
0.571205 0.148302 0.203137
0.646312 0.141141 0.205935
0.721569 0.136963 0.205064
0.791865 0.133042 0.203989
0.854257 0.130407 0.207050
0.912941 0.133759 0.201793
0.961693 0.137513 0.209600
1.000000 0.142028 0.212616
0.142745 0.203922 0.205490
0.158902 0.211660 0.204706
0.187025 0.209636 0.208561
0.227093 0.207417 0.206633
0.269229 0.205490 0.206484
0.331765 0.206275 0.210196
0.401359 0.209412 0.206484
0.474084 0.210913 0.205849
0.559216 0.212190 0.205916
0.638641 0.211974 0.207268
0.720000 0.206274 0.203137
0.783216 0.207059 0.206379
0.842645 0.207059 0.205849
0.905098 0.207059 0.206992
0.960889 0.206170 0.211085
1.000000 0.208628 0.218039
0.124601 0.261281 0.208993
0.138823 0.265987 0.197072
0.184235 0.263442 0.198954
0.226876 0.261176 0.201359
0.280432 0.254378 0.210788
0.331294 0.252445 0.211660
0.390327 0.260392 0.215896
0.461769 0.270317 0.211783
0.545778 0.269909 0.209726
0.627040 0.275579 0.213191
0.701176 0.275974 0.210876
0.775581 0.274719 0.212915
0.835381 0.274911 0.214581
0.893229 0.272941 0.214013
0.949154 0.274417 0.214916
0.995398 0.273621 0.222954
0.093334 0.327059 0.195294
0.123921 0.328627 0.192941
0.171047 0.327843 0.189154
0.223530 0.330196 0.184314
0.284601 0.324497 0.197647
0.338039 0.318431 0.210196
0.396863 0.312941 0.212549
0.467877 0.321927 0.218039
0.538039 0.329412 0.218039
0.607843 0.334013 0.218353
0.687059 0.337255 0.216471
0.757647 0.340392 0.219608
0.819967 0.340033 0.213692
0.884706 0.334902 0.216470
0.944889 0.337150 0.218039
0.988235 0.343529 0.221176
0.043922 0.405490 0.183530
0.091593 0.401979 0.185270
0.154084 0.406342 0.183104
0.217150 0.401882 0.184209
0.284811 0.403033 0.184784
0.352157 0.393725 0.196079
0.411354 0.385883 0.204534
0.464381 0.380818 0.216045
0.530980 0.385778 0.219137
0.605386 0.394405 0.221386
0.669804 0.397647 0.217255
0.739847 0.400239 0.225098
0.808202 0.402711 0.225815
0.871268 0.404811 0.230483
0.929987 0.405595 0.236863
0.983529 0.408628 0.240000
0.006274 0.479283 0.168560
0.039843 0.479574 0.169277
0.122281 0.477437 0.166498
0.205849 0.479641 0.168986
0.277926 0.479216 0.158656
0.352515 0.474510 0.170129
0.419316 0.467160 0.185233
0.478077 0.460038 0.201640
0.534476 0.453759 0.217613
0.594314 0.451550 0.223879
0.665883 0.461602 0.225882
0.730129 0.461176 0.229445
0.793725 0.462960 0.237069
0.849770 0.466309 0.238790
0.913513 0.466815 0.248974
0.972325 0.471597 0.255753
0.003922 0.551373 0.155294
0.002719 0.556340 0.158432
0.086745 0.552089 0.154443
0.184739 0.553300 0.153793
0.268810 0.550588 0.153621
0.349020 0.549020 0.152157
0.415373 0.547242 0.164967
0.479148 0.538107 0.185098
0.539966 0.530263 0.201143
0.599320 0.524601 0.220654
0.656471 0.518431 0.227451
0.720314 0.522353 0.229595
0.777972 0.526274 0.239283
0.837289 0.525849 0.251406
0.904784 0.525908 0.268601
0.960784 0.535686 0.270588
0.000000 0.621856 0.143896
0.002144 0.620183 0.137464
0.037490 0.617758 0.139146
0.157072 0.620967 0.135268
0.255256 0.614521 0.139159
0.325281 0.620183 0.130771
0.404444 0.615477 0.145464
0.474021 0.606779 0.170486
0.540392 0.600680 0.183529
0.602815 0.592396 0.203336
0.656053 0.584994 0.226824
0.714196 0.582065 0.248052
0.779403 0.586138 0.255006
0.839111 0.588131 0.263320
0.894443 0.588256 0.278938
0.946980 0.591164 0.298144
0.000784 0.679215 0.116078
0.000000 0.686275 0.125490
0.009659 0.682353 0.125849
0.130980 0.676863 0.128628
0.230954 0.680209 0.116706
0.309020 0.682353 0.117647
0.384314 0.676863 0.120000
0.468661 0.674151 0.141961
0.534117 0.662745 0.168628
0.599111 0.662745 0.186876
0.655686 0.654902 0.212549
0.715294 0.647843 0.240784
0.767417 0.643921 0.266667
0.826667 0.643921 0.277647
0.885281 0.652340 0.294693
0.941960 0.650980 0.314510
0.000784 0.741961 0.108235
0.004773 0.741483 0.104007
0.001569 0.739899 0.109871
0.090876 0.740392 0.102955
0.203922 0.739033 0.104314
0.295686 0.735686 0.101961
0.371526 0.736470 0.107996
0.448135 0.736471 0.121143
0.519895 0.730667 0.144209
0.585778 0.722928 0.171294
0.648627 0.718431 0.203921
0.709020 0.712702 0.232396
0.764773 0.707025 0.261961
0.818039 0.706772 0.294118
0.877856 0.708445 0.315033
0.935686 0.709020 0.336471
0.005557 0.796437 0.088829
0.003563 0.794151 0.091115
0.000856 0.800775 0.094468
0.049703 0.794510 0.090196
0.180569 0.795869 0.088948
0.277647 0.795652 0.097389
0.358924 0.791798 0.094320
0.431377 0.786169 0.091993
0.505456 0.789020 0.133400
0.575474 0.786985 0.160296
0.638723 0.779742 0.192941
0.704381 0.777322 0.233725
0.766055 0.774539 0.251411
0.819608 0.770622 0.295328
0.874852 0.766507 0.338553
0.928269 0.771272 0.370689
0.002353 0.849412 0.074510
0.007216 0.850301 0.078483
0.002779 0.850622 0.065524
0.007866 0.847776 0.066734
0.151163 0.848052 0.069020
0.249412 0.847059 0.061177
0.336366 0.849412 0.067921
0.414902 0.842353 0.068235
0.488628 0.844706 0.103171
0.559425 0.841569 0.144732
0.627451 0.835294 0.176471
0.692549 0.835399 0.214902
0.754510 0.832516 0.259966
0.811764 0.825815 0.292482
0.872837 0.825307 0.326484
0.923137 0.827451 0.378823
0.004026 0.905987 0.029908
0.001569 0.907137 0.036392
0.004703 0.906223 0.043479
0.002928 0.909020 0.037438
0.116450 0.905534 0.037831
0.231582 0.906771 0.036654
0.325647 0.906301 0.032366
0.402561 0.909469 0.031198
0.473621 0.909490 0.046274
0.552290 0.905999 0.119290
0.624314 0.901856 0.166693
0.693124 0.897359 0.217150
0.752022 0.892909 0.260833
0.813856 0.894797 0.301490
0.877018 0.892549 0.353120
0.930876 0.894797 0.396863
0.000000 0.969411 0.007059
0.006275 0.974902 0.007059
0.001076 0.978823 0.008493
0.003922 0.972549 0.010981
0.051294 0.981752 0.006588
0.217255 0.980392 0.007059
0.304314 0.976471 0.002353
0.392650 0.978823 0.002644
0.470588 0.976471 0.004706
0.546876 0.980287 0.066300
0.621960 0.976471 0.160000
0.690196 0.977255 0.216471
0.758723 0.972549 0.278364
0.829020 0.975687 0.328627
0.892654 0.972549 0.387242
0.956863 0.972549 0.432942
0.178823 0.120785 0.232941
0.198327 0.113673 0.232366
0.203137 0.128628 0.226667
0.224807 0.129053 0.222745
0.272942 0.127059 0.236863
0.349804 0.105882 0.252549
0.431372 0.082562 0.268131
0.505882 0.047059 0.276863
0.581602 0.005064 0.262319
0.669804 0.000784 0.259608
0.751372 0.000000 0.255686
0.813334 0.000000 0.254013
0.869804 0.000000 0.250196
0.921927 0.003205 0.254185
0.977255 0.002353 0.251765
1.000000 0.003138 0.254118
0.179085 0.135686 0.233935
0.196670 0.137866 0.237333
0.213019 0.141072 0.235869
0.225391 0.149958 0.225566
0.273830 0.142170 0.242719
0.348131 0.126954 0.254536
0.426160 0.110839 0.266750
0.502954 0.089778 0.267556
0.589303 0.039054 0.264994
0.668235 0.003399 0.261752
0.737359 0.003085 0.254118
0.803179 0.001022 0.253253
0.864314 0.001516 0.250981
0.919296 0.000962 0.248349
0.974797 0.001830 0.257830
0.998118 0.015843 0.262850
0.161568 0.149019 0.258039
0.177621 0.157438 0.251869
0.208829 0.165848 0.243922
0.230454 0.171339 0.237087
0.276078 0.163712 0.246274
0.347451 0.158431 0.261961
0.421856 0.147346 0.260078
0.503171 0.131406 0.258330
0.584963 0.104538 0.254409
0.661595 0.082928 0.250196
0.734118 0.073726 0.251765
0.792837 0.073516 0.248784
0.859742 0.079574 0.248695
0.920852 0.084347 0.254835
0.964235 0.099608 0.250771
1.000000 0.111373 0.258824
0.146443 0.200000 0.250913
0.155388 0.202357 0.252355
0.181401 0.206992 0.253827
0.232726 0.203998 0.251406
0.278431 0.205916 0.246768
0.337389 0.203204 0.249927
0.420970 0.199580 0.256365
0.495462 0.197289 0.252908
0.571482 0.189938 0.249336
0.650487 0.186308 0.253759
0.725064 0.180885 0.251765
0.790738 0.183622 0.252061
0.851832 0.183529 0.249770
0.908450 0.183525 0.255758
0.966207 0.187585 0.256829
0.991664 0.195720 0.265950
0.117647 0.261961 0.259608
0.134797 0.263739 0.252915
0.175007 0.263425 0.251765
0.222229 0.262454 0.251473
0.280306 0.259369 0.243070
0.331765 0.254902 0.245490
0.404915 0.256784 0.253542
0.474510 0.263320 0.255373
0.556146 0.263955 0.247911
0.637341 0.264314 0.254185
0.710588 0.262745 0.250980
0.778039 0.264419 0.252758
0.839216 0.264314 0.255687
0.897680 0.262387 0.262095
0.953180 0.261655 0.258824
0.994510 0.269804 0.269804
0.061961 0.323922 0.258039
0.102379 0.325700 0.236601
0.147451 0.328628 0.241569
0.204213 0.324348 0.231372
0.272941 0.327843 0.238431
0.344314 0.321569 0.254118
0.400000 0.314509 0.255111
0.469804 0.319216 0.254118
0.540392 0.325423 0.250487
0.615686 0.328627 0.254902
0.690196 0.334117 0.254118
0.764392 0.333908 0.258353
0.827451 0.331765 0.263529
0.886207 0.328560 0.261827
0.945098 0.333333 0.268235
0.997647 0.340392 0.274510
0.000000 0.406850 0.234614
0.010860 0.405574 0.231373
0.106301 0.402823 0.237961
0.191059 0.405004 0.232557
0.274928 0.403712 0.234980
0.342745 0.394405 0.231948
0.406346 0.390349 0.250359
0.466667 0.384994 0.256575
0.534434 0.389083 0.256890
0.610091 0.392157 0.257673
0.679215 0.394510 0.264784
0.748370 0.401121 0.271196
0.812654 0.400889 0.270274
0.874492 0.401352 0.277037
0.934222 0.404915 0.278536
0.983268 0.404601 0.279896
0.004706 0.480000 0.225882
0.000209 0.482457 0.218562
0.045356 0.477289 0.224672
0.166700 0.480852 0.221042
0.259033 0.478431 0.219608
0.341961 0.476863 0.229804
