assets/lut/editingcorp bisogno.cube
# Created by: G'MIC (https://gmic.eu)
TITLE "bisogno"
# LUT size
LUT_3D_SIZE 13
# Data domain
DOMAIN_MIN 0.0 0.0 0.0
DOMAIN_MAX 1.0 1.0 1.0
# LUT data points
0.011575646698474884 0.012474523857235909 0.01423060055822134
0.043534237891435623 0.012623432092368603 0.012217981740832329
0.17410816252231598 0.026283727958798409 0.011366660706698895
0.3294798731803894 0.04002067819237709 0.010963783599436283
0.4543551504611969 0.046745046973228455 0.010322645306587219
0.56263089179992676 0.048262979835271835 0.011244156397879124
0.65567249059677124 0.044629205018281937 0.010763923637568951
0.72971665859222412 0.056484445929527283 0.0098547544330358505
0.75605654716491699 0.054460007697343826 0.01046987809240818
0.76986473798751831 0.058439664542675018 0.0096661141142249107
0.78729522228240967 0.072255045175552368 0.010846800170838833
0.80810397863388062 0.092852875590324402 0.013971575535833836
0.8249661922454834 0.10900038480758667 0.01482843142002821
0.010967553593218327 0.055330418050289154 0.016508065164089203
0.034528695046901703 0.048156872391700745 0.014822028577327728
0.12769311666488647 0.058488480746746063 0.014960958622395992
0.29196876287460327 0.075210779905319214 0.016072500497102737
0.43706405162811279 0.08071562647819519 0.014284261502325535
0.55474579334259033 0.07885480672121048 0.01228046789765358
0.65090018510818481 0.080720476806163788 0.01079095620661974
0.72956538200378418 0.091644912958145142 0.010840547271072865
0.76277965307235718 0.092529639601707458 0.011076250113546848
0.77941018342971802 0.098468348383903503 0.011765663512051105
0.79700416326522827 0.10355816781520844 0.012579181231558323
0.81413882970809937 0.11079531162977219 0.013944902457296848
0.8271559476852417 0.11512021720409393 0.013619217090308666
0.013456187210977077 0.14326511323451996 0.029050549492239952
0.034277688711881638 0.13650138676166534 0.029521314427256584
0.10167279839515686 0.13025903701782227 0.032993614673614502
0.26144367456436157 0.14736703038215637 0.031925905495882034
0.42653599381446838 0.15964260697364807 0.025483358651399612
0.5661194920539856 0.16153569519519806 0.018133604899048805
0.66881358623504639 0.15756796300411224 0.015605208463966846
0.74963349103927612 0.15132251381874084 0.011695188470184803
0.79007995128631592 0.15405666828155518 0.012370270676910877
0.80384534597396851 0.15341126918792725 0.015378376469016075
0.81383037567138672 0.14179591834545135 0.015394262969493866
0.82559031248092651 0.13768561184406281 0.013983857817947865
0.83344763517379761 0.13193756341934204 0.011655545793473721
0.025152916088700294 0.26424860954284668 0.057050727307796478
0.03922310471534729 0.26280790567398071 0.055487614125013351
0.090364255011081696 0.25650790333747864 0.058868903666734695
0.24273335933685303 0.2575545608997345 0.062291193753480911
0.41817957162857056 0.2733568549156189 0.049726299941539764
0.57496070861816406 0.28164157271385193 0.032826952636241913
0.69109553098678589 0.27420690655708313 0.025558680295944214
0.78149104118347168 0.25972425937652588 0.017663124948740005
0.8280327320098877 0.25032138824462891 0.01545396726578474
0.84182137250900269 0.24319696426391602 0.017617722973227501
0.85055941343307495 0.22742617130279541 0.020117307081818581
0.86164206266403198 0.21769948303699493 0.01862601563334465
0.86913394927978516 0.21054866909980774 0.014517077244818211
0.045737758278846741 0.39530625939369202 0.083674773573875427
0.057112105190753937 0.39460292458534241 0.082175582647323608
0.094468086957931519 0.39289602637290955 0.084558688104152679
0.23385375738143921 0.38834241032600403 0.097438544034957886
0.40882882475852966 0.39237299561500549 0.094140775501728058
0.56654483079910278 0.39888980984687805 0.048836607486009598
0.69599425792694092 0.39241021871566772 0.031082676723599434
0.79687041044235229 0.37810584902763367 0.026438290253281593
0.85280781984329224 0.36026617884635925 0.020874772220849991
0.87533408403396606 0.34860026836395264 0.02133624441921711
0.88731032609939575 0.33344593644142151 0.024197358638048172
0.89937978982925415 0.31707620620727539 0.022234000265598297
0.90880030393600464 0.30313169956207275 0.018074648454785347
0.089349307119846344 0.52188163995742798 0.10928101092576981
0.099986165761947632 0.51823157072067261 0.10792134702205658
0.1528034508228302 0.52013117074966431 0.11509022116661072
0.23964379727840424 0.51945918798446655 0.12798552215099335
0.40637916326522827 0.51398098468780518 0.15650832653045654
0.56245827674865723 0.51415151357650757 0.11406287550926208
0.68719643354415894 0.51164519786834717 0.045725308358669281
0.79207456111907959 0.49751207232475281 0.027976781129837036
0.85967880487442017 0.47973287105560303 0.025408949702978134
0.88894671201705933 0.465669184923172 0.026029475033283234
0.90697520971298218 0.4477476179599762 0.024519586935639381
0.91948920488357544 0.43055808544158936 0.023155122995376587
0.92709201574325562 0.4164121150970459 0.025086661800742149
0.15278452634811401 0.63478720188140869 0.14096350967884064
0.16509151458740234 0.63092339038848877 0.14040011167526245
0.20217855274677277 0.63291162252426147 0.14465564489364624
0.26116630434989929 0.63416975736618042 0.15329304337501526
0.38585111498832703 0.6308632493019104 0.17919352650642395
0.55944645404815674 0.62079083919525146 0.21353846788406372
0.68667006492614746 0.61830663681030273 0.14230279624462128
0.7835090160369873 0.61161166429519653 0.040220312774181366
0.85802048444747925 0.59607785940170288 0.031022090464830399
0.89679914712905884 0.57847493886947632 0.031010108068585396
0.91927039623260498 0.5578233003616333 0.027064245194196701
0.9321637749671936 0.53974997997283936 0.027544897049665451
0.93800228834152222 0.52998572587966919 0.033217128366231918
0.21601487696170807 0.73866391181945801 0.1743493378162384
0.22644761204719543 0.73231935501098633 0.17210295796394348
0.25058677792549133 0.73445737361907959 0.17292648553848267
0.28907206654548645 0.73386639356613159 0.18090859055519104
0.36994391679763794 0.73632979393005371 0.19554443657398224
0.52373015880584717 0.72792994976043701 0.24033449590206146
0.68871819972991943 0.718025803565979 0.28515073657035828
0.788291335105896 0.71805733442306519 0.1771942526102066
0.85424983501434326 0.71099710464477539 0.069959633052349091
0.90165877342224121 0.68806642293930054 0.043946612626314163
0.9243742823600769 0.66643720865249634 0.039158988744020462
0.94029611349105835 0.64868563413619995 0.042563091963529587
0.95118486881256104 0.63289558887481689 0.041696317493915558
0.26354268193244934 0.81818211078643799 0.20177982747554779
0.27486065030097961 0.81419384479522705 0.20203731954097748
0.29020026326179504 0.81348532438278198 0.19893757998943329
0.31846722960472107 0.81684005260467529 0.20546446740627289
0.37273350358009338 0.82235342264175415 0.21835924685001373
0.4741051197052002 0.82649415731430054 0.23693285882472992
0.64624279737472534 0.81500351428985596 0.30682611465454102
0.79989773035049438 0.80142712593078613 0.35971653461456299
0.86241674423217773 0.79916936159133911 0.23175656795501709
0.90484529733657837 0.78914153575897217 0.1009133905172348
0.92773211002349854 0.76882690191268921 0.075868062674999237
0.94660848379135132 0.75232809782028198 0.073322713375091553
0.96092349290847778 0.73292922973632812 0.067864738404750824
0.29568341374397278 0.87722909450531006 0.22217798233032227
0.30635979771614075 0.87305861711502075 0.22188413143157959
0.32029476761817932 0.87146198749542236 0.21751932799816132
0.34498906135559082 0.87441009283065796 0.22182036936283112
0.38391226530075073 0.88043510913848877 0.23435220122337341
0.44992277026176453 0.88727003335952759 0.25507697463035583
0.58164864778518677 0.88564252853393555 0.28431892395019531
0.76092046499252319 0.86796069145202637 0.39353516697883606
0.86784839630126953 0.85631442070007324 0.42228776216506958
0.90708696842193604 0.85171854496002197 0.29643628001213074
0.93272680044174194 0.85009276866912842 0.20257335901260376
0.95205152034759521 0.84113186597824097 0.15481700003147125
0.96640241146087646 0.82150423526763916 0.1353163868188858
0.3092619776725769 0.90033936500549316 0.22610621154308319
0.31873372197151184 0.89910846948623657 0.22441345453262329
0.32981500029563904 0.89918452501296997 0.22196260094642639
0.35344365239143372 0.90193599462509155 0.22824551165103912
0.38621711730957031 0.90771645307540894 0.24039958417415619
0.44252952933311462 0.9147268533706665 0.26534730195999146
0.55039536952972412 0.91835498809814453 0.29125067591667175
0.70623928308486938 0.91197985410690308 0.35538017749786377
0.85067224502563477 0.89423143863677979 0.48500612378120422
0.9076608419418335 0.89218288660049438 0.4724852442741394
0.93325388431549072 0.89671438932418823 0.36684393882751465
0.95436972379684448 0.89850383996963501 0.29942548274993896
0.96564221382141113 0.8894493579864502 0.26610973477363586
0.31867215037345886 0.91744977235794067 0.22742956876754761
0.32385638356208801 0.91807597875595093 0.22594715654850006
0.33271685242652893 0.92011457681655884 0.22490464150905609
0.34939682483673096 0.92213338613510132 0.2281184196472168
0.37544003129005432 0.92642438411712646 0.23668545484542847
0.42865669727325439 0.93344181776046753 0.26233172416687012
0.52088505029678345 0.93972909450531006 0.28796321153640747
0.66303670406341553 0.9390406608581543 0.32877439260482788
0.81942039728164673 0.92078268527984619 0.46440419554710388
0.90044939517974854 0.91114389896392822 0.51698493957519531
0.93104320764541626 0.91892141103744507 0.4520411491394043
0.95219409465789795 0.92595762014389038 0.40437296032905579
0.95939791202545166 0.92336338758468628 0.39204615354537964
0.32502093911170959 0.93180090188980103 0.22818627953529358
0.32620584964752197 0.93457114696502686 0.2271413654088974
0.33170333504676819 0.93703675270080566 0.22620438039302826
0.34503737092018127 0.93861579895019531 0.22766813635826111
0.36232510209083557 0.94137328863143921 0.2306550145149231
0.41404435038566589 0.94874536991119385 0.25690087676048279
0.48554828763008118 0.95786702632904053 0.28884845972061157
0.62455898523330688 0.96085017919540405 0.32285115122795105
0.7860603928565979 0.94562715291976929 0.43239542841911316
0.89384561777114868 0.92956346273422241 0.53040391206741333
0.93113839626312256 0.93675971031188965 0.48761284351348877
0.95016509294509888 0.94354206323623657 0.42704963684082031
0.95526224374771118 0.93860608339309692 0.41607701778411865
0.0096888523548841476 0.010053866542875767 0.034515023231506348
0.038397904485464096 0.0093608181923627853 0.034310046583414078
0.1657349169254303 0.017575178295373917 0.030643492937088013
0.33740821480751038 0.026302577927708626 0.026045406237244606
0.47052609920501709 0.027006844058632851 0.025947347283363342
0.5799136757850647 0.034176290035247803 0.025124987587332726
0.67099052667617798 0.035251900553703308 0.023842964321374893
0.73615556955337524 0.039950352162122726 0.024783279746770859
0.76115769147872925 0.02972838468849659 0.022654036059975624
0.77253139019012451 0.02800770103931427 0.022135326638817787
0.79028618335723877 0.045055240392684937 0.023066636174917221
0.81329405307769775 0.076464936137199402 0.025809388607740402
0.82479232549667358 0.085577629506587982 0.028631158173084259
0.011112302541732788 0.047580674290657043 0.044099874794483185
0.041596401482820511 0.04588795080780983 0.045180272310972214
0.13342960178852081 0.056756697595119476 0.040031790733337402
0.30597612261772156 0.072977565228939056 0.037944179028272629
0.45290562510490417 0.079644553363323212 0.036771077662706375
0.56473255157470703 0.076302878558635712 0.032180488109588623
0.66110634803771973 0.080310583114624023 0.028693852946162224
0.73899704217910767 0.092895045876502991 0.026862993836402893
0.76848644018173218 0.08871014416217804 0.026772083714604378
0.77828764915466309 0.080433458089828491 0.024969153106212616
0.79577505588531494 0.08813350647687912 0.024938784539699554
0.81451624631881714 0.096803925931453705 0.0258814487606287
0.82299935817718506 0.10064163058996201 0.027855368331074715
0.010417444631457329 0.12508581578731537 0.055455002933740616
0.035684280097484589 0.12725314497947693 0.054907269775867462
0.10627228766679764 0.12662771344184875 0.053259126842021942
0.26633211970329285 0.14000965654850006 0.052407432347536087
0.42965960502624512 0.15109306573867798 0.045975480228662491
0.56842893362045288 0.15335460007190704 0.035410713404417038
0.67554527521133423 0.15012431144714355 0.030081745237112045
0.75394672155380249 0.15004546940326691 0.028812363743782043
0.79646289348602295 0.15444007515907288 0.028307896107435226
0.80107039213180542 0.14450877904891968 0.028058400377631187
0.81094068288803101 0.13477310538291931 0.027419984340667725
0.82145297527313232 0.12846493721008301 0.026591567322611809
0.82689207792282104 0.12408004701137543 0.027057407423853874
0.012595592066645622 0.25503680109977722 0.075206443667411804
0.031851541250944138 0.25555425882339478 0.074888013303279877
0.0862693190574646 0.25525942444801331 0.075503915548324585
0.2412610650062561 0.25431200861930847 0.080493360757827759
0.41656166315078735 0.26933959126472473 0.068830840289592743
0.57445651292800903 0.27506056427955627 0.048437681049108505
0.69528055191040039 0.26904428005218506 0.038074925541877747
0.78237563371658325 0.25666970014572144 0.034074567258358002
0.82939666509628296 0.24587513506412506 0.030639978125691414
0.84220850467681885 0.23929588496685028 0.032576736062765121
0.85146582126617432 0.22472952306270599 0.030298974364995956
0.85961693525314331 0.21366672217845917 0.02825266495347023
0.86573565006256104 0.2079378068447113 0.029962502419948578
0.030492356047034264 0.39059880375862122 0.095400102436542511
0.046602092683315277 0.3885912299156189 0.093944638967514038
0.094393953680992126 0.39136531949043274 0.09982636570930481
0.23351724445819855 0.38517236709594727 0.11371633410453796
0.40708056092262268 0.39211294054985046 0.10983025282621384
0.56522089242935181 0.39819785952568054 0.062737710773944855
0.69417726993560791 0.39234098792076111 0.041431784629821777
0.79535162448883057 0.37430146336555481 0.04021039605140686
0.85174322128295898 0.36052179336547852 0.036749761551618576
0.87235313653945923 0.34865233302116394 0.035433121025562286
0.88734239339828491 0.32967385649681091 0.034134328365325928
0.8995969295501709 0.31311461329460144 0.032287087291479111
0.90835869312286377 0.30189803242683411 0.032762162387371063
0.0830063596367836 0.52034664154052734 0.1233479380607605
0.098419040441513062 0.51633274555206299 0.12246297299861908
0.14290983974933624 0.51791059970855713 0.12664550542831421
0.23567000031471252 0.51749855279922485 0.13884556293487549
0.40044176578521729 0.5123978853225708 0.16686415672302246
0.56169909238815308 0.51350128650665283 0.12862399220466614
0.68521773815155029 0.50941240787506104 0.050188850611448288
0.78747999668121338 0.4951724112033844 0.037855111062526703
0.86299806833267212 0.47609737515449524 0.038202472031116486
0.89216190576553345 0.45949149131774902 0.036954708397388458
0.90905427932739258 0.44424599409103394 0.036237545311450958
0.92104244232177734 0.42732566595077515 0.036210302263498306
0.92911714315414429 0.4152437150478363 0.037340771406888962
0.1497536301612854 0.63303929567337036 0.15575958788394928
0.16331256926059723 0.62986665964126587 0.15210507810115814
0.19526547193527222 0.63088279962539673 0.15468288958072662
0.2598821222782135 0.63169020414352417 0.16288158297538757
0.38281932473182678 0.62865144014358521 0.19082684814929962
0.56125974655151367 0.61986923217773438 0.23355750739574432
0.68683010339736938 0.61737316846847534 0.15249988436698914
0.7824864387512207 0.60967928171157837 0.051638897508382797
0.85999977588653564 0.59200245141983032 0.040775809437036514
0.90325945615768433 0.57271158695220947 0.03907380998134613
0.92063593864440918 0.55693703889846802 0.039050515741109848
0.9331853985786438 0.53794586658477783 0.039195582270622253
0.94409161806106567 0.5231749415397644 0.042153555899858475
0.21379148960113525 0.73400306701660156 0.18730337917804718
0.2252974659204483 0.73193275928497314 0.18371301889419556
0.24512156844139099 0.73316073417663574 0.18403677642345428
0.28708246350288391 0.73183917999267578 0.19203151762485504
0.36672908067703247 0.73092633485794067 0.20688265562057495
0.52311807870864868 0.72495734691619873 0.24884535372257233
0.68479728698730469 0.71884572505950928 0.29100134968757629
0.78905594348907471 0.71735602617263794 0.1916135847568512
0.85499078035354614 0.70920884609222412 0.079227715730667114
0.9071539044380188 0.68336611986160278 0.052561815828084946
0.92754143476486206 0.66511332988739014 0.054946403950452805
0.94186621904373169 0.64718550443649292 0.054315842688083649
0.95395886898040771 0.62761914730072021 0.054249901324510574
0.26688063144683838 0.81631708145141602 0.21251608431339264
0.27705970406532288 0.81914275884628296 0.2115212082862854
0.28798204660415649 0.81109809875488281 0.20898152887821198
0.31885245442390442 0.81223493814468384 0.21613325178623199
0.36949354410171509 0.82069557905197144 0.22918927669525146
0.47209674119949341 0.8264802098274231 0.2490764707326889
0.64788460731506348 0.81583118438720703 0.32147654891014099
0.80058366060256958 0.80117690563201904 0.37265521287918091
0.86210149526596069 0.79863661527633667 0.23914167284965515
0.9075247049331665 0.78971093893051147 0.1176421046257019
0.93203389644622803 0.76966243982315063 0.099810943007469177
0.94843757152557373 0.75166171789169312 0.09054940938949585
0.95912700891494751 0.73124855756759644 0.08410625159740448
0.2988092303276062 0.87455618381500244 0.23214079439640045
0.30767840147018433 0.87718194723129272 0.23116400837898254
0.32152572274208069 0.87306946516036987 0.22874005138874054
0.34768059849739075 0.87404793500900269 0.23478490114212036
0.38279226422309875 0.8806108832359314 0.24636256694793701
0.44765019416809082 0.88808375597000122 0.26631879806518555
0.58295506238937378 0.88587021827697754 0.29594093561172485
0.75918292999267578 0.86770492792129517 0.40746778249740601
0.86762517690658569 0.85596734285354614 0.43385908007621765
0.90835583209991455 0.85518026351928711 0.3084709644317627
0.9370763897895813 0.85511773824691772 0.20722395181655884
0.95244801044464111 0.83991938829421997 0.16778665781021118
0.96594911813735962 0.81993770599365234 0.14607775211334229
0.30986109375953674 0.89952391386032104 0.23741474747657776
0.31656038761138916 0.89987242221832275 0.23626972734928131
0.33014652132987976 0.89878231287002563 0.23540915548801422
0.35388687252998352 0.90159332752227783 0.24142947793006897
0.38747239112854004 0.90751796960830688 0.25440511107444763
0.438698410987854 0.91487139463424683 0.28100171685218811
0.54372537136077881 0.91819685697555542 0.30340397357940674
0.70076322555541992 0.91025286912918091 0.36576160788536072
0.84644699096679688 0.89429253339767456 0.49527594447135925
0.90675610303878784 0.89238828420639038 0.48355609178543091
0.93375289440155029 0.89751583337783813 0.37869825959205627
0.95381790399551392 0.89537191390991211 0.31380161643028259
0.96614295244216919 0.88652074337005615 0.27480241656303406
0.31614887714385986 0.9176630973815918 0.23960830271244049
0.32090082764625549 0.91807597875595093 0.23846122622489929
0.3326629102230072 0.91808193922042847 0.23877231776714325
0.35169225931167603 0.92079371213912964 0.24247798323631287
0.38137063384056091 0.9256168007850647 0.25464937090873718
0.43049302697181702 0.93307721614837646 0.27891185879707336
0.51990979909896851 0.93941164016723633 0.30114182829856873
0.66222316026687622 0.9383423924446106 0.33975633978843689
0.81833785772323608 0.91998124122619629 0.47435799241065979
0.89911448955535889 0.91040396690368652 0.52984488010406494
0.93054080009460449 0.91757357120513916 0.46690201759338379
0.95242458581924438 0.92567849159240723 0.41065022349357605
0.96175515651702881 0.92473876476287842 0.39975437521934509
0.32159256935119629 0.9319726824760437 0.24044117331504822
0.32337641716003418 0.93452745676040649 0.24026381969451904
0.33257138729095459 0.93498951196670532 0.2404952347278595
0.3478095531463623 0.93619006872177124 0.24211107194423676
0.37111532688140869 0.94035017490386963 0.25004732608795166
0.41944020986557007 0.94833201169967651 0.2735806405544281
0.49157759547233582 0.95732015371322632 0.30017843842506409
0.62711614370346069 0.9600033164024353 0.33116912841796875
0.78576755523681641 0.94404464960098267 0.44277819991111755
0.89147013425827026 0.93021857738494873 0.53926378488540649
0.92843890190124512 0.93130570650100708 0.49179187417030334
0.94935458898544312 0.93849766254425049 0.4330240786075592
0.96172338724136353 0.94049853086471558 0.42230752110481262
0.012079051695764065 0.015967050567269325 0.10627531260251999
0.03228321298956871 0.01687183789908886 0.10099473595619202
0.14687807857990265 0.017110668122768402 0.1090470552444458
0.3243737518787384 0.019991826266050339 0.072979331016540527
0.47302648425102234 0.02053762786090374 0.057540204375982285
0.59272414445877075 0.021858304738998413 0.059704124927520752
0.68937021493911743 0.024229535833001137 0.057520128786563873
0.7587435245513916 0.032023292034864426 0.060079041868448257
0.77917641401290894 0.026766728609800339 0.046773828566074371
0.79167026281356812 0.025585278868675232 0.043944623321294785
0.8044278621673584 0.038667537271976471 0.045085158199071884
0.82125759124755859 0.049280397593975067 0.042058609426021576
0.834189772605896 0.05095532163977623 0.049874503165483475
0.01727110892534256 0.060483146458864212 0.11251384019851685
0.037000499665737152 0.056689199060201645 0.10519500076770782
0.1329333484172821 0.059170186519622803 0.11094947904348373
0.29445195198059082 0.065575875341892242 0.090936683118343353
0.44739079475402832 0.068657800555229187 0.078059479594230652
0.57778453826904297 0.073116347193717957 0.07110634446144104
0.67818558216094971 0.076276011765003204 0.067541562020778656
0.75098216533660889 0.08150404691696167 0.06116054579615593
0.78263324499130249 0.076498709619045258 0.056547395884990692
0.79429250955581665 0.069692321121692657 0.056287683546543121
0.80750048160552979 0.07750556617975235 0.054353706538677216
0.82201248407363892 0.079969890415668488 0.050685357302427292
0.83377587795257568 0.081426762044429779 0.058489453047513962
0.012235274538397789 0.12566244602203369 0.12202052772045135
0.031661432236433029 0.12660273909568787 0.11785180866718292
0.10750207304954529 0.13214462995529175 0.12103158980607986
0.25712478160858154 0.14176218211650848 0.10957992821931839
0.42526361346244812 0.15065187215805054 0.094352439045906067
0.57400286197662354 0.15905372798442841 0.079118527472019196
0.68479722738265991 0.15649908781051636 0.07342858612537384
0.76250845193862915 0.1530923992395401 0.068528808653354645
0.80240023136138916 0.14959026873111725 0.067386776208877563
0.81257754564285278 0.13420717418193817 0.06359369307756424
0.82010424137115479 0.12943542003631592 0.06030496209859848
0.82912862300872803 0.1176745668053627 0.053992521017789841
0.83551716804504395 0.11229168623685837 0.057424314320087433
0.0079915663227438927 0.2372189462184906 0.14501605927944183
0.024992205202579498 0.23383414745330811 0.13903349637985229
0.0833907350897789 0.2459365576505661 0.14028242230415344
0.22827884554862976 0.25458481907844543 0.13153228163719177
0.41000652313232422 0.26663339138031006 0.1158146858215332
0.57351350784301758 0.27267560362815857 0.090234018862247467
0.69576889276504517 0.26717469096183777 0.073183141648769379
0.7819405198097229 0.25737914443016052 0.071402668952941895
0.83331084251403809 0.24484346807003021 0.067176222801208496
0.84822893142700195 0.23359024524688721 0.064653046429157257
0.85707551240921021 0.22130408883094788 0.056502174586057663
0.86433368921279907 0.20907413959503174 0.053756311535835266
0.87042760848999023 0.20388275384902954 0.067156895995140076
0.024261295795440674 0.37509012222290039 0.15487085282802582
0.034554827958345413 0.37157729268074036 0.15224964916706085
0.074561789631843567 0.3761746883392334 0.15291386842727661
0.21214187145233154 0.38080191612243652 0.15236683189868927
