assets/lut/editingcorpw Timeless Sepia.cube
LUT_3D_SIZE 16
DOMAIN_MIN 0.0 0.0 0.0
DOMAIN_MAX 1.0 1.0 1.0
0.178531 0.112306 0.104768
0.189651 0.115395 0.106539
0.228287 0.127559 0.112697
0.284904 0.142837 0.118563
0.347710 0.154275 0.120229
0.416632 0.163424 0.120516
0.499034 0.173178 0.121987
0.589331 0.188125 0.129018
0.675874 0.207846 0.139583
0.753548 0.231913 0.151773
0.822599 0.257450 0.164920
0.887364 0.282872 0.178012
0.951623 0.308098 0.190622
1.000000 0.331908 0.202921
1.000000 0.353991 0.215341
1.000000 0.379095 0.232120
0.183169 0.128713 0.107326
0.187856 0.129870 0.109462
0.228020 0.139819 0.113698
0.282314 0.153134 0.119468
0.343820 0.163098 0.121414
0.412298 0.171158 0.121859
0.494895 0.180746 0.123243
0.584217 0.194643 0.130779
0.670538 0.213499 0.141620
0.749072 0.236587 0.153618
0.819461 0.261436 0.166073
0.885383 0.286655 0.178928
0.949634 0.311140 0.191022
1.000000 0.334175 0.202928
1.000000 0.355647 0.214928
1.000000 0.380829 0.231761
0.198727 0.180429 0.117330
0.207681 0.180523 0.118614
0.217724 0.182331 0.127296
0.278478 0.191930 0.124871
0.342078 0.194189 0.125493
0.411340 0.200430 0.127212
0.495700 0.209792 0.131124
0.583170 0.222464 0.140131
0.668676 0.238890 0.150162
0.746582 0.259130 0.161115
0.816574 0.281004 0.171975
0.882264 0.303363 0.183360
0.947369 0.326135 0.194534
0.999976 0.347769 0.205661
1.000000 0.367944 0.217508
1.000000 0.390808 0.233146
0.214792 0.233122 0.129232
0.223904 0.234044 0.129567
0.238502 0.232724 0.134741
0.250805 0.233853 0.147672
0.324725 0.251264 0.142993
0.405701 0.242997 0.141139
0.485844 0.251478 0.147406
0.571367 0.262515 0.155897
0.656524 0.276386 0.163808
0.735357 0.293596 0.172438
0.807053 0.312438 0.181381
0.874916 0.332161 0.190539
0.941041 0.352161 0.199916
0.997817 0.370949 0.209360
1.000000 0.388373 0.219849
1.000000 0.409564 0.235434
0.236076 0.291197 0.151443
0.245489 0.293593 0.152123
0.272181 0.292034 0.153619
0.284397 0.291137 0.164418
0.298421 0.291390 0.180308
0.385455 0.315111 0.175308
0.475456 0.306931 0.170996
0.561997 0.308611 0.174304
0.646167 0.321614 0.180015
0.725078 0.337078 0.185894
0.796579 0.353259 0.192404
0.865422 0.370246 0.199283
0.933518 0.387976 0.206701
0.995571 0.404623 0.214970
1.000000 0.419576 0.224757
1.000000 0.436518 0.238426
0.263157 0.343420 0.174624
0.273338 0.349126 0.176352
0.298363 0.346868 0.176840
0.323882 0.344299 0.181637
0.336364 0.343041 0.193741
0.350744 0.342138 0.209781
0.447859 0.375586 0.205680
0.539733 0.374578 0.198819
0.630658 0.366125 0.194278
0.709261 0.381061 0.198020
0.781949 0.396704 0.202701
0.853337 0.413147 0.207676
0.923052 0.429316 0.213083
0.988110 0.443525 0.219980
1.000000 0.455671 0.228586
1.000000 0.470222 0.242008
0.300444 0.401605 0.195071
0.312266 0.410217 0.198006
0.333644 0.407505 0.197754
0.370079 0.403004 0.197954
0.383848 0.400745 0.207040
0.397681 0.399383 0.219901
0.414290 0.399915 0.235536
0.512941 0.439657 0.229444
0.604430 0.446410 0.219154
0.690876 0.440344 0.211792
0.767385 0.441413 0.211044
0.839784 0.458007 0.214366
0.911695 0.474070 0.218877
0.979522 0.487699 0.225134
1.000000 0.498075 0.233416
1.000000 0.509184 0.246220
0.339562 0.459242 0.208798
0.351212 0.468701 0.210841
0.369494 0.466257 0.210780
0.403061 0.462412 0.210769
0.432154 0.459692 0.214819
0.445564 0.459223 0.225864
0.461191 0.459118 0.239544
0.479583 0.461323 0.255155
0.572557 0.506516 0.247878
0.661300 0.519969 0.233849
0.742745 0.516954 0.225723
0.824726 0.507353 0.220343
0.899016 0.519619 0.222842
0.967746 0.532266 0.228315
1.000000 0.542011 0.237125
1.000000 0.551617 0.250553
0.379950 0.520092 0.216434
0.389215 0.527893 0.217538
0.405228 0.526039 0.217434
0.435079 0.523191 0.217512
0.475820 0.519875 0.217781
0.490535 0.520183 0.227139
0.505725 0.521395 0.239500
0.522512 0.522995 0.254105
0.541931 0.527324 0.270812
0.626142 0.576240 0.264880
0.715730 0.596558 0.247624
0.798440 0.597440 0.238169
0.881415 0.588789 0.232245
0.958504 0.579597 0.231590
1.000000 0.588381 0.240935
1.000000 0.596515 0.255906
0.420954 0.586157 0.219962
0.428909 0.593194 0.220781
0.442389 0.591116 0.220754
0.468661 0.588978 0.220631
0.506134 0.586976 0.220728
0.534368 0.586487 0.225571
0.548143 0.588271 0.237440
0.563349 0.589922 0.251474
0.579503 0.591709 0.267734
0.597738 0.595974 0.286434
0.674458 0.645777 0.285399
0.771586 0.675218 0.264719
0.854754 0.676494 0.255939
0.935314 0.666234 0.251043
0.999478 0.647377 0.250109
1.000000 0.642011 0.261137
0.460761 0.656580 0.219181
0.465235 0.659412 0.219614
0.477101 0.657991 0.219474
0.500176 0.656923 0.219358
0.533806 0.655995 0.219510
0.574304 0.655238 0.220066
0.587762 0.658753 0.232248
0.603223 0.662574 0.247367
0.620130 0.666597 0.265037
0.637836 0.670546 0.285429
0.656001 0.674800 0.309148
0.727517 0.722176 0.318852
0.831388 0.754665 0.297862
0.912065 0.752255 0.292235
0.988726 0.740212 0.291551
1.000000 0.720607 0.293278
0.500377 0.735470 0.216421
0.503123 0.735599 0.216562
0.513749 0.735103 0.216489
0.534433 0.734372 0.216507
0.564929 0.733386 0.216374
0.603827 0.731905 0.216471
0.627319 0.732949 0.225764
0.641501 0.735903 0.242534
0.657669 0.739474 0.262525
0.675539 0.743660 0.286132
0.694637 0.748501 0.313939
0.715246 0.755284 0.347768
0.779728 0.793860 0.376594
0.888176 0.825090 0.360608
0.964265 0.819872 0.361402
1.000000 0.806509 0.364697
0.539830 0.812369 0.219547
0.542260 0.812463 0.219663
0.551763 0.811991 0.219601
0.570395 0.811241 0.219594
0.598326 0.810217 0.219725
0.634949 0.808890 0.219876
0.669265 0.808399 0.225501
0.682989 0.810896 0.246161
0.698991 0.813985 0.270803
0.716672 0.817351 0.299727
0.735531 0.820914 0.333562
0.755277 0.825079 0.372845
0.776192 0.831161 0.419096
0.831669 0.858808 0.468602
0.938723 0.885232 0.460072
1.000000 0.878941 0.465968
0.581701 0.880815 0.238803
0.583823 0.880803 0.238767
0.592344 0.880381 0.238756
0.609148 0.879766 0.238943
0.634701 0.878890 0.239398
0.668800 0.877684 0.240171
0.709491 0.876131 0.241996
0.724571 0.877521 0.266196
0.739909 0.879375 0.296267
0.756999 0.881503 0.330822
0.775387 0.883940 0.370319
0.794451 0.886588 0.415413
0.813533 0.889437 0.466013
0.832874 0.893459 0.522852
0.877660 0.911684 0.585587
0.975830 0.933025 0.582415
0.628717 0.939061 0.283159
0.630958 0.939377 0.284521
0.638211 0.938846 0.283823
0.653038 0.938201 0.283993
0.675873 0.937299 0.284730
0.706862 0.936028 0.285814
0.745498 0.934354 0.287660
0.766683 0.934401 0.309928
0.781201 0.935303 0.343697
0.797325 0.936306 0.382704
0.814603 0.937438 0.427094
0.832605 0.938685 0.476709
0.850674 0.940067 0.530469
0.868170 0.941514 0.586691
0.885046 0.943599 0.644698
0.917998 0.955285 0.709230
0.677882 0.987701 0.339818
0.679707 0.987695 0.340380
0.686183 0.987421 0.340490
0.699330 0.986877 0.341167
0.719753 0.986066 0.342308
0.747646 0.984894 0.344152
0.782901 0.983306 0.346422
0.808145 0.982525 0.366021
0.821909 0.982684 0.404431
0.837162 0.982898 0.448200
0.853483 0.983154 0.496956
0.870378 0.983453 0.549774
0.887339 0.983862 0.605304
0.903814 0.984387 0.661158
0.919640 0.985125 0.715016
0.934966 0.986389 0.765072
0.179708 0.122298 0.127822
0.189562 0.121473 0.127542
0.225189 0.130296 0.130847
0.279772 0.146797 0.136892
0.340904 0.159360 0.140279
0.409009 0.168978 0.142166
0.491407 0.179983 0.146038
0.580316 0.195176 0.154829
0.665788 0.213107 0.163955
0.743211 0.235107 0.173228
0.812796 0.259171 0.182791
0.878713 0.283866 0.192540
0.944419 0.308900 0.202621
0.999224 0.332778 0.212678
1.000000 0.354958 0.223408
1.000000 0.378857 0.237302
0.181369 0.133576 0.127045
0.190040 0.135042 0.127540
0.224384 0.143943 0.131702
0.277107 0.156741 0.137587
0.337360 0.167294 0.140611
0.404780 0.176455 0.143062
0.486716 0.187051 0.147684
0.574509 0.201180 0.156204
0.661013 0.218422 0.165038
0.739957 0.239838 0.174237
0.810566 0.263417 0.183636
0.877360 0.287666 0.193351
0.942663 0.312015 0.202976
0.998170 0.334813 0.212425
1.000000 0.356558 0.222854
1.000000 0.380442 0.236901
0.189794 0.183425 0.135151
0.201417 0.183638 0.135450
0.220672 0.184932 0.141122
0.277118 0.191755 0.141856
0.336822 0.197480 0.145290
0.406083 0.205129 0.149258
0.489000 0.215279 0.155477
0.576039 0.227594 0.163455
0.660512 0.242521 0.171516
0.738427 0.261321 0.179679
0.808703 0.282167 0.188017
0.875433 0.304242 0.196698
0.941819 0.327056 0.205880
0.998351 0.348832 0.215263
1.000000 0.369284 0.225489
1.000000 0.391635 0.239200
0.207473 0.234815 0.147244
0.216963 0.235850 0.147848
0.241199 0.234408 0.150747
0.253813 0.235850 0.162127
0.323740 0.250152 0.160438
0.400719 0.245883 0.161056
0.480006 0.254599 0.167221
0.564997 0.265217 0.174488
0.649356 0.278224 0.181282
0.728192 0.294493 0.187829
0.800221 0.312710 0.194837
0.868784 0.332347 0.202387
0.935696 0.352403 0.209943
0.995822 0.371246 0.217878
1.000000 0.389287 0.227301
1.000000 0.409823 0.240861
0.231243 0.293237 0.168057
0.240241 0.295644 0.169186
0.269551 0.293934 0.169982
0.287452 0.292560 0.178041
0.301039 0.292426 0.192219
0.384148 0.313734 0.188197
0.472551 0.305584 0.184441
0.557232 0.309614 0.188233
0.640603 0.322029 0.193255
0.719267 0.336934 0.197978
0.790982 0.352817 0.203533
0.860542 0.370029 0.209167
0.929636 0.388189 0.215541
0.994183 0.405261 0.223037
1.000000 0.420582 0.231859
1.000000 0.437779 0.244652
0.259153 0.345171 0.186996
0.269293 0.350683 0.189127
0.294347 0.348369 0.189346
0.326198 0.345207 0.192000
0.338456 0.343734 0.203247
0.352343 0.342504 0.217734
0.446059 0.373746 0.213966
0.536477 0.372008 0.207574
0.625797 0.364788 0.203925
0.704236 0.380018 0.207154
0.777292 0.395550 0.211294
0.849038 0.412375 0.215844
0.919169 0.428832 0.220696
0.984428 0.443274 0.226798
1.000000 0.456614 0.235172
1.000000 0.470918 0.247538
0.296822 0.402946 0.204557
0.308096 0.411060 0.207210
0.329870 0.408414 0.206978
0.367839 0.403751 0.206851
0.385386 0.401066 0.214222
0.398968 0.399570 0.226290
0.415515 0.400040 0.240985
0.512158 0.438528 0.235317
0.602502 0.444269 0.225587
0.688269 0.437622 0.218639
0.763987 0.440575 0.218211
0.836896 0.457473 0.221392
0.909310 0.474018 0.225591
0.977552 0.487985 0.231577
1.000000 0.498879 0.239592
1.000000 0.510656 0.252311
0.336586 0.460557 0.216115
0.347930 0.470007 0.218332
0.366687 0.467671 0.218179
0.400676 0.463726 0.217901
0.433652 0.460374 0.220893
0.446622 0.459447 0.231268
0.461602 0.458659 0.244109
0.479319 0.460332 0.259094
0.571183 0.504465 0.252077
0.659219 0.517399 0.238750
0.740628 0.514460 0.231143
0.822389 0.505984 0.226256
0.896585 0.519042 0.228660
0.965386 0.531908 0.233891
1.000000 0.543050 0.243103
1.000000 0.552973 0.256537
0.377557 0.521964 0.222532
0.387366 0.530496 0.223813
0.403757 0.528869 0.223773
0.433999 0.525907 0.223654
0.475913 0.522231 0.223707
0.492809 0.522139 0.232152
0.507833 0.523045 0.244122
0.524095 0.524048 0.258342
0.542650 0.527515 0.274495
0.625985 0.575458 0.268657
0.714717 0.594978 0.252040
0.797415 0.596011 0.242955
0.880558 0.587623 0.237308
0.957513 0.579727 0.237140
1.000000 0.589292 0.246811
1.000000 0.597688 0.261618
0.418903 0.587784 0.225477
0.427575 0.596200 0.226592
0.441578 0.594616 0.226512
0.468041 0.592242 0.226364
0.505533 0.589714 0.226380
0.536169 0.588199 0.230476
0.549291 0.589119 0.241787
0.563976 0.590134 0.255380
0.579839 0.591513 0.271294
0.597895 0.595669 0.289633
0.674440 0.645214 0.288945
0.770920 0.674191 0.268934
0.853739 0.675305 0.260315
0.935095 0.665808 0.255949
0.999458 0.647127 0.255181
1.000000 0.643006 0.266791
0.459236 0.658821 0.224692
0.464894 0.663388 0.225399
0.476987 0.662411 0.225265
0.500340 0.661163 0.225159
0.534034 0.659955 0.225230
0.576409 0.658613 0.225321
0.590100 0.661627 0.237119
0.605057 0.664668 0.251872
0.621294 0.667605 0.269125
0.638426 0.670766 0.289066
0.656269 0.674751 0.312560
0.727693 0.721989 0.322513
0.831183 0.754269 0.302358
0.911873 0.752006 0.297077
0.988684 0.740081 0.296519
1.000000 0.720729 0.298369
0.498449 0.735818 0.222026
0.501557 0.736792 0.222349
0.512130 0.735762 0.222197
0.532760 0.734975 0.222120
0.563619 0.734309 0.222233
0.602869 0.733087 0.222307
0.628197 0.733754 0.230664
0.642031 0.736148 0.246946
0.658111 0.739538 0.266671
0.675976 0.743728 0.290176
0.695058 0.748635 0.317921
0.715640 0.755410 0.351746
0.780014 0.793901 0.380625
0.888094 0.824899 0.365242
0.964085 0.819822 0.366201
1.000000 0.806559 0.369769
0.538236 0.812721 0.225731
0.541717 0.814436 0.227102
0.550753 0.813181 0.226382
0.569110 0.811775 0.225853
0.597080 0.810675 0.226024
0.633825 0.809331 0.226097
0.670104 0.809130 0.231096
0.684119 0.811937 0.251787
0.699961 0.814734 0.276128
0.717317 0.817670 0.304582
0.736019 0.821062 0.338030
0.755622 0.825162 0.377112
0.776491 0.831278 0.423349
0.831871 0.858872 0.472764
0.938717 0.885242 0.464586
1.000000 0.878996 0.470893
0.580614 0.881065 0.245321
0.582854 0.881149 0.245583
0.591376 0.880782 0.245707
0.608197 0.880151 0.245791
0.633794 0.879233 0.246264
0.667883 0.877964 0.246847
0.708846 0.876331 0.248450
0.725051 0.877598 0.271598
0.740349 0.879425 0.301266
0.757420 0.881545 0.335621
0.775742 0.883983 0.374934
0.794779 0.886634 0.419830
0.813754 0.889463 0.470221
0.833041 0.893485 0.526794
0.877780 0.911716 0.589202
0.975750 0.933052 0.586196
0.628001 0.939226 0.289721
0.632176 0.940973 0.295933
0.638834 0.940039 0.293961
0.652804 0.938784 0.292018
0.675409 0.937647 0.292035
0.706246 0.936341 0.292996
0.744855 0.934641 0.294542
0.767182 0.934490 0.315211
0.781588 0.935325 0.348614
0.797665 0.936302 0.387339
0.814910 0.937418 0.431567
0.832879 0.938686 0.480908
0.850897 0.940060 0.534321
0.868326 0.941514 0.590273
0.885174 0.943630 0.647815
0.918110 0.955341 0.711823
0.677510 0.987762 0.346148
0.679243 0.987812 0.346789
0.685849 0.987533 0.347166
0.698934 0.986999 0.347729
0.719305 0.986169 0.348810
0.747164 0.984991 0.350573
0.782332 0.983385 0.352747
0.808546 0.982505 0.370932
0.822297 0.982678 0.409091
0.837499 0.982893 0.452603
0.853764 0.983124 0.500951
0.870617 0.983446 0.553525
0.887533 0.983841 0.608580
0.903994 0.984356 0.663960
0.919760 0.985114 0.717397
0.935106 0.986358 0.766946
0.179520 0.154128 0.194662
0.187672 0.150136 0.194362
0.224815 0.150423 0.193838
0.273758 0.154596 0.190968
0.331058 0.167020 0.192681
0.395630 0.181998 0.198202
0.475183 0.204227 0.209854
0.562470 0.220146 0.218524
0.649062 0.233337 0.223871
0.729736 0.250970 0.228412
0.802207 0.272123 0.233005
0.870699 0.295423 0.237699
0.938420 0.319971 0.243003
0.997312 0.344085 0.249054
1.000000 0.366883 0.256182
1.000000 0.391846 0.267326
0.179745 0.163458 0.191478
0.189381 0.162711 0.192318
0.223582 0.160062 0.191993
0.270639 0.165626 0.190228
0.326351 0.178126 0.193993
0.391842 0.192409 0.200178
0.470668 0.211013 0.210199
0.557667 0.224328 0.217850
0.645511 0.237565 0.223591
0.726878 0.254764 0.228294
0.800212 0.275672 0.232933
0.869335 0.298708 0.237786
0.936505 0.322601 0.242794
0.996201 0.345674 0.248345
1.000000 0.368110 0.255348
1.000000 0.393052 0.266570
0.184854 0.197510 0.195577
0.194236 0.198408 0.195560
0.225023 0.200093 0.194837
0.270077 0.203498 0.196443
0.325445 0.212677 0.201238
0.393811 0.224271 0.208129
0.473677 0.234860 0.214988
0.559691 0.245294 0.221153
0.645678 0.257424 0.226112
0.726282 0.273437 0.230455
0.798970 0.292586 0.234591
0.867993 0.313963 0.239192
0.936166 0.336778 0.244324
0.996514 0.359126 0.250140
1.000000 0.380226 0.257227
1.000000 0.403880 0.268530
0.196977 0.242016 0.204345
0.204328 0.243604 0.205204
0.229579 0.244806 0.202129
0.267146 0.246594 0.204705
0.324203 0.251378 0.207222
0.390305 0.258142 0.212494
0.467682 0.266836 0.218331
0.552314 0.276733 0.223965
0.637243 0.288123 0.228573
0.718067 0.302882 0.232525
0.791864 0.320498 0.236593
0.862120 0.339986 0.240913
0.930386 0.360361 0.245551
0.993669 0.379919 0.250723
1.000000 0.398938 0.257593
1.000000 0.420739 0.269065
0.213370 0.299716 0.216380
0.220227 0.302577 0.217032
0.249129 0.301197 0.215730
0.295928 0.297979 0.216524
0.311103 0.297611 0.225952
0.383593 0.310503 0.224434
0.465822 0.306440 0.224438
0.547376 0.316216 0.229082
0.631129 0.327940 0.232882
0.711008 0.342256 0.236134
0.784010 0.358122 0.239681
0.854996 0.375758 0.243528
0.925146 0.394623 0.248031
0.990810 0.412562 0.253507
1.000000 0.428879 0.260384
1.000000 0.447358 0.271639
0.237699 0.348736 0.222422
0.248727 0.354142 0.226251
0.276324 0.352056 0.226157
0.321135 0.348290 0.225791
0.346089 0.346187 0.231821
0.359814 0.345379 0.243046
0.445296 0.370742 0.240692
0.533478 0.367014 0.236389
0.618983 0.368365 0.236274
0.698103 0.383420 0.239020
0.771982 0.399311 0.242191
0.844497 0.416557 0.245719
0.915286 0.433666 0.249674
0.981207 0.448974 0.254566
1.000000 0.463535 0.261800
1.000000 0.479054 0.273063
0.278614 0.404967 0.234029
0.289379 0.412768 0.237117
0.312590 0.410188 0.236683
0.352637 0.405785 0.236013
0.390392 0.401789 0.238245
0.404332 0.400679 0.248047
0.420696 0.401420 0.260376
0.511876 0.435779 0.256065
0.600388 0.439842 0.248530
0.685629 0.432075 0.243295
0.759778 0.443074 0.244849
0.833312 0.460607 0.247789
0.906302 0.477839 0.251758
0.974904 0.492655 0.257259
1.000000 0.504536 0.264580
1.000000 0.517401 0.276530
0.320158 0.462109 0.240590
0.331040 0.471249 0.243160
0.351176 0.469061 0.242854
0.386903 0.465305 0.242426
0.433904 0.460817 0.242226
0.450424 0.459751 0.250410
0.465462 0.459271 0.261501
0.482965 0.461020 0.274794
0.572150 0.503044 0.268871
0.658024 0.513930 0.258204
0.739322 0.510489 0.252092
0.820109 0.506101 0.249211
0.893954 0.522037 0.252440
0.963137 0.535602 0.257621
1.000000 0.547783 0.266767
1.000000 0.558766 0.280004
0.363139 0.523511 0.244023
0.372582 0.531836 0.245667
0.389966 0.530113 0.245523
0.421647 0.527192 0.245261
0.465254 0.523720 0.245094
0.495597 0.522305 0.249834
0.510727 0.523428 0.260577
0.527062 0.524581 0.273541
0.545376 0.528060 0.288557
0.627433 0.574840 0.283672
0.714068 0.592436 0.269911
0.796745 0.593341 0.262423
0.879937 0.584913 0.257834
0.955614 0.582879 0.259695
1.000000 0.593247 0.269457
1.000000 0.602621 0.284410
0.406393 0.589104 0.245549
0.415125 0.597447 0.247123
0.429758 0.595935 0.246956
0.457314 0.593588 0.246734
0.496133 0.591001 0.246567
0.538089 0.588097 0.247481
0.551240 0.589036 0.257949
0.566059 0.590160 0.270537
0.581989 0.591781 0.285486
0.600063 0.596197 0.303299
0.676063 0.645211 0.303765
0.770721 0.672560 0.286638
0.853294 0.673632 0.279349
0.934693 0.664391 0.275836
0.999392 0.646821 0.275661
1.000000 0.647137 0.289107
0.448835 0.660017 0.244749
0.454591 0.664757 0.245707
0.466998 0.663632 0.245639
0.491067 0.662384 0.245490
0.525865 0.661319 0.245486
0.569183 0.660023 0.245622
0.591974 0.661894 0.254101
0.606935 0.664875 0.267919
0.623095 0.667745 0.284338
0.640190 0.670998 0.303800
0.658100 0.675270 0.326958
0.729286 0.722169 0.338420
0.831059 0.753292 0.321172
0.911502 0.751295 0.316736
0.988158 0.739726 0.316711
1.000000 0.720888 0.318401
0.489605 0.736696 0.243597
0.493147 0.738171 0.244136
0.503938 0.737116 0.243832
0.525099 0.736217 0.243733
0.556460 0.735441 0.243786
0.596343 0.734110 0.243788
0.629672 0.733673 0.248689
0.643545 0.736084 0.264206
0.659703 0.739603 0.283258
0.677621 0.743934 0.306280
0.696700 0.748975 0.334003
0.717152 0.755821 0.368081
0.781322 0.794145 0.397530
0.887780 0.824305 0.384372
0.963467 0.819517 0.385946
1.000000 0.806761 0.389731
0.531337 0.813297 0.249414
0.534566 0.814588 0.250468
0.543840 0.813472 0.249833
0.562516 0.812335 0.249473
0.590974 0.811309 0.249583
0.628164 0.810190 0.249943
0.671102 0.809384 0.251836
0.685865 0.812133 0.271318
0.701558 0.814761 0.294719
0.718893 0.817700 0.322710
0.737497 0.821189 0.355737
0.756998 0.825445 0.394568
0.777575 0.831626 0.440749
0.832647 0.859057 0.489695
0.938371 0.885085 0.482792
1.000000 0.878904 0.489291
0.575677 0.881497 0.270867
0.577864 0.881589 0.271153
0.586464 0.881239 0.271102
0.603372 0.880606 0.271325
0.629093 0.879708 0.271728
0.663287 0.878458 0.272352
0.705224 0.876761 0.273226
0.726618 0.877500 0.292245
0.741901 0.879364 0.320961
0.758898 0.881529 0.354495
0.777083 0.883989 0.393190
0.795900 0.886695 0.437645
0.814675 0.889578 0.487370
0.833688 0.893600 0.542922
0.878353 0.911820 0.603516
0.975323 0.933057 0.601067
0.624588 0.939449 0.315080
0.628399 0.940912 0.320384
0.635049 0.940001 0.318345
0.649197 0.938872 0.316816
0.671953 0.937899 0.317281
0.702862 0.936638 0.318222
0.741361 0.934966 0.319664
0.768754 0.934389 0.335604
0.783066 0.935205 0.368016
0.799006 0.936207 0.406055
0.816110 0.937367 0.449432
0.833912 0.938638 0.497823
0.851720 0.940018 0.550121
0.868945 0.941520 0.604571
0.885609 0.943640 0.660400
0.918700 0.955386 0.721564
0.675099 0.987866 0.370324
0.676868 0.987917 0.371004
0.683470 0.987646 0.371332
0.696539 0.987123 0.371881
0.716794 0.986307 0.372906
0.744552 0.985131 0.374419
0.779607 0.983561 0.376365
0.810025 0.982379 0.390182
0.823615 0.982556 0.427275
0.838718 0.982755 0.469843
0.854862 0.983020 0.517180
0.871552 0.983337 0.568374
0.888279 0.983740 0.621775
0.904599 0.984271 0.675485
0.920295 0.985052 0.726925
0.935619 0.986328 0.774307
0.161086 0.184085 0.266899
0.172160 0.182343 0.266383
0.206767 0.174629 0.266263
0.268758 0.178028 0.263334
0.322493 0.185020 0.254006
0.385339 0.198557 0.257395
0.463193 0.210889 0.263922
0.548730 0.220715 0.269172
0.635264 0.232754 0.273255
0.716209 0.266117 0.282591
0.790091 0.289305 0.286827
0.860721 0.312551 0.290170
0.930140 0.338138 0.294112
0.994443 0.363788 0.298603
1.000000 0.388466 0.304248
1.000000 0.416321 0.314617
0.164473 0.191434 0.261397
0.174251 0.191342 0.263168
0.206830 0.183564 0.262644
0.266248 0.188006 0.260042
0.319247 0.194112 0.252840
0.381545 0.206386 0.257013
0.458756 0.217376 0.263329
0.544663 0.226498 0.268763
0.632404 0.238957 0.273199
0.713654 0.271591 0.282749
0.788606 0.292304 0.286476
0.859330 0.315406 0.289875
0.928079 0.340152 0.293539
0.991923 0.364652 0.297474
1.000000 0.389282 0.303164
1.000000 0.416820 0.313514
0.173445 0.226053 0.263700
0.184071 0.226678 0.263427
0.218289 0.224709 0.261003
0.266027 0.221765 0.259602
0.320112 0.226312 0.257403
0.382794 0.235242 0.262559
0.460958 0.243260 0.268197
0.546624 0.249658 0.271342
0.632564 0.267671 0.277704
0.713482 0.288793 0.283709
0.787620 0.307339 0.286827
0.858519 0.329195 0.290267
0.928222 0.353279 0.294230
0.993121 0.377404 0.298901
1.000000 0.400517 0.304598
1.000000 0.427132 0.315395
0.192119 0.258691 0.260009
0.199938 0.260614 0.261421
0.226921 0.261716 0.260595
0.268836 0.263765 0.260661
0.321351 0.265107 0.261111
0.383757 0.270016 0.264579
0.460183 0.277161 0.268452
0.541880 0.290049 0.274776
0.625455 0.301510 0.279408
0.706948 0.315094 0.282855
0.781849 0.332663 0.286349
0.853345 0.352816 0.289955
0.922803 0.374536 0.293677
0.987343 0.395819 0.297835
1.000000 0.417299 0.303966
1.000000 0.442102 0.315115
0.215732 0.302992 0.267629
0.222768 0.306296 0.270172
0.245351 0.306720 0.270192
0.281538 0.309195 0.269675
0.331472 0.310814 0.268264
0.389155 0.311910 0.268108
0.459674 0.318416 0.271675
0.538697 0.327034 0.275877
0.621198 0.337690 0.279604
0.701198 0.351229 0.282865
0.775027 0.367361 0.286092
0.847270 0.386187 0.289811
0.918507 0.406596 0.294122
0.984970 0.426513 0.299214
1.000000 0.445100 0.305539
1.000000 0.466563 0.316853
0.229563 0.355438 0.278001
0.237323 0.361172 0.281104
0.257478 0.359937 0.277729
0.293870 0.358262 0.271943
0.353389 0.354479 0.269835
0.375403 0.352917 0.276902
0.448878 0.366606 0.275423
0.531170 0.363529 0.274973
0.611299 0.375627 0.278348
0.690389 0.390322 0.281601
0.764663 0.406604 0.285283
0.837903 0.424733 0.289070
0.909246 0.443276 0.293225
0.975774 0.460376 0.298081
1.000000 0.477436 0.305620
1.000000 0.495747 0.317320
0.250764 0.410941 0.277348
0.258828 0.418521 0.280246
0.277653 0.416378 0.276743
0.321724 0.412517 0.275107
0.380749 0.407338 0.274356
0.415107 0.404514 0.278745
0.431574 0.405412 0.288784
0.513789 0.432042 0.286175
0.599143 0.431792 0.281762
0.680422 0.432464 0.280920
0.753512 0.448682 0.284342
0.827758 0.467254 0.288278
0.901285 0.485883 0.293171
0.970215 0.502413 0.299363
1.000000 0.516320 0.307094
1.000000 0.531615 0.319685
0.280538 0.467170 0.275185
0.290921 0.476006 0.278350
0.318147 0.473693 0.279324
0.359124 0.470231 0.278543
0.411973 0.465698 0.277768
0.457884 0.461573 0.279396
