assets/lut/editingcorp selor.cube
# Created by: G'MIC (https://gmic.eu)
TITLE "selor"
# LUT size
LUT_3D_SIZE 5
# Data domain
DOMAIN_MIN 0.0 0.0 0.0
DOMAIN_MAX 1.0 1.0 1.0
# LUT data points
0.021080914884805679 0.015844712033867836 0.01325276680290699
0.24025143682956696 0.09732036292552948 0.041877266019582748
0.54323476552963257 0.24415384232997894 0.10991015285253525
0.80082064867019653 0.37911179661750793 0.18502521514892578
0.96979451179504395 0.49881598353385925 0.30843445658683777
0.14917872846126556 0.12539383769035339 0.035659715533256531
0.3325255811214447 0.19919441640377045 0.054853986948728561
0.56454479694366455 0.34278079867362976 0.15822257101535797
0.8068925142288208 0.46040931344032288 0.23848211765289307
0.98298937082290649 0.56722891330718994 0.34802436828613281
0.34071370959281921 0.30028986930847168 0.059456516057252884
0.44974881410598755 0.27731013298034668 0.030283775180578232
0.66987371444702148 0.42065411806106567 0.13867220282554626
0.84412151575088501 0.56145238876342773 0.29340070486068726
0.98538881540298462 0.67802941799163818 0.44384461641311646
0.52711492776870728 0.45854726433753967 0.034414913505315781
0.61850142478942871 0.44060763716697693 0.023106908425688744
0.79583132266998291 0.4818996787071228 0.062236756086349487
0.93768876791000366 0.61815398931503296 0.26459589600563049
0.99472099542617798 0.75718855857849121 0.48708558082580566
0.79855805635452271 0.67831981182098389 0.024649765342473984
0.86489921808242798 0.65558797121047974 0.017672115936875343
0.94147920608520508 0.59888356924057007 0.057958997786045074
0.97525197267532349 0.69891613721847534 0.29454392194747925
0.99103373289108276 0.80172854661941528 0.49052265286445618
0.019096210598945618 0.037137962877750397 0.19233052432537079
0.16837316751480103 0.11721739172935486 0.22564445436000824
0.48791113495826721 0.21755765378475189 0.2517414391040802
0.76770615577697754 0.374420166015625 0.30756795406341553
0.96667861938476562 0.50943809747695923 0.39632955193519592
0.0090016387403011322 0.19979187846183777 0.26704177260398865
0.19493691623210907 0.23786619305610657 0.2735571563243866
0.50386321544647217 0.3327580988407135 0.29269862174987793
0.77910935878753662 0.45852291584014893 0.35379621386528015
0.97377127408981323 0.58768320083618164 0.44824177026748657
0.045895237475633621 0.39163303375244141 0.28237345814704895
0.31861031055450439 0.39128333330154419 0.26560506224632263
0.60343217849731445 0.43119078874588013 0.28985458612442017
0.8139832615852356 0.58615773916244507 0.41377714276313782
0.98283010721206665 0.70093375444412231 0.52719366550445557
0.42333438992500305 0.56329107284545898 0.2499745637178421
0.59669393301010132 0.55241459608078003 0.23825302720069885
0.76434087753295898 0.49416887760162354 0.20768141746520996
0.92183494567871094 0.64435803890228271 0.38625422120094299
0.99367278814315796 0.78746098279953003 0.5709415078163147
0.78003549575805664 0.74145352840423584 0.21119846403598785
0.84913498163223267 0.72527730464935303 0.21885603666305542
0.93794387578964233 0.64033931493759155 0.20356513559818268
0.975044846534729 0.71728688478469849 0.37662753462791443
0.99838197231292725 0.84400802850723267 0.58944308757781982
0.038272064179182053 0.093277662992477417 0.48385462164878845
0.034888159483671188 0.15102012455463409 0.49730169773101807
0.38131582736968994 0.26025575399398804 0.46848130226135254
0.69344156980514526 0.34864962100982666 0.45728278160095215
0.93579220771789551 0.52911770343780518 0.53243297338485718
0.0081114824861288071 0.27150866389274597 0.53626483678817749
0.047779068350791931 0.29784247279167175 0.54026168584823608
0.4008956253528595 0.35649403929710388 0.51085323095321655
0.71824806928634644 0.45345434546470642 0.49960020184516907
0.95640963315963745 0.61523306369781494 0.57185643911361694
0.011392092332243919 0.45108756422996521 0.57211196422576904
0.056852139532566071 0.46738240122795105 0.57486110925674438
0.42548996210098267 0.49592474102973938 0.54420596361160278
0.74909502267837524 0.59298628568649292 0.54768836498260498
0.96194690465927124 0.71703261137008667 0.62446451187133789
0.012879824265837669 0.67576372623443604 0.58751779794692993
0.10238029807806015 0.68145072460174561 0.5679246187210083
0.56056642532348633 0.66969937086105347 0.50825858116149902
0.8514254093170166 0.68779152631759644 0.53977173566818237
0.98090505599975586 0.82447487115859985 0.68283218145370483
0.32025882601737976 0.86170333623886108 0.47935888171195984
0.61070626974105835 0.84873765707015991 0.49011299014091492
0.88285666704177856 0.79778259992599487 0.45281064510345459
0.97236943244934082 0.73166179656982422 0.47503641247749329
0.99315237998962402 0.86523687839508057 0.66590464115142822
0.12261573970317841 0.19400529563426971 0.72568148374557495
0.03484039381146431 0.21677052974700928 0.73113882541656494
0.15247975289821625 0.30872324109077454 0.73239707946777344
0.63067293167114258 0.47092285752296448 0.69249135255813599
0.86339312791824341 0.54937458038330078 0.66922414302825928
0.014257124625146389 0.28727728128433228 0.74890130758285522
0.030874200165271759 0.34023773670196533 0.76107668876647949
0.1878163069486618 0.41677549481391907 0.76719468832015991
0.67660123109817505 0.57043635845184326 0.72994387149810791
0.88406813144683838 0.63009947538375854 0.70796716213226318
0.011578518897294998 0.47013011574745178 0.77517426013946533
0.033784035593271255 0.49822220206260681 0.79131132364273071
0.26968845725059509 0.55470144748687744 0.79593020677566528
0.70962035655975342 0.66551715135574341 0.75770789384841919
0.90585410594940186 0.71556800603866577 0.73316413164138794
0.012250742875039577 0.65630030632019043 0.81094241142272949
0.039003200829029083 0.67143595218658447 0.81649333238601685
0.41229888796806335 0.7203826904296875 0.81703203916549683
0.74365311861038208 0.77307736873626709 0.77938854694366455
0.95624774694442749 0.83883559703826904 0.7855181097984314
0.010083471424877644 0.87987637519836426 0.85481208562850952
0.03780028223991394 0.8891674280166626 0.85143852233886719
0.46771541237831116 0.92086547613143921 0.8229670524597168
0.87419658899307251 0.89118349552154541 0.74168568849563599
0.99412393569946289 0.92049127817153931 0.81221407651901245
0.35300078988075256 0.35244140028953552 0.8960496187210083
0.31772312521934509 0.38123109936714172 0.9101872444152832
0.15815079212188721 0.40435031056404114 0.90971201658248901
0.63509798049926758 0.60261499881744385 0.90753096342086792
0.86119925975799561 0.72168242931365967 0.88748395442962646
0.30485367774963379 0.42285975813865662 0.9223516583442688
0.30357909202575684 0.44990363717079163 0.93488615751266479
0.2455003559589386 0.4976857602596283 0.94462889432907104
0.67713743448257446 0.67756360769271851 0.93567401170730591
0.88700497150421143 0.78530049324035645 0.91180133819580078
0.24564026296138763 0.5019758939743042 0.94340485334396362
0.31247574090957642 0.53113353252410889 0.95578360557556152
0.31361237168312073 0.58094000816345215 0.96267032623291016
0.68403518199920654 0.73116272687911987 0.95153772830963135
0.91649782657623291 0.85153186321258545 0.93662440776824951
0.25937870144844055 0.64373552799224854 0.9631536602973938
0.3114858865737915 0.65990197658538818 0.96882373094558716
0.37432670593261719 0.68595004081726074 0.97458916902542114
0.65465307235717773 0.78318756818771362 0.96249538660049438
0.94361013174057007 0.91354978084564209 0.95708268880844116
0.20206865668296814 0.78814435005187988 0.96959716081619263
0.3029121458530426 0.80069714784622192 0.97528666257858276
0.37193933129310608 0.83059841394424438 0.9827764630317688
0.73128396272659302 0.91254967451095581 0.98130619525909424
0.97852689027786255 0.97961628437042236 0.97885608673095703
