assets/lut/editingcorp foresta.cube
# Created by: G'MIC (https://gmic.eu)
TITLE "foresta"
# LUT size
LUT_3D_SIZE 5
# Data domain
DOMAIN_MIN 0.0 0.0 0.0
DOMAIN_MAX 1.0 1.0 1.0
# LUT data points
0.015424840152263641 0.020363288000226021 0.028877347707748413
0.30580839514732361 0.051113653928041458 0.063844464719295502
0.6529155969619751 0.086682356894016266 0.10146868973970413
0.85423111915588379 0.054262977093458176 0.099267773330211639
0.97641289234161377 0.049173019826412201 0.10605477541685104
0.011763419024646282 0.22548410296440125 0.037391960620880127
0.23349246382713318 0.24403055012226105 0.036955170333385468
0.63370710611343384 0.26544278860092163 0.070842340588569641
0.86046624183654785 0.24600501358509064 0.087017446756362915
0.98049014806747437 0.24063840508460999 0.094914346933364868
0.04201158881187439 0.46836394071578979 0.089940287172794342
0.16508816182613373 0.46699219942092896 0.069712124764919281
0.55209267139434814 0.53577548265457153 0.046461455523967743
0.8863295316696167 0.50666236877441406 0.032532263547182083
0.99336200952529907 0.47443279623985291 0.036601107567548752
0.056580964475870132 0.69753140211105347 0.08909028023481369
0.17593440413475037 0.69959014654159546 0.082231171429157257
0.40776380896568298 0.73454147577285767 0.039178617298603058
0.85073834657669067 0.81152766942977905 0.095354221761226654
0.99829095602035522 0.80058646202087402 0.034855548292398453
0.018764659762382507 0.83930736780166626 0.075422756373882294
0.12711001932621002 0.83399897813796997 0.077821902930736542
0.237253338098526 0.86118501424789429 0.019630042836070061
0.76008933782577515 0.91792196035385132 0.12892162799835205
0.99812936782836914 0.98220759630203247 0.11325438320636749
0.03169681504368782 0.04287344217300415 0.30056074261665344
0.24956014752388 0.040134802460670471 0.33681151270866394
0.63183009624481201 0.065511755645275116 0.30902668833732605
0.82830816507339478 0.059214811772108078 0.27746474742889404
0.95565730333328247 0.077725492417812347 0.27702349424362183
0.035270031541585922 0.26002898812294006 0.27792131900787354
0.20486071705818176 0.25697794556617737 0.2746339738368988
0.61923480033874512 0.26354297995567322 0.27271208167076111
0.8463979959487915 0.25527229905128479 0.25563898682594299
0.97422802448272705 0.25463837385177612 0.25864487886428833
0.048411276191473007 0.47885087132453918 0.26043730974197388
0.14964227378368378 0.47465556859970093 0.24067167937755585
0.53832089900970459 0.53014707565307617 0.20439967513084412
0.88654124736785889 0.50740188360214233 0.18750979006290436
0.99376368522644043 0.47720301151275635 0.19352324306964874
0.061967737972736359 0.69961237907409668 0.22025839984416962
0.16887801885604858 0.69589501619338989 0.21430370211601257
0.40120166540145874 0.73212218284606934 0.17875607311725616
0.8503868579864502 0.80721557140350342 0.21765415370464325
0.99500119686126709 0.79739904403686523 0.17850415408611298
0.041828304529190063 0.83413684368133545 0.19887346029281616
0.14728242158889771 0.8313601016998291 0.17599701881408691
0.25841110944747925 0.86059343814849854 0.15613441169261932
0.74856829643249512 0.91892153024673462 0.21623970568180084
0.99433761835098267 0.98320204019546509 0.22501766681671143
0.049257181584835052 0.084064662456512451 0.4595009982585907
0.16804669797420502 0.11398825794458389 0.52692574262619019
0.51923322677612305 0.090248122811317444 0.60884684324264526
0.79893165826797485 0.046792436391115189 0.60784024000167847
0.92059874534606934 0.046415708959102631 0.56795716285705566
0.056901969015598297 0.27821972966194153 0.47766885161399841
0.16756714880466461 0.27320873737335205 0.4869631826877594
0.46102273464202881 0.26585584878921509 0.57386243343353271
0.80251228809356689 0.26183614134788513 0.5586172342300415
0.9290270209312439 0.26980316638946533 0.52007639408111572
0.065471947193145752 0.50582915544509888 0.46407490968704224
0.1793564110994339 0.50341051816940308 0.4645710289478302
0.42507344484329224 0.5304027795791626 0.498628169298172
0.85661870241165161 0.54197579622268677 0.51873493194580078
0.9802548885345459 0.53670752048492432 0.51383358240127563
0.077996291220188141 0.72696638107299805 0.44916370511054993
0.19238652288913727 0.71802437305450439 0.4480782151222229
0.34439685940742493 0.74764764308929443 0.4205491840839386
0.83789598941802979 0.81278151273727417 0.43379640579223633
0.99741125106811523 0.80341857671737671 0.44309151172637939
0.069893583655357361 0.84981471300125122 0.40000894665718079
0.19311137497425079 0.85319054126739502 0.37680462002754211
0.31010434031486511 0.87421226501464844 0.35781052708625793
0.74374914169311523 0.9394640326499939 0.36878222227096558
0.9965319037437439 0.98062324523925781 0.40696865320205688
0.048535395413637161 0.078634895384311676 0.58851438760757446
0.17097201943397522 0.11711264401674271 0.65177047252655029
0.4652169942855835 0.082605980336666107 0.76437616348266602
0.83706730604171753 0.032300807535648346 0.83411186933517456
0.96988910436630249 0.031368240714073181 0.83570772409439087
0.057309828698635101 0.27755096554756165 0.62289255857467651
0.17372235655784607 0.27189284563064575 0.62961608171463013
0.3449852466583252 0.2683224081993103 0.71934932470321655
0.8549695611000061 0.209003746509552 0.84086304903030396
0.95609879493713379 0.21782198548316956 0.82826459407806396
0.066323556005954742 0.48922237753868103 0.61187529563903809
0.18124178051948547 0.48403143882751465 0.61649292707443237
0.28751888871192932 0.4744097888469696 0.6612316370010376
0.82547777891159058 0.50145083665847778 0.83334946632385254
0.96676063537597656 0.49737408757209778 0.8276405930519104
0.086957104504108429 0.72100698947906494 0.66458117961883545
0.197334885597229 0.71466988325119019 0.65951764583587646
0.31057620048522949 0.73780339956283569 0.67863571643829346
0.74252629280090332 0.81392967700958252 0.78772813081741333
0.98077100515365601 0.820273756980896 0.82278883457183838
0.091345332562923431 0.87441635131835938 0.67307776212692261
0.20942679047584534 0.86723393201828003 0.66003251075744629
0.25241866707801819 0.88188982009887695 0.66653871536254883
0.67306673526763916 0.95484858751296997 0.75142961740493774
0.99523574113845825 0.99156218767166138 0.79432791471481323
0.044261813163757324 0.087840095162391663 0.75164449214935303
0.16949160397052765 0.11896996945142746 0.80007421970367432
0.38350012898445129 0.10136286169290543 0.88876557350158691
0.84838932752609253 0.0259120874106884 0.98012131452560425
0.98009705543518066 0.015186953358352184 0.97996324300765991
0.057829312980175018 0.27055808901786804 0.77149420976638794
0.17569185793399811 0.27344593405723572 0.77636420726776123
0.30903422832489014 0.27218186855316162 0.84858262538909912
0.7892991304397583 0.22548371553421021 0.9641985297203064
0.95953291654586792 0.22156289219856262 0.97765654325485229
0.066004417836666107 0.47199341654777527 0.77030527591705322
0.1815149188041687 0.47161498665809631 0.76818418502807617
0.28031179308891296 0.46964547038078308 0.81212896108627319
0.75012874603271484 0.49797090888023376 0.95941442251205444
0.96661782264709473 0.49292901158332825 0.98430150747299194
0.078912921249866486 0.70074790716171265 0.78985422849655151
0.19219404458999634 0.70269870758056641 0.7975274920463562
0.30800041556358337 0.72352218627929688 0.81408864259719849
0.71268701553344727 0.80524146556854248 0.93827873468399048
0.98677933216094971 0.82851290702819824 0.9861295223236084
0.087602309882640839 0.85811585187911987 0.81785762310028076
0.19936417043209076 0.8571847677230835 0.81796848773956299
0.31001678109169006 0.87750852108001709 0.83930277824401855
0.64246559143066406 0.95567405223846436 0.92718625068664551
0.99849480390548706 0.99735850095748901 0.99613195657730103
