assets/lut/ericellerbrock avalanche.cube
# Created by: G'MIC (https://gmic.eu)
TITLE "avalanche"
# LUT size
LUT_3D_SIZE 13
# Data domain
DOMAIN_MIN 0.0 0.0 0.0
DOMAIN_MAX 1.0 1.0 1.0
# LUT data points
0.057230390608310699 0.073192432522773743 0.076494790613651276
0.062710627913475037 0.076160088181495667 0.078508742153644562
0.069932974874973297 0.079104989767074585 0.080917134881019592
0.083520494401454926 0.084150023758411407 0.082752138376235962
0.11963723599910736 0.093994155526161194 0.087263531982898712
0.1880134791135788 0.10804507881402969 0.091482244431972504
0.34791707992553711 0.13155730068683624 0.099372133612632751
0.52381086349487305 0.15658852458000183 0.12063746899366379
0.67856228351593018 0.18023113906383514 0.1432185173034668
0.78588837385177612 0.20001906156539917 0.15420866012573242
0.86269849538803101 0.2143833339214325 0.16053344309329987
0.8747258186340332 0.21568842232227325 0.16078431904315948
0.87791597843170166 0.21717165410518646 0.1596238762140274
0.057230390608310699 0.073382988572120667 0.07617294043302536
0.062420729547739029 0.079464763402938843 0.080007947981357574
0.069074399769306183 0.081578575074672699 0.082495987415313721
0.083034008741378784 0.084821112453937531 0.08352845162153244
0.13582733273506165 0.098182201385498047 0.089141935110092163
0.24686881899833679 0.11704022437334061 0.094788722693920135
0.41050595045089722 0.14150197803974152 0.10532000660896301
0.60105520486831665 0.1700420081615448 0.1293434202671051
0.75395882129669189 0.19384656846523285 0.15086139738559723
0.83329612016677856 0.20917628705501556 0.15815877914428711
0.87102699279785156 0.21557830274105072 0.16078236699104309
0.87754631042480469 0.21610693633556366 0.16076777875423431
0.88142490386962891 0.2192395031452179 0.15840919315814972
0.058032989501953125 0.086071819067001343 0.080677270889282227
0.061271157115697861 0.093111388385295868 0.084502846002578735
0.070951633155345917 0.095374181866645813 0.089935734868049622
0.099504955112934113 0.098841182887554169 0.093344084918498993
0.21192370355129242 0.11720189452171326 0.099538825452327728
0.39401903748512268 0.14148800075054169 0.10326183587312698
0.61840760707855225 0.17531599104404449 0.13064230978488922
0.79494190216064453 0.20784777402877808 0.15261463820934296
0.8661314845085144 0.22527217864990234 0.16148154437541962
0.87369799613952637 0.22054471075534821 0.16111843287944794
0.88421940803527832 0.2214498370885849 0.16102546453475952
0.8913148045539856 0.22489906847476959 0.16095490753650665
0.89350020885467529 0.22731451690196991 0.15988695621490479
0.054534312337636948 0.13200515508651733 0.08176112174987793
0.056216806173324585 0.1397610604763031 0.083567477762699127
0.069534748792648315 0.15094673633575439 0.090185157954692841
0.11352613568305969 0.15229141712188721 0.11221404373645782
0.2702292799949646 0.15180601179599762 0.12795192003250122
0.5272679328918457 0.178507000207901 0.12156310677528381
0.76326912641525269 0.22221581637859344 0.1456495076417923
0.89649504423141479 0.26195499300956726 0.16670776903629303
0.92793089151382446 0.27384984493255615 0.1721360832452774
0.92926925420761108 0.2660212516784668 0.17211025953292847
0.94298702478408813 0.27319425344467163 0.17121370136737823
0.95999038219451904 0.28625103831291199 0.17082694172859192
0.96039706468582153 0.29381304979324341 0.18235373497009277
0.047678284347057343 0.22786249220371246 0.065201796591281891
0.048224907368421555 0.24615924060344696 0.062779732048511505
0.060199782252311707 0.26047956943511963 0.061466395854949951
0.09772154688835144 0.26656427979469299 0.066232375800609589
0.3140254020690918 0.2449934333562851 0.17416746914386749
0.57675480842590332 0.25623416900634766 0.20945143699645996
0.8274071216583252 0.29129704833030701 0.19527405500411987
0.95520973205566406 0.33216831088066101 0.21810570359230042
0.98478657007217407 0.34619882702827454 0.22692550718784332
0.99246424436569214 0.3467521071434021 0.23078256845474243
0.99541914463043213 0.35239389538764954 0.24312520027160645
0.99884539842605591 0.35748901963233948 0.26298701763153076
0.99928951263427734 0.36619064211845398 0.27962690591812134
0.048761285841464996 0.35867413878440857 0.032970741391181946
0.051201239228248596 0.37297064065933228 0.035978909581899643
0.066661253571510315 0.38337671756744385 0.035415276885032654
0.10241950303316116 0.38791719079017639 0.0285771694034338
0.37210771441459656 0.36111679673194885 0.13324329257011414
0.68197637796401978 0.38676467537879944 0.36195692420005798
0.85089701414108276 0.41638088226318359 0.38495361804962158
0.96252501010894775 0.42617601156234741 0.37439197301864624
0.98978948593139648 0.44216439127922058 0.38626360893249512
0.99812841415405273 0.43389618396759033 0.38882866501808167
0.99999099969863892 0.43951374292373657 0.40286004543304443
1 0.45304450392723083 0.42481416463851929
1 0.46782788634300232 0.44371092319488525
0.095021359622478485 0.47691094875335693 0.033845279365777969
0.10734245181083679 0.48646712303161621 0.044019196182489395
0.1262039840221405 0.49608287215232849 0.046193607151508331
0.1662568598985672 0.50317370891571045 0.032857857644557953
0.35898816585540771 0.47655358910560608 0.079716339707374573
0.80290699005126953 0.47746804356575012 0.36962392926216125
0.92031651735305786 0.54498952627182007 0.53947800397872925
0.97048842906951904 0.56009548902511597 0.55804705619812012
0.99555796384811401 0.5675818920135498 0.56000196933746338
0.99925768375396729 0.56715846061706543 0.56226110458374023
1 0.57945311069488525 0.57480877637863159
1 0.59634929895401001 0.59115833044052124
1 0.6073724627494812 0.60365110635757446
0.14203533530235291 0.63898569345474243 0.032197181135416031
0.13925337791442871 0.66818022727966309 0.025925416499376297
0.14825022220611572 0.69355428218841553 0.019012106582522392
0.18221014738082886 0.68282246589660645 0.012149586342275143
0.38964316248893738 0.65525859594345093 0.027719998732209206
0.88454091548919678 0.59996318817138672 0.26776590943336487
0.9918244481086731 0.65301632881164551 0.58630812168121338
0.99702376127243042 0.66947531700134277 0.66883224248886108
0.9999890923500061 0.66713297367095947 0.68078523874282837
1 0.67269176244735718 0.68606418371200562
1 0.67874038219451904 0.69160640239715576
1 0.68030864000320435 0.69085067510604858
1 0.67691606283187866 0.68568462133407593
0.14578525722026825 0.81506407260894775 0.0046975081786513329
0.14789709448814392 0.81275737285614014 0.0046570124104619026
0.15567639470100403 0.80944103002548218 0.0024642795324325562
0.1835903525352478 0.80998224020004272 0.00079502776497974992
0.40651914477348328 0.78529602289199829 0.0073387892916798592
0.90492534637451172 0.7063254714012146 0.19849257171154022
0.99994158744812012 0.72004055976867676 0.58676695823669434
1 0.73633939027786255 0.7095787525177002
1 0.7273905873298645 0.72909039258956909
1 0.7275698184967041 0.74075406789779663
1 0.73273700475692749 0.75031453371047974
1 0.73402905464172363 0.75266462564468384
1 0.72942823171615601 0.74578988552093506
0.14794905483722687 0.8361240029335022 0.0048640230670571327
0.15158684551715851 0.83655142784118652 0.0063720704056322575
0.17492996156215668 0.83430910110473633 0.0042922226712107658
0.23613551259040833 0.82991510629653931 0.0016755048418417573
0.45861503481864929 0.80514878034591675 0.016248829662799835
0.93209159374237061 0.73824852705001831 0.20670853555202484
0.99994480609893799 0.75045317411422729 0.59232127666473389
1 0.76627993583679199 0.72608983516693115
1 0.76634800434112549 0.75798773765563965
1 0.76379120349884033 0.7717055082321167
1 0.76495993137359619 0.7757645845413208
1 0.76468068361282349 0.77627980709075928
1 0.7607187032699585 0.77264934778213501
0.14709684252738953 0.84138238430023193 0.0074065262451767921
0.15762139856815338 0.84177136421203613 0.0081184087321162224
0.19633825123310089 0.83818024396896362 0.0053127515129745007
0.26853546500205994 0.83129823207855225 0.0019432067638263106
0.53040605783462524 0.79689067602157593 0.027193300426006317
0.94867950677871704 0.74136102199554443 0.2379194051027298
0.99747228622436523 0.76157402992248535 0.6115301251411438
1 0.78299009799957275 0.74392038583755493
1 0.78532320261001587 0.77484750747680664
1 0.77683144807815552 0.77915889024734497
1 0.7791597843170166 0.78389298915863037
1 0.77819693088531494 0.78475403785705566
1 0.7752983570098877 0.78348022699356079
0.13839803636074066 0.84559309482574463 0.010787664912641048
0.16842606663703918 0.84244692325592041 0.0098740225657820702
0.21306225657463074 0.83752399682998657 0.0068618925288319588
0.30153527855873108 0.82816112041473389 0.0043868119828402996
0.54258888959884644 0.79602181911468506 0.029808133840560913
0.9538683295249939 0.74221181869506836 0.25138387084007263
0.99774503707885742 0.76236248016357422 0.61503404378890991
1 0.79051285982131958 0.75327450037002563
1 0.79100579023361206 0.78044134378433228
1 0.78207314014434814 0.78378838300704956
1 0.78039216995239258 0.78431373834609985
1 0.77765786647796631 0.78431373834609985
1 0.7764706015586853 0.78423869609832764
0.13052314519882202 0.8478628396987915 0.014286071062088013
0.16970756649971008 0.84326851367950439 0.013191566802561283
0.20182186365127563 0.83937132358551025 0.011495747603476048
0.2483942061662674 0.8334541916847229 0.0071839126758277416
0.5511813759803772 0.79225754737854004 0.037049222737550735
0.95217376947402954 0.74196714162826538 0.25029397010803223
0.99819612503051758 0.76202541589736938 0.61224931478500366
1 0.78660136461257935 0.74993222951889038
1 0.78517782688140869 0.7743840217590332
1 0.78333336114883423 0.78431373834609985
1 0.78039216995239258 0.78431373834609985
1 0.77759718894958496 0.7837633490562439
1 0.7764706015586853 0.78191286325454712
0.057230390608310699 0.074752673506736755 0.079123280942440033
0.062477320432662964 0.077936448156833649 0.081333070993423462
0.06953054666519165 0.079674996435642242 0.08241678774356842
0.076696224510669708 0.082788698375225067 0.082536660134792328
0.10583892464637756 0.091254785656929016 0.086736895143985748
0.19204756617546082 0.1076810210943222 0.091853693127632141
0.35932335257530212 0.13261599838733673 0.099593445658683777
0.54712593555450439 0.159711554646492 0.12363218516111374
0.6989893913269043 0.18408870697021484 0.1441788375377655
0.80729299783706665 0.20405904948711395 0.15608631074428558
0.8667677640914917 0.21566314995288849 0.16245666146278381
0.88031977415084839 0.21934916079044342 0.16265413165092468
0.88328331708908081 0.21959850192070007 0.16078431904315948
0.057277455925941467 0.076878443360328674 0.079920239746570587
0.061528030782938004 0.080769605934619904 0.083061560988426208
0.069440282881259918 0.082392975687980652 0.084257207810878754
0.083532102406024933 0.084801845252513885 0.084178775548934937
0.13588570058345795 0.097476452589035034 0.088815413415431976
0.25183805823326111 0.11658593267202377 0.094419412314891815
0.41701829433441162 0.14110192656517029 0.10559243708848953
0.62394291162490845 0.1728263646364212 0.13256627321243286
0.78383761644363403 0.19948174059391022 0.15244112908840179
0.84985768795013428 0.21226823329925537 0.15961597859859467
0.87204337120056152 0.21623654663562775 0.16100518405437469
0.88028073310852051 0.21903605759143829 0.16107900440692902
0.88395947217941284 0.21960784494876862 0.16078431904315948
0.058405604213476181 0.087558060884475708 0.083231858909130096
0.060260862112045288 0.091033101081848145 0.085564061999320984
0.06858556717634201 0.092167861759662628 0.089646145701408386
0.10437876731157303 0.10155319422483444 0.094487085938453674
0.22519940137863159 0.11610858142375946 0.095054879784584045
0.43124476075172424 0.1456066370010376 0.10926879942417145
0.63782554864883423 0.17775444686412811 0.1343197226524353
0.81014412641525269 0.20845431089401245 0.15424196422100067
0.87086981534957886 0.21761207282543182 0.16063198447227478
0.87748664617538452 0.21895036101341248 0.16078761219978333
0.88826829195022583 0.2245916873216629 0.16078431904315948
0.89441567659378052 0.22832652926445007 0.16102336347103119
0.89625507593154907 0.22989371418952942 0.16256546974182129
0.054417628794908524 0.13497382402420044 0.084927484393119812
0.055835634469985962 0.1426190584897995 0.084592960774898529
0.067417442798614502 0.15058736503124237 0.091028816998004913
0.11803890764713287 0.1547454297542572 0.11452249437570572
0.2889038622379303 0.15476870536804199 0.12874862551689148
0.54941475391387939 0.18224261701107025 0.12630710005760193
0.78372293710708618 0.22346553206443787 0.14694951474666595
0.90678155422210693 0.25855755805969238 0.16503062844276428
0.92331475019454956 0.25925686955451965 0.1695040762424469
0.92927342653274536 0.26205313205718994 0.17106892168521881
0.95116841793060303 0.27528837323188782 0.16457539796829224
0.96207177639007568 0.28841468691825867 0.17178250849246979
0.96204131841659546 0.29519277811050415 0.18305836617946625
0.048466145992279053 0.23206260800361633 0.067623838782310486
0.048523474484682083 0.25194072723388672 0.063164472579956055
0.053747035562992096 0.25469708442687988 0.063657902181148529
0.1061515212059021 0.26612111926078796 0.068167470395565033
0.32818871736526489 0.24938695132732391 0.17844559252262115
0.58714598417282104 0.25355324149131775 0.20493711531162262
0.8422437310218811 0.2799564003944397 0.18289810419082642
0.97614699602127075 0.32954239845275879 0.20993189513683319
0.98946994543075562 0.34386387467384338 0.22399908304214478
0.99241858720779419 0.35056832432746887 0.235984206199646
0.9965786337852478 0.35276716947555542 0.24885755777359009
0.99843370914459229 0.35882294178009033 0.26711738109588623
0.99818098545074463 0.36961224675178528 0.2849249541759491
0.052590284496545792 0.36244848370552063 0.034729108214378357
0.052457697689533234 0.37663155794143677 0.036768071353435516
0.061807550489902496 0.384084552526474 0.034346919506788254
0.10488578677177429 0.38959494233131409 0.027368582785129547
0.38579598069190979 0.36508828401565552 0.13971558213233948
0.69062227010726929 0.38578012585639954 0.36348417401313782
0.85907042026519775 0.39971399307250977 0.3661247193813324
0.97668814659118652 0.40808397531509399 0.35452640056610107
0.99341422319412231 0.43985253572463989 0.38565179705619812
0.99873226881027222 0.4491155743598938 0.39751541614532471
0.99987822771072388 0.44624263048171997 0.40892958641052246
1 0.45679321885108948 0.42926955223083496
1 0.47220045328140259 0.44960939884185791
0.097122058272361755 0.48438900709152222 0.033516813069581985
0.10553015768527985 0.49945980310440063 0.039526697248220444
0.11850810050964355 0.50144344568252563 0.04305623471736908
0.15440985560417175 0.49939808249473572 0.036731868982315063
0.37599271535873413 0.47514325380325317 0.09440690279006958
0.82022982835769653 0.48567411303520203 0.38179448246955872
0.93665963411331177 0.54899537563323975 0.54036277532577515
0.98293060064315796 0.55917567014694214 0.55325508117675781
0.99713808298110962 0.57293713092803955 0.56630736589431763
0.99992799758911133 0.57435834407806396 0.56543982028961182
1 0.58448106050491333 0.57782304286956787
1 0.59741777181625366 0.59375709295272827
1 0.61019796133041382 0.6067700982093811
0.1407465785741806 0.64887410402297974 0.030164128169417381
0.13865609467029572 0.67927032709121704 0.023681236431002617
0.14413715898990631 0.6964414119720459 0.015952689573168755
0.17209631204605103 0.68417555093765259 0.0093466220423579216
0.38494285941123962 0.65723830461502075 0.029372600838541985
0.88798737525939941 0.60059916973114014 0.27461549639701843
0.9941297173500061 0.65431845188140869 0.58664631843566895
0.99760681390762329 0.66838091611862183 0.66531908512115479
0.99995642900466919 0.6676487922668457 0.67550760507583618
1 0.67380577325820923 0.68435752391815186
1 0.67748367786407471 0.68995589017868042
1 0.68190151453018188 0.69378817081451416
1 0.68667006492614746 0.69847118854522705
0.14252810180187225 0.81873703002929688 0.0064137927256524563
0.14124535024166107 0.81686550378799438 0.010377277620136738
0.14644646644592285 0.81983906030654907 0.0078436611220240593
0.18455310165882111 0.81969195604324341 0.0025715995579957962
0.40193942189216614 0.78685420751571655 0.018024221062660217
0.90667670965194702 0.70467710494995117 0.21062757074832916
0.99993300437927246 0.71911728382110596 0.5836290717124939
1 0.7282184362411499 0.69960403442382812
1 0.72399783134460449 0.72354662418365479
1 0.72458773851394653 0.73510903120040894
1 0.72867733240127563 0.74574083089828491
1 0.7310296893119812 0.74919134378433228
1 0.73240309953689575 0.74866127967834473
0.13401989638805389 0.83672845363616943 0.013203609734773636
0.13054843246936798 0.8395044207572937 0.020861681550741196
0.14877296984195709 0.83835917711257935 0.017562402412295341
0.21022607386112213 0.83330070972442627 0.0077071846462786198
0.4642341136932373 0.80269098281860352 0.021505467593669891
0.92910420894622803 0.73839378356933594 0.20971895754337311
0.99997174739837646 0.75159496068954468 0.59201830625534058
1 0.76819115877151489 0.72857224941253662
1 0.76788324117660522 0.75948202610015869
1 0.76403850317001343 0.76881426572799683
1 0.7601131796836853 0.76977866888046265
1 0.75819861888885498 0.77043724060058594
1 0.75711679458618164 0.76935386657714844
0.12205593287944794 0.84410792589187622 0.017495429143309593
0.12998105585575104 0.84565633535385132 0.026050986722111702
0.16065862774848938 0.8428615927696228 0.019776077941060066
0.21119788289070129 0.83723020553588867 0.0086565352976322174
0.52637922763824463 0.79560679197311401 0.030762003734707832
0.95172023773193359 0.73909968137741089 0.23214830458164215
0.99982357025146484 0.76006782054901123 0.60179823637008667
1 0.77930694818496704 0.73765158653259277
1 0.78516072034835815 0.7737424373626709
1 0.78016287088394165 0.7802807092666626
1 0.77716755867004395 0.78138607740402222
1 0.77516913414001465 0.78234052658081055
1 0.77328890562057495 0.7808387279510498
0.11450961232185364 0.84862923622131348 0.013767721131443977
0.14370599389076233 0.84682095050811768 0.022836573421955109
0.19866296648979187 0.84089255332946777 0.019500283524394035
0.29310286045074463 0.83077645301818848 0.010832348838448524
0.53243774175643921 0.79753738641738892 0.028381107375025749
0.95048922300338745 0.74053376913070679 0.24610050022602081
0.99852609634399414 0.76095974445343018 0.61047643423080444
1 0.78461974859237671 0.74710565805435181
1 0.78571021556854248 0.77436167001724243
1 0.78187745809555054 0.78414005041122437
1 0.77991187572479248 0.78397035598754883
1 0.77661800384521484 0.78293687105178833
1 0.7764706015586853 0.78182446956634521
0.11171725392341614 0.85023319721221924 0.013490639626979828
0.14678573608398438 0.84764927625656128 0.027410723268985748
0.20785745978355408 0.84140843152999878 0.028428396210074425
0.30200651288032532 0.831257164478302 0.017093030735850334
0.5358538031578064 0.79790782928466797 0.033693693578243256
0.9435613751411438 0.74208462238311768 0.2510412335395813
0.99643957614898682 0.75931710004806519 0.60675126314163208
1 0.78252440690994263 0.74420654773712158
1 0.7842821478843689 0.77242863178253174
1 0.78283452987670898 0.78445661067962646
1 0.78025305271148682 0.78420203924179077
1 0.77667367458343506 0.78093922138214111
1 0.7764706015586853 0.78039431571960449
0.056848056614398956 0.076893031597137451 0.083605654537677765
0.060573771595954895 0.079713992774486542 0.086531892418861389
0.064725376665592194 0.080909952521324158 0.087203532457351685
0.074678979814052582 0.083156988024711609 0.087663270533084869
0.10855337232351303 0.092172689735889435 0.091744124889373779
0.20395481586456299 0.1099514365196228 0.095574565231800079
0.37016519904136658 0.13551141321659088 0.10056468099355698
0.56196016073226929 0.16326671838760376 0.12491270899772644
0.7192872166633606 0.18736732006072998 0.14664138853549957
0.83060699701309204 0.20810259878635406 0.15898491442203522
0.87375050783157349 0.21707902848720551 0.16471794247627258
0.89136135578155518 0.2213897705078125 0.16565310955047607
0.89682340621948242 0.2227417528629303 0.16247366368770599
0.058225326240062714 0.083827689290046692 0.088951006531715393
0.059309281408786774 0.083367951214313507 0.089331336319446564
0.066698305308818817 0.083787001669406891 0.090385675430297852
0.088479973375797272 0.088524840772151947 0.093708664178848267
0.14881458878517151 0.099866442382335663 0.094964377582073212
0.28141382336616516 0.11926908046007156 0.099463492631912231
0.44283932447433472 0.14355859160423279 0.11025039106607437
0.64040648937225342 0.1741856187582016 0.13637758791446686
0.78658729791641235 0.19957888126373291 0.1537141352891922
0.85863518714904785 0.21377460658550262 0.16032636165618896
0.87847071886062622 0.21804279088973999 0.16421203315258026
0.88935905694961548 0.22103142738342285 0.16550664603710175
0.8954540491104126 0.22343342006206512 0.16352355480194092
0.058823529630899429 0.095040611922740936 0.097004711627960205
0.05902506411075592 0.095153167843818665 0.097150854766368866
0.070897318422794342 0.098486609756946564 0.10027874261140823
0.11312005668878555 0.10798486322164536 0.10864906758069992
0.24333150684833527 0.11913278698921204 0.10185133665800095
0.4626484215259552 0.14796438813209534 0.11530154198408127
0.66663247346878052 0.18098810315132141 0.13915352523326874
0.82118982076644897 0.20976214110851288 0.15619534254074097
0.87583738565444946 0.2188531905412674 0.16262583434581757
0.88069027662277222 0.21973872184753418 0.16246494650840759
0.88995277881622314 0.22310486435890198 0.16400657594203949
0.89622277021408081 0.22640155255794525 0.16558787226676941
0.9020501971244812 0.23440776765346527 0.1697620302438736
0.054223153740167618 0.14247532188892365 0.10195212066173553
0.054972868412733078 0.14790478348731995 0.105117067694664
0.068442188203334808 0.15516753494739532 0.10584362596273422
0.12446063011884689 0.15985687077045441 0.12929257750511169
0.30030736327171326 0.15827974677085876 0.13221614062786102
0.5681610107421875 0.18708039820194244 0.12639343738555908
0.80361449718475342 0.22966714203357697 0.15204490721225739
0.91600310802459717 0.25706911087036133 0.16624903678894043
0.9270927906036377 0.25816076993942261 0.17016972601413727
0.9271741509437561 0.25993826985359192 0.17255032062530518
0.94474005699157715 0.27214324474334717 0.170789435505867
0.96016556024551392 0.28566282987594604 0.17273221909999847
0.95997107028961182 0.29609346389770508 0.18858328461647034
0.047290097922086716 0.24154120683670044 0.086698733270168304
0.049120001494884491 0.25367125868797302 0.084352679550647736
0.053303439170122147 0.2572283148765564 0.075986571609973907
0.11312315613031387 0.26778468489646912 0.07678571343421936
0.3305182158946991 0.25200217962265015 0.18160882592201233
0.59359860420227051 0.26217997074127197 0.2134973406791687
0.85443353652954102 0.2815781831741333 0.18500369787216187
0.98151952028274536 0.32118400931358337 0.20699292421340942
0.99044942855834961 0.33445450663566589 0.21877416968345642
0.99124658107757568 0.34839710593223572 0.23385865986347198
0.9949832558631897 0.35097301006317139 0.24650497734546661
0.99843478202819824 0.35685369372367859 0.26524645090103149
0.99659746885299683 0.3687874972820282 0.28648391366004944
0.050475221127271652 0.36300966143608093 0.045761480927467346
0.054145034402608871 0.37667208909988403 0.046989560127258301
0.055290654301643372 0.38436207175254822 0.039824526757001877
0.10887515544891357 0.39080962538719177 0.031521622091531754
0.39173662662506104 0.36688598990440369 0.14461861550807953
0.69764900207519531 0.38774710893630981 0.36514642834663391
0.86683666706085205 0.39582112431526184 0.36596804857254028
0.97079432010650635 0.40158340334892273 0.35850578546524048
0.99710023403167725 0.41416358947753906 0.37151706218719482
0.99939608573913574 0.44409483671188354 0.39344534277915955
0.99997419118881226 0.44606870412826538 0.40698486566543579
1 0.45347565412521362 0.42658758163452148
1 0.47325587272644043 0.45026329159736633
0.097576841711997986 0.48389098048210144 0.039081692695617676
0.10442168265581131 0.50185906887054443 0.042334716767072678
