assets/lut/ericellerbrock terra 4.cube
# Created by: G'MIC (https://gmic.eu)
TITLE "terra_4"
# LUT size
LUT_3D_SIZE 5
# Data domain
DOMAIN_MIN 0.0 0.0 0.0
DOMAIN_MAX 1.0 1.0 1.0
# LUT data points
0.047000482678413391 0.08235294371843338 0.086274512112140656
0.073460176587104797 0.08322577178478241 0.082408949732780457
0.19605527818202972 0.10912789404392242 0.081977024674415588
0.54168647527694702 0.16828802227973938 0.12359782308340073
0.81643694639205933 0.2311648428440094 0.17254902422428131
0.046343933790922165 0.15351687371730804 0.078428171575069427
0.1260235458612442 0.15692494809627533 0.12269911170005798
0.442606121301651 0.18535499274730682 0.081606879830360413
0.79224282503128052 0.25530809164047241 0.14518855512142181
0.8495180606842041 0.2645719051361084 0.15780499577522278
0.063660100102424622 0.34092825651168823 0.054128728806972504
0.12156925350427628 0.34422570466995239 0.055314157158136368
0.46760910749435425 0.38584977388381958 0.22552938759326935
0.76297086477279663 0.40019664168357849 0.085621491074562073
0.91597598791122437 0.46126583218574524 0.062244623899459839
0.15749841928482056 0.52082175016403198 0.089531570672988892
0.17653828859329224 0.50080060958862305 0.092579752206802368
0.54841434955596924 0.59834438562393188 0.19406643509864807
0.78179872035980225 0.68312984704971313 0.39912763237953186
0.91197723150253296 0.66782563924789429 0.36367163062095642
0.18493624031543732 0.80669867992401123 0.043137256056070328
0.18764679133892059 0.79813438653945923 0.043212652206420898
0.48833709955215454 0.8397594690322876 0.056751281023025513
0.82959562540054321 0.85137939453125 0.46035102009773254
0.92310029268264771 0.84636479616165161 0.51387524604797363
0.043666750192642212 0.082250721752643585 0.096648164093494415
0.078471273183822632 0.09154142439365387 0.10528013855218887
0.24420748651027679 0.10797329992055893 0.10190659761428833
0.60064107179641724 0.17380149662494659 0.14803408086299896
0.83027857542037964 0.22822225093841553 0.18309043347835541
0.046332668513059616 0.15592297911643982 0.1471475213766098
0.12586943805217743 0.16517701745033264 0.16022241115570068
0.48930609226226807 0.18146553635597229 0.10231617838144302
0.79892861843109131 0.25274574756622314 0.15326482057571411
0.84480303525924683 0.24984371662139893 0.17012014985084534
0.047279700636863708 0.32978636026382446 0.11080148816108704
0.093499034643173218 0.33995798230171204 0.081273458898067474
0.45080238580703735 0.37762242555618286 0.23132809996604919
0.77562004327774048 0.39378646016120911 0.076898626983165741
0.9160306453704834 0.45353361964225769 0.071918725967407227
0.14343608915805817 0.51374322175979614 0.10529222339391708
0.16026848554611206 0.49273449182510376 0.10127981007099152
0.52560120820999146 0.58220648765563965 0.187535360455513
0.77191609144210815 0.67597687244415283 0.40425407886505127
0.90192729234695435 0.66221928596496582 0.36469140648841858
0.17512542009353638 0.80954045057296753 0.043137256056070328
0.18878202140331268 0.79893195629119873 0.043750163167715073
0.47346943616867065 0.83151513338088989 0.063451386988162994
0.82224941253662109 0.84493803977966309 0.45218071341514587
0.93942999839782715 0.84077870845794678 0.49963751435279846
0.043137256056070328 0.11039247363805771 0.13282281160354614
0.080828920006752014 0.1266387403011322 0.15480472147464752
0.28111070394515991 0.15196922421455383 0.17753450572490692
0.66858142614364624 0.21536250412464142 0.19633039832115173
0.8742755651473999 0.28263735771179199 0.23025752604007721
0.043137256056070328 0.24529328942298889 0.2978036105632782
0.074145659804344177 0.27521911263465881 0.33757901191711426
0.54169690608978271 0.24829123914241791 0.25496533513069153
0.84774148464202881 0.28816401958465576 0.24383845925331116
0.88555151224136353 0.29961425065994263 0.24257297813892365
0.043137256056070328 0.39830693602561951 0.38152390718460083
0.04618217796087265 0.38708093762397766 0.370319664478302
0.41524741053581238 0.41758176684379578 0.3916051983833313
0.84079784154891968 0.41496181488037109 0.24474421143531799
0.92923510074615479 0.42201060056686401 0.1766071617603302
0.094028070569038391 0.57290387153625488 0.44282564520835876
0.082689516246318817 0.53833001852035522 0.39075243473052979
0.40454444289207458 0.58096694946289062 0.27558755874633789
0.77280855178833008 0.69213485717773438 0.49430817365646362
0.92799562215805054 0.67355871200561523 0.39468920230865479
0.055743243545293808 0.84702861309051514 0.29774779081344604
0.062952212989330292 0.80526793003082275 0.24294018745422363
0.33515477180480957 0.89721691608428955 0.09818490594625473
0.8088030219078064 0.85249364376068115 0.48849841952323914
0.9335627555847168 0.85564494132995605 0.59730517864227295
0.043137256056070328 0.16332632303237915 0.20311345160007477
0.072014376521110535 0.21031953394412994 0.25867727398872375
0.30795025825500488 0.25090894103050232 0.30192220211029053
0.73556286096572876 0.30086797475814819 0.25789633393287659
0.86824417114257812 0.3757537305355072 0.39693337678909302
0.043137256056070328 0.38875636458396912 0.49570989608764648
0.051590669900178909 0.41200348734855652 0.52569812536239624
0.50184106826782227 0.38741940259933472 0.46133553981781006
0.81471544504165649 0.37869107723236084 0.4164157509803772
0.88219678401947021 0.40580698847770691 0.44943675398826599
0.043137256056070328 0.4626210629940033 0.57508605718612671
0.043584905564785004 0.45970070362091064 0.57462960481643677
0.21137167513370514 0.47664842009544373 0.64475691318511963
0.81039947271347046 0.47983214259147644 0.58375883102416992
0.90386325120925903 0.52678048610687256 0.61234432458877563
0.043137256056070328 0.64548540115356445 0.68532198667526245
0.043322917073965073 0.62035351991653442 0.65136092901229858
0.1792277991771698 0.67222398519515991 0.69507616758346558
0.7576751708984375 0.71475112438201904 0.69043809175491333
0.93681252002716064 0.7169269323348999 0.62884336709976196
0.043137256056070328 0.87256568670272827 0.79267901182174683
0.043752335011959076 0.8524748682975769 0.76361656188964844
0.19393955171108246 0.85736304521560669 0.70938569307327271
0.70865052938461304 0.89026403427124023 0.5736384391784668
0.92237943410873413 0.87840861082077026 0.75986939668655396
0.043137256056070328 0.22546663880348206 0.279001384973526
0.05094439908862114 0.32727405428886414 0.39754763245582581
0.32031416893005371 0.37670040130615234 0.43738403916358948
0.73174381256103516 0.40923699736595154 0.46197560429573059
0.89407503604888916 0.44242644309997559 0.57247185707092285
0.043137256056070328 0.41760155558586121 0.53191542625427246
0.052958931773900986 0.41618037223815918 0.52851343154907227
0.51484650373458862 0.41637718677520752 0.55215567350387573
0.81366175413131714 0.44176360964775085 0.58935952186584473
0.91660541296005249 0.47042080760002136 0.6544564962387085
0.043137256056070328 0.4973408579826355 0.63362991809844971
0.048302341252565384 0.48823517560958862 0.62185639142990112
0.20256227254867554 0.49644678831100464 0.68218833208084106
0.81020581722259521 0.50147473812103271 0.7714383602142334
0.94020366668701172 0.56104928255081177 0.79324311017990112
0.043137256056070328 0.64582699537277222 0.77678114175796509
0.043137256056070328 0.6308409571647644 0.76332789659500122
0.054381679743528366 0.65234243869781494 0.78973484039306641
0.64783334732055664 0.68071097135543823 0.83940088748931885
0.93683004379272461 0.7134934663772583 0.84944939613342285
0.043137256056070328 0.78347229957580566 0.86002737283706665
0.043137256056070328 0.78089058399200439 0.86419415473937988
0.055107057094573975 0.80430454015731812 0.8689342737197876
0.61603021621704102 0.8590397834777832 0.86202061176300049
0.91303086280822754 0.89210450649261475 0.85481923818588257
