assets/lut/ericellerbrock victory.cube
# Created by: G'MIC (https://gmic.eu)
TITLE "victory"
# LUT size
LUT_3D_SIZE 7
# Data domain
DOMAIN_MIN 0.0 0.0 0.0
DOMAIN_MAX 1.0 1.0 1.0
# LUT data points
0.06469002366065979 0.095612332224845886 0.10683678835630417
0.15327301621437073 0.1051655188202858 0.098195485770702362
0.51644480228424072 0.16327771544456482 0.12254973500967026
0.80878669023513794 0.21893692016601562 0.16352416574954987
0.84879887104034424 0.23148378729820251 0.16533453762531281
0.85490196943283081 0.23484176397323608 0.16515570878982544
0.85490196943283081 0.23523810505867004 0.16470588743686676
0.051950957626104355 0.1312672346830368 0.086652703583240509
0.094097167253494263 0.1238832026720047 0.097539804875850677
0.43019130825996399 0.16616298258304596 0.10461216419935226
0.79286140203475952 0.22702315449714661 0.1513897180557251
0.84972852468490601 0.23389588296413422 0.16392587125301361
0.85259705781936646 0.2357393205165863 0.16361019015312195
0.8481372594833374 0.23137255012989044 0.16772940754890442
0.0069855633191764355 0.34876856207847595 0.022449253126978874
0.021809941157698631 0.34343916177749634 0.013637632131576538
0.36891332268714905 0.31511422991752625 0.15415310859680176
0.79431116580963135 0.36058121919631958 0.070703469216823578
0.93396085500717163 0.38046306371688843 0.064101710915565491
0.91310548782348633 0.3372349739074707 0.098541006445884705
0.90229278802871704 0.30506959557533264 0.11765103787183762
0.00017161649884656072 0.64370477199554443 0.0011338776675984263
0.0075052599422633648 0.63712072372436523 0.0018408681498840451
0.31191393733024597 0.5768011212348938 0.048682596534490585
0.76172268390655518 0.65627199411392212 0.31870931386947632
0.9472576379776001 0.61938339471817017 0.21244949102401733
0.94558250904083252 0.58656346797943115 0.16882798075675964
0.94508820772171021 0.56327170133590698 0.12365326285362244
0 0.94439154863357544 0
0.003708753501996398 0.94254225492477417 0
0.053933326154947281 0.93887108564376831 0.0036914900410920382
0.61548668146133423 0.91364490985870361 0.14578871428966522
0.94190382957458496 0.91588085889816284 0.64621984958648682
0.94509804248809814 0.91150820255279541 0.64446812868118286
0.94509804248809814 0.90249031782150269 0.62752002477645874
0 0.95135200023651123 0
0.012017268687486649 0.94837558269500732 0
0.073730990290641785 0.94279670715332031 0.0034614114556461573
0.38242718577384949 0.9236980676651001 0.053736221045255661
0.93364739418029785 0.92474406957626343 0.6321900486946106
0.94228404760360718 0.92188674211502075 0.65871959924697876
0.94433683156967163 0.91773265600204468 0.6531980037689209
0 0.95574063062667847 0
0.017305979505181313 0.95322060585021973 0.0011006823042407632
0.11721933633089066 0.94301748275756836 0.0078431377187371254
0.27936616539955139 0.92787677049636841 0.010390636511147022
0.91342175006866455 0.9229121208190918 0.59249979257583618
0.94355648756027222 0.92523229122161865 0.66905850172042847
0.94296175241470337 0.92162930965423584 0.66761320829391479
0.064803317189216614 0.21358650922775269 0.25869941711425781
0.17643773555755615 0.17866116762161255 0.21227146685123444
0.57959175109863281 0.18113212287425995 0.16101674735546112
0.83188945055007935 0.22679372131824493 0.17360369861125946
0.85389333963394165 0.22709181904792786 0.17447680234909058
0.85449898242950439 0.22625751793384552 0.17450477182865143
0.85490196943283081 0.22883644700050354 0.17362809181213379
0.064750313758850098 0.15855796635150909 0.17324921488761902
0.10160861909389496 0.15393663942813873 0.16399653255939484
0.44967228174209595 0.17100332677364349 0.11748635023832321
0.77788972854614258 0.21988074481487274 0.15907236933708191
0.85527342557907104 0.23538020253181458 0.16596263647079468
0.85717189311981201 0.23450109362602234 0.16629566252231598
0.85098469257354736 0.22919219732284546 0.17037275433540344
0.014571605250239372 0.34685295820236206 0.072335623204708099
0.008515077643096447 0.33198609948158264 0.032380435615777969
0.36007657647132874 0.3152708113193512 0.16274075210094452
0.79384589195251465 0.36169618368148804 0.065643951296806335
0.9305303692817688 0.36852368712425232 0.072785079479217529
0.91476058959960938 0.34261733293533325 0.094659201800823212
0.89913296699523926 0.31074640154838562 0.11745677143335342
0 0.63000607490539551 0.00077261833939701319
0.0038625828456133604 0.6240001916885376 0.0022479637991636992
0.30921235680580139 0.5803215503692627 0.054661277681589127
0.75986278057098389 0.64465826749801636 0.32040789723396301
0.94284713268280029 0.61428582668304443 0.21144810318946838
0.94509983062744141 0.58615303039550781 0.17476354539394379
0.94481605291366577 0.56857681274414062 0.13993994891643524
0 0.9436945915222168 0.0014577229740098119
0.001932046958245337 0.94473624229431152 0.00046600640052929521
0.064515836536884308 0.93939101696014404 0.0041438085027039051
0.61088424921035767 0.91587859392166138 0.14013522863388062
0.94117558002471924 0.91454434394836426 0.64574187994003296
0.94509804248809814 0.91160839796066284 0.6434326171875
0.94509804248809814 0.89219415187835693 0.62376731634140015
0 0.95322561264038086 0.0015761731192469597
0.0065932478755712509 0.94998466968536377 0.0010221144184470177
0.090628020465373993 0.94223475456237793 0.0084337871521711349
0.35591068863868713 0.92732709646224976 0.070737071335315704
0.93458664417266846 0.92545121908187866 0.63725727796554565
0.94117647409439087 0.92079204320907593 0.65719389915466309
0.94117647409439087 0.91914278268814087 0.65888762474060059
0 0.95824402570724487 0.0014093137579038739
0.0054521001875400543 0.9566684365272522 0.00090270699001848698
0.11894918978214264 0.94418275356292725 0.0065101473592221737
0.23174367845058441 0.93151462078094482 0.018019448965787888
0.92394781112670898 0.92699116468429565 0.61154866218566895
0.94117647409439087 0.92535287141799927 0.66737645864486694
0.94117647409439087 0.92297816276550293 0.66508734226226807
0.057348556816577911 0.38418281078338623 0.47543618083000183
0.11164826154708862 0.35893538594245911 0.42792370915412903
0.61771953105926514 0.27295896410942078 0.25605121254920959
0.8729546070098877 0.28991258144378662 0.24823296070098877
0.89792543649673462 0.27867347002029419 0.22207038104534149
0.89322757720947266 0.27593478560447693 0.22089898586273193
0.87404942512512207 0.26859238743782043 0.23745806515216827
0.05877024307847023 0.33998054265975952 0.42164382338523865
0.075766608119010925 0.32278731465339661 0.39159458875656128
0.51310741901397705 0.24888335168361664 0.26165902614593506
0.85533487796783447 0.2664826512336731 0.21316488087177277
0.88778394460678101 0.26459410786628723 0.21155904233455658
0.87843996286392212 0.25413382053375244 0.20199133455753326
0.87263733148574829 0.24546815454959869 0.19734561443328857
0.032384250313043594 0.35965704917907715 0.3476358950138092
0.036981545388698578 0.3365485668182373 0.32273611426353455
0.29460600018501282 0.35380968451499939 0.32377049326896667
0.82387888431549072 0.34976345300674438 0.19588305056095123
0.93287765979766846 0.33447983860969543 0.1355450302362442
0.91622775793075562 0.30050539970397949 0.13226126134395599
0.89762932062149048 0.28067067265510559 0.14413043856620789
8.6167283370741643e-06 0.60557401180267334 0.26809164881706238
0.00035313624539412558 0.59630298614501953 0.23876339197158813
0.15342020988464355 0.58524084091186523 0.092714332044124603
0.74296969175338745 0.64381247758865356 0.35822394490242004
0.95499438047409058 0.61836087703704834 0.21430414915084839
0.95593112707138062 0.57932108640670776 0.16709119081497192
0.95144188404083252 0.55906391143798828 0.14965455234050751
0 0.97634804248809814 0.031084710732102394
0.002619515173137188 0.9766685962677002 0.018660856410861015
0.063299380242824554 0.9575653076171875 0.020533528178930283
0.60951495170593262 0.91937363147735596 0.11887478083372116
0.94086581468582153 0.9118276834487915 0.64311736822128296
0.94516867399215698 0.89813780784606934 0.62850075960159302
0.94494974613189697 0.88038867712020874 0.61511689424514771
0 0.97671186923980713 0.026148268952965736
0.0058187446556985378 0.97321176528930664 0.029336787760257721
0.072780147194862366 0.95814388990402222 0.023202784359455109
0.33381196856498718 0.92951750755310059 0.050759125500917435
0.93218928575515747 0.92614740133285522 0.63369017839431763
0.94209116697311401 0.92283743619918823 0.66345012187957764
0.94117647409439087 0.92193400859832764 0.66704195737838745
0 0.97653824090957642 0.018008287996053696
0.0078914416953921318 0.97226786613464355 0.036636620759963989
0.081639982759952545 0.95941758155822754 0.02162616141140461
0.25272834300994873 0.93233954906463623 0.024077096953988075
0.90701472759246826 0.92452478408813477 0.58277994394302368
0.94117647409439087 0.92549020051956177 0.66967141628265381
0.94117647409439087 0.92549020051956177 0.67069768905639648
0.066796258091926575 0.40075290203094482 0.49616974592208862
0.14417661726474762 0.39696416258811951 0.46826842427253723
0.57241618633270264 0.396502286195755 0.46202495694160461
0.88204622268676758 0.40488746762275696 0.4968046247959137
0.91500747203826904 0.38791906833648682 0.45744702219963074
0.91604709625244141 0.38714733719825745 0.45144617557525635
0.90836530923843384 0.37374618649482727 0.41473293304443359
0.065167397260665894 0.41260260343551636 0.51978391408920288
0.087352648377418518 0.40750777721405029 0.49859580397605896
0.46540966629981995 0.39461162686347961 0.45776692032814026
0.84477192163467407 0.39076471328735352 0.45413747429847717
0.91295474767684937 0.38204383850097656 0.43935179710388184
0.91685324907302856 0.37718567252159119 0.43274044990539551
0.91616559028625488 0.37442192435264587 0.42326661944389343
0.05389404296875 0.45605325698852539 0.56989449262619019
0.0592537522315979 0.43733024597167969 0.54211938381195068
0.19257871806621552 0.44557636976242065 0.58370876312255859
0.81854724884033203 0.43959400057792664 0.56010973453521729
0.93567550182342529 0.4364771842956543 0.51474320888519287
0.93369030952453613 0.39649584889411926 0.44471347332000732
0.92701679468154907 0.36779069900512695 0.39103037118911743
0.023091798648238182 0.65910977125167847 0.6896369457244873
0.020108286291360855 0.65096402168273926 0.68275576829910278
0.057149879634380341 0.6358572244644165 0.65468978881835938
0.65353798866271973 0.66182792186737061 0.63824200630187988
0.94849658012390137 0.63812929391860962 0.53281962871551514
0.95319867134094238 0.60414081811904907 0.45554754137992859
0.95164686441421509 0.56528335809707642 0.41110289096832275
0.00012063419126207009 0.95820611715316772 0.54585504531860352
1.077091019396903e-05 0.9551120400428772 0.49762433767318726
0.0041462467052042484 0.97492039203643799 0.36253541707992554
0.3605009913444519 0.97146487236022949 0.16969767212867737
0.94275790452957153 0.91397970914840698 0.6989896297454834
0.94827789068222046 0.89825868606567383 0.70042568445205688
0.94946444034576416 0.89149487018585205 0.66850608587265015
0 0.98312735557556152 0.22839795053005219
0.00037482767947949469 0.98325175046920776 0.20882169902324677
0.011936143040657043 0.98515325784683228 0.16755929589271545
0.27612903714179993 0.96333831548690796 0.069570876657962799
0.9292529821395874 0.9260743260383606 0.65721064805984497
0.94509804248809814 0.92614394426345825 0.68948423862457275
0.94509804248809814 0.92668724060058594 0.69590216875076294
0 0.98905783891677856 0.13914650678634644
0.0028352027293294668 0.98892217874526978 0.085094824433326721
0.024411609396338463 0.98693907260894775 0.09183608740568161
0.2543715238571167 0.96151542663574219 0.057515580207109451
0.88642245531082153 0.92359632253646851 0.5560067892074585
0.94169014692306519 0.92552661895751953 0.67139923572540283
0.94533729553222656 0.92878836393356323 0.68594980239868164
0.065293662250041962 0.40395891666412354 0.49808698892593384
0.10771876573562622 0.40000441670417786 0.47631290555000305
0.53845202922821045 0.41530683636665344 0.50716012716293335
0.8547930121421814 0.42923417687416077 0.54478812217712402
0.92652314901351929 0.43921568989753723 0.58834505081176758
0.92941176891326904 0.43921568989753723 0.5891958475112915
0.92941176891326904 0.43862214684486389 0.58901405334472656
0.066352710127830505 0.41261717677116394 0.51614320278167725
0.080554887652397156 0.40868818759918213 0.50454926490783691
0.42713251709938049 0.41150733828544617 0.4969545304775238
0.82794326543807983 0.42900079488754272 0.54369038343429565
0.92936676740646362 0.43952557444572449 0.5973781943321228
0.92988461256027222 0.44004273414611816 0.59661269187927246
0.93046480417251587 0.44051167368888855 0.59650826454162598
0.056418832391500473 0.46313768625259399 0.5842214822769165
0.062248334288597107 0.45392715930938721 0.57601934671401978
0.18274679780006409 0.45207789540290833 0.58960294723510742
0.80581367015838623 0.46540066599845886 0.72662782669067383
0.95357584953308105 0.49636965990066528 0.72792607545852661
0.9524114727973938 0.48512160778045654 0.70581859350204468
0.94483524560928345 0.47050976753234863 0.66842794418334961
0.036836914718151093 0.64345991611480713 0.76893043518066406
0.038392324000597 0.63685250282287598 0.76553612947463989
0.056339547038078308 0.63389295339584351 0.77089440822601318
0.49269005656242371 0.62575483322143555 0.81758356094360352
0.95852541923522949 0.65667068958282471 0.8592497706413269
0.96580761671066284 0.63368064165115356 0.84904623031616211
0.96465575695037842 0.62495207786560059 0.83683687448501587
0.015507836826145649 0.79037916660308838 0.88205808401107788
0.014784150756895542 0.79418754577636719 0.88123029470443726
0.017030155286192894 0.79582589864730835 0.88080662488937378
0.14262163639068604 0.84020310640335083 0.89621555805206299
0.93374061584472656 0.93171370029449463 0.88932108879089355
0.94766896963119507 0.92399609088897705 0.88196402788162231
0.94622904062271118 0.90726077556610107 0.85450935363769531
0.014695724472403526 0.80183619260787964 0.88440656661987305
0.01329619437456131 0.80556577444076538 0.88389718532562256
0.01176636666059494 0.82108455896377563 0.87804198265075684
0.040657311677932739 0.86238205432891846 0.87556278705596924
0.89883977174758911 0.94221800565719604 0.82873719930648804
0.94898015260696411 0.9424559473991394 0.86729609966278076
0.94901961088180542 0.9407845139503479 0.85542112588882446
0.011646285653114319 0.81774264574050903 0.87900185585021973
0.0093321558088064194 0.8285103440284729 0.86522740125656128
0.0070372186601161957 0.86725074052810669 0.84776663780212402
0.029005955904722214 0.90125328302383423 0.81329280138015747
0.77317053079605103 0.95601111650466919 0.64431792497634888
0.94681298732757568 0.93891531229019165 0.81823760271072388
0.94901961088180542 0.93804925680160522 0.79845243692398071
0.074046984314918518 0.40364170074462891 0.49514719843864441
0.092522561550140381 0.39993581175804138 0.47795391082763672
0.50885415077209473 0.41562613844871521 0.50516247749328613
0.83671116828918457 0.42747899889945984 0.53686046600341797
0.92549020051956177 0.43921568989753723 0.59118235111236572
0.92941176891326904 0.43921568989753723 0.59522426128387451
0.9308663010597229 0.44117602705955505 0.59827309846878052
0.063474662601947784 0.4075741171836853 0.50744760036468506
0.077437758445739746 0.40458926558494568 0.49316737055778503
0.3988490104675293 0.40981510281562805 0.49248513579368591
0.82441896200180054 0.42893514037132263 0.54009133577346802
0.92630612850189209 0.4392276406288147 0.59538793563842773
0.92941176891326904 0.44133991003036499 0.59924530982971191
0.93333333730697632 0.44323837757110596 0.6053236722946167
0.056816041469573975 0.45919039845466614 0.58116620779037476
0.063885346055030823 0.4460785984992981 0.56447494029998779
0.17245817184448242 0.44714602828025818 0.57793915271759033
0.79297560453414917 0.45576336979866028 0.71034246683120728
0.95117682218551636 0.48778337240219116 0.72417294979095459
0.94576656818389893 0.47508564591407776 0.68031173944473267
0.9412078857421875 0.46180695295333862 0.64840972423553467
0.03718973696231842 0.63795596361160278 0.76479440927505493
0.038214724510908127 0.62889003753662109 0.75727468729019165
0.05851064994931221 0.62227886915206909 0.75867795944213867
0.46375143527984619 0.60968565940856934 0.80633896589279175
0.95479303598403931 0.64161330461502075 0.86307501792907715
0.96560108661651611 0.63135075569152832 0.85299831628799438
0.96619933843612671 0.61398136615753174 0.8473631739616394
0.015686275437474251 0.78473961353302002 0.88254022598266602
0.017203999683260918 0.78443235158920288 0.88062351942062378
0.024553276598453522 0.783638596534729 0.88040041923522949
0.15704691410064697 0.82640236616134644 0.89945811033248901
0.92730450630187988 0.93028914928436279 0.90859705209732056
0.94583916664123535 0.92314010858535767 0.90885812044143677
0.94654542207717896 0.90681672096252441 0.90674680471420288
0.015686275437474251 0.79144155979156494 0.88627451658248901
0.017509819939732552 0.791839599609375 0.88580846786499023
0.022732468321919441 0.79244124889373779 0.88627451658248901
0.11250527948141098 0.8169325590133667 0.89684963226318359
0.85258215665817261 0.92394685745239258 0.90777134895324707
0.94447523355484009 0.94509804248809814 0.90890991687774658
0.94901961088180542 0.94509804248809814 0.9093775749206543
0.015686275437474251 0.7921568751335144 0.88627451658248901
0.015807326883077621 0.79160004854202271 0.88627451658248901
0.02307555265724659 0.79284775257110596 0.88627451658248901
0.031507574021816254 0.79840457439422607 0.88726651668548584
0.68424385786056519 0.90036928653717041 0.90053623914718628
0.94437891244888306 0.94530028104782104 0.9069821834564209
0.94708395004272461 0.94846200942993164 0.9105762243270874
0.081590987741947174 0.40392157435417175 0.49538716673851013
0.073858447372913361 0.40014433860778809 0.48316535353660583
0.49520394206047058 0.41515937447547913 0.50560563802719116
0.83786821365356445 0.43169024586677551 0.55729120969772339
0.92549020051956177 0.43921568989753723 0.59215688705444336
0.9276006817817688 0.43921568989753723 0.59548056125640869
0.92941176891326904 0.43995097279548645 0.59776705503463745
0.063330769538879395 0.40733745694160461 0.50815987586975098
0.096372209489345551 0.40631619095802307 0.50095748901367188
0.38601571321487427 0.40753769874572754 0.49141666293144226
0.81404691934585571 0.42614465951919556 0.54033035039901733
0.92653661966323853 0.439534991979599 0.59509599208831787
0.92941176891326904 0.4409925639629364 0.59897255897521973
0.92941176891326904 0.44134709239006042 0.59976315498352051
0.055701699107885361 0.45711329579353333 0.58083724975585938
0.068222686648368835 0.45840597152709961 0.58103257417678833
0.16905640065670013 0.44504082202911377 0.57130271196365356
0.78860419988632202 0.45010298490524292 0.69575554132461548
0.95178163051605225 0.49007537961006165 0.72223681211471558
0.94938617944717407 0.48115101456642151 0.69949305057525635
0.93584543466567993 0.46025761961936951 0.63167351484298706
0.037354681640863419 0.63134419918060303 0.75996702909469604
0.035292636603116989 0.6394839882850647 0.7600637674331665
0.049408454447984695 0.60900956392288208 0.74472123384475708
0.44393470883369446 0.61035001277923584 0.80412626266479492
0.9576871395111084 0.64673531055450439 0.85747969150543213
0.96417409181594849 0.627849280834198 0.84905600547790527
0.96339625120162964 0.62088865041732788 0.83847528696060181
0.015686275437474251 0.78306692838668823 0.88065618276596069
0.018133111298084259 0.78313153982162476 0.88032102584838867
0.024088136851787567 0.78339302539825439 0.88048398494720459
0.10382080078125 0.82382118701934814 0.89815336465835571
0.90272736549377441 0.91509550809860229 0.906627357006073
0.94425845146179199 0.91690218448638916 0.90840786695480347
0.94655400514602661 0.89662271738052368 0.90136849880218506
0.015686275437474251 0.78828316926956177 0.8840562105178833
0.020093372091650963 0.78898042440414429 0.88422578573226929
0.02717965841293335 0.79204761981964111 0.88627451658248901
0.065312452614307404 0.80525070428848267 0.89219820499420166
0.84053820371627808 0.92206025123596191 0.90513801574707031
0.94049441814422607 0.94245761632919312 0.91257178783416748
0.94537007808685303 0.94509804248809814 0.91372549533843994
0.015686275437474251 0.7921568751335144 0.88627451658248901
0.017694959416985512 0.7921568751335144 0.88627451658248901
0.026199085637927055 0.7921568751335144 0.88627451658248901
0.030481480062007904 0.79360878467559814 0.88733863830566406
0.61056888103485107 0.88769102096557617 0.90655606985092163
0.93761950731277466 0.94253039360046387 0.9102405309677124
0.94272291660308838 0.94509804248809814 0.90986460447311401
