assets/lut/ericellerbrock killstreak.cube
# Created by: G'MIC (https://gmic.eu)
TITLE "killstreak"
# LUT size
LUT_3D_SIZE 7
# Data domain
DOMAIN_MIN 0.0 0.0 0.0
DOMAIN_MAX 1.0 1.0 1.0
# LUT data points
0.00024542715982533991 0.027966069057583809 0.031984277069568634
0.10069712996482849 0.011133290827274323 0.01408513356000185
0.32046613097190857 0.00060804776148870587 0.0032058716751635075
0.58141970634460449 0 0
0.7706378698348999 0.0003408394695725292 0.0014474607305601239
0.87835294008255005 0 0
0.97700196504592896 0.0056568519212305546 0
0 0.15548290312290192 0.019158666953444481
0.044002816081047058 0.13093997538089752 0.015035711228847504
0.2879054844379425 0.093279249966144562 0.00081362255150452256
0.55662280321121216 0.062769077718257904 9.7656251455191523e-05
0.75750970840454102 0.061935693025588989 0.00099035527091473341
0.90587610006332397 0.066983453929424286 0.0010295493993908167
0.9990045428276062 0.11803629249334335 0.0009928983636200428
0.00086363247828558087 0.30698907375335693 0.00064284383552148938
0.056456726044416428 0.29140326380729675 0.0074595729820430279
0.26408854126930237 0.2772652804851532 0.0033925075549632311
0.52935796976089478 0.26442942023277283 0.00082636816659942269
0.78392744064331055 0.26213818788528442 0
0.96395140886306763 0.2755376398563385 0.0020762274507433176
1 0.31442829966545105 0.0025573731400072575
0.01051438320428133 0.47338765859603882 0.0045087626203894615
0.094862528145313263 0.49220043420791626 0.0051044989377260208
0.2712094783782959 0.50434333086013794 0.0081918155774474144
0.50865399837493896 0.50724714994430542 0.0092993192374706268
0.76356053352355957 0.50707888603210449 0.00051362282829359174
0.95319235324859619 0.52011674642562866 0
1 0.54566377401351929 0
0.018794041126966476 0.68662095069885254 0.01064275112003088
0.12035629898309708 0.71733397245407104 0.013649854809045792
0.28684920072555542 0.73745691776275635 0.012185788713395596
0.51368355751037598 0.73491960763931274 0.012822588905692101
0.73941117525100708 0.7323036789894104 0.0082901297137141228
0.91157799959182739 0.74498289823532104 0.0070593291893601418
0.99929594993591309 0.7576867938041687 0.0049778656102716923
0.041265122592449188 0.89734208583831787 0.041025843471288681
0.15679189562797546 0.92365813255310059 0.052090603858232498
0.32848617434501648 0.92934048175811768 0.043057609349489212
0.54586684703826904 0.91367447376251221 0.031262863427400589
0.7543872594833374 0.89958018064498901 0.024894369766116142
0.90687805414199829 0.90423440933227539 0.0236982312053442
0.99882078170776367 0.9105069637298584 0.019021278247237206
0.080093100666999817 1 0.088917359709739685
0.20844826102256775 1 0.097977131605148315
0.38090723752975464 1 0.083651401102542877
0.58348894119262695 1 0.059121508151292801
0.77552223205566406 0.9998466968536377 0.041494540870189667
0.91794323921203613 0.99954938888549805 0.032303199172019958
1 1 0.025962606072425842
0 0.027326412498950958 0.20944216847419739
0.080081567168235779 0.010141829028725624 0.18368561565876007
0.30436715483665466 0.0069333543069660664 0.13920475542545319
0.54034626483917236 0.0062827016226947308 0.073314055800437927
0.73383396863937378 0.001529199886135757 0.055117469280958176
0.84328114986419678 0 0.051416642963886261
0.94142216444015503 0.0053707496263086796 0.057377789169549942
0 0.14895661175251007 0.18587052822113037
0.043756134808063507 0.12546625733375549 0.15609703958034515
0.27095329761505127 0.097153954207897186 0.11486155539751053
0.51640194654464722 0.076733998954296112 0.079006001353263855
0.72967231273651123 0.071652539074420929 0.077420972287654877
0.88191092014312744 0.078202083706855774 0.085148513317108154
0.97894036769866943 0.11538805812597275 0.10950015485286713
0.0046079149469733238 0.29700031876564026 0.11399724334478378
0.069436125457286835 0.2914891242980957 0.11086874455213547
0.28365284204483032 0.28164049983024597 0.093123689293861389
0.53569149971008301 0.27295359969139099 0.077561363577842712
0.78479313850402832 0.26978352665901184 0.075950413942337036
0.95102125406265259 0.28563329577445984 0.089797094464302063
0.99988609552383423 0.31678220629692078 0.12079339474439621
0.010868057608604431 0.4767073392868042 0.065440461039543152
0.10198365896940231 0.49908143281936646 0.088435046374797821
0.28344404697418213 0.51503008604049683 0.10630068182945251
0.52377206087112427 0.51927298307418823 0.097820982336997986
0.77349293231964111 0.51718592643737793 0.069175586104393005
0.95535433292388916 0.5288928747177124 0.060553561896085739
1 0.55186742544174194 0.074397698044776917
0.016095539554953575 0.70023620128631592 0.07722926139831543
0.12689663469791412 0.728302001953125 0.10402502864599228
0.30269914865493774 0.74634593725204468 0.1200600266456604
0.52631115913391113 0.74691110849380493 0.11415430903434753
0.73851418495178223 0.74376285076141357 0.098074667155742645
0.90551537275314331 0.75403386354446411 0.085405297577381134
1 0.76165556907653809 0.084676109254360199
0.043196957558393478 0.91158241033554077 0.13687549531459808
0.16578033566474915 0.93210303783416748 0.15474376082420349
0.34149181842803955 0.93457651138305664 0.15610463917255402
0.55356395244598389 0.9186522364616394 0.14039832353591919
0.74928754568099976 0.90178078413009644 0.12702874839305878
0.90124273300170898 0.90341198444366455 0.11893335729837418
0.99854308366775513 0.90776365995407104 0.11428090929985046
0.084063678979873657 1 0.21006765961647034
0.21525949239730835 1 0.21708418428897858
0.38812646269798279 1 0.20419026911258698
0.58772403001785278 1 0.17361555993556976
0.77362287044525146 0.99740612506866455 0.1473168283700943
0.91385471820831299 0.99624156951904297 0.13838165998458862
0.99956953525543213 0.99806720018386841 0.13549372553825378
0.00010968376591335982 0.02505786344408989 0.50526255369186401
0.070604898035526276 0.0092217689380049706 0.46436280012130737
0.29087653756141663 0.0089276330545544624 0.40840518474578857
0.51790320873260498 0.0048953038640320301 0.31835421919822693
0.69751465320587158 0.0016719893319532275 0.2538701593875885
0.82344794273376465 0.0014896766515448689 0.23150624334812164
0.92580842971801758 0.013398517854511738 0.22555346786975861
0 0.13559147715568542 0.45679044723510742
0.04129352793097496 0.11280947178602219 0.40982696413993835
0.2602134644985199 0.096981719136238098 0.35139954090118408
0.49366208910942078 0.085166558623313904 0.2867569625377655
0.69707977771759033 0.083402656018733978 0.26244679093360901
0.85923987627029419 0.094217322766780853 0.26705428957939148
0.97643721103668213 0.11763401329517365 0.29011183977127075
2.4414062863797881e-05 0.28530219197273254 0.33059543371200562
0.070328988134860992 0.2867465615272522 0.30909919738769531
0.28111016750335693 0.2832179069519043 0.28949195146560669
0.52540010213851929 0.27896249294281006 0.26816847920417786
0.74665921926498413 0.28575754165649414 0.27999725937843323
0.9281039834022522 0.29971158504486084 0.29413974285125732
0.99974548816680908 0.32084003090858459 0.31913489103317261
0.0045686159282922745 0.48083981871604919 0.23741227388381958
0.10390638560056686 0.50460249185562134 0.26772162318229675
0.29233086109161377 0.51901423931121826 0.28782963752746582
0.53324013948440552 0.52026516199111938 0.27735725045204163
0.77073711156845093 0.5206369161605835 0.26150122284889221
0.96211433410644531 0.53279358148574829 0.26075893640518188
1 0.55601149797439575 0.2786104679107666
0.01565043069422245 0.70818144083023071 0.24879838526248932
0.13035647571086884 0.73433244228363037 0.28174784779548645
0.31154420971870422 0.74824517965316772 0.30216974020004272
0.53416866064071655 0.74718618392944336 0.29459050297737122
0.74442702531814575 0.74444234371185303 0.28101402521133423
0.90803205966949463 0.75488728284835815 0.25810983777046204
0.99563968181610107 0.76248514652252197 0.25396323204040527
0.045952755957841873 0.91561448574066162 0.31362563371658325
0.17101156711578369 0.93245351314544678 0.33237704634666443
0.34705546498298645 0.93268406391143799 0.33640742301940918
0.55457794666290283 0.91706496477127075 0.32054322957992554
0.74601054191589355 0.89945739507675171 0.30718287825584412
0.893230140209198 0.8993295431137085 0.29117119312286377
0.99329280853271484 0.90289115905761719 0.27413970232009888
0.086442478001117706 1 0.38769388198852539
0.21772474050521851 1 0.39282876253128052
0.38720476627349854 1 0.37976863980293274
0.58326679468154907 1 0.34704488515853882
0.76634055376052856 0.99243676662445068 0.31573000550270081
0.90300476551055908 0.99053663015365601 0.30615732073783875
0.9964292049407959 0.9933205246925354 0.29764696955680847
0 0.013069691136479378 0.88187766075134277
0.043443299829959869 0.00015061322483234107 0.8317420482635498
0.26631727814674377 0.006314505822956562 0.75105291604995728
0.4953446090221405 0.0020518733654171228 0.61431288719177246
0.67396622896194458 0 0.49867144227027893
0.81621545553207397 0.0023469813168048859 0.46444645524024963
0.92228531837463379 0.016516637057065964 0.45765802264213562
0 0.11692048609256744 0.80291932821273804
0.041657555848360062 0.09500700980424881 0.71519249677658081
0.25289097428321838 0.092709802091121674 0.61604529619216919
0.49062743782997131 0.083611026406288147 0.52191728353500366
0.6884453296661377 0.071475908160209656 0.47843235731124878
0.85718709230422974 0.09534887969493866 0.49323919415473938
0.97901958227157593 0.1246303915977478 0.52246785163879395
0.0026346843224018812 0.2731463611125946 0.59075206518173218
0.085938833653926849 0.27908855676651001 0.537944495677948
0.2780168354511261 0.28256088495254517 0.51322859525680542
0.51226049661636353 0.27900877594947815 0.50230628252029419
0.72639119625091553 0.28599938750267029 0.51985448598861694
0.90221041440963745 0.30528143048286438 0.53676539659500122
0.99785274267196655 0.32799163460731506 0.56784522533416748
0.004949621856212616 0.47876918315887451 0.4681074321269989
0.10023558139801025 0.50523197650909424 0.50401002168655396
0.28916040062904358 0.51748180389404297 0.51616162061691284
0.52459585666656494 0.51706618070602417 0.51457482576370239
0.75151175260543823 0.52131807804107666 0.51519095897674561
0.91694945096969604 0.5374639630317688 0.52958017587661743
0.9979630708694458 0.55866038799285889 0.55993258953094482
0.011294899508357048 0.70913970470428467 0.48867130279541016
0.12312919646501541 0.73592615127563477 0.52025222778320312
0.30694171786308289 0.74648076295852661 0.5331302285194397
0.53097617626190186 0.74351465702056885 0.52388197183609009
0.74941682815551758 0.73979276418685913 0.5108223557472229
0.9123765230178833 0.74657493829727173 0.50112724304199219
0.99814414978027344 0.75713551044464111 0.50078898668289185
0.039789911359548569 0.91545951366424561 0.54528027772903442
0.16270941495895386 0.93038147687911987 0.56322264671325684
0.33828270435333252 0.92823046445846558 0.56381690502166748
0.5483400821685791 0.91502225399017334 0.54838865995407104
0.7440301775932312 0.89700198173522949 0.53413504362106323
0.89025896787643433 0.89414477348327637 0.52019435167312622
0.99172508716583252 0.89656525850296021 0.49715396761894226
0.083765260875225067 1 0.60488682985305786
0.2077501118183136 1 0.61098599433898926
0.37328174710273743 1 0.59695887565612793
0.57054167985916138 1 0.56910818815231323
0.75508445501327515 0.99417787790298462 0.54465806484222412
0.89332973957061768 0.98919534683227539 0.53105384111404419
0.99107086658477783 0.9905584454536438 0.51730692386627197
0 0.0034537073224782944 1
0.040984045714139938 0 1
0.24548858404159546 0 0.98932898044586182
0.47937491536140442 0.00066600128775462508 0.86966156959533691
0.66306221485137939 0 0.72643160820007324
0.80356365442276001 0.00084060966037213802 0.67090529203414917
0.90662717819213867 0.016687385737895966 0.66599047183990479
0 0.10113395005464554 0.99370718002319336
0.036113739013671875 0.090242289006710052 0.95721864700317383
0.24790048599243164 0.082870274782180786 0.84146183729171753
0.48770907521247864 0.076325453817844391 0.73194372653961182
0.69505101442337036 0.0744142085313797 0.68937927484512329
0.85617125034332275 0.10250691324472427 0.70502442121505737
0.96617370843887329 0.13924722373485565 0.73425638675689697
0.0068788416683673859 0.26251113414764404 0.79152071475982666
0.090238161385059357 0.27549073100090027 0.76132088899612427
0.27796816825866699 0.28211820125579834 0.73206967115402222
0.51493138074874878 0.27890822291374207 0.71235960721969604
0.73767209053039551 0.29025986790657043 0.73963820934295654
0.89975476264953613 0.31333395838737488 0.75853770971298218
0.9970557689666748 0.33795726299285889 0.78409922122955322
0.010847817175090313 0.47735610604286194 0.68917542695999146
0.10246869176626205 0.50484603643417358 0.72040671110153198
0.28632783889770508 0.51950341463088989 0.7388884425163269
0.52153748273849487 0.52205967903137207 0.73698520660400391
0.74345070123672485 0.52921628952026367 0.74543100595474243
0.90433955192565918 0.54634290933609009 0.76157760620117188
0.99990969896316528 0.56134170293807983 0.77465105056762695
0.0093289241194725037 0.70660263299942017 0.71239572763442993
0.11957217752933502 0.73610615730285645 0.73939985036849976
0.30277854204177856 0.7476990818977356 0.75000208616256714
0.52913647890090942 0.74390494823455811 0.74146991968154907
0.74116748571395874 0.73898303508758545 0.73203951120376587
0.89969432353973389 0.74320095777511597 0.73660862445831299
0.99992012977600098 0.74924969673156738 0.73668426275253296
0.028722036629915237 0.90793734788894653 0.76172900199890137
0.15534502267837524 0.9303586483001709 0.77942097187042236
0.32967224717140198 0.92234349250793457 0.77633082866668701
0.54514700174331665 0.90929907560348511 0.75999867916107178
0.74222880601882935 0.89095842838287354 0.74388337135314941
0.88881450891494751 0.88607519865036011 0.73657780885696411
0.99515712261199951 0.88667935132980347 0.72432929277420044
0.078484028577804565 0.99937421083450317 0.81311541795730591
0.1935293972492218 1 0.81841021776199341
0.35525625944137573 0.99977409839630127 0.80169528722763062
0.56221687793731689 0.9993140697479248 0.77519625425338745
0.75031018257141113 0.9920991063117981 0.75283855199813843
0.88814723491668701 0.98641693592071533 0.74253177642822266
0.98559069633483887 0.98611938953399658 0.7338222861289978
0 0 1
0.045745309442281723 0 1
0.23545703291893005 0 1
0.46539264917373657 0.00083094579167664051 0.97692728042602539
0.65689313411712646 0 0.86113941669464111
0.80357652902603149 0.0018100513843819499 0.81760114431381226
0.91223084926605225 0.01517187338322401 0.824867844581604
0 0.09163539856672287 1
0.062735632061958313 0.088322147727012634 0.99443191289901733
0.25966235995292664 0.087145544588565826 0.92595416307449341
0.48557567596435547 0.076924838125705719 0.85500931739807129
0.69912970066070557 0.085736081004142761 0.82720166444778442
0.86233633756637573 0.11348112672567368 0.85453319549560547
0.96981382369995117 0.14641778171062469 0.89071273803710938
0.011188657023012638 0.2634522020816803 0.94482564926147461
0.10304083675146103 0.2813163697719574 0.88594925403594971
0.29143032431602478 0.28917381167411804 0.87641304731369019
0.52517837285995483 0.28461930155754089 0.87188661098480225
0.74670207500457764 0.29397910833358765 0.88327765464782715
0.90955370664596558 0.31770923733711243 0.90915840864181519
0.9991307258605957 0.34315314888954163 0.93489164113998413
0.013480691239237785 0.48631256818771362 0.84212511777877808
0.11474528908729553 0.51111757755279541 0.86243343353271484
0.29554244875907898 0.5274357795715332 0.89373624324798584
0.52919328212738037 0.5296703577041626 0.89902007579803467
0.74925965070724487 0.53461891412734985 0.90374892950057983
0.91214054822921753 0.55106765031814575 0.91548717021942139
0.99999785423278809 0.56789463758468628 0.92280614376068115
0.015346377156674862 0.71534210443496704 0.85869604349136353
0.12683306634426117 0.73918408155441284 0.88779169321060181
0.3048669695854187 0.75364440679550171 0.90165191888809204
0.53082478046417236 0.75044888257980347 0.89659565687179565
0.73847490549087524 0.74249362945556641 0.89123308658599854
0.89156204462051392 0.74747252464294434 0.89787554740905762
0.99718254804611206 0.75544881820678711 0.89510518312454224
0.041345901787281036 0.920967698097229 0.91197997331619263
0.15844647586345673 0.92742568254470825 0.9277074933052063
0.32974281907081604 0.92686527967453003 0.92574942111968994
0.54660493135452271 0.9129939079284668 0.90822732448577881
0.74199169874191284 0.89066678285598755 0.89143282175064087
0.88430362939834595 0.8845750093460083 0.88839042186737061
0.99157875776290894 0.8872033953666687 0.88332939147949219
0.078187637031078339 0.99990665912628174 0.96199148893356323
0.19118596613407135 1 0.95706486701965332
0.35463559627532959 0.99999284744262695 0.9425312876701355
0.5613635778427124 0.99968945980072021 0.91984450817108154
0.74610954523086548 0.9913254976272583 0.89630699157714844
0.88334959745407104 0.98483967781066895 0.88350844383239746
0.98564249277114868 0.98527252674102783 0.88032329082489014
0 0 1
0.036962501704692841 0 1
0.22089517116546631 0 1
0.44752639532089233 0 0.98767316341400146
0.64672994613647461 0.00021003274014219642 0.92481148242950439
0.80032205581665039 0.0034370122011750937 0.9147108793258667
0.91496586799621582 0.017075736075639725 0.93867480754852295
0 0.099908910691738129 1
0.063063152134418488 0.096522882580757141 0.99637174606323242
0.2566678524017334 0.099811941385269165 0.9648813009262085
0.49499639868736267 0.10055962204933167 0.96123671531677246
0.70403444766998291 0.10698750615119934 0.93695425987243652
0.86123812198638916 0.12736670672893524 0.95617145299911499
0.96914994716644287 0.15541084110736847 0.99224138259887695
0.0017699297750368714 0.28355279564857483 0.99950385093688965
0.10318079590797424 0.29486152529716492 0.98110389709472656
0.29599165916442871 0.30222994089126587 0.98313647508621216
0.53612440824508667 0.30129504203796387 0.99194639921188354
0.7517392635345459 0.30730363726615906 0.98814886808395386
0.90710943937301636 0.32620987296104431 0.99687713384628296
0.99736315011978149 0.34954160451889038 1
0.0043752184137701988 0.50179398059844971 0.97382837533950806
0.11683394759893417 0.52184915542602539 0.98125427961349487
0.30439621210098267 0.53606218099594116 0.99602103233337402
0.53706055879592896 0.53801089525222778 0.99767136573791504
0.7513498067855835 0.53994226455688477 0.99760061502456665
0.90681648254394531 0.55445116758346558 0.99907422065734863
0.99798566102981567 0.57316482067108154 0.99971276521682739
0.0064959507435560226 0.72474956512451172 0.97268915176391602
0.12951336801052094 0.74457889795303345 0.98809659481048584
0.31173959374427795 0.75782650709152222 0.99485665559768677
0.53476840257644653 0.75630754232406616 0.99372732639312744
0.73923152685165405 0.74495923519134521 0.99287271499633789
0.88911187648773193 0.7496526837348938 0.99348539113998413
0.99143004417419434 0.76173830032348633 0.99102592468261719
0.043412569910287857 0.92339408397674561 0.99426782131195068
0.16374024748802185 0.93229371309280396 0.99856340885162354
0.33580490946769714 0.92788249254226685 0.99987578392028809
0.54812502861022949 0.91240006685256958 0.99724733829498291
0.74312853813171387 0.89030396938323975 0.99115997552871704
0.88333481550216675 0.88475090265274048 0.98843967914581299
0.98819428682327271 0.88749051094055176 0.98704648017883301
0.082820594310760498 0.99924081563949585 1
0.20177765190601349 1 1
0.36519470810890198 1 1
0.56194239854812622 0.99962174892425537 0.99950742721557617
0.74356096982955933 0.99129045009613037 0.99256926774978638
0.87896072864532471 0.98529702425003052 0.98459798097610474
0.98475271463394165 0.98491644859313965 0.98477816581726074
