assets/lut/ericellerbrock victory.cube
# Created by: G'MIC (https://gmic.eu)
TITLE "victory"
# LUT size
LUT_3D_SIZE 5
# Data domain
DOMAIN_MIN 0.0 0.0 0.0
DOMAIN_MAX 1.0 1.0 1.0
# LUT data points
0.06469002366065979 0.095612332224845886 0.10683678835630417
0.31060072779655457 0.13213267922401428 0.093597307801246643
0.80878669023513794 0.21893692016601562 0.16352416574954987
0.85352611541748047 0.23418256640434265 0.16534550487995148
0.85490196943283081 0.23523810505867004 0.16470588743686676
0.02024148590862751 0.22965829074382782 0.047563932836055756
0.15739203989505768 0.20285815000534058 0.10525962710380554
0.80066484212875366 0.27527144551277161 0.11443870514631271
0.87413263320922852 0.2639065682888031 0.14492908120155334
0.85645240545272827 0.24009808897972107 0.16018742322921753
0.00017161649884656072 0.64370477199554443 0.0011338776675984263
0.071590349078178406 0.60541784763336182 0.0099657392129302025
0.76172268390655518 0.65627199411392212 0.31870931386947632
0.94725549221038818 0.60270828008651733 0.19615991413593292
0.94508820772171021 0.56327170133590698 0.12365326285362244
0 0.94866305589675903 0
0.028179887682199478 0.94656217098236084 0.0014777688775211573
0.50375831127166748 0.91990965604782104 0.10096071660518646
0.94299662113189697 0.92275649309158325 0.65603172779083252
0.94509804248809814 0.91557306051254272 0.6466224193572998
0 0.95574063062667847 0
0.066071905195713043 0.94901096820831299 0.0049559199251234531
0.27936616539955139 0.92787677049636841 0.010390636511147022
0.94126904010772705 0.92549020051956177 0.66309469938278198
0.94296175241470337 0.92162930965423584 0.66761320829391479
0.058408565819263458 0.31054854393005371 0.38120782375335693
0.36493894457817078 0.22002758085727692 0.25626185536384583
0.86236697435379028 0.24445135891437531 0.18989188969135284
0.87005382776260376 0.23683778941631317 0.17793144285678864
0.85838013887405396 0.23387788236141205 0.18792420625686646
0.049861505627632141 0.23999713361263275 0.24070526659488678
0.15668724477291107 0.22641514241695404 0.22455304861068726
0.80887973308563232 0.26332375407218933 0.14491270482540131
0.87238222360610962 0.2492290735244751 0.15858227014541626
0.86954307556152344 0.24369435012340546 0.1619662344455719
0 0.61732381582260132 0.051333766430616379
0.051136497408151627 0.58028745651245117 0.031262237578630447
0.75415945053100586 0.64114069938659668 0.31749898195266724
0.9457244873046875 0.59241658449172974 0.17657621204853058
0.94707262516021729 0.55501896142959595 0.1134321466088295
0 0.96255290508270264 0.013091187924146652
0.028146736323833466 0.95217156410217285 0.010317125357687473
0.5114862322807312 0.92380046844482422 0.085184969007968903
0.94217747449874878 0.92166054248809814 0.65501850843429565
0.94390839338302612 0.92134284973144531 0.66499239206314087
0 0.96673262119293213 0.010008897632360458
0.045221380889415741 0.95769667625427246 0.012133819051086903
0.24089968204498291 0.93089902400970459 0.021620417013764381
0.94126057624816895 0.92549020051956177 0.66351252794265747
0.94117647409439087 0.92489719390869141 0.66626536846160889
0.066796258091926575 0.40075290203094482 0.49616974592208862
0.28583362698554993 0.39990144968032837 0.4633464515209198
0.88204622268676758 0.40488746762275696 0.4968046247959137
0.91623634099960327 0.38834410905838013 0.4579264223575592
0.90836530923843384 0.37374618649482727 0.41473293304443359
0.059968400746583939 0.42679056525230408 0.54021090269088745
0.13498771190643311 0.41468542814254761 0.51321732997894287
0.84443527460098267 0.40747052431106567 0.50824248790740967
0.91396504640579224 0.36887100338935852 0.40433123707771301
0.9131617546081543 0.35503727197647095 0.37505292892456055
0.023091798648238182 0.65910977125167847 0.6896369457244873
0.023773582652211189 0.63685840368270874 0.6625862717628479
0.65353798866271973 0.66182792186737061 0.63824200630187988
0.95077335834503174 0.6203000545501709 0.49015539884567261
0.95164686441421509 0.56528335809707642 0.41110289096832275
0 0.97290092706680298 0.40265083312988281
0.0015293046599254012 0.98111873865127563 0.26219415664672852
0.27611398696899414 0.96852594614028931 0.11114086210727692
0.94509804248809814 0.92359256744384766 0.70357245206832886
0.94542884826660156 0.92620271444320679 0.7055896520614624
0 0.98905783891677856 0.13914650678634644
0.011178215034306049 0.98942857980728149 0.099353954195976257
0.2543715238571167 0.96151542663574219 0.057515580207109451
0.92965388298034668 0.92630785703659058 0.64522755146026611
0.94533729553222656 0.92878836393356323 0.68594980239868164
0.07038155198097229 0.4036199152469635 0.4956868588924408
0.21986368298530579 0.40236738324165344 0.47054287791252136
0.84498727321624756 0.42838099598884583 0.54100340604782104
0.92693245410919189 0.43921568989753723 0.59114956855773926
0.92943274974822998 0.43923670053482056 0.59274733066558838
0.061855480074882507 0.42181995511054993 0.53242397308349609
0.11087800562381744 0.41475135087966919 0.51692545413970947
0.82043993473052979 0.44067478179931641 0.59667503833770752
0.93250644207000732 0.44670817255973816 0.61267644166946411
0.93277055025100708 0.44394737482070923 0.60421234369277954
0.037616431713104248 0.63717454671859741 0.76663506031036377
0.04613882303237915 0.62567639350891113 0.75758594274520874
0.47985407710075378 0.61922866106033325 0.81320774555206299
0.96520662307739258 0.63687998056411743 0.85834139585494995
0.9671291708946228 0.61248338222503662 0.84729170799255371
0.015686275437474251 0.79064488410949707 0.88626968860626221
0.018829958513379097 0.79345041513442993 0.88394021987915039
0.10578590631484985 0.82420498132705688 0.89928299188613892
0.94325822591781616 0.94503700733184814 0.90647250413894653
0.94865751266479492 0.94255083799362183 0.90212714672088623
0.015686275437474251 0.7925986647605896 0.88627451658248901
0.015322592109441757 0.79783463478088379 0.88493520021438599
0.032507684081792831 0.82393604516983032 0.8855825662612915
0.93044686317443848 0.94642537832260132 0.87273710966110229
0.94901961088180542 0.9455876350402832 0.87966752052307129
0.081590987741947174 0.40392157435417175 0.49538716673851013
0.18605966866016388 0.40320566296577454 0.47449728846549988
0.83786821365356445 0.43169024586677551 0.55729120969772339
0.92549020051956177 0.43921568989753723 0.59236747026443481
0.92941176891326904 0.43995097279548645 0.59776705503463745
0.058838114142417908 0.42652904987335205 0.53893375396728516
0.14193172752857208 0.41500213742256165 0.50737476348876953
0.80659598112106323 0.43117675185203552 0.58369070291519165
0.93689244985580444 0.45483744144439697 0.63410371541976929
0.92943274974822998 0.4430631697177887 0.59977501630783081
0.037354681640863419 0.63134419918060303 0.75996702909469604
0.042619340121746063 0.61353027820587158 0.74240010976791382
0.44393470883369446 0.61035001277923584 0.80412626266479492
0.96452778577804565 0.63573276996612549 0.85093051195144653
0.96339625120162964 0.62088865041732788 0.83847528696060181
0.015686275437474251 0.78483903408050537 0.88235294818878174
0.02343139611184597 0.78571808338165283 0.88189184665679932
0.071685090661048889 0.81992912292480469 0.89923977851867676
0.93518525362014771 0.94061028957366943 0.90954625606536865
0.94787359237670898 0.94302499294281006 0.91267770528793335
0.015686275437474251 0.7921568751335144 0.88627451658248901
0.022195074707269669 0.7921568751335144 0.88627451658248901
0.030481480062007904 0.79360878467559814 0.88733863830566406
0.90242081880569458 0.93540161848068237 0.90999943017959595
0.94272291660308838 0.94509804248809814 0.90986460447311401
