assets/lut/ericellerbrock avalanche.cube
# Created by: G'MIC (https://gmic.eu)
TITLE "avalanche"
# LUT size
LUT_3D_SIZE 5
# Data domain
DOMAIN_MIN 0.0 0.0 0.0
DOMAIN_MAX 1.0 1.0 1.0
# LUT data points
0.057230390608310699 0.073192432522773743 0.076494790613651276
0.083520494401454926 0.084150023758411407 0.082752138376235962
0.34791707992553711 0.13155730068683624 0.099372133612632751
0.78588837385177612 0.20001906156539917 0.15420866012573242
0.87791597843170166 0.21717165410518646 0.1596238762140274
0.054534312337636948 0.13200515508651733 0.08176112174987793
0.11352613568305969 0.15229141712188721 0.11221404373645782
0.76326912641525269 0.22221581637859344 0.1456495076417923
0.92926925420761108 0.2660212516784668 0.17211025953292847
0.96039706468582153 0.29381304979324341 0.18235373497009277
0.095021359622478485 0.47691094875335693 0.033845279365777969
0.1662568598985672 0.50317370891571045 0.032857857644557953
0.92031651735305786 0.54498952627182007 0.53947800397872925
0.99925768375396729 0.56715846061706543 0.56226110458374023
1 0.6073724627494812 0.60365110635757446
0.14794905483722687 0.8361240029335022 0.0048640230670571327
0.23613551259040833 0.82991510629653931 0.0016755048418417573
0.99994480609893799 0.75045317411422729 0.59232127666473389
1 0.76379120349884033 0.7717055082321167
1 0.7607187032699585 0.77264934778213501
0.13052314519882202 0.8478628396987915 0.014286071062088013
0.2483942061662674 0.8334541916847229 0.0071839126758277416
0.99819612503051758 0.76202541589736938 0.61224931478500366
1 0.78333336114883423 0.78431373834609985
1 0.7764706015586853 0.78191286325454712
0.057179439812898636 0.085870809853076935 0.096587195992469788
0.074165999889373779 0.090451590716838837 0.10084674507379532
0.3915364146232605 0.14111566543579102 0.11414317786693573
0.83571743965148926 0.20835146307945251 0.16712382435798645
0.91552621126174927 0.22984622418880463 0.17009134590625763
0.05255521833896637 0.14822055399417877 0.14558251202106476
0.11058967560529709 0.18273109197616577 0.18201127648353577
0.82264238595962524 0.23206008970737457 0.16513514518737793
0.93619793653488159 0.26085469126701355 0.18001984059810638
0.961922287940979 0.31278824806213379 0.21823342144489288
0.081839963793754578 0.4795595109462738 0.066537313163280487
0.11069197952747345 0.49905747175216675 0.069707520306110382
0.91439425945281982 0.54573780298233032 0.53225892782211304
0.9999765157699585 0.56365042924880981 0.55488067865371704
0.99996930360794067 0.6018441915512085 0.59729379415512085
0.051756314933300018 0.85210013389587402 0.034800376743078232
0.11804640293121338 0.84705048799514771 0.048205342143774033
0.99994105100631714 0.7390628457069397 0.5677802562713623
0.99705374240875244 0.75323909521102905 0.76111793518066406
0.9962916374206543 0.75639128684997559 0.7693793773651123
0.032809194177389145 0.86546355485916138 0.097435876727104187
0.14707282185554504 0.84867620468139648 0.039122875779867172
0.99993932247161865 0.74985438585281372 0.55807715654373169
0.99937069416046143 0.78145259618759155 0.78090786933898926
0.99795114994049072 0.77724587917327881 0.78421109914779663
0.050076577812433243 0.16388198733329773 0.19994047284126282
0.06921609491109848 0.17744839191436768 0.21671763062477112
0.50755363702774048 0.23771357536315918 0.24944776296615601
0.88304609060287476 0.31390422582626343 0.29856589436531067
0.93344032764434814 0.36445266008377075 0.40467137098312378
0.019098497927188873 0.37213939428329468 0.4809887707233429
0.057844709604978561 0.41979295015335083 0.53195399045944214
0.80536758899688721 0.3830152153968811 0.4567808210849762
0.95455735921859741 0.44687014818191528 0.603931725025177
0.96669679880142212 0.4889795184135437 0.70859605073928833
0.00028242223197594285 0.60394740104675293 0.66848289966583252
0.0020145492162555456 0.62154132127761841 0.69270259141921997
0.57270628213882446 0.65428042411804199 0.71623611450195312
0.94933873414993286 0.68917816877365112 0.70085340738296509
0.95686322450637817 0.71919769048690796 0.72409093379974365
0 0.86424893140792847 0.85579967498779297
7.2703638579696417e-05 0.85592770576477051 0.83493101596832275
0.54267603158950806 0.88044589757919312 0.63918817043304443
0.94603455066680908 0.82629084587097168 0.82519066333770752
0.96392178535461426 0.82950717210769653 0.83075153827667236
0 0.85325115919113159 0.87305080890655518
0.0010042078793048859 0.85680758953094482 0.85406053066253662
0.55840420722961426 0.9006037712097168 0.64040553569793701
0.95663022994995117 0.85971200466156006 0.84919387102127075
0.95995908975601196 0.86321026086807251 0.86654394865036011
0.043160010129213333 0.21442259848117828 0.26422730088233948
0.045793436467647552 0.26185023784637451 0.31962627172470093
0.53474968671798706 0.33054947853088379 0.34328651428222656
0.92042714357376099 0.41305184364318848 0.53765690326690674
0.94509804248809814 0.43130415678024292 0.58861380815505981
0.0098229348659515381 0.42167651653289795 0.54397273063659668
0.054598640650510788 0.42433521151542664 0.54542338848114014
0.8190988302230835 0.43341836333274841 0.6081046462059021
0.96424919366836548 0.47503739595413208 0.70020264387130737
0.97273105382919312 0.5055234432220459 0.75734704732894897
9.6848430985119194e-05 0.63728421926498413 0.77901178598403931
0.0069249472580850124 0.656707763671875 0.79788398742675781
0.42959606647491455 0.6499788761138916 0.84206360578536987
0.93755048513412476 0.68843257427215576 0.85181856155395508
0.94769644737243652 0.71876096725463867 0.85631918907165527
0 0.80193275213241577 0.89729756116867065
0.0035936692729592323 0.7990795373916626 0.8941003680229187
0.3280278742313385 0.82626348733901978 0.87665945291519165
0.8754538893699646 0.85448563098907471 0.84956717491149902
0.92094153165817261 0.85577118396759033 0.85162341594696045
0 0.80392158031463623 0.90196079015731812
0.0052387164905667305 0.8100968599319458 0.89806020259857178
0.46397191286087036 0.85793733596801758 0.87323474884033203
0.89065760374069214 0.88560575246810913 0.86016613245010376
0.92994421720504761 0.88849681615829468 0.89011651277542114
0.042520187795162201 0.24008208513259888 0.2969091534614563
0.051421701908111572 0.26999655365943909 0.33049041032791138
0.56208395957946777 0.36548492312431335 0.38293981552124023
0.93516868352890015 0.42701476812362671 0.58309513330459595
0.94797664880752563 0.43137255311012268 0.59610879421234131
0.0096200983971357346 0.4241986870765686 0.54836159944534302
0.081781931221485138 0.42597547173500061 0.5425456166267395
0.83903199434280396 0.43815052509307861 0.64564377069473267
0.97025829553604126 0.48582148551940918 0.73121100664138794
0.96873384714126587 0.51474785804748535 0.75493055582046509
0 0.64519089460372925 0.79142159223556519
0.0077488915994763374 0.66590392589569092 0.8047339916229248
0.4653351902961731 0.66379022598266602 0.84933584928512573
0.93512886762619019 0.69570565223693848 0.86728829145431519
0.94850629568099976 0.72541236877441406 0.85911774635314941
0 0.80237632989883423 0.90147233009338379
0.013232331722974777 0.80615240335464478 0.89894801378250122
0.26821300387382507 0.82130914926528931 0.88896596431732178
0.8592911958694458 0.84981495141983032 0.86056596040725708
0.91082531213760376 0.85957664251327515 0.86452311277389526
0 0.80392158031463623 0.90196079015731812
0.010182414203882217 0.80615746974945068 0.90191876888275146
0.29361030459403992 0.84698903560638428 0.891590416431427
0.86005276441574097 0.88593828678131104 0.87228924036026001
0.92141693830490112 0.89016807079315186 0.89028006792068481
