assets/lut/ericellerbrock hydracore.cube
# Created by: G'MIC (https://gmic.eu)
TITLE "hydracore"
# LUT size
LUT_3D_SIZE 7
# Data domain
DOMAIN_MIN 0.0 0.0 0.0
DOMAIN_MAX 1.0 1.0 1.0
# LUT data points
0.0005371393053792417 0.00082729564746841788 0.021700944751501083
0.17576560378074646 0 0.011078150011599064
0.52000230550765991 0 0.0036538366694003344
0.88147813081741333 0 0.021649723872542381
1 0.00014838424976915121 0.012855186127126217
0.99991166591644287 0.0071411430835723877 0.017385654151439667
1 0.00014702291809953749 0.0098191509023308754
0.00063515460351482034 0.12444568425416946 0.0088961878791451454
0.081710085272789001 0.097755983471870422 0.0074583166278898716
0.43756958842277527 0.049559544771909714 0.0011588601628318429
0.80868291854858398 0.022955067455768585 0.012481913901865482
0.99990200996398926 0.0096650663763284683 0.023692157119512558
0.99758666753768921 0.0024058623239398003 0.02962920255959034
1 0.0019671123009175062 0.025100916624069214
0.0010908088879659772 0.36243751645088196 0.0167058315128088
0.015423823148012161 0.3460809588432312 0.016080265864729881
0.31484392285346985 0.30344516038894653 0.0059115393087267876
0.72409701347351074 0.25597098469734192 0.0070208082906901836
0.99512511491775513 0.21030919253826141 0.025890784338116646
0.99575406312942505 0.18651846051216125 0.031732238829135895
0.99887710809707642 0.19064398109912872 0.034298870712518692
0.00043688007281161845 0.6430516242980957 0.038222786039113998
0.007376053836196661 0.63521236181259155 0.041154239326715469
0.18914559483528137 0.61096477508544922 0.035982407629489899
0.58624255657196045 0.5613359808921814 0.01332219410687685
0.96183580160140991 0.52021080255508423 0.016618227586150169
1 0.50184255838394165 0.02513916976749897
1 0.49993446469306946 0.026055146008729935
0.0025923934299498796 0.9311872124671936 0.066486641764640808
0 0.92771977186203003 0.064507082104682922
0.050873219966888428 0.92179447412490845 0.06340663880109787
0.44544851779937744 0.85772949457168579 0.028021404519677162
0.86046010255813599 0.80599957704544067 0.01362736988812685
1 0.77849024534225464 0.016106624156236649
1 0.77807992696762085 0.012456392869353294
0.00025165034458041191 1 0.072321377694606781
0 1 0.074773706495761871
0.012825580313801765 1 0.071416236460208893
0.34871843457221985 1 0.039462503045797348
0.77830624580383301 0.99640029668807983 0.017961973324418068
0.99806159734725952 0.97766995429992676 0.013836011290550232
0.99950450658798218 0.98491567373275757 0.0073419907130300999
0.0018819322576746345 1 0.074535280466079712
0 1 0.076963447034358978
0.028553323820233345 1 0.068633317947387695
0.32099863886833191 0.99665391445159912 0.041160028427839279
0.73324668407440186 0.99717003107070923 0.02237720787525177
0.99211359024047852 0.99994945526123047 0.010619174689054489
1 1 0.00057214475236833096
4.6673944780195598e-06 0 0.21652433276176453
0.16042186319828033 7.5934913184028119e-05 0.18242049217224121
0.51092791557312012 0 0.13914941251277924
0.87370681762695312 0 0.11286941170692444
1 0.00012154672731412575 0.049572620540857315
0.99466407299041748 0.0058351554907858372 0.039696265012025833
0.99962431192398071 0.0010182698024436831 0.033107023686170578
0 0.11756838858127594 0.14421197772026062
0.083025313913822174 0.090152934193611145 0.1190480962395668
0.42697787284851074 0.042993746697902679 0.079037956893444061
0.81259322166442871 0.017964128404855728 0.055495481938123703
1 0.01388365775346756 0.043285831809043884
0.99963319301605225 0.0012483784230425954 0.017791748046875
0.99996483325958252 0.00053136487258598208 0.014891785569489002
7.1372240199707448e-05 0.35746252536773682 0.057269945740699768
0.020119985565543175 0.34456548094749451 0.055576503276824951
0.30926793813705444 0.30083316564559937 0.020907802507281303
0.73365169763565063 0.25520443916320801 0.012336461804807186
0.99871826171875 0.22321338951587677 0.030691154301166534
0.99652314186096191 0.18259881436824799 0.020918512716889381
0.99830871820449829 0.18311445415019989 0.023306170478463173
0.0017714855493977666 0.63696569204330444 0.017209850251674652
0.0011482388945296407 0.63508754968643188 0.02685730904340744
0.18329238891601562 0.60453635454177856 0.0066152536310255527
0.58922803401947021 0.5543287992477417 0.00018760831153485924
0.96084171533584595 0.51980900764465332 0.012614231556653976
0.99949818849563599 0.49731454253196716 0.018781490623950958
0.99588501453399658 0.50075602531433105 0.0071093840524554253
0.0018479590071365237 0.92750072479248047 0.057814892381429672
5.1461015573295299e-06 0.9271741509437561 0.05142110213637352
0.053513515740633011 0.91828322410583496 0.054539356380701065
0.43970990180969238 0.85146170854568481 0.020796367898583412
0.85999190807342529 0.80303955078125 0.016662389039993286
1 0.77819669246673584 0.0019698347896337509
1 0.77827388048171997 0
0.0061778947710990906 1 0.057453799992799759
0 1 0.052580814808607101
0.0048511428758502007 1 0.059657886624336243
0.33890870213508606 1 0.033660333603620529
0.7760547399520874 0.99849182367324829 0.017468605190515518
0.99789667129516602 0.98453390598297119 0.0017697950825095177
1 0.98161309957504272 0
0.021505827084183693 1 0.073289580643177032
4.9785539886215702e-05 0.99789321422576904 0.06790442019701004
0.0002904555294662714 0.99785727262496948 0.067949466407299042
0.29086598753929138 0.98786371946334839 0.034572646021842957
0.72230696678161621 0.99554300308227539 0.014807906933128834
0.97988724708557129 1 0.0045431996695697308
1 1 0
0 0.00010124655091203749 0.5182873010635376
0.13586142659187317 0.00021224677038844675 0.48262161016464233
0.48935496807098389 0 0.43705770373344421
0.85627514123916626 0.0056719463318586349 0.39100676774978638
1 0.0067263133823871613 0.33468320965766907
0.9999433159828186 0.0086948918178677559 0.28974330425262451
0.99992525577545166 0.0011566610774025321 0.27338850498199463
0.00039497824036516249 0.10360834747552872 0.44495359063148499
0.077709823846817017 0.079644836485385895 0.41999247670173645
0.41108536720275879 0.042601864784955978 0.37595447897911072
0.79570299386978149 0.010383067652583122 0.33585011959075928
0.99997484683990479 0.016084020957350731 0.29539778828620911
0.99250543117523193 0.0039572920650243759 0.24954602122306824
0.99941182136535645 0 0.24925605952739716
0.0021639207843691111 0.34574559330940247 0.33625930547714233
0.016664931550621986 0.33107778429985046 0.32554194331169128
0.30454781651496887 0.2918696403503418 0.28897833824157715
0.7214704155921936 0.24136652052402496 0.25217399001121521
0.99817967414855957 0.21189677715301514 0.2218983918428421
0.99810558557510376 0.18063116073608398 0.18576353788375854
1 0.16903117299079895 0.20682190358638763
4.4729196815751493e-05 0.62394726276397705 0.18885248899459839
0 0.62446343898773193 0.19340948760509491
0.15094128251075745 0.60045284032821655 0.16993032395839691
0.58206641674041748 0.55006980895996094 0.11383095383644104
0.96284717321395874 0.51181817054748535 0.10756465047597885
1 0.49376749992370605 0.097348399460315704
0.99996501207351685 0.49514877796173096 0.11246787011623383
5.6008731917245314e-05 0.921764075756073 0.11031868308782578
2.8363396268105134e-05 0.92049050331115723 0.1170671209692955
0.056724429130554199 0.90862119197845459 0.095603734254837036
0.42350456118583679 0.84737062454223633 0.071293070912361145
0.84856986999511719 0.80122160911560059 0.03435160219669342
1 0.7791869044303894 0.014375200495123863
0.99998366832733154 0.77331697940826416 0.017008194699883461
0.0079213762655854225 1 0.087564028799533844
0 1 0.079624876379966736
0.010161709971725941 1 0.077907845377922058
0.3223402202129364 1 0.052074462175369263
0.75832343101501465 0.9969666600227356 0.021871693432331085
0.99837911128997803 0.97857373952865601 0.0045327581465244293
0.99751579761505127 0.97925615310668945 0.00010507620754651725
0.025590859353542328 1 0.12279942631721497
9.9571079772431403e-05 0.99515581130981445 0.075616426765918732
0.0048595652915537357 0.99508059024810791 0.084406189620494843
0.28615590929985046 0.99444597959518433 0.01950703002512455
0.7083316445350647 0.997120201587677 0.0026940288953483105
0.97683233022689819 1 0.021635392680764198
1 1 0.020119057968258858
0.0025349785573780537 0.0011018939549103379 0.84534388780593872
0.12792862951755524 0 0.7905687689781189
0.45994558930397034 0 0.75106638669967651
0.83303153514862061 0.0051811966113746166 0.72918212413787842
1 0.0029742969200015068 0.70106178522109985
1 0.0062722149305045605 0.67149227857589722
1 0.0025940840132534504 0.67320138216018677
0 0.084358260035514832 0.76760631799697876
0.055331449955701828 0.06054217740893364 0.75242382287979126
0.3949718177318573 0.036805141717195511 0.7277260422706604
0.79455327987670898 0.012524937279522419 0.69347667694091797
0.99999284744262695 0.0026180341374129057 0.66007000207901001
0.99988478422164917 0.0035933102481067181 0.63030755519866943
0.99608057737350464 0.013273216784000397 0.6260870099067688
0.00026137407985515893 0.32654571533203125 0.69217735528945923
0.0026093726046383381 0.31520691514015198 0.67943471670150757
0.27904051542282104 0.27541074156761169 0.66119980812072754
0.70470172166824341 0.22622834146022797 0.62317371368408203
0.99621254205703735 0.19131606817245483 0.59390127658843994
0.99981379508972168 0.17125578224658966 0.57639217376708984
0.99922364950180054 0.18044005334377289 0.56914746761322021
0.00065440760226920247 0.61251437664031982 0.57248592376708984
0 0.61319881677627563 0.57662588357925415
0.12435021251440048 0.58807408809661865 0.55523991584777832
0.56962603330612183 0.53750729560852051 0.50710439682006836
0.95108592510223389 0.49928805232048035 0.47429201006889343
1 0.48075622320175171 0.44552028179168701
0.99991017580032349 0.48112797737121582 0.45169055461883545
0.0028875463176518679 0.90117615461349487 0.45825013518333435
0.0002730575215537101 0.91324543952941895 0.47263577580451965
0.025035049766302109 0.88984733819961548 0.44852927327156067
0.40219935774803162 0.83635193109512329 0.38307583332061768
0.83481091260910034 0.78467941284179688 0.3211294412612915
1 0.75834226608276367 0.28731808066368103
0.99579578638076782 0.7555275559425354 0.28775197267532349
0.0071936212480068207 1 0.38866174221038818
0 1 0.38840571045875549
0.003691445104777813 1 0.37221959233283997
0.30335351824760437 1 0.31033468246459961
0.74401175975799561 0.9936521053314209 0.23591287434101105
0.99211663007736206 0.96743190288543701 0.18881087005138397
0.99680638313293457 0.96070969104766846 0.16227658092975616
0.015781581401824951 0.99998599290847778 0.39992392063140869
7.3900409915950149e-06 0.9903489351272583 0.36246052384376526
0.0042818556539714336 0.99000585079193115 0.34678637981414795
0.27081459760665894 0.99447214603424072 0.25816655158996582
0.69385594129562378 0.99910342693328857 0.20395420491695404
0.96927732229232788 1 0.19347849488258362
1 1 0.18441905081272125
0.00010657216625986621 0 0.97770982980728149
0.092678576707839966 0 0.9361412525177002
0.43450984358787537 0 0.92792463302612305
0.83647829294204712 0.00026137407985515893 0.94679170846939087
1 0.00025456745061092079 0.9419141411781311
1 0.0041927560232579708 0.92538285255432129
0.99745887517929077 0.00044379141763783991 0.95229625701904297
0 0.060806602239608765 0.93526095151901245
0.026023924350738525 0.039723861962556839 0.93541330099105835
0.36244949698448181 0.035002928227186203 0.9595380425453186
0.77570503950119019 0.0085899056866765022 0.94533860683441162
1 0.00061454024398699403 0.92245876789093018
0.99978357553482056 0.0013815786223858595 0.92347639799118042
0.99350756406784058 0.020555848255753517 0.89719295501708984
0 0.30693066120147705 0.95144736766815186
0.00056421617045998573 0.29765135049819946 0.92348086833953857
0.24864418804645538 0.26790377497673035 0.93759053945541382
0.68514126539230347 0.21485809981822968 0.92963927984237671
0.99785721302032471 0.18200841546058655 0.92687594890594482
0.99464064836502075 0.15011371672153473 0.91299998760223389
0.99196380376815796 0.17535188794136047 0.8636355996131897
0.00010699103586375713 0.60297191143035889 0.90410774946212769
0.0009056240669451654 0.60416930913925171 0.91985452175140381
0.11933689564466476 0.57991546392440796 0.89522790908813477
0.55663031339645386 0.52819746732711792 0.8607945442199707
0.94417208433151245 0.48613059520721436 0.83648377656936646
1 0.46068844199180603 0.81038463115692139
0.99847590923309326 0.46042534708976746 0.8141709566116333
0 0.89151895046234131 0.83580642938613892
0.0022836572024971247 0.89628612995147705 0.84316909313201904
0.019554316997528076 0.88247835636138916 0.82488775253295898
0.39671206474304199 0.82001179456710815 0.77097833156585693
0.80819869041442871 0.76468515396118164 0.71288394927978516
1 0.73545700311660767 0.69585764408111572
0.98977530002593994 0.7364349365234375 0.69057327508926392
0.0010382558684796095 1 0.7780640721321106
0.00040939930477179587 1 0.78573513031005859
0.0005877326475456357 1 0.76540917158126831
0.27484574913978577 0.99976062774658203 0.7056153416633606
0.71490192413330078 0.98720228672027588 0.62660890817642212
0.98598897457122803 0.94897013902664185 0.58692324161529541
0.99678546190261841 0.9392009973526001 0.56857681274414062
0.0033972049131989479 1 0.77402609586715698
0.00011569752678042278 0.99496662616729736 0.76416569948196411
0.0023107491433620453 0.99601501226425171 0.73561280965805054
0.22055023908615112 0.9972999095916748 0.66696959733963013
0.65692424774169922 0.99994713068008423 0.58247685432434082
0.95610970258712769 0.99627089500427246 0.5397038459777832
1 1 0.5226060152053833
4.6673944780195598e-06 0 0.96617162227630615
0.078014478087425232 4.4729196815751493e-05 0.93388384580612183
0.41998481750488281 0 0.93256503343582153
0.80510759353637695 0.00073414220241829753 0.95107299089431763
1 0.0015565759968012571 0.96716475486755371
0.99987614154815674 0.00091247557429596782 0.96014869213104248
0.99943536520004272 0 0.97863960266113281
0.00036600150633603334 0.043265711516141891 0.94549751281738281
0.032121066004037857 0.03762676939368248 0.94079881906509399
0.33559763431549072 0.037204533815383911 0.94343388080596924
0.74374938011169434 0.016088284552097321 0.94209271669387817
1 0.0032391268759965897 0.95949441194534302
0.99851268529891968 0.0072766323573887348 0.97235047817230225
0.99577683210372925 0.0070610945113003254 0.96523535251617432
0.0015966377686709166 0.29155436158180237 0.95243793725967407
0.0041124681010842323 0.28800913691520691 0.95157378911972046
0.22813604772090912 0.26111257076263428 0.95665383338928223
0.66434335708618164 0.20290340483188629 0.94524121284484863
0.99439424276351929 0.17455343902111053 0.95462924242019653
0.99891805648803711 0.16126780211925507 0.96847826242446899
0.98984038829803467 0.16354258358478546 0.9555700421333313
0 0.59284293651580811 0.95174741744995117
2.0644243704737164e-05 0.59133291244506836 0.9516596794128418
0.11925536394119263 0.57365107536315918 0.95177048444747925
0.54024487733840942 0.52024918794631958 0.93050819635391235
0.92800712585449219 0.47975942492485046 0.94356733560562134
1 0.45628127455711365 0.94282239675521851
0.99802392721176147 0.45673820376396179 0.9466133713722229
6.6315893491264433e-05 0.883739173412323 0.98662984371185303
9.1448018793016672e-05 0.88880836963653564 0.97682279348373413
0.025440903380513191 0.87716805934906006 0.97397202253341675
0.3815273642539978 0.81551826000213623 0.94580078125
0.8027578592300415 0.75744271278381348 0.916157066822052
1 0.72704786062240601 0.91068476438522339
0.99795877933502197 0.72622191905975342 0.89829927682876587
0 0.99974554777145386 0.98250454664230347
0.0048956479877233505 0.99999159574508667 0.98006176948547363
0.00055787328165024519 0.99989932775497437 0.9740527868270874
0.26470896601676941 0.9987412691116333 0.94222766160964966
0.70516884326934814 0.97425812482833862 0.89838230609893799
0.98411411046981812 0.93741118907928467 0.86988574266433716
0.99871343374252319 0.92000406980514526 0.84881949424743652
0 0.99899524450302124 0.98282665014266968
0.0015069401124492288 0.99985247850418091 0.97664427757263184
5.9120327932760119e-05 0.99868583679199219 0.97258621454238892
0.19693128764629364 0.99764764308929443 0.91758805513381958
0.63343298435211182 0.99967366456985474 0.84944599866867065
0.93434172868728638 0.99959397315979004 0.82264471054077148
1 0.9999813437461853 0.80473107099533081
0.013967925682663918 0 0.95981180667877197
0.11913205683231354 0 0.93748021125793457
0.41664671897888184 0 0.92994928359985352
0.80242037773132324 2.8004365958622657e-05 0.94098126888275146
1 0 0.95797407627105713
1 0 0.96488934755325317
1 0 0.98334938287734985
9.7237380032311194e-06 0.031568281352519989 0.94301819801330566
0.034170366823673248 0.021063067018985748 0.93883973360061646
0.31782850623130798 0.024609718471765518 0.93175381422042847
0.74014049768447876 0.017273562029004097 0.93900865316390991
0.99990355968475342 0.00046045638737268746 0.95618581771850586
1 0.00093063653912395239 0.96010434627532959
1 0 0.96970528364181519
0 0.28401055932044983 0.94589030742645264
0.0016173567855730653 0.28412815928459167 0.94884204864501953
0.23742309212684631 0.25759148597717285 0.94007068872451782
0.68543070554733276 0.20282280445098877 0.9378010630607605
0.99697887897491455 0.16961058974266052 0.95266574621200562
1 0.15923547744750977 0.95274704694747925
0.99752545356750488 0.14101041853427887 0.95726460218429565
0 0.58704560995101929 0.95293009281158447
0 0.5923079252243042 0.95547449588775635
0.10241231322288513 0.56937837600708008 0.94923490285873413
0.54217493534088135 0.51389491558074951 0.93283295631408691
0.92805284261703491 0.47729700803756714 0.93064600229263306
1 0.45802342891693115 0.93213558197021484
0.99905657768249512 0.45882439613342285 0.9371262788772583
0 0.88139635324478149 0.97030150890350342
0 0.88517922163009644 0.97342109680175781
0.031967252492904663 0.87496376037597656 0.96761506795883179
0.3865446150302887 0.81042337417602539 0.93931251764297485
0.79690665006637573 0.75749039649963379 0.91948962211608887
0.99990278482437134 0.72982144355773926 0.91922003030776978
1 0.71876376867294312 0.921192467212677
0 1 0.97329854965209961
0 1 0.97598344087600708
0.00015785367577336729 0.99989306926727295 0.97798305749893188
0.26075422763824463 0.99850982427597046 0.94958508014678955
0.69496852159500122 0.9662400484085083 0.92282295227050781
0.97703838348388672 0.93082118034362793 0.92194455862045288
0.99983721971511841 0.91167861223220825 0.91871553659439087
0 1 0.99322706460952759
0 1 0.98810148239135742
0.0029101204127073288 1 0.98512178659439087
0.22726061940193176 0.99936872720718384 0.95703202486038208
0.6352418065071106 0.9999813437461853 0.9301292896270752
0.93230175971984863 0.99813979864120483 0.92438763380050659
1 0.99997413158416748 0.91631025075912476
