assets/lut/ericellerbrock serpent.cube
# Created by: G'MIC (https://gmic.eu)
TITLE "serpent"
# LUT size
LUT_3D_SIZE 5
# Data domain
DOMAIN_MIN 0.0 0.0 0.0
DOMAIN_MAX 1.0 1.0 1.0
# LUT data points
0.00089263916015625 0.002193645341321826 0.0063376780599355698
0.16846518218517303 0.022215524688363075 0.042303018271923065
0.67500209808349609 0 0.010319743305444717
1 7.0010914896556642e-06 0
1 0.012079590000212193 0
0.002394313458353281 0.18750534951686859 0.0062310462817549706
0.15725302696228027 0.22726565599441528 4.321827509556897e-05
0.84912824630737305 0.14582991600036621 0.0010242237476631999
1 0.11293318867683411 0
0.99752140045166016 0.14476369321346283 0
0.004585909191519022 0.68267518281936646 0.0052728839218616486
0.0099992044270038605 0.66887956857681274 0.0011555689852684736
0.58521789312362671 0.58780467510223389 0.0048097199760377407
0.99984234571456909 0.53020596504211426 0.00024717743508517742
0.99809229373931885 0.53555440902709961 0.011905326507985592
0 1 0
0.0077363555319607258 0.9999842643737793 0
0.39815589785575867 0.9789879322052002 0.0026199789717793465
0.91298645734786987 0.91924691200256348 0.0036416295915842056
1 0.90131384134292603 0.0016703886212781072
0 1 0
0.00035705565824173391 1 0
0.31885793805122375 1 0.00033867033198475838
0.80958300828933716 1 0.00028722427668981254
0.99922865629196167 1 0.00077807856723666191
0 0.00013786765339318663 0.00054500804981216788
0.17378529906272888 0.01565113477408886 0.1779685914516449
0.67399865388870239 0 0.20905815064907074
0.99992126226425171 0.00077964930096641183 0.17350116372108459
0.99887418746948242 0 0.16955691576004028
0.0029305252246558666 0.18811406195163727 0.18931524455547333
0.13553966581821442 0.21585460007190704 0.22961759567260742
0.84113019704818726 0.13052378594875336 0.14591939747333527
0.99652940034866333 0.07955576479434967 0.10587888211011887
0.99662792682647705 0.084847934544086456 0.10423105210065842
0.0032251544762402773 0.67837327718734741 0.037487462162971497
0.0047537260688841343 0.65742331743240356 0.034390557557344437
0.58344608545303345 0.57537007331848145 0.0064565171487629414
0.99931758642196655 0.52615010738372803 0.0022947124671190977
0.99852943420410156 0.51986336708068848 0.002338349586352706
0 1 7.0010915806051344e-05
0 0.99991154670715332 0
0.3622651994228363 0.96527963876724243 2.4234548163803993e-06
0.90631413459777832 0.91092300415039062 0
0.99995678663253784 0.87996464967727661 0
0 1 0
0 1 0.0032226413022726774
0.26756554841995239 0.99764645099639893 0.0017025069100782275
0.79699844121932983 0.9996258020401001 0
0.99933558702468872 1 0.0044283848255872726
2.8004365958622657e-05 0.00013786765339318663 0.00068933825241401792
0.15204779803752899 0.0040815914981067181 0.45097357034683228
0.68916553258895874 0 0.69102740287780762
1 0.00072539085522294044 0.75299566984176636
0.99943375587463379 0.00094456394435837865 0.79956328868865967
0 0.1659829318523407 0.58936059474945068
0.13211256265640259 0.18157804012298584 0.8298221230506897
0.80847835540771484 0.095178596675395966 0.81256765127182007
0.99817651510238647 0.052000787109136581 0.75549685955047607
0.98793160915374756 0.087464079260826111 0.71891325712203979
0.0029212054796516895 0.64616268873214722 0.65275180339813232
0.00027896655956283212 0.62496286630630493 0.62519341707229614
0.54957455396652222 0.54530054330825806 0.54779016971588135
0.99863952398300171 0.4948614239692688 0.4997621476650238
0.99303215742111206 0.48785760998725891 0.49160367250442505
0.0025077969767153263 0.9986380934715271 0.45009511709213257
0.0094342548400163651 0.99649381637573242 0.4307062029838562
0.35520309209823608 0.93577486276626587 0.35214325785636902
0.87275868654251099 0.86548244953155518 0.2889096736907959
0.99823343753814697 0.83016359806060791 0.25641664862632751
0.0020678353030234575 0.99756479263305664 0.40645104646682739
0.010388407856225967 0.9999813437461853 0.37531346082687378
0.2894020676612854 1 0.27755621075630188
0.75579500198364258 0.99537640810012817 0.18923522531986237
0.9921146035194397 1 0.19883628189563751
0.00050096696941182017 0.00043729893513955176 0.0016786463093012571
0.13050346076488495 0.00047590967733412981 0.7422783374786377
0.68795180320739746 0 0.99182385206222534
1 0 1
1 0 1
0 0.15518674254417419 0.9562566876411438
0.14519605040550232 0.14766837656497955 1
0.77823752164840698 0.068669036030769348 0.99734818935394287
1 0.06084011122584343 1
0.9999842643737793 0.10105780512094498 1
0 0.61837071180343628 1
0.0097619751468300819 0.59357368946075439 1
0.50859373807907104 0.52594321966171265 0.9996294379234314
0.99094635248184204 0.46800470352172852 0.98041653633117676
0.99673938751220703 0.45994895696640015 0.99639928340911865
0.00099828385282307863 0.98951917886734009 0.99424177408218384
0.002026920672506094 0.98725825548171997 0.98132920265197754
0.30758634209632874 0.91236156225204468 0.91452282667160034
0.83475035429000854 0.83081603050231934 0.84165948629379272
1 0.80560648441314697 0.80695736408233643
6.1394188378471881e-05 1 0.95100277662277222
0 0.99690574407577515 0.90278732776641846
0.15284009277820587 1 0.80312246084213257
0.70965242385864258 0.99623656272888184 0.71546584367752075
0.9894452691078186 0.99304795265197754 0.68031603097915649
8.8680491899140179e-05 0.0004974514595232904 0.016145249828696251
0.14054682850837708 0 0.91720783710479736
0.7268492579460144 0.00032107782317325473 0.99692165851593018
1 0 1
1 0 1
0 0.16475580632686615 0.99981683492660522
0.13027739524841309 0.13367089629173279 0.99660390615463257
0.77514553070068359 0.070855788886547089 0.98686707019805908
1 0.085805453360080719 1
1 0.097560286521911621 1
0 0.61794614791870117 0.99650007486343384
0.013675704598426819 0.59055876731872559 0.98284387588500977
0.52854114770889282 0.52059662342071533 0.99836426973342896
0.99629276990890503 0.46561011672019958 0.99604672193527222
0.99967736005783081 0.42572230100631714 1
0.00052677228813990951 0.99580937623977661 1
0 0.97429603338241577 0.99974042177200317
0.30001839995384216 0.90460044145584106 1
0.81798058748245239 0.82023048400878906 1
1 0.77359896898269653 1
0 1 1
0 1 1
0.22168505191802979 1 1
0.70227962732315063 0.99650722742080688 0.99849098920822144
0.98799228668212891 0.99065011739730835 0.98608154058456421
