assets/lut/ericellerbrock paladin.cube
# Created by: G'MIC (https://gmic.eu)
TITLE "paladin"
# LUT size
LUT_3D_SIZE 13
# Data domain
DOMAIN_MIN 0.0 0.0 0.0
DOMAIN_MAX 1.0 1.0 1.0
# LUT data points
0 0 0
0.00010070800635730848 0 0
0.0070104710757732391 0 0
0.024173242971301079 0.00071807560743764043 0.00072060379898175597
0.04629853367805481 0.005313454195857048 0.0069722491316497326
0.086605235934257507 0.012510217726230621 0.019024927169084549
0.20641405880451202 0.014792947098612785 0.029543498530983925
0.43439492583274841 0.0084710363298654556 0.028582239523530006
0.6588512659072876 0.001904222066514194 0.020194543525576591
0.8453834056854248 0 0.01132487878203392
0.97593522071838379 0 0.004913330078125
1 0 0.0011813893215730786
1 9.1014189820270985e-05 2.5850184101727791e-05
4.9366670282324776e-05 0 0
0.0029283410403877497 0.0011297786841169 0.00067865708842873573
0.011886507272720337 0.0047713932581245899 0.0031463922932744026
0.026659378781914711 0.012185549363493919 0.008936295285820961
0.053728740662336349 0.021381663158535957 0.017960956320166588
0.1056971549987793 0.028276510536670685 0.027712982147932053
0.23199933767318726 0.027256924659013748 0.031436890363693237
0.4646238386631012 0.016523024067282677 0.024910047650337219
0.69456863403320312 0.0059761498123407364 0.014213726855814457
0.8764682412147522 0.0015502331079915166 0.006742814090102911
0.98804599046707153 0.0011781879002228379 0.0029957043007016182
1 0.0024089589715003967 0.0013348298380151391
1 0.0078751957044005394 0.00068628648295998573
0.00066761689959093928 0.0057079987600445747 0.00041321400203742087
0.0045302445068955421 0.014982635155320168 0.0052284840494394302
0.010421617887914181 0.022916426882147789 0.01170005090534687
0.023909220471978188 0.032728113234043121 0.020816488191485405
0.057045523077249527 0.043157793581485748 0.029591025784611702
0.12564747035503387 0.049675796180963516 0.034871373325586319
0.2657158374786377 0.046494711190462112 0.031329646706581116
0.49618840217590332 0.03325590118765831 0.01918322965502739
0.73155635595321655 0.020953413099050522 0.007781309075653553
0.90984255075454712 0.016180884093046188 0.0045888712629675865
0.9963688850402832 0.016993310302495956 0.0039259819313883781
1 0.022722596302628517 0.0033445321023464203
1 0.03608105331659317 0.0032429564744234085
0.00015173519204836339 0.024711474776268005 0.0012494255788624287
0.0011829301947727799 0.038070231676101685 0.0073178308084607124
0.0032129473984241486 0.050686225295066833 0.017800364643335342
0.015364508144557476 0.065195925533771515 0.029981201514601707
0.058298807591199875 0.078009754419326782 0.037384361028671265
0.15593849122524261 0.085160799324512482 0.037295114248991013
0.32131782174110413 0.081827111542224884 0.027919620275497437
0.54421180486679077 0.071819216012954712 0.014141232706606388
0.76975280046463013 0.062605015933513641 0.0053799347952008247
0.94176334142684937 0.059333771467208862 0.0048837848007678986
0.99990320205688477 0.062850221991539001 0.0067744236439466476
1 0.072233505547046661 0.0071544870734214783
1 0.091299794614315033 0.007715816143900156
0.00044702267041429877 0.054094500839710236 0.0036416295915842056
0.00064242491498589516 0.072974905371665955 0.0094969356432557106
0 0.095219917595386505 0.019252432510256767
0.0029799668118357658 0.12002814561128616 0.029432274401187897
0.048792373389005661 0.13833102583885193 0.033903069794178009
0.17807631194591522 0.14759048819541931 0.030777605250477791
0.36738458275794983 0.14879700541496277 0.020030422136187553
0.58273029327392578 0.14566513895988464 0.008113187737762928
0.79291296005249023 0.14227448403835297 0.0035246754996478558
0.9552496075630188 0.14298449456691742 0.0048162424936890602
1 0.15076445043087006 0.0074182096868753433
1 0.16453133523464203 0.0083913467824459076
0.99951112270355225 0.1862766444683075 0.0097571127116680145
0.0033250248525291681 0.11641187220811844 0.0055337343364953995
0.0045306035317480564 0.14804421365261078 0.0080645391717553139
3.8685517210979015e-05 0.18444526195526123 0.012604971416294575
0 0.21939502656459808 0.017845183610916138
0.0254860520362854 0.24152296781539917 0.018275495618581772
0.18016053736209869 0.25250190496444702 0.015851743519306183
0.39548087120056152 0.25812599062919617 0.0074443891644477844
0.60101985931396484 0.26251509785652161 0.00093503465177491307
0.79349684715270996 0.26595747470855713 0.00042061900603584945
0.94241726398468018 0.27195447683334351 0.0021938697900623083
0.99911576509475708 0.28712853789329529 0.0042803743854165077
1 0.30900633335113525 0.0048182466998696327
0.9962431788444519 0.33515217900276184 0.0052575203590095043
0.0053141876123845577 0.24581161141395569 0.0037498325109481812
0.0087497932836413383 0.30067723989486694 0.003186454065144062
0.00047884174273349345 0.3462490439414978 0.0036626928485929966
0 0.3788413405418396 0.0045040054246783257
0.015091181732714176 0.39741799235343933 0.0034087237436324358
0.18016687035560608 0.40765148401260376 0.0026071884203702211
0.41281801462173462 0.41415691375732422 0.00046838499838486314
0.60777223110198975 0.42146462202072144 0
0.78362107276916504 0.42893567681312561 0
0.92080265283584595 0.43950411677360535 5.6906308600446209e-05
0.9909980297088623 0.46103551983833313 0.00029296876164153218
0.99998718500137329 0.49059015512466431 0.00013777788262814283
0.99712365865707397 0.51828312873840332 0.00014361213834490627
0.0034289490431547165 0.46547320485115051 0.00069224036997184157
0.0087765110656619072 0.51755768060684204 5.6681914429645985e-05
0.0011129491031169891 0.55238288640975952 0
0 0.57490789890289307 0
0.022220296785235405 0.5883362889289856 0
0.18971361219882965 0.59545958042144775 0
0.41676214337348938 0.59931612014770508 0
0.61286693811416626 0.6024709939956665 0
0.77755528688430786 0.60967975854873657 0
0.90264403820037842 0.62351560592651367 0
0.97497463226318359 0.64411753416061401 0
0.99853062629699707 0.66994565725326538 0
0.99909007549285889 0.69228267669677734 0
0.0020693161059170961 0.69111651182174683 0.00026565251755528152
0.0026461132802069187 0.7241138219833374 0.0014210271183401346
1.2446384971553925e-05 0.74464339017868042 0.00043445662595331669
0 0.76128023862838745 0
0.029248809441924095 0.77164739370346069 0
0.20587128400802612 0.77409994602203369 0
0.43268820643424988 0.77252638339996338 0
0.63012045621871948 0.76981329917907715 0
0.78391808271408081 0.77230173349380493 2.3336971935350448e-05
0.89579570293426514 0.78288358449935913 0.00018611234554555267
0.96424978971481323 0.79567170143127441 0.00083585252286866307
0.9949643611907959 0.81114459037780762 0.0011044221464544535
1 0.82524341344833374 7.0010915806051344e-05
0.0040960125625133514 0.85261708498001099 0.0010301328729838133
0.0011672524269670248 0.87636476755142212 0.00339533481746912
0 0.89206039905548096 0.001386799500323832
0.00069611490471288562 0.90402597188949585 2.2753547455067746e-05
0.058202631771564484 0.91034996509552002 0
0.24853438138961792 0.9108460545539856 0
0.47573199868202209 0.90640449523925781 0
0.66420257091522217 0.89719259738922119 0.00022792442177888006
0.80202960968017578 0.8914673924446106 0.00099707208573818207
0.89873498678207397 0.89213418960571289 0.0022736643441021442
0.96114450693130493 0.89534813165664673 0.0038856505416333675
0.99438035488128662 0.90198689699172974 0.002801304217427969
1 0.90931600332260132 2.1003274014219642e-05
0.0034441030584275723 0.96765583753585815 0.00027926574693992734
0.00050062290392816067 0.97998064756393433 0.00085685582598671317
5.834242983837612e-05 0.9857141375541687 0.00025184481637552381
0.014823988080024719 0.98797005414962769 0
0.11028966307640076 0.98721206188201904 0
0.30871915817260742 0.98746925592422485 0
0.53648334741592407 0.98454415798187256 0
0.70893824100494385 0.972678542137146 0.00070380413671955466
0.82523274421691895 0.96250319480895996 0.0018053092062473297
0.90644568204879761 0.95767402648925781 0.0024697696790099144
0.96265828609466553 0.95600736141204834 0.001917476300150156
0.99529480934143066 0.95750540494918823 0.00033887976314872503
1 0.96202564239501953 0
0 1 0
0 1 0
4.2784446122823283e-05 1 0
0.025264410302042961 1 0
0.13290922343730927 1 0
0.34420633316040039 1 0
0.58235663175582886 0.99998718500137329 0
0.74678999185562134 0.99838519096374512 0.00056494917953386903
0.8455614447593689 0.99422663450241089 0.00053169397870078683
0.91525143384933472 0.99209737777709961 6.6315893491264433e-05
0.96533083915710449 0.99152731895446777 0
0.99607789516448975 0.99303126335144043 0
1 0.99521899223327637 0
0 1 0.0015830245101824403
0 1 0.00025281720445491374
4.8618690925650299e-05 1 4.6673944780195598e-06
0.027840573340654373 1 0
0.13715966045856476 0.99989885091781616 0
0.35742011666297913 0.99880301952362061 0
0.60874313116073608 0.999442458152771 0
0.76990336179733276 1 0
0.8589780330657959 1 0
0.92183113098144531 1 0
0.9677390456199646 1 0
0.99662888050079346 1 0
1 1 0
0 0 0
0.00024267457774840295 0 0
0.0073846406303346157 6.8754306994378567e-05 0.00016949223936535418
0.024870704859495163 0.0013939652126282454 0.0032280117738991976
0.047785695642232895 0.0061609754338860512 0.014151658862829208
0.089496836066246033 0.012027530930936337 0.030144335702061653
0.21522931754589081 0.012422314845025539 0.043023981153964996
0.4392927885055542 0.0061968336813151836 0.045124143362045288
0.65969103574752808 0.00053998164366930723 0.03634127601981163
0.84221524000167847 0 0.02573864534497261
0.97131401300430298 0 0.018407424911856651
1 0 0.01359264925122261
1 0 0.011475238017737865
0.00045737472828477621 0.00036652508424594998 2.1721334633184597e-05
0.0049630110152065754 0.0026041516102850437 0.0016529158456251025
0.014348677359521389 0.0063189188949763775 0.0061351102776825428
0.029723253101110458 0.013067941181361675 0.014175834134221077
0.055618628859519958 0.022046422585844994 0.026307454332709312
0.10808823257684708 0.028540248051285744 0.040154624730348587
0.23606450855731964 0.026012824848294258 0.046951547265052795
0.46697595715522766 0.014882555231451988 0.043349187821149826
0.69326305389404297 0.004690761212259531 0.031710442155599594
0.8711356520652771 0.00050629262113943696 0.02165515348315239
0.98498713970184326 3.291111454473139e-07 0.017151731997728348
1 0.00022526161046698689 0.015228375792503357
1 0.0032224468886852264 0.015420427545905113
0.0023408776614814997 0.0089900149032473564 0.0022084852680563927
0.0074196760542690754 0.016384933143854141 0.0093195298686623573
0.013716484420001507 0.022635800763964653 0.017553426325321198
0.025512859225273132 0.033375788480043411 0.029001347720623016
0.057585772126913071 0.045185506343841553 0.04142272099852562
0.12723620235919952 0.051319856196641922 0.050224993377923965
0.269664466381073 0.046554207801818848 0.048931960016489029
0.50000888109207153 0.033307183533906937 0.038945727050304413
0.73204296827316284 0.021247923374176025 0.028029916808009148
0.90861612558364868 0.015244203619658947 0.022533595561981201
0.99604225158691406 0.013849280774593353 0.021358460187911987
1 0.017637604847550392 0.021650621667504311
1 0.030265225097537041 0.023853899911046028
0.00088762771338224411 0.028229791671037674 0.0078020733781158924
0.0025355021934956312 0.039807353168725967 0.018094230443239212
0.0042409412562847137 0.052560288459062576 0.030520884320139885
0.014485676772892475 0.067402452230453491 0.043731674551963806
0.057911008596420288 0.081119701266288757 0.054102491587400436
0.15985420346260071 0.08720804750919342 0.056672368198633194
0.32886457443237305 0.082338429987430573 0.047978837043046951
0.5517764687538147 0.071851275861263275 0.034460928291082382
0.77482134103775024 0.063120476901531219 0.026098961010575294
0.94440919160842896 0.060247577726840973 0.025819979608058929
0.99996048212051392 0.062225714325904846 0.027831044048070908
1 0.069897942245006561 0.030346499755978584
1 0.08835805207490921 0.034174945205450058
2.3995193259906955e-05 0.060308419167995453 0.014355394057929516
0.00029989503673277795 0.079134665429592133 0.025244424119591713
2.6328891635785112e-06 0.10078829526901245 0.038357798010110855
0.0022662442643195391 0.12356432527303696 0.048713624477386475
0.049497999250888824 0.14164391160011292 0.054336052387952805
0.18581236898899078 0.14977715909481049 0.053212109953165054
0.37789186835289001 0.14942812919616699 0.040239594876766205
0.59194129705429077 0.14609223604202271 0.025892863050103188
0.79911661148071289 0.1438596248626709 0.020733747631311417
0.9566531777381897 0.14606577157974243 0.02329559251666069
1 0.15335701406002045 0.027921907603740692
1 0.16590628027915955 0.033685047179460526
0.99986499547958374 0.1880512535572052 0.04030010849237442
0.0017321119084954262 0.12603342533111572 0.017416007816791534
0.0038647970650345087 0.15990817546844482 0.023466162383556366
5.2388510084711015e-05 0.19425562024116516 0.031796131283044815
0 0.22555579245090485 0.037538476288318634
0.030473791062831879 0.24755941331386566 0.038296226412057877
0.18964742124080658 0.25833189487457275 0.035465899854898453
0.40182411670684814 0.26285043358802795 0.023082956671714783
0.60656297206878662 0.26619753241539001 0.011031251400709152
0.79907238483428955 0.27059903740882874 0.010096696205437183
0.94532907009124756 0.2787940502166748 0.01421121321618557
0.99942553043365479 0.29393255710601807 0.01900298148393631
1 0.31460678577423096 0.024743802845478058
0.99791932106018066 0.33961102366447449 0.032109759747982025
0.004438482690602541 0.26524984836578369 0.011825337074697018
0.0071798139251768589 0.31477075815200806 0.011045088991522789
0.0001242843281943351 0.35718664526939392 0.013033488765358925
0 0.388193279504776 0.01653982512652874
0.027902550995349884 0.40839362144470215 0.017350289970636368
0.19729836285114288 0.41998380422592163 0.015163705684244633
0.41930034756660461 0.42640110850334167 0.0071701798588037491
0.61508488655090332 0.43074077367782593 0.0012314739869907498
0.79057449102401733 0.43757691979408264 0.0012578178429976106
0.92546480894088745 0.45016783475875854 0.0033468806650489569
0.99317210912704468 0.47186589241027832 0.0053405161015689373
1 0.50121164321899414 0.006250044796615839
0.99786967039108276 0.5307498574256897 0.0074203643016517162
0.0042902776040136814 0.48678255081176758 0.0023141747806221247
0.0070118173025548458 0.5282367467880249 0.00039994483813643456
0.00010598874359857291 0.56108063459396362 0.00037072872510179877
0 0.58484965562820435 0.0014145047171041369
0.037827793508768082 0.60046184062957764 0.0024048001505434513
0.21428285539150238 0.6107407808303833 0.0022866043727844954
0.43793949484825134 0.61541235446929932 0.00068233715137466788
0.6280663013458252 0.61547023057937622 0
0.78777617216110229 0.61978143453598022 0
0.90955877304077148 0.63209658861160278 1.8430224372423254e-05
0.98027557134628296 0.65281355381011963 7.3720897489693016e-05
0.99980223178863525 0.67990690469741821 4.2619893065420911e-05
0.99957025051116943 0.70381367206573486 0.00014332789578475058
0.0039251889102160931 0.70155316591262817 0
0.0031816968694329262 0.72710740566253662 0
0 0.74844729900360107 0
0.00010003482748288661 0.76789861917495728 0
0.051639720797538757 0.78051042556762695 0
0.2320127934217453 0.78605961799621582 0
0.45379817485809326 0.78588014841079712 0
0.64565962553024292 0.78193825483322144 0
0.79504513740539551 0.78158944845199585 0
0.90357488393783569 0.78798401355743408 0
0.97073668241500854 0.79977655410766602 0
0.99834215641021729 0.81600147485733032 0
1 0.83010131120681763 0
0.0057535208761692047 0.85944515466690063 0
0.0018453859956935048 0.87389922142028809 5.561978105106391e-05
0 0.89035749435424805 0
0.0040478575974702835 0.9063604474067688 0
0.083241857588291168 0.91473191976547241 0
0.26899570226669312 0.91652399301528931 0
0.48899152874946594 0.91279035806655884 0
0.675567626953125 0.9049944281578064 0
0.81133878231048584 0.89863622188568115 0
0.90584081411361694 0.89635920524597168 4.4130811147624627e-06
0.96755170822143555 0.89695972204208374 0.00064133288105949759
0.99760621786117554 0.90214139223098755 0.00072160607669502497
1 0.91076189279556274 0
0.0035969603341072798 0.97067177295684814 0
0.00057569018099457026 0.97804254293441772 0
6.1633538280148059e-05 0.98319882154464722 0
0.021466035395860672 0.98755437135696411 0
0.12637990713119507 0.98922979831695557 0
0.32040861248970032 0.98868298530578613 0
0.54053789377212524 0.98484641313552856 0
0.71553248167037964 0.97628247737884521 0
0.83191525936126709 0.96763908863067627 0
0.91106110811233521 0.96097201108932495 5.5051318668120075e-06
0.96715742349624634 0.955238938331604 0.00040533029823563993
0.99745619297027588 0.95452648401260376 0.00017356124590151012
1 0.96074658632278442 0
0 1 0.00027210012194700539
0 1 1.0726031177910045e-05
0.00059703754959627986 1 3.291111454473139e-07
0.035377517342567444 1 0
0.15347903966903687 1 0
0.35945135354995728 1 0
0.58661037683486938 1 0
0.75364130735397339 0.99938923120498657 0
0.85273176431655884 0.99689590930938721 0
0.91906154155731201 0.99390709400177002 0
0.96895718574523926 0.99073141813278198 0
0.99730116128921509 0.99054223299026489 0
1 0.99371212720870972 0
0 1 0.0091132521629333496
0 1 0.0051523842848837376
0.0013092190492898226 1 0.0032131718471646309
0.043549243360757828 1 0.0019140206277370453
0.16815537214279175 1 0.0008763032965362072
0.37971150875091553 0.99970811605453491 0.00012815886293537915
0.61219829320907593 0.99941211938858032 0
0.7767595648765564 1 0
0.86907631158828735 1 0
0.92864161729812622 1 0
0.9719352126121521 1 0
0.99783170223236084 1 0
1 1 0
0 0 2.154182038793806e-05
0.00020144593145232648 0.00023016835621092469 0.00071456009754911065
0.0066989227198064327 0.001015203190036118 0.0034775228705257177
0.024639908224344254 0.0024038278497755527 0.010385206900537014
0.049895074218511581 0.006926428060978651 0.023777546361088753
0.094897009432315826 0.013017721474170685 0.04094429686665535
0.21630574762821198 0.013088630512356758 0.055434193462133408
0.4380628764629364 0.0056455275043845177 0.062132846564054489
0.6588435173034668 0.0003408394695725292 0.056162320077419281
0.8380429744720459 0 0.04513009637594223
0.96530061960220337 0 0.038012411445379257
1 0 0.035302478820085526
1 0 0.036416567862033844
0.0011152828810736537 0.0017087300075218081 0.0012787014711648226
0.0056390650570392609 0.0052155288867652416 0.0062617580406367779
0.013979893177747726 0.0078695109114050865 0.012924179434776306
0.029158454388380051 0.014356695115566254 0.023542188107967377
0.055638361722230911 0.023267604410648346 0.038473974913358688
0.10985290259122849 0.029938386753201485 0.054008767008781433
0.24192444980144501 0.027571076527237892 0.063234604895114899
0.47027921676635742 0.016152147203683853 0.063071727752685547
0.69244801998138428 0.0055938269942998886 0.053518570959568024
0.86619681119918823 0.00092121196212247014 0.042861383408308029
0.98053431510925293 1.6455556760774925e-05 0.03818390890955925
1 1.0531556654314045e-05 0.03771534189581871
1 0.0018521477468311787 0.040762238204479218
0.0030672410503029823 0.011352808214724064 0.0080203339457511902
0.0078602954745292664 0.017483700066804886 0.016487181186676025
0.013821171596646309 0.023441599681973457 0.026175554841756821
0.025345416739583015 0.034815546125173569 0.040229856967926025
0.058064777404069901 0.047087710350751877 0.055727474391460419
0.13115286827087402 0.052955072373151779 0.067134559154510498
0.28125372529029846 0.04814479872584343 0.069290146231651306
0.51120781898498535 0.035067643970251083 0.062812983989715576
0.7359623908996582 0.023596744984388351 0.053636003285646439
0.90710127353668213 0.017703322693705559 0.047247298061847687
0.99461096525192261 0.015440503135323524 0.045699577778577805
1 0.017570272088050842 0.04764740914106369
1 0.028901597484946251 0.053143877536058426
0.00091991049703210592 0.030494077131152153 0.017442217096686363
0.0029682384338229895 0.042180348187685013 0.030224429443478584
0.005249696783721447 0.055345349013805389 0.044207658618688583
0.015314738266170025 0.070757247507572174 0.059447284787893295
0.060453750193119049 0.08460814505815506 0.072578221559524536
0.16800373792648315 0.090078540146350861 0.07836584746837616
0.34384146332740784 0.084085650742053986 0.072852969169616699
0.56681853532791138 0.073576278984546661 0.061721950769424438
0.78220272064208984 0.066416554152965546 0.054723329842090607
0.94509011507034302 0.064436696469783783 0.053402334451675415
0.99994254112243652 0.066238582134246826 0.05552653968334198
1 0.073464184999465942 0.060582298785448074
1 0.091582924127578735 0.068820014595985413
9.059532021638006e-05 0.06543586403131485 0.026916429400444031
0.0018405540613457561 0.085491374135017395 0.042695887386798859
0.001032601110637188 0.1069658175110817 0.059977825731039047
0.0040697432123124599 0.12936881184577942 0.07210705429315567
0.053167261183261871 0.14694195985794067 0.078711569309234619
0.19531033933162689 0.1539023220539093 0.07932727038860321
0.39490565657615662 0.15223598480224609 0.069438070058822632
0.60797464847564697 0.14859674870967865 0.056644037365913391
0.80737751722335815 0.14814037084579468 0.051084212958812714
0.95706361532211304 0.15221939980983734 0.052484817802906036
1 0.16020163893699646 0.057769879698753357
1 0.17304176092147827 0.067062109708786011
0.99984228610992432 0.19549281895160675 0.079001389443874359
0.0017060672398656607 0.13228707015514374 0.033001858741044998
0.004031491931527853 0.17031584680080414 0.044189199805259705
0.0010470820125192404 0.20442013442516327 0.057850409299135208
4.846909359912388e-05 0.23425264656543732 0.065587393939495087
0.036403745412826538 0.25565370917320251 0.066869236528873444
0.20314428210258484 0.26513233780860901 0.064806662499904633
0.42272531986236572 0.26798161864280701 0.055326320230960846
0.62378418445587158 0.27106359601020813 0.042929437011480331
0.80703479051589966 0.27672520279884338 0.039516299962997437
0.94663387537002563 0.28739532828330994 0.04195607453584671
0.99942553043365479 0.30283752083778381 0.047668680548667908
1 0.32289424538612366 0.05778210237622261
0.99800020456314087 0.34732890129089355 0.07198575884103775
0.0029900495428591967 0.27579119801521301 0.025602901354432106
0.0055413786321878433 0.32812526822090149 0.027533512562513351
9.2749505711253732e-05 0.36985126137733459 0.033735793083906174
0 0.39935210347175598 0.04107481986284256
0.042114332318305969 0.41888445615768433 0.043422505259513855
0.21663513779640198 0.4291023313999176 0.041806899011135101
0.43618744611740112 0.43393182754516602 0.033508598804473877
0.62724226713180542 0.43835234642028809 0.022931940853595734
0.79701215028762817 0.44591861963272095 0.021365955471992493
0.92786294221878052 0.46003192663192749 0.024599680677056313
0.99386775493621826 0.48129549622535706 0.028392432257533073
1 0.50825107097625732 0.03298703208565712
0.99777072668075562 0.53570210933685303 0.04228954017162323
0.0032800263725221157 0.50212448835372925 0.0053351609967648983
0.0047048828564584255 0.54045963287353516 0.005360966082662344
4.6314911742229015e-05 0.57220125198364258 0.0086564160883426666
0 0.59499931335449219 0.016178250312805176
0.053179319947957993 0.61018592119216919 0.020897375419735909
0.23168514668941498 0.61881542205810547 0.020832719281315804
0.44732826948165894 0.62252861261367798 0.014691206626594067
0.6343809962272644 0.6232987642288208 0.0072905449196696281
0.79257512092590332 0.62819147109985352 0.0064946343190968037
0.91275733709335327 0.64033764600753784 0.0084564806893467903
0.98221826553344727 0.65968513488769531 0.010330155491828918
0.99995553493499756 0.68497961759567261 0.012261529453098774
0.9995579719543457 0.7072785496711731 0.018925640732049942
0.0030244265217334032 0.70902079343795776 1.4361213288793806e-05
0.0011281929910182953 0.73430603742599487 0.00038221769500523806
0 0.75572293996810913 0.0018592685228213668
0.00060061283875256777 0.77459061145782471 0.0044357147999107838
0.067626848816871643 0.7862551212310791 0.0068250321783125401
0.24936084449291229 0.79064810276031494 0.0071483086794614792
0.46482795476913452 0.79018616676330566 0.0046752779744565487
0.65286189317703247 0.78743058443069458 0.0020978141110390425
