assets/lut/ericellerbrock paladin.cube
# Created by: G'MIC (https://gmic.eu)
TITLE "paladin"
# LUT size
LUT_3D_SIZE 7
# Data domain
DOMAIN_MIN 0.0 0.0 0.0
DOMAIN_MAX 1.0 1.0 1.0
# LUT data points
0 0 0
0.0070104710757732391 0 0
0.04629853367805481 0.005313454195857048 0.0069722491316497326
0.20641405880451202 0.014792947098612785 0.029543498530983925
0.6588512659072876 0.001904222066514194 0.020194543525576591
0.97593522071838379 0 0.004913330078125
1 9.1014189820270985e-05 2.5850184101727791e-05
0.00066761689959093928 0.0057079987600445747 0.00041321400203742087
0.010421617887914181 0.022916426882147789 0.01170005090534687
0.057045523077249527 0.043157793581485748 0.029591025784611702
0.2657158374786377 0.046494711190462112 0.031329646706581116
0.73155635595321655 0.020953413099050522 0.007781309075653553
0.9963688850402832 0.016993310302495956 0.0039259819313883781
1 0.03608105331659317 0.0032429564744234085
0.00044702267041429877 0.054094500839710236 0.0036416295915842056
0 0.095219917595386505 0.019252432510256767
0.048792373389005661 0.13833102583885193 0.033903069794178009
0.36738458275794983 0.14879700541496277 0.020030422136187553
0.79291296005249023 0.14227448403835297 0.0035246754996478558
1 0.15076445043087006 0.0074182096868753433
0.99951112270355225 0.1862766444683075 0.0097571127116680145
0.0053141876123845577 0.24581161141395569 0.0037498325109481812
0.00047884174273349345 0.3462490439414978 0.0036626928485929966
0.015091181732714176 0.39741799235343933 0.0034087237436324358
0.41281801462173462 0.41415691375732422 0.00046838499838486314
0.78362107276916504 0.42893567681312561 0
0.9909980297088623 0.46103551983833313 0.00029296876164153218
0.99712365865707397 0.51828312873840332 0.00014361213834490627
0.0020693161059170961 0.69111651182174683 0.00026565251755528152
1.2446384971553925e-05 0.74464339017868042 0.00043445662595331669
0.029248809441924095 0.77164739370346069 0
0.43268820643424988 0.77252638339996338 0
0.78391808271408081 0.77230173349380493 2.3336971935350448e-05
0.96424978971481323 0.79567170143127441 0.00083585252286866307
1 0.82524341344833374 7.0010915806051344e-05
0.0034441030584275723 0.96765583753585815 0.00027926574693992734
5.834242983837612e-05 0.9857141375541687 0.00025184481637552381
0.11028966307640076 0.98721206188201904 0
0.53648334741592407 0.98454415798187256 0
0.82523274421691895 0.96250319480895996 0.0018053092062473297
0.96265828609466553 0.95600736141204834 0.001917476300150156
1 0.96202564239501953 0
0 1 0.0015830245101824403
4.8618690925650299e-05 1 4.6673944780195598e-06
0.13715966045856476 0.99989885091781616 0
0.60874313116073608 0.999442458152771 0
0.8589780330657959 1 0
0.9677390456199646 1 0
1 1 0
0 0 2.154182038793806e-05
0.0066989227198064327 0.001015203190036118 0.0034775228705257177
0.049895074218511581 0.006926428060978651 0.023777546361088753
0.21630574762821198 0.013088630512356758 0.055434193462133408
0.6588435173034668 0.0003408394695725292 0.056162320077419281
0.96530061960220337 0 0.038012411445379257
1 0 0.036416567862033844
0.0030672410503029823 0.011352808214724064 0.0080203339457511902
0.013821171596646309 0.023441599681973457 0.026175554841756821
0.058064777404069901 0.047087710350751877 0.055727474391460419
0.28125372529029846 0.04814479872584343 0.069290146231651306
0.7359623908996582 0.023596744984388351 0.053636003285646439
0.99461096525192261 0.015440503135323524 0.045699577778577805
1 0.028901597484946251 0.053143877536058426
9.059532021638006e-05 0.06543586403131485 0.026916429400444031
0.001032601110637188 0.1069658175110817 0.059977825731039047
0.053167261183261871 0.14694195985794067 0.078711569309234619
0.39490565657615662 0.15223598480224609 0.069438070058822632
0.80737751722335815 0.14814037084579468 0.051084212958812714
1 0.16020163893699646 0.057769879698753357
0.99984228610992432 0.19549281895160675 0.079001389443874359
0.0029900495428591967 0.27579119801521301 0.025602901354432106
9.2749505711253732e-05 0.36985126137733459 0.033735793083906174
0.042114332318305969 0.41888445615768433 0.043422505259513855
0.43618744611740112 0.43393182754516602 0.033508598804473877
0.79701215028762817 0.44591861963272095 0.021365955471992493
0.99386775493621826 0.48129549622535706 0.028392432257533073
0.99777072668075562 0.53570210933685303 0.04228954017162323
0.0030244265217334032 0.70902079343795776 1.4361213288793806e-05
0 0.75572293996810913 0.0018592685228213668
0.067626848816871643 0.7862551212310791 0.0068250321783125401
0.46482795476913452 0.79018616676330566 0.0046752779744565487
0.79996007680892944 0.78730887174606323 0.0014395919861271977
0.97307741641998291 0.8029819130897522 0.0029222227167338133
1 0.83138716220855713 0.0093157002702355385
0.0012684541288763285 0.97337192296981812 0.001681653200648725
0.00014361213834490627 0.98186659812927246 0.0033937492407858372
0.1380217969417572 0.98726683855056763 0.0026465023402124643
0.54339009523391724 0.98201298713684082 0.00068963743979111314
0.83361268043518066 0.96898186206817627 0.00083583756349980831
0.96707677841186523 0.95547842979431152 7.330202788580209e-05
1 0.95892566442489624 0.00010307162301614881
0 1 0.034242112189531326
0.0032019373029470444 1 0.027972681447863579
0.1803579181432724 1 0.019076313823461533
0.61058562994003296 0.99927818775177002 0.0060591157525777817
0.8697364330291748 1 0.0010948480339720845
0.97128009796142578 1 0
1 1 0
0.00035723517066799104 0 0.019302234053611755
0.0089768357574939728 1.7951517293113284e-05 0.029447218403220177
0.045615252107381821 0.00659154262393713 0.053232066333293915
0.20464804768562317 0.010674211196601391 0.10362080484628677
0.65567129850387573 6.1753220506943762e-05 0.12891942262649536
0.96102124452590942 0 0.11854019016027451
0.9999813437461853 0 0.12525588274002075
0.001359782530926168 0.0073265223763883114 0.038093477487564087
0.0097385328263044357 0.022694068029522896 0.059936013072729111
0.058133263140916824 0.046376455575227737 0.10113877058029175
0.28297904133796692 0.047645330429077148 0.14183045923709869
0.73943924903869629 0.022332703694701195 0.14680510759353638
0.99586755037307739 0.018145721405744553 0.14337339997291565
0.99849772453308105 0.031311288475990295 0.16172614693641663
2.4414062863797881e-05 0.067952007055282593 0.070461109280586243
3.8296569982776418e-05 0.11588510125875473 0.12097969651222229
0.061657413840293884 0.15434935688972473 0.16477614641189575
0.40041255950927734 0.15641772747039795 0.17250412702560425
0.81836092472076416 0.14989252388477325 0.1692001074552536
1 0.16430811583995819 0.18107011914253235
0.99637031555175781 0.20975744724273682 0.22007209062576294
0.00089706719154492021 0.295541912317276 0.1137174591422081
0 0.38342034816741943 0.14850318431854248
0.075664296746253967 0.43016022443771362 0.16801169514656067
0.45052483677864075 0.44366580247879028 0.16542287170886993
0.81052374839782715 0.45867228507995605 0.16052483022212982
0.99798083305358887 0.4935021698474884 0.17167924344539642
0.99485474824905396 0.55167585611343384 0.20689594745635986
0 0.71050035953521729 0.096785299479961395
0 0.76660722494125366 0.12655250728130341
0.07606244832277298 0.79231250286102295 0.14898194372653961
0.47598189115524292 0.79361331462860107 0.14229533076286316
0.80610394477844238 0.79720389842987061 0.12384343147277832
0.97578305006027222 0.8122859001159668 0.12537305057048798
1 0.83602041006088257 0.15267767012119293
0.0010840322356671095 0.97370046377182007 0.13050517439842224
0 0.9875105619430542 0.15219762921333313
0.12550708651542664 0.98802226781845093 0.16167853772640228
0.55088311433792114 0.97774887084960938 0.14038018882274628
0.84033256769180298 0.96624076366424561 0.11230453848838806
0.96734714508056641 0.95341217517852783 0.0973358154296875
1 0.95193755626678467 0.1062038466334343
0.0019839417655020952 0.99953949451446533 0.21306446194648743
0 0.99816244840621948 0.22653006017208099
0.11667603254318237 0.99938857555389404 0.20598489046096802
0.58788961172103882 0.99949556589126587 0.16103473305702209
0.86759078502655029 1 0.11898370087146759
0.9662933349609375 0.99957859516143799 0.083591863512992859
0.99932014942169189 0.99824589490890503 0.06965559720993042
0 0 0.09702715277671814
0.0049556954763829708 0.00061793607892468572 0.10932794958353043
0.043109610676765442 0.0049317153170704842 0.14203357696533203
0.19416901469230652 0.0046166065149009228 0.20376746356487274
0.62410032749176025 0 0.25620380043983459
0.93622905015945435 0 0.26123011112213135
0.99932599067687988 0.00013535443576984107 0.27153655886650085
0 0.0064422609284520149 0.11544620245695114
0.0047678179107606411 0.023543592542409897 0.14986895024776459
0.051253210753202438 0.042390964925289154 0.22007244825363159
0.28071868419647217 0.035939130932092667 0.29408714175224304
0.72312873601913452 0.014921420253813267 0.30718427896499634
0.99018323421478271 0.015677656978368759 0.33853748440742493
0.99905562400817871 0.032759692519903183 0.39291444420814514
0 0.063527293503284454 0.1636078953742981
0 0.11532057076692581 0.26873058080673218
0.043580222874879837 0.15257133543491364 0.36499026417732239
0.40405732393264771 0.1518244743347168 0.40071773529052734
0.81157296895980835 0.14738622307777405 0.41024056077003479
0.99993056058883667 0.16497313976287842 0.4544956386089325
0.99744236469268799 0.2068161815404892 0.51785922050476074
0.00029296876164153218 0.30035179853439331 0.28963238000869751
0.0004898968618363142 0.38478589057922363 0.37772589921951294
0.038529340177774429 0.43335387110710144 0.4289604127407074
0.45068082213401794 0.44635701179504395 0.43726015090942383
0.80259865522384644 0.4634556770324707 0.45628160238265991
0.99128669500350952 0.50313854217529297 0.49447652697563171
0.99747806787490845 0.55717599391937256 0.55392903089523315
0.0010016945889219642 0.7133479118347168 0.3658241331577301
0.0010697159450501204 0.765350341796875 0.42136412858963013
0.020879827439785004 0.79422664642333984 0.47199100255966187
0.46979150176048279 0.79654383659362793 0.46872222423553467
0.80170446634292603 0.79285544157028198 0.45763856172561646
0.97299540042877197 0.80624961853027344 0.48825520277023315
0.99984908103942871 0.82516974210739136 0.51884645223617554
0.0033729851711541414 0.96818137168884277 0.47867459058761597
0.00027259378111921251 0.98462784290313721 0.52904689311981201
0.08118101954460144 0.98736095428466797 0.54373133182525635
0.53672581911087036 0.97063440084457397 0.53017663955688477
0.82298904657363892 0.95254999399185181 0.4895496666431427
0.95309007167816162 0.94220507144927979 0.47901317477226257
0.99904268980026245 0.94070863723754883 0.49147683382034302
0.0031420988962054253 0.9980817437171936 0.62427270412445068
0.00030146579956635833 0.99492472410202026 0.64302951097488403
0.10053155571222305 0.99787169694900513 0.6310189962387085
0.58508509397506714 0.99893486499786377 0.58559542894363403
0.85047793388366699 0.999958336353302 0.50204551219940186
0.95444130897521973 0.99773389101028442 0.47526323795318604
0.99850261211395264 0.99524444341659546 0.47214332222938538
0.0020448872819542885 0.0019993800669908524 0.27383047342300415
0.001880152034573257 0.0055442810989916325 0.30448231101036072
0.029586238786578178 0.0062891491688787937 0.39325931668281555
0.21146287024021149 0.0015649533597752452 0.52880215644836426
0.62071746587753296 0 0.62189197540283203
0.92291545867919922 0 0.63303011655807495
0.99994087219238281 0 0.65785974264144897
0.0030247408431023359 0.01591339148581028 0.30733600258827209
0.00096571678295731544 0.03437722846865654 0.40597200393676758
0.051142435520887375 0.041321098804473877 0.55307132005691528
0.28572496771812439 0.030121224001049995 0.6823505163192749
0.71023547649383545 0.015272567048668861 0.69913870096206665
0.98161536455154419 0.012825745157897472 0.72268670797348022
0.9991719126701355 0.02378418855369091 0.77023047208786011
0.0026651867665350437 0.081960208714008331 0.43153432011604309
9.57414272306778e-07 0.12609149515628815 0.60791611671447754
0.072668842971324921 0.1550973653793335 0.75920891761779785
0.40183866024017334 0.15298138558864594 0.81910020112991333
0.8037688136100769 0.14628753066062927 0.80568546056747437
1 0.16473521292209625 0.84021705389022827
0.99811637401580811 0.19603072106838226 0.87759852409362793
0.0040449253283441067 0.31813371181488037 0.64824527502059937
0.0020156411919742823 0.38996893167495728 0.76922523975372314
0.045455362647771835 0.44025292992591858 0.81651157140731812
0.46200639009475708 0.44830107688903809 0.81158542633056641
0.80274021625518799 0.46377193927764893 0.8138459324836731
0.98795425891876221 0.50100839138031006 0.84810584783554077
0.99802762269973755 0.55815583467483521 0.87574297189712524
0.0024887982290238142 0.70967811346054077 0.71398025751113892
0.00083893421106040478 0.76461201906204224 0.76481938362121582
0.02275300957262516 0.79569005966186523 0.80746811628341675
0.47643417119979858 0.79399329423904419 0.80456370115280151
0.79733800888061523 0.78989207744598389 0.7997138500213623
0.95939403772354126 0.79669338464736938 0.81660526990890503
0.99995404481887817 0.81825119256973267 0.82917332649230957
0.0043784198351204395 0.96162992715835571 0.80703020095825195
0.00080515543231740594 0.98545670509338379 0.83905375003814697
0.081247173249721527 0.98675781488418579 0.85112679004669189
0.53050237894058228 0.97233885526657104 0.84113293886184692
0.82139849662780762 0.94449549913406372 0.83045333623886108
0.94000434875488281 0.93230372667312622 0.8137744665145874
0.99771738052368164 0.93003010749816895 0.820759117603302
0.0034520914778113365 1 0.88717907667160034
0 0.99768668413162231 0.89502823352813721
0.088452525436878204 0.99879908561706543 0.88821715116500854
0.55812108516693115 0.99972051382064819 0.86351931095123291
0.84066808223724365 0.99719923734664917 0.82701492309570312
0.94121837615966797 0.99080437421798706 0.8259347677230835
0.99740141630172729 0.9891621470451355 0.81657576560974121
0.0013646144652739167 0.00027555576525628567 0.40821021795272827
0 0.0064266878180205822 0.47731998562812805
0.0093377651646733284 0.010377382859587669 0.61267870664596558
0.19546760618686676 0.0013348448555916548 0.78315132856369019
0.62806403636932373 0 0.91595017910003662
0.92840594053268433 0 0.92304205894470215
1 0 0.93982905149459839
0.0021081364247947931 0.02787424810230732 0.49587088823318481
0 0.041173674166202545 0.64454448223114014
0.053446061909198761 0.043037682771682739 0.81731939315795898
0.31273376941680908 0.027048477903008461 0.94576501846313477
0.72078561782836914 0.01475448627024889 0.98084878921508789
0.9780542254447937 0.013253065757453442 0.98650705814361572
0.99982708692550659 0.022439830005168915 0.99907320737838745
4.547717617242597e-05 0.097254730761051178 0.67905443906784058
3.1415154808200896e-05 0.13640519976615906 0.88215011358261108
0.09108240157365799 0.16148436069488525 0.98485410213470459
0.42579466104507446 0.15495981276035309 0.99999284744262695
0.81626218557357788 0.14697618782520294 1
1 0.17193563282489777 1
0.99850660562515259 0.21052871644496918 1
0.0012609295081347227 0.33482342958450317 0.90681058168411255
6.0526530432980508e-05 0.40702879428863525 0.99583792686462402
0.051747668534517288 0.45470818877220154 0.99877774715423584
0.46595922112464905 0.46465581655502319 0.9966663122177124
0.81759142875671387 0.47088181972503662 0.99170434474945068
0.99516278505325317 0.51085597276687622 0.99875152111053467
0.99860131740570068 0.56789541244506836 1
0.0027948266360908747 0.7167772650718689 0.94232660531997681
0 0.77032017707824707 0.96805167198181152
0.042566053569316864 0.79965806007385254 0.9875977635383606
0.48976650834083557 0.79897892475128174 0.98635727167129517
0.79533106088638306 0.7893669605255127 0.96045476198196411
0.96533668041229248 0.79613983631134033 0.97179174423217773
1 0.82103681564331055 0.97562885284423828
0 0.96630477905273438 0.97712868452072144
0 0.97983300685882568 0.98974442481994629
0.079108506441116333 0.98246592283248901 0.99334180355072021
0.51568853855133057 0.96258747577667236 0.97839111089706421
0.81553530693054199 0.93863111734390259 0.95251917839050293
0.93883460760116577 0.92640674114227295 0.94215613603591919
0.99754315614700317 0.92689192295074463 0.94241315126419067
0 1 0.99961477518081665
0.00058459112187847495 1 0.99988871812820435
0.13273853063583374 1 0.99804645776748657
0.54373478889465332 0.99853157997131348 0.98314970731735229
0.82719504833221436 0.99536097049713135 0.94979614019393921
0.93493789434432983 0.98668169975280762 0.9373050332069397
0.99636280536651611 0.98717641830444336 0.93629211187362671
0 0.00031756231328472495 0.52174443006515503
0 0.0071629993617534637 0.61496442556381226
0.01495805662125349 0.0078239291906356812 0.7830958366394043
0.20786279439926147 0.0027853422798216343 0.93545651435852051
0.6299896240234375 0.00081465480616316199 0.99994242191314697
0.92863619327545166 0.00016296985268127173 0.99949806928634644
1 0.0003035750996787101 1
0 0.033151604235172272 0.6604151725769043
0 0.047025330364704132 0.80524778366088867
0.057516030967235565 0.046676278114318848 0.96701288223266602
0.33560881018638611 0.035131834447383881 0.99984973669052124
0.73637485504150391 0.02571583166718483 1
0.98456239700317383 0.029970012605190277 1
1 0.047790661454200745 1
0 0.11543992161750793 0.8746495246887207
0 0.15206737816333771 0.98186808824539185
0.10001379251480103 0.17416270077228546 1
0.44677945971488953 0.1686781644821167 1
0.836375892162323 0.16395317018032074 0.99973100423812866
1 0.19538815319538116 0.99811184406280518
0.99876588582992554 0.22398988902568817 0.9989999532699585
0.00012018540292046964 0.36175063252449036 0.99959158897399902
0 0.42628365755081177 1
0.082337364554405212 0.46709468960762024 0.99214816093444824
0.49199998378753662 0.48002687096595764 0.99611610174179077
0.82913565635681152 0.49328216910362244 0.99627059698104858
0.99870800971984863 0.53505128622055054 0.99767935276031494
0.99905157089233398 0.56914252042770386 0.99770760536193848
0.0034273483324795961 0.73621225357055664 0.99988704919815063
0.0011569303460419178 0.78370088338851929 0.99980741739273071
0.05936921015381813 0.80740374326705933 0.99080741405487061
0.49244892597198486 0.80872261524200439 0.99843370914459229
0.80699008703231812 0.79936033487319946 0.9999268651008606
0.96529459953308105 0.80555945634841919 1
1 0.82488137483596802 1
0 0.96728801727294922 1
0 0.9861946702003479 1
0.040885493159294128 0.98892152309417725 0.99872130155563354
0.49915578961372375 0.96288371086120605 0.99974656105041504
0.81576168537139893 0.9369204044342041 0.99728953838348389
0.94145238399505615 0.92631226778030396 0.99787646532058716
0.99862736463546753 0.92692559957504272 0.99943053722381592
0 1 1
0.0032154456712305546 1 1
0.15632413327693939 1 1
0.55759716033935547 0.99991708993911743 1
0.82758629322052002 0.99622327089309692 0.99756515026092529
0.93414992094039917 0.98901844024658203 0.99722856283187866
0.99699753522872925 0.99179846048355103 0.99742692708969116
