assets/lut/ericellerbrock nemesis.cube
# Created by: G'MIC (https://gmic.eu)
TITLE "nemesis"
# LUT size
LUT_3D_SIZE 13
# Data domain
DOMAIN_MIN 0.0 0.0 0.0
DOMAIN_MAX 1.0 1.0 1.0
# LUT data points
0.0010873083956539631 0.026068190112709999 0.0469498410820961
0.00067401962587609887 0.010743758641183376 0.025799591094255447
0.058732934296131134 0.0025788252241909504 0.016981013119220734
0.17035301029682159 0.0022671569604426622 0.017450474202632904
0.25799468159675598 0.0022594975307583809 0.009820990264415741
0.33490496873855591 0.0078505426645278931 0.0040527344681322575
0.40884590148925781 0.013384800404310226 0.0035610422492027283
0.48052182793617249 0.01583913154900074 0.0049194185994565487
0.55005341768264771 0.016866063699126244 0.0076370388269424438
0.61789226531982422 0.017796669155359268 0.01124934758991003
0.68477511405944824 0.019671766087412834 0.015048711560666561
0.75098705291748047 0.02277710847556591 0.018103102222084999
0.81710797548294067 0.027015849947929382 0.019942024722695351
4.8618690016155597e-06 0.10567460954189301 0.054590307176113129
0.00055274215992540121 0.082451194524765015 0.025660092011094093
0.061252951622009277 0.059518717229366302 0.013267247937619686
0.17736323177814484 0.052318617701530457 0.017724879086017609
0.26874431967735291 0.048546958714723587 0.015217126347124577
0.34825032949447632 0.057477571070194244 0.009596237912774086
0.42366674542427063 0.067489907145500183 0.0089556826278567314
0.49567517638206482 0.073857821524143219 0.011610966175794601
0.56518858671188354 0.077944748103618622 0.016333052888512611
0.63279134035110474 0.081399492919445038 0.022190961986780167
0.69906574487686157 0.085526019334793091 0.028189446777105331
0.7646375298500061 0.091341987252235413 0.032666224986314774
0.83021664619445801 0.098293974995613098 0.035096544772386551
0.000193846455658786 0.18537154793739319 0.067434199154376984
0.012781868688762188 0.16526566445827484 0.04231657087802887
0.079797171056270599 0.14672766625881195 0.02214367501437664
0.1824299693107605 0.13791841268539429 0.016109645366668701
0.2773471474647522 0.13394512236118317 0.014035542495548725
0.36078616976737976 0.13553570210933685 0.012818564660847187
0.4374595582485199 0.13941410183906555 0.015311731025576591
0.51001584529876709 0.14379873871803284 0.020220199599862099
0.57949644327163696 0.14807674288749695 0.027199061587452888
0.64686554670333862 0.15248118340969086 0.035480126738548279
0.71272546052932739 0.15783707797527313 0.043113064020872116
0.77767127752304077 0.16524679958820343 0.048350494354963303
0.84288650751113892 0.1734769195318222 0.050751451402902603
0.0065781837329268456 0.26274228096008301 0.079481355845928192
0.039893776178359985 0.2440444678068161 0.057190164923667908
0.10668908059597015 0.22792820632457733 0.035049065947532654
0.19738300144672394 0.21842387318611145 0.022199444472789764
0.28905224800109863 0.21575111150741577 0.018995979800820351
0.37326163053512573 0.21580089628696442 0.019770484417676926
0.45072382688522339 0.21761196851730347 0.024116665124893188
0.52357661724090576 0.22009113430976868 0.031065773218870163
0.59314793348312378 0.22413013875484467 0.039532754570245743
0.66046363115310669 0.22885273396968842 0.048319440335035324
0.72599434852600098 0.23498822748661041 0.056432627141475677
0.79029440879821777 0.24300992488861084 0.061826504766941071
0.85493463277816772 0.25214383006095886 0.064685449004173279
0.019731335341930389 0.34090694785118103 0.09019055962562561
0.064588926732540131 0.32399195432662964 0.069306090474128723
0.13091550767421722 0.30948832631111145 0.049525585025548935
0.21427778899669647 0.30030196905136108 0.036117702722549438
0.3020423948764801 0.29668214917182922 0.030937150120735168
0.38559278845787048 0.29625076055526733 0.031609028577804565
0.46341481804847717 0.29737326502799988 0.036355260759592056
0.53672295808792114 0.29982706904411316 0.043453142046928406
0.60645872354507446 0.30336841940879822 0.051816273480653763
0.67372256517410278 0.30837881565093994 0.060335226356983185
0.73909300565719604 0.31518149375915527 0.0680275559425354
0.80320960283279419 0.32358595728874207 0.073892451822757721
0.86770099401473999 0.33258885145187378 0.077155709266662598
0.030100176110863686 0.42025277018547058 0.10242974013090134
0.082992047071456909 0.40484505891799927 0.083198532462120056
0.15040461719036102 0.39202040433883667 0.06581820547580719
0.23009312152862549 0.38324573636054993 0.053051967173814774
0.31476423144340515 0.37874302268028259 0.046994585543870926
0.39751479029655457 0.37754175066947937 0.046526171267032623
0.47556555271148682 0.37835448980331421 0.050385031849145889
0.54927653074264526 0.38063904643058777 0.056601595133543015
0.61939817667007446 0.38433247804641724 0.064283676445484161
0.68695670366287231 0.3893950879573822 0.072195596992969513
0.75260281562805176 0.39617827534675598 0.079506546258926392
0.81705892086029053 0.40440100431442261 0.085127733647823334
0.88178932666778564 0.41306480765342712 0.088807962834835052
0.033610668033361435 0.50079464912414551 0.11679470539093018
0.09337151050567627 0.4866461455821991 0.099106386303901672
0.16365472972393036 0.47470542788505554 0.083324000239372253
0.24305453896522522 0.46614685654640198 0.071748889982700348
0.32680153846740723 0.46106010675430298 0.065170064568519592
0.40908828377723694 0.45920732617378235 0.064132824540138245
0.48742219805717468 0.45984306931495667 0.065718404948711395
0.56139200925827026 0.46223887801170349 0.070659533143043518
0.63201415538787842 0.46599355340003967 0.077126778662204742
0.70006299018859863 0.47102576494216919 0.084306724369525909
0.76638942956924438 0.47739630937576294 0.090917803347110748
0.83150827884674072 0.48501729965209961 0.096266821026802063
0.89672821760177612 0.49310290813446045 0.099939607083797455
0.030214676633477211 0.58257478475570679 0.13257241249084473
0.096472404897212982 0.5689234733581543 0.1160828098654747
0.17128609120845795 0.55723470449447632 0.10145074874162674
0.25310483574867249 0.54841893911361694 0.090349353849887848
0.33795991539955139 0.54299873113632202 0.083780370652675629
0.42082807421684265 0.54091465473175049 0.080907665193080902
0.49923974275588989 0.54145824909210205 0.081787928938865662
0.57341408729553223 0.54410707950592041 0.085025906562805176
0.64429765939712524 0.54803973436355591 0.090132556855678558
0.71298795938491821 0.55293762683868408 0.096322067081928253
0.78005880117416382 0.55890107154846191 0.1021595224738121
0.84610360860824585 0.56592816114425659 0.10720017552375793
0.91161924600601196 0.57333135604858398 0.11050039529800415
0.023805147036910057 0.66467010974884033 0.14883466064929962
0.095167987048625946 0.65113914012908936 0.1329590231180191
0.17557108402252197 0.6392216682434082 0.11882004141807556
0.26150456070899963 0.62996000051498413 0.10790400952100754
0.348623126745224 0.62425100803375244 0.10099273175001144
0.43253633379936218 0.62207984924316406 0.097725391387939453
0.51128703355789185 0.62293887138366699 0.097166843712329865
0.58562040328979492 0.6259039044380188 0.098988041281700134
0.65678858757019043 0.63019979000091553 0.10294635593891144
0.72597754001617432 0.63511937856674194 0.1078735813498497
0.79383200407028198 0.6406591534614563 0.11314278095960617
0.86058837175369263 0.64712131023406982 0.11752893775701523
0.92693972587585449 0.6539994478225708 0.12061794847249985
0.019561422988772392 0.74627786874771118 0.16375522315502167
0.095263510942459106 0.73250895738601685 0.14830005168914795
0.18134547770023346 0.72021222114562988 0.13431647419929504
0.27078202366828918 0.71076935529708862 0.12322574853897095
0.35965049266815186 0.70502996444702148 0.11609763652086258
0.44447171688079834 0.70287275314331055 0.11226968467235565
0.5238037109375 0.70405024290084839 0.11103466153144836
0.59858518838882446 0.70740973949432373 0.11235327273607254
0.6699601411819458 0.71196329593658447 0.1153498962521553
0.73973178863525391 0.71705001592636108 0.11946632713079453
0.80788469314575195 0.72253435850143433 0.12370772659778595
0.87532192468643188 0.72861164808273315 0.12771058082580566
0.94196540117263794 0.73512130975723267 0.13047248125076294
0.021739302203059196 0.82650870084762573 0.17668181657791138
0.10198045521974564 0.81260490417480469 0.16129899024963379
0.19185243546962738 0.79993820190429688 0.14735768735408783
0.28354340791702271 0.79063224792480469 0.13642957806587219
0.37305518984794617 0.78517794609069824 0.12918646633625031
0.45769008994102478 0.78347688913345337 0.12528994679450989
0.53716832399368286 0.78506988286972046 0.12413375079631805
0.61244398355484009 0.78865230083465576 0.124891497194767
0.68427670001983643 0.79339361190795898 0.12728714942932129
0.75405949354171753 0.79865801334381104 0.1306050568819046
0.82235270738601685 0.80421608686447144 0.1342041939496994
0.8899502158164978 0.81028050184249878 0.13744138181209564
0.95725721120834351 0.8165629506111145 0.13992539048194885
0.030386935919523239 0.90563428401947021 0.18736870586872101
0.11612612009048462 0.89114660024642944 0.1721218079328537
0.2079615592956543 0.87908363342285156 0.15841855108737946
0.30003455281257629 0.87024062871932983 0.14791399240493774
0.38855212926864624 0.86541658639907837 0.14104075729846954
0.47267797589302063 0.86453515291213989 0.13728606700897217
0.55187124013900757 0.86611872911453247 0.1360553503036499
0.62693649530410767 0.86985474824905396 0.13677537441253662
0.69895356893539429 0.87478005886077881 0.1387326717376709
0.76879674196243286 0.88020873069763184 0.14133304357528687
0.83739221096038818 0.88594752550125122 0.14444537460803986
0.90520644187927246 0.89200717210769653 0.14690177142620087
0.97218805551528931 0.89820927381515503 0.14881885051727295
0.045516368001699448 0.98075437545776367 0.19709914922714233
0.13477995991706848 0.96996486186981201 0.18205781280994415
0.22670605778694153 0.95872974395751953 0.16889607906341553
0.31795036792755127 0.95064502954483032 0.15895608067512512
0.40523225069046021 0.9465288519859314 0.15236882865428925
0.48810124397277832 0.94597852230072021 0.14885683357715607
0.56675237417221069 0.94789469242095947 0.14765898883342743
0.64149343967437744 0.95155102014541626 0.14812910556793213
0.71360242366790771 0.9565778374671936 0.14964300394058228
0.78352260589599609 0.96215850114822388 0.15189254283905029
0.85224926471710205 0.9678230881690979 0.15414705872535706
0.9199797511100769 0.9727204442024231 0.15601104497909546
0.98399800062179565 0.97769665718078613 0.15736070275306702
0.0010139914229512215 0.029380230233073235 0.11047334969043732
0.00047260359860956669 0.01546904630959034 0.089666418731212616
0.059125714004039764 0.0041231792420148849 0.071397669613361359
0.1733013242483139 0.0018550349632278085 0.06560206413269043
0.26025015115737915 0.0015124003402888775 0.056808367371559143
0.33702608942985535 0.0053288177587091923 0.050280507653951645
0.41179689764976501 0.010513993911445141 0.050422564148902893
0.4835507869720459 0.012967742048203945 0.055167719721794128
0.55278152227401733 0.013820229098200798 0.062096882611513138
0.62016898393630981 0.01467946358025074 0.069334588944911957
0.68645602464675903 0.016669105738401413 0.075989097356796265
0.75218182802200317 0.020259303972125053 0.080947697162628174
0.81797593832015991 0.024859320372343063 0.084059849381446838
4.7840792831266299e-05 0.10736440122127533 0.11875513195991516
0.0014051400357857347 0.084119133651256561 0.0953688845038414
0.069836527109146118 0.059482142329216003 0.07632339745759964
0.18580885231494904 0.051370956003665924 0.071216091513633728
0.2729792594909668 0.048338796943426132 0.067362107336521149
0.35137465596199036 0.055066440254449844 0.063164174556732178
0.42697975039482117 0.065455280244350433 0.063620701432228088
0.4991193413734436 0.07160002738237381 0.068804152309894562
0.56816333532333374 0.075133062899112701 0.076325118541717529
0.63516706228256226 0.078263618052005768 0.084559902548789978
0.70083224773406982 0.08292059600353241 0.0920533686876297
0.76590406894683838 0.089058399200439453 0.097482793033123016
0.83100557327270508 0.096590183675289154 0.10082908719778061
2.5132123482762836e-05 0.18859085440635681 0.13265484571456909
0.010636812075972557 0.16626918315887451 0.1102605015039444
0.082933895289897919 0.14850068092346191 0.086620241403579712
0.18909460306167603 0.14022804796695709 0.074691623449325562
0.28282478451728821 0.13574008643627167 0.071191273629665375
0.36531612277030945 0.13624747097492218 0.071115694940090179
0.44135168194770813 0.1397244781255722 0.074755139648914337
0.51351279020309448 0.14329807460308075 0.081379503011703491
0.58255940675735474 0.14694328606128693 0.089797064661979675
0.64938372373580933 0.15127304196357727 0.098681718111038208
0.71457082033157349 0.156702920794487 0.10680597275495529
0.77890807390213013 0.16443000733852386 0.11283159255981445
0.84335970878601074 0.17291897535324097 0.11633716523647308
0.0043193893507122993 0.26649284362792969 0.14343409240245819
0.03227011114358902 0.24660444259643555 0.12126930058002472
0.10181670635938644 0.23073078691959381 0.098214574158191681
0.19909526407718658 0.22201685607433319 0.083787433803081512
0.29424241185188293 0.21838830411434174 0.079423479735851288
0.37843072414398193 0.21811085939407349 0.080886781215667725
0.45486685633659363 0.21939291059970856 0.086134172976016998
0.52713608741760254 0.22146865725517273 0.093527868390083313
0.59637302160263062 0.22446949779987335 0.1022876501083374
0.66297686100006104 0.22897212207317352 0.11145908385515213
0.72775930166244507 0.23524966835975647 0.11989324539899826
0.79158776998519897 0.24351122975349426 0.12631881237030029
0.85547018051147461 0.25266152620315552 0.13025611639022827
0.017541578039526939 0.34381559491157532 0.1531069427728653
0.058394458144903183 0.32614758610725403 0.1316179484128952
0.12557457387447357 0.31246402859687805 0.11124271899461746
0.2134934663772583 0.30359029769897461 0.097158677875995636
0.30537313222885132 0.29940801858901978 0.091714255511760712
0.39003670215606689 0.29895421862602234 0.092919640243053436
0.46737179160118103 0.30012053251266479 0.098032630980014801
0.5400431752204895 0.30188480019569397 0.10579210519790649
0.60967862606048584 0.30492499470710754 0.11450216174125671
0.67632889747619629 0.30952224135398865 0.12364161014556885
0.7409365177154541 0.31620687246322632 0.13209523260593414
0.80434423685073853 0.32492828369140625 0.13872630894184113
0.86789935827255249 0.33415398001670837 0.14309291541576385
0.028685985133051872 0.42289429903030396 0.16515244543552399
0.078762635588645935 0.40744143724441528 0.14515040814876556
0.14588096737861633 0.39504832029342651 0.12674909830093384
0.22810140252113342 0.38653761148452759 0.11350475996732712
0.31561830639839172 0.38206967711448669 0.10717936605215073
0.40015774965286255 0.38070815801620483 0.10724715888500214
0.47880738973617554 0.38134369254112244 0.11159875988960266
0.55242526531219482 0.383167564868927 0.11869052052497864
0.62249690294265747 0.38626945018768311 0.12707224488258362
0.68966579437255859 0.39095866680145264 0.13584983348846436
0.75463080406188965 0.39758086204528809 0.14400029182434082
0.81834238767623901 0.40591287612915039 0.15051615238189697
0.88208067417144775 0.4147045910358429 0.15514999628067017
0.030937837436795235 0.50340425968170166 0.17992694675922394
0.088684499263763428 0.48927676677703857 0.16125500202178955
0.15852335095405579 0.47751635313034058 0.14463305473327637
0.23972199857234955 0.46912071108818054 0.13197509944438934
0.32559049129486084 0.46412637829780579 0.12511351704597473
0.41000089049339294 0.46230003237724304 0.12381421029567719
0.48956412076950073 0.46271756291389465 0.12698069214820862
0.5639224648475647 0.46480283141136169 0.13273559510707855
0.63468295335769653 0.4680197536945343 0.14007817208766937
0.70266932249069214 0.47253155708312988 0.14842967689037323
0.76857012510299683 0.4787600040435791 0.1560722142457962
0.83299654722213745 0.48642230033874512 0.16228330135345459
0.89728319644927979 0.49452683329582214 0.16671083867549896
0.023394566029310226 0.58548653125762939 0.19694848358631134
0.088410578668117523 0.57166105508804321 0.1791999340057373
0.16412317752838135 0.55985486507415771 0.16345757246017456
0.24822729825973511 0.55091965198516846 0.15137369930744171
0.3354833722114563 0.54543191194534302 0.144229456782341
0.42045167088508606 0.54329401254653931 0.14192403852939606
0.50023746490478516 0.54395300149917603 0.14326617121696472
0.57511204481124878 0.54658287763595581 0.14730364084243774
0.64621448516845703 0.55029004812240601 0.15332275629043579
0.71508181095123291 0.55465686321258545 0.1607988178730011
0.78209477663040161 0.56013327836990356 0.16788721084594727
0.84751290082931519 0.56710821390151978 0.17365212738513947
0.91255789995193481 0.57457172870635986 0.17785441875457764
0.013697171583771706 0.66826516389846802 0.2143266350030899
0.082329876720905304 0.65409845113754272 0.19732880592346191
0.16560950875282288 0.64140909910202026 0.1817297637462616
0.25499650835990906 0.63171643018722534 0.16973288357257843
0.34507092833518982 0.62588286399841309 0.16229672729969025
0.43137609958648682 0.62401825189590454 0.15914140641689301
0.51183605194091797 0.62497913837432861 0.15918949246406555
0.58664065599441528 0.62826311588287354 0.16175441443920135
0.6578984260559082 0.6326594352722168 0.16637842357158661
0.72726821899414062 0.63704735040664673 0.17258124053478241
0.79517507553100586 0.64222079515457153 0.17915187776088715
0.86174303293228149 0.64833539724349976 0.18454018235206604
0.92751157283782959 0.65516161918640137 0.18850426375865936
0.0083625493571162224 0.75021147727966309 0.23057974874973297
0.078219801187515259 0.7354121208190918 0.21365609765052795
0.16936668753623962 0.72178405523300171 0.19796460866928101
0.26385024189949036 0.7115243673324585 0.1857229620218277
0.35626405477523804 0.70573663711547852 0.17804053425788879
0.44333621859550476 0.70389473438262939 0.17447461187839508
0.52421849966049194 0.7056390643119812 0.17381387948989868
0.59947764873504639 0.70942509174346924 0.17576409876346588
0.67089349031448364 0.71418321132659912 0.17949566245079041
0.74049192667007446 0.71901023387908936 0.18478579819202423
0.80893218517303467 0.72421181201934814 0.1903037428855896
0.87598931789398193 0.72995978593826294 0.19491384923458099
0.94246143102645874 0.73619723320007324 0.19883808493614197
0.0089424280449748039 0.83008134365081787 0.24403783679008484
0.083792589604854584 0.81447321176528931 0.22691795229911804
0.18027351796627045 0.80074453353881836 0.21108695864677429
0.27764987945556641 0.7901843786239624 0.19908739626407623
0.37065920233726501 0.78460514545440674 0.19155788421630859
0.45742887258529663 0.78344458341598511 0.18804708123207092
0.53828573226928711 0.78593379259109497 0.18738527595996857
0.61348235607147217 0.79009532928466797 0.1891573965549469
0.68522018194198608 0.79516690969467163 0.19233904778957367
0.75491666793823242 0.80041301250457764 0.19667060673236847
0.82336556911468506 0.80585014820098877 0.20123043656349182
0.89068442583084106 0.81148654222488403 0.20529590547084808
0.95739364624023438 0.8175426721572876 0.20859202742576599
0.01695321686565876 0.90746265649795532 0.25430837273597717
0.10199424624443054 0.89171057939529419 0.23700442910194397
0.20005697011947632 0.87801748514175415 0.22161822021007538
0.29690349102020264 0.86851078271865845 0.21036072075366974
0.38795718550682068 0.86430102586746216 0.20361816883087158
0.47356727719306946 0.86402010917663574 0.20055951178073883
0.55328261852264404 0.86642402410507202 0.20015722513198853
0.62842637300491333 0.87080484628677368 0.20175684988498688
0.70023190975189209 0.87610584497451782 0.20461371541023254
0.76984518766403198 0.88165438175201416 0.20818766951560974
0.83806204795837402 0.88728493452072144 0.2119777649641037
0.9054068922996521 0.89303857088088989 0.21535460650920868
0.97218805551528931 0.89920729398727417 0.21800543367862701
0.032216135412454605 0.98119473457336426 0.26366034150123596
0.12519374489784241 0.96884125471115112 0.24648997187614441
0.22307790815830231 0.9561457633972168 0.23185154795646667
0.31739705801010132 0.94788438081741333 0.22149771451950073
0.40630146861076355 0.94426971673965454 0.21544526517391205
0.48984241485595703 0.94449591636657715 0.21281290054321289
0.56851851940155029 0.9476020336151123 0.21244929730892181
0.64335566759109497 0.95194852352142334 0.21376267075538635
0.7151038646697998 0.95741289854049683 0.21621443331241608
0.78473269939422607 0.96308380365371704 0.21912775933742523
0.85297262668609619 0.96854811906814575 0.22213722765445709
0.92057472467422485 0.97332125902175903 0.22484582662582397
0.98411935567855835 0.97819507122039795 0.22691425681114197
7.0399866672232747e-05 0.035471163690090179 0.17444336414337158
0.0019513897132128477 0.022433755919337273 0.15501873195171356
0.061646882444620132 0.008383418433368206 0.13809077441692352
0.1732582151889801 0.0046980911865830421 0.12809336185455322
0.26311597228050232 0.0036651911213994026 0.12036432325839996
0.34134837985038757 0.0054492726922035217 0.11574018746614456
0.41594883799552917 0.0090742073953151703 0.11598052829504013
0.48724791407585144 0.010861999355256557 0.12026745826005936
0.55579930543899536 0.01123510580509901 0.1270308643579483
0.62266325950622559 0.01203619223088026 0.13425187766551971
0.68847185373306274 0.014188803732395172 0.14085210859775543
0.75382143259048462 0.017806213349103928 0.14609311521053314
0.819313645362854 0.022982683032751083 0.14975564181804657
0.00017483280680608004 0.11116973310709 0.18429720401763916
0.0021770552266389132 0.089128784835338593 0.16468802094459534
0.068005703389644623 0.06239565834403038 0.14816963672637939
0.18591676652431488 0.053016409277915955 0.1387992799282074
0.27757987380027771 0.054277591407299042 0.13281938433647156
0.35685199499130249 0.059065081179141998 0.12973597645759583
0.43186274170875549 0.065546579658985138 0.1302647590637207
0.50319582223892212 0.069836452603340149 0.13464890420436859
0.57159185409545898 0.072424165904521942 0.14142175018787384
0.63786846399307251 0.075524769723415375 0.14915339648723602
0.70309180021286011 0.080408655107021332 0.15639498829841614
0.76763367652893066 0.087265700101852417 0.16215389966964722
0.83236122131347656 0.095207616686820984 0.16609372198581696
0 0.18935768306255341 0.19483488798141479
0.0048439176753163338 0.16615326702594757 0.17355833947658539
0.07670988142490387 0.14725217223167419 0.15548540651798248
0.19058948755264282 0.1386062353849411 0.14514447748661041
0.28785601258277893 0.13717219233512878 0.14069634675979614
0.37050765752792358 0.13864442706108093 0.1402343213558197
0.44597911834716797 0.14106385409832001 0.14259351789951324
0.51745772361755371 0.14340527355670929 0.14760845899581909
0.58600705862045288 0.14635911583900452 0.15468971431255341
0.6521640419960022 0.15067195892333984 0.1627851128578186
0.7167854905128479 0.15613336861133575 0.17049618065357208
0.78072488307952881 0.16387227177619934 0.17686742544174194
0.8449217677116394 0.17261247336864471 0.18128305673599243
0.0029039720539003611 0.26721426844596863 0.20516827702522278
0.022569425404071808 0.24550358951091766 0.183911994099617
0.094011522829532623 0.23120258748531342 0.16507923603057861
0.19835516810417175 0.22328236699104309 0.15312822163105011
0.29919460415840149 0.21892814338207245 0.14901949465274811
0.38342103362083435 0.21995356678962708 0.15007306635379791
0.45876181125640869 0.22142545878887177 0.15383368730545044
0.53092271089553833 0.22308151423931122 0.15954677760601044
0.59973794221878052 0.2255675196647644 0.16687040030956268
0.66586005687713623 0.22973959147930145 0.17520290613174438
0.73010188341140747 0.23614120483398438 0.18351982533931732
0.79352712631225586 0.24415428936481476 0.19044563174247742
0.8572155237197876 0.25282487273216248 0.19520409405231476
0.016501167789101601 0.34643793106079102 0.21605713665485382
0.053278874605894089 0.32803204655647278 0.19530707597732544
0.12029300630092621 0.31509312987327576 0.17648094892501831
0.21201980113983154 0.30691039562225342 0.1633065938949585
