assets/lut/ericellerbrock paladin.cube
# Created by: G'MIC (https://gmic.eu)
TITLE "paladin"
# LUT size
LUT_3D_SIZE 5
# Data domain
DOMAIN_MIN 0.0 0.0 0.0
DOMAIN_MAX 1.0 1.0 1.0
# LUT data points
0 0 0
0.024173242971301079 0.00071807560743764043 0.00072060379898175597
0.20641405880451202 0.014792947098612785 0.029543498530983925
0.8453834056854248 0 0.01132487878203392
1 9.1014189820270985e-05 2.5850184101727791e-05
0.00015173519204836339 0.024711474776268005 0.0012494255788624287
0.015364508144557476 0.065195925533771515 0.029981201514601707
0.32131782174110413 0.081827111542224884 0.027919620275497437
0.94176334142684937 0.059333771467208862 0.0048837848007678986
1 0.091299794614315033 0.007715816143900156
0.0053141876123845577 0.24581161141395569 0.0037498325109481812
0 0.3788413405418396 0.0045040054246783257
0.41281801462173462 0.41415691375732422 0.00046838499838486314
0.92080265283584595 0.43950411677360535 5.6906308600446209e-05
0.99712365865707397 0.51828312873840332 0.00014361213834490627
0.0040960125625133514 0.85261708498001099 0.0010301328729838133
0.00069611490471288562 0.90402597188949585 2.2753547455067746e-05
0.47573199868202209 0.90640449523925781 0
0.89873498678207397 0.89213418960571289 0.0022736643441021442
1 0.90931600332260132 2.1003274014219642e-05
0 1 0.0015830245101824403
0.027840573340654373 1 0
0.60874313116073608 0.999442458152771 0
0.92183113098144531 1 0
1 1 0
1.9387638531043194e-05 0 0.0048385323025286198
0.023139415308833122 0.0026103600393980742 0.022602559998631477
0.21142688393592834 0.012553136795759201 0.074162580072879791
0.83747482299804688 0 0.075108550488948822
1 0 0.071954824030399323
0.0008176167611964047 0.031414180994033813 0.031148813664913177
0.015747189521789551 0.072679035365581512 0.079356171190738678
0.35394322872161865 0.08500111848115921 0.10782600939273834
0.95113116502761841 0.066707998514175415 0.094993174076080322
0.99996143579483032 0.096185542643070221 0.11879987269639969
0.0017769308760762215 0.28682053089141846 0.057920731604099274
0.0010913325240835547 0.4085649847984314 0.087313093245029449
0.44638738036155701 0.43916094303131104 0.084349706768989563
0.93520945310592651 0.46803230047225952 0.07555757462978363
0.99669241905212402 0.54298102855682373 0.1048252061009407
2.8004365958622657e-05 0.8677828311920166 0.021017739549279213
0.0087128886952996254 0.91290640830993652 0.04397951066493988
0.50542789697647095 0.91199308633804321 0.040787819772958755
0.91058355569839478 0.90087610483169556 0.028134558349847794
1 0.91013699769973755 0.038461394608020782
0.00015415865345858037 1 0.094799786806106567
0.035604964941740036 1 0.090567238628864288
0.59665924310684204 0.99955368041992188 0.05417410284280777
0.929679274559021 1 0.020080147311091423
1 0.99980789422988892 0.001965436851605773
0 0 0.09702715277671814
0.018491677939891815 0.0025604546535760164 0.12457306683063507
0.19416901469230652 0.0046166065149009228 0.20376746356487274
0.80516451597213745 0 0.26800554990768433
0.99932599067687988 0.00013535443576984107 0.27153655886650085
0 0.026024417951703072 0.13313701748847961
0.005823980551213026 0.071757793426513672 0.24327333271503448
0.348268061876297 0.076048813760280609 0.34896025061607361
0.94154268503189087 0.061166457831859589 0.37282386422157288
0.99895137548446655 0.095702230930328369 0.46440118551254272
0.00029296876164153218 0.30035179853439331 0.28963238000869751
1.534854709461797e-05 0.41315943002700806 0.41235342621803284
0.45068082213401794 0.44635701179504395 0.43726015090942383
0.92808645963668823 0.48102596402168274 0.47220525145530701
0.99747806787490845 0.55717599391937256 0.55392903089523315
0.00079230515984818339 0.86453938484191895 0.41462704539299011
4.4699274440063164e-05 0.91680794954299927 0.4883391261100769
0.49221467971801758 0.90643107891082764 0.50374770164489746
0.89825630187988281 0.88808608055114746 0.46655541658401489
0.99970775842666626 0.89535009860992432 0.48387497663497925
0.0031420988962054253 0.9980817437171936 0.62427270412445068
0.0032480426598340273 0.99652743339538574 0.63419270515441895
0.58508509397506714 0.99893486499786377 0.58559542894363403
0.91033637523651123 0.99918776750564575 0.48504230380058289
0.99850261211395264 0.99524444341659546 0.47214332222938538
0.0024877062533050776 0.0011020734673365951 0.34841859340667725
0.0011099122930318117 0.0097760520875453949 0.44412189722061157
0.20637361705303192 0.0017510657198727131 0.67581272125244141
0.79611712694168091 0 0.80349135398864746
1 0 0.83181583881378174
0.0013846602523699403 0.046069785952568054 0.47157299518585205
0.014921091496944427 0.082008838653564453 0.73375570774078369
0.36026963591575623 0.072297431528568268 0.92262876033782959
0.92971587181091309 0.058855526149272919 0.9335896372795105
0.99773693084716797 0.083735942840576172 0.97413593530654907
0.0048384573310613632 0.32772311568260193 0.79884248971939087
0.0013062570942565799 0.42751279473304749 0.94436967372894287
0.45934224128723145 0.45553696155548096 0.93900179862976074
0.92486119270324707 0.47736725211143494 0.94004553556442261
0.99781531095504761 0.56388920545578003 0.97716611623764038
0.0020928625017404556 0.86114227771759033 0.87407076358795166
0.00058741850079968572 0.91148978471755981 0.92167693376541138
0.50512433052062988 0.90381503105163574 0.91806405782699585
0.88705343008041382 0.87781715393066406 0.89389973878860474
0.99885624647140503 0.88377082347869873 0.89828228950500488
0.0019419053569436073 1 0.96546721458435059
0.005938301794230938 0.99910891056060791 0.96687918901443481
0.54484456777572632 0.99973106384277344 0.93237173557281494
0.8937334418296814 0.99276530742645264 0.89000678062438965
0.99644112586975098 0.986561119556427 0.88809686899185181
0 0.00031756231328472495 0.52174443006515503
6.4760097302496433e-05 0.0088870478793978691 0.69663089513778687
0.20786279439926147 0.0027853422798216343 0.93545651435852051
0.80996561050415039 0.00078490015584975481 0.99987787008285522
1 0.0003035750996787101 1
0 0.063395090401172638 0.76474308967590332
0.006678472738713026 0.090316683053970337 0.9880712628364563
0.39801487326622009 0.082843363285064697 1
0.94850999116897583 0.07829207181930542 1
1 0.11413609981536865 1
0.00012018540292046964 0.36175063252449036 0.99959158897399902
0.0040296218357980251 0.44955986738204956 0.99738591909408569
0.49199998378753662 0.48002687096595764 0.99611610174179077
0.94811421632766724 0.51381242275238037 0.99662470817565918
0.99905157089233398 0.56914252042770386 0.99770760536193848
2.1003274014219642e-05 0.87571758031845093 0.99989557266235352
7.0010915806051344e-05 0.91911941766738892 0.9981721043586731
0.49618324637413025 0.90465152263641357 0.9988740086555481
0.89011895656585693 0.87758874893188477 0.99907654523849487
0.99978351593017578 0.8843579888343811 1
0 1 1
0.041002791374921799 1 1
0.55759716033935547 0.99991708993911743 1
0.88700705766677856 0.99216282367706299 0.99767035245895386
0.99699753522872925 0.99179846048355103 0.99742692708969116
