assets/lut/ericellerbrock killstreak.cube
# Created by: G'MIC (https://gmic.eu)
TITLE "killstreak"
# LUT size
LUT_3D_SIZE 5
# Data domain
DOMAIN_MIN 0.0 0.0 0.0
DOMAIN_MAX 1.0 1.0 1.0
# LUT data points
0.00024542715982533991 0.027966069057583809 0.031984277069568634
0.19621181488037109 0.0073458501137793064 0.0069914273917675018
0.58141970634460449 0 0
0.82681000232696533 0 0.00019674861687235534
0.97700196504592896 0.0056568519212305546 0
0 0.22986981272697449 0.0058255214244127274
0.13652478158473969 0.19384612143039703 0.0088331485167145729
0.54301083087921143 0.15401312708854675 0
0.86457306146621704 0.15144799649715424 0.00030930462526157498
1 0.20837527513504028 0.0030582202598452568
0.01051438320428133 0.47338765859603882 0.0045087626203894615
0.1719571053981781 0.49981603026390076 0.0063257855363190174
0.50865399837493896 0.50724714994430542 0.0092993192374706268
0.87141597270965576 0.51155215501785278 9.6938192655215971e-06
1 0.54566377401351929 0
0.02763722650706768 0.79593175649642944 0.021902451291680336
0.21177883446216583 0.83630079030990601 0.026945600286126137
0.52705258131027222 0.83139544725418091 0.019653709605336189
0.83029961585998535 0.82643735408782959 0.016216129064559937
0.998576819896698 0.84171545505523682 0.014125525020062923
0.080093100666999817 1 0.088917359709739685
0.28918012976646423 1 0.093969322741031647
0.58348894119262695 1 0.059121508151292801
0.85319632291793823 0.99929273128509521 0.036179888993501663
1 1 0.025962606072425842
0 0.028750834986567497 0.33475592732429504
0.17886568605899811 0.010707511566579342 0.28433254361152649
0.52878499031066895 0.0064682755619287491 0.1830277293920517
0.77710294723510742 7.7550554124172777e-05 0.13105960190296173
0.92869949340820312 0.0087317675352096558 0.12848496437072754
4.8469096327607986e-06 0.21271847188472748 0.26597023010253906
0.14550270140171051 0.19029629230499268 0.21604269742965698
0.51565152406692505 0.16611412167549133 0.16494384407997131
0.83198899030685425 0.17659538984298706 0.17818154394626617
0.99167180061340332 0.20962099730968475 0.21397237479686737
0.007455100305378437 0.4787558913230896 0.13826407492160797
0.18683020770549774 0.51162070035934448 0.17972111701965332
0.5308300256729126 0.52134239673614502 0.17486295104026794
0.87654340267181396 0.52417188882827759 0.14420798420906067
1 0.5542830228805542 0.1609228253364563
0.027600845322012901 0.81523239612579346 0.17750559747219086
0.2298576831817627 0.84580260515213013 0.21418838202953339
0.54179638624191284 0.84239721298217773 0.20684929192066193
0.82219201326370239 0.83430278301239014 0.18838970363140106
0.9978824257850647 0.84168392419815063 0.17056824266910553
0.086015947163105011 1 0.2917112410068512
0.29876306653022766 1 0.2940782904624939
0.58702272176742554 1 0.25176134705543518
0.84545159339904785 0.99236583709716797 0.21598827838897705
0.99854564666748047 0.99551236629486084 0.20775052905082703
0 0.013069691136479378 0.88187766075134277
0.14295825362205505 0.0015991360414773226 0.79748839139938354
0.4953446090221405 0.0020518733654171228 0.61431288719177246
0.74960362911224365 8.2307706179562956e-05 0.4739205539226532
0.92228531837463379 0.016516637057065964 0.45765802264213562
0.0008194269030354917 0.18934330344200134 0.70999753475189209
0.15439678728580475 0.17879979312419891 0.5781855583190918
0.50098532438278198 0.17131730914115906 0.50048965215682983
0.80001306533813477 0.17915494740009308 0.50854873657226562
0.99307096004486084 0.21704261004924774 0.55324393510818481
0.004949621856212616 0.47876918315887451 0.4681074321269989
0.18570537865161896 0.51296108961105347 0.51145392656326294
0.52459585666656494 0.51706618070602417 0.51457482576370239
0.84334439039230347 0.52700942754745483 0.52109241485595703
0.9979630708694458 0.55866038799285889 0.55993258953094482
0.021348737180233002 0.8183208703994751 0.51423043012619019
0.224543496966362 0.84487134218215942 0.54594653844833374
0.53851473331451416 0.8373534083366394 0.53582566976547241
0.82704514265060425 0.82716816663742065 0.51804918050765991
0.9944872260093689 0.83522558212280273 0.49006959795951843
0.083765260875225067 1 0.60488682985305786
0.28477829694747925 1 0.60642021894454956
0.57054167985916138 1 0.56910818815231323
0.8304828405380249 0.99056136608123779 0.53714227676391602
0.99107086658477783 0.9905584454536438 0.51730692386627197
0 0.00058180867927148938 1
0.13013918697834015 0 1
0.47401303052902222 0.0021814084611833096 0.95035099983215332
0.73694515228271484 1.5617819371982478e-05 0.77002513408660889
0.90820813179016113 0.015821779146790504 0.75180995464324951
0.0023669374641031027 0.16917894780635834 0.97730916738510132
0.16230963170528412 0.1764405220746994 0.87382441759109497
0.50457751750946045 0.16618910431861877 0.78677690029144287
0.81400281190872192 0.18912966549396515 0.80575591325759888
0.98948299884796143 0.23482397198677063 0.84942108392715454
0.013496473431587219 0.48028972744941711 0.76882541179656982
0.18926241993904114 0.51706856489181519 0.81669336557388306
0.52404284477233887 0.52564460039138794 0.8269152045249939
0.83399254083633423 0.53964585065841675 0.84091681241989136
1 0.56432276964187622 0.85663402080535889
0.017216447740793228 0.8181159496307373 0.81632214784622192
0.21870027482509613 0.8458406925201416 0.8462558388710022
0.53637325763702393 0.83653479814529419 0.83285200595855713
0.81659334897994995 0.82139462232589722 0.82164984941482544
0.99693495035171509 0.82423782348632812 0.81638091802597046
0.07797279953956604 0.99930322170257568 0.89733314514160156
0.2595674991607666 0.99842756986618042 0.89325523376464844
0.56109464168548584 0.99931567907333374 0.85598289966583252
0.82320278882980347 0.98769015073776245 0.82507419586181641
0.9851190447807312 0.98525524139404297 0.81592196226119995
0 0 1
0.117190882563591 0 1
0.44752639532089233 0 0.98767316341400146
0.72928184270858765 0.0010840920731425285 0.90959340333938599
0.91496586799621582 0.017075736075639725 0.93867480754852295
8.7782915215939283e-05 0.18588928878307343 1
0.17319735884666443 0.1927420049905777 0.97135943174362183
0.52194112539291382 0.19255556166172028 0.97956299781799316
0.81880474090576172 0.20857375860214233 0.96951210498809814
0.98932456970214844 0.24532090127468109 0.99988728761672974
0.0043752184137701988 0.50179398059844971 0.97382837533950806
0.20190820097923279 0.53048479557037354 0.99162477254867554
0.53706055879592896 0.53801089525222778 0.99767136573791504
0.83745801448822021 0.54544246196746826 0.99829387664794922
0.99798566102981567 0.57316482067108154 0.99971276521682739
0.019186640158295631 0.83123219013214111 0.98381417989730835
0.22622585296630859 0.84982967376708984 0.99667209386825562
0.5398363471031189 0.84299319982528687 0.99436873197555542
0.81848084926605225 0.82203888893127441 0.9905427098274231
0.98950850963592529 0.82991993427276611 0.98861825466156006
0.082820594310760498 0.99924081563949585 1
0.27710846066474915 1 1
0.56194239854812622 0.99962174892425537 0.99950742721557617
0.81638157367706299 0.98740291595458984 0.98760461807250977
0.98475271463394165 0.98491644859313965 0.98477816581726074
