assets/lut/ericellerbrock nemesis.cube
# Created by: G'MIC (https://gmic.eu)
TITLE "nemesis"
# LUT size
LUT_3D_SIZE 7
# Data domain
DOMAIN_MIN 0.0 0.0 0.0
DOMAIN_MAX 1.0 1.0 1.0
# LUT data points
0.0010873083956539631 0.026068190112709999 0.0469498410820961
0.058732934296131134 0.0025788252241909504 0.016981013119220734
0.25799468159675598 0.0022594975307583809 0.009820990264415741
0.40884590148925781 0.013384800404310226 0.0035610422492027283
0.55005341768264771 0.016866063699126244 0.0076370388269424438
0.68477511405944824 0.019671766087412834 0.015048711560666561
0.81710797548294067 0.027015849947929382 0.019942024722695351
0.000193846455658786 0.18537154793739319 0.067434199154376984
0.079797171056270599 0.14672766625881195 0.02214367501437664
0.2773471474647522 0.13394512236118317 0.014035542495548725
0.4374595582485199 0.13941410183906555 0.015311731025576591
0.57949644327163696 0.14807674288749695 0.027199061587452888
0.71272546052932739 0.15783707797527313 0.043113064020872116
0.84288650751113892 0.1734769195318222 0.050751451402902603
0.019731335341930389 0.34090694785118103 0.09019055962562561
0.13091550767421722 0.30948832631111145 0.049525585025548935
0.3020423948764801 0.29668214917182922 0.030937150120735168
0.46341481804847717 0.29737326502799988 0.036355260759592056
0.60645872354507446 0.30336841940879822 0.051816273480653763
0.73909300565719604 0.31518149375915527 0.0680275559425354
0.86770099401473999 0.33258885145187378 0.077155709266662598
0.033610668033361435 0.50079464912414551 0.11679470539093018
0.16365472972393036 0.47470542788505554 0.083324000239372253
0.32680153846740723 0.46106010675430298 0.065170064568519592
0.48742219805717468 0.45984306931495667 0.065718404948711395
0.63201415538787842 0.46599355340003967 0.077126778662204742
0.76638942956924438 0.47739630937576294 0.090917803347110748
0.89672821760177612 0.49310290813446045 0.099939607083797455
0.023805147036910057 0.66467010974884033 0.14883466064929962
0.17557108402252197 0.6392216682434082 0.11882004141807556
0.348623126745224 0.62425100803375244 0.10099273175001144
0.51128703355789185 0.62293887138366699 0.097166843712329865
0.65678858757019043 0.63019979000091553 0.10294635593891144
0.79383200407028198 0.6406591534614563 0.11314278095960617
0.92693972587585449 0.6539994478225708 0.12061794847249985
0.021739302203059196 0.82650870084762573 0.17668181657791138
0.19185243546962738 0.79993820190429688 0.14735768735408783
0.37305518984794617 0.78517794609069824 0.12918646633625031
0.53716832399368286 0.78506988286972046 0.12413375079631805
0.68427670001983643 0.79339361190795898 0.12728714942932129
0.82235270738601685 0.80421608686447144 0.1342041939496994
0.95725721120834351 0.8165629506111145 0.13992539048194885
0.045516368001699448 0.98075437545776367 0.19709914922714233
0.22670605778694153 0.95872974395751953 0.16889607906341553
0.40523225069046021 0.9465288519859314 0.15236882865428925
0.56675237417221069 0.94789469242095947 0.14765898883342743
0.71360242366790771 0.9565778374671936 0.14964300394058228
0.85224926471710205 0.9678230881690979 0.15414705872535706
0.98399800062179565 0.97769665718078613 0.15736070275306702
7.0399866672232747e-05 0.035471163690090179 0.17444336414337158
0.061646882444620132 0.008383418433368206 0.13809077441692352
0.26311597228050232 0.0036651911213994026 0.12036432325839996
0.41594883799552917 0.0090742073953151703 0.11598052829504013
0.55579930543899536 0.01123510580509901 0.1270308643579483
0.68847185373306274 0.014188803732395172 0.14085210859775543
0.819313645362854 0.022982683032751083 0.14975564181804657
0 0.18935768306255341 0.19483488798141479
0.07670988142490387 0.14725217223167419 0.15548540651798248
0.28785601258277893 0.13717219233512878 0.14069634675979614
0.44597911834716797 0.14106385409832001 0.14259351789951324
0.58600705862045288 0.14635911583900452 0.15468971431255341
0.7167854905128479 0.15613336861133575 0.17049618065357208
0.8449217677116394 0.17261247336864471 0.18128305673599243
0.016501167789101601 0.34643793106079102 0.21605713665485382
0.12029300630092621 0.31509312987327576 0.17648094892501831
0.3082101047039032 0.30225378274917603 0.1580076664686203
0.47104090452194214 0.30288141965866089 0.16416275501251221
0.61312651634216309 0.30680316686630249 0.17862161993980408
0.74363833665847778 0.31769141554832458 0.19568639993667603
0.86997199058532715 0.33460012078285217 0.20816998183727264
0.028845513239502907 0.50582164525985718 0.24429817497730255
0.15372662246227264 0.48060756921768188 0.20786362886428833
0.3244316577911377 0.4677186906337738 0.18699023127555847
0.49144279956817627 0.4657863974571228 0.18986122310161591
0.63800972700119019 0.47027823328971863 0.20368821918964386
0.77181792259216309 0.47995758056640625 0.22086997330188751
0.89910560846328735 0.49547231197357178 0.23299472033977509
0.0067616482265293598 0.67159885168075562 0.28008231520652771
0.15659429132938385 0.64329123497009277 0.24525105953216553
0.34252706170082092 0.6274721622467041 0.22491173446178436
0.5126921534538269 0.62712693214416504 0.22232139110565186
0.65990984439849854 0.63492906093597412 0.23036767542362213
0.79766654968261719 0.64362603425979614 0.2447836846113205
0.92877793312072754 0.65621745586395264 0.25584027171134949
0.0020420299842953682 0.83355295658111572 0.31109577417373657
0.17048998177051544 0.80100107192993164 0.27447736263275146
0.36921104788780212 0.78455787897109985 0.25441092252731323
0.53927838802337646 0.78741353750228882 0.25146681070327759
0.6867983341217041 0.79729205369949341 0.25772181153297424
0.82458353042602539 0.80747181177139282 0.26812803745269775
0.95792430639266968 0.81865787506103516 0.27683410048484802
0.021735247224569321 0.98163694143295288 0.33001929521560669
0.22040709853172302 0.95377004146575928 0.29480212926864624
0.40688973665237427 0.94304043054580688 0.27927368879318237
0.57053452730178833 0.94793796539306641 0.27778881788253784
0.71651780605316162 0.95874118804931641 0.28305795788764954
0.85371893644332886 0.96970212459564209 0.29028496146202087
0.98414462804794312 0.9788661003112793 0.29613584280014038
0.00064487830968573689 0.029128879308700562 0.30476289987564087
0.069066070020198822 0.010792556218802929 0.26898548007011414
0.26797059178352356 0.0048693190328776836 0.25737059116363525
0.42473885416984558 0.0073668984696269035 0.25524729490280151
0.56207603216171265 0.0082574877887964249 0.26241001486778259
0.69319421052932739 0.011850065551698208 0.27311605215072632
0.82330656051635742 0.021508922800421715 0.28148210048675537
0 0.18542060256004333 0.32502260804176331
0.085462965071201324 0.14554078876972198 0.2953123152256012
0.29230985045433044 0.13569165766239166 0.2890683114528656
0.45636051893234253 0.14215925335884094 0.28486925363540649
0.59318077564239502 0.14769931137561798 0.28884673118591309
0.72250735759735107 0.15755258500576019 0.3004557192325592
0.85021138191223145 0.1727357804775238 0.31170925498008728
0.008181239478290081 0.35006394982337952 0.34908375144004822
0.12152344733476639 0.31742417812347412 0.31732830405235291
0.30647236108779907 0.30487552285194397 0.30340903997421265
0.47868859767913818 0.30529144406318665 0.30507376790046692
0.62042641639709473 0.31139928102493286 0.31072023510932922
0.75016051530838013 0.32192292809486389 0.32431992888450623
0.87671035528182983 0.33519288897514343 0.33880916237831116
0.0089521072804927826 0.51448291540145874 0.38002505898475647
0.14219048619270325 0.48457390069961548 0.34327211976051331
0.32072138786315918 0.47304126620292664 0.31974056363105774
0.49329805374145508 0.4712461531162262 0.32270956039428711
0.64645099639892578 0.47419139742851257 0.33425167202949524
0.77868831157684326 0.48439136147499084 0.34965187311172485
0.90482693910598755 0.49724757671356201 0.36485868692398071
0.00043137493776157498 0.67603510618209839 0.41126939654350281
0.14615535736083984 0.64334338903427124 0.37350285053253174
0.34177231788635254 0.6292870044708252 0.35419318079948425
0.51554924249649048 0.63210958242416382 0.35149911046028137
0.66788232326507568 0.6377328634262085 0.3608919084072113
0.80424517393112183 0.64638108015060425 0.37559342384338379
0.93271183967590332 0.65851664543151855 0.38943937420845032
6.1035157159494702e-06 0.83443433046340942 0.4400177001953125
0.16143126785755157 0.79949438571929932 0.4011959433555603
0.3677389919757843 0.78714483976364136 0.38310912251472473
0.54205930233001709 0.79185885190963745 0.38148206472396851
0.69106936454772949 0.8015902042388916 0.38988170027732849
0.82819730043411255 0.81061536073684692 0.40170681476593018
0.95989346504211426 0.82080984115600586 0.41295576095581055
0.0073633980937302113 0.98606270551681519 0.46752217411994934
0.20191268622875214 0.958534836769104 0.42964339256286621
0.40377330780029297 0.94660091400146484 0.41261383891105652
0.57289606332778931 0.95192307233810425 0.41172921657562256
0.71906042098999023 0.96292436122894287 0.41825664043426514
0.85519492626190186 0.97193509340286255 0.42678749561309814
0.98437947034835815 0.98013705015182495 0.43455219268798828
0 0.028341973200440407 0.43210893869400024
0.052197862416505814 0.0074885948561131954 0.39866858720779419
0.25498732924461365 0.0037104438524693251 0.39316561818122864
0.42294785380363464 0.0076736300252377987 0.39497020840644836
0.56565451622009277 0.012193208560347557 0.39924898743629456
0.69796866178512573 0.016208663582801819 0.40716326236724854
0.82818090915679932 0.023844162002205849 0.41500815749168396
0 0.18921321630477905 0.46128004789352417
0.08680231124162674 0.14907167851924896 0.43099376559257507
0.28859680891036987 0.14202967286109924 0.42544376850128174
0.45767253637313843 0.14531612396240234 0.42590975761413574
0.59765112400054932 0.15429404377937317 0.4270002543926239
0.72812944650650024 0.16380944848060608 0.43514075875282288
0.85602873563766479 0.17580319941043854 0.44506990909576416
0.00037393008824437857 0.35376685857772827 0.48741546273231506
0.11644110828638077 0.31749385595321655 0.45738250017166138
0.31157475709915161 0.30576655268669128 0.45376333594322205
0.48149451613426208 0.30668860673904419 0.45490789413452148
0.62535077333450317 0.31567364931106567 0.45237785577774048
0.75696110725402832 0.32666996121406555 0.46025294065475464
0.88357847929000854 0.33768883347511292 0.47304341197013855
4.846909359912388e-05 0.51979357004165649 0.51809960603713989
0.13444195687770844 0.48380404710769653 0.48494884371757507
0.32404902577400208 0.47339153289794922 0.46997484564781189
0.49426573514938354 0.47306004166603088 0.4729926586151123
0.65203481912612915 0.47682842612266541 0.47794947028160095
0.78559386730194092 0.48862498998641968 0.48585054278373718
0.91118508577346802 0.50006449222564697 0.5003703236579895
0 0.67696815729141235 0.54282993078231812
0.15202705562114716 0.64025920629501343 0.50652188062667847
0.34794649481773376 0.63298791646957397 0.49134254455566406
0.51412683725357056 0.63973522186279297 0.48438706994056702
0.67145758867263794 0.64180111885070801 0.49614018201828003
0.8099554181098938 0.64974260330200195 0.50804400444030762
0.93773770332336426 0.66160565614700317 0.52438181638717651
0 0.8368646502494812 0.57227408885955811
0.16507580876350403 0.80030399560928345 0.53304708003997803
0.37245169281959534 0.79174137115478516 0.51815968751907349
0.54312980175018311 0.79830247163772583 0.51546233892440796
0.69300657510757446 0.80550414323806763 0.52319449186325073
0.83233970403671265 0.81303519010543823 0.5346948504447937
0.96330851316452026 0.8231433629989624 0.5494193434715271
0.0018134622368961573 0.99127316474914551 0.60900372266769409
0.18908223509788513 0.96724724769592285 0.56955409049987793
0.40344142913818359 0.95397818088531494 0.55170732736587524
0.57545948028564453 0.95758885145187378 0.54966461658477783
0.72085905075073242 0.96597468852996826 0.55399328470230103
0.85657578706741333 0.97326630353927612 0.56237143278121948
0.98489320278167725 0.98089498281478882 0.57297110557556152
0 0.031434301286935806 0.56601369380950928
0.062134146690368652 0.005821647122502327 0.53486043214797974
0.24019607901573181 0.0061405557207763195 0.52861249446868896
0.41855385899543762 0.014419705606997013 0.53272414207458496
0.56740987300872803 0.020818972960114479 0.53759473562240601
0.70123714208602905 0.022627633064985275 0.54443901777267456
0.83225691318511963 0.027099654078483582 0.55159330368041992
0.00056967639829963446 0.19951504468917847 0.59856218099594116
0.088955283164978027 0.15352343022823334 0.56743627786636353
0.2766273021697998 0.14459708333015442 0.56179076433181763
0.45536467432975769 0.15172490477561951 0.56669509410858154
0.60071271657943726 0.16142314672470093 0.56949532032012939
0.73201918601989746 0.16941061615943909 0.57499140501022339
0.86100262403488159 0.1790437251329422 0.58287590742111206
0 0.35577541589736938 0.62464803457260132
0.092365756630897522 0.31720039248466492 0.5955733060836792
0.29992485046386719 0.30748176574707031 0.59218490123748779
0.48150268197059631 0.30891022086143494 0.60007518529891968
0.62999343872070312 0.31818193197250366 0.60112231969833374
0.76224797964096069 0.3300597071647644 0.60348135232925415
0.88959521055221558 0.339883953332901 0.61209565401077271
0 0.52256375551223755 0.65678375959396362
0.12505511939525604 0.4849790632724762 0.62613999843597412
0.32385775446891785 0.47309499979019165 0.61711108684539795
0.50058883428573608 0.47117480635643005 0.62973546981811523
0.65653687715530396 0.47913873195648193 0.63211512565612793
0.79227733612060547 0.49283286929130554 0.63102555274963379
0.91809433698654175 0.50330746173858643 0.64015001058578491
0.00027178594609722495 0.68575042486190796 0.68526536226272583
0.16011545062065125 0.64735084772109985 0.65143191814422607
0.35484811663627625 0.6364561915397644 0.63844937086105347
0.51773262023925781 0.64008402824401855 0.63936173915863037
0.67196750640869141 0.64507424831390381 0.6475486159324646
0.81927275657653809 0.65328657627105713 0.65427869558334351
0.94519609212875366 0.6660277247428894 0.66416996717453003
0.0018831141060218215 0.84497600793838501 0.71266311407089233
0.18101538717746735 0.80843949317932129 0.6743054986000061
0.38180220127105713 0.79777055978775024 0.66043955087661743
0.54397565126419067 0.80253708362579346 0.65975844860076904
0.68971991539001465 0.80977725982666016 0.66370666027069092
0.83739519119262695 0.816417396068573 0.67307204008102417
0.96875470876693726 0.82708477973937988 0.68784993886947632
0.010705281980335712 0.99044537544250488 0.74224400520324707
0.21201404929161072 0.96666425466537476 0.70166724920272827
0.41299283504486084 0.9573894739151001 0.6891636848449707
0.57670116424560547 0.96178579330444336 0.68962985277175903
0.71867501735687256 0.96874076128005981 0.69219475984573364
0.855660080909729 0.97490346431732178 0.69813656806945801
0.98538863658905029 0.98225617408752441 0.71071690320968628
0 0.030548470094799995 0.70039492845535278
0.062990866601467133 0.010239111259579659 0.67428278923034668
0.24593737721443176 0.013190894387662411 0.66806113719940186
0.42296764254570007 0.024702513590455055 0.67156612873077393
0.56924539804458618 0.026007035747170448 0.67805755138397217
0.70255744457244873 0.024774558842182159 0.68500703573226929
0.83501338958740234 0.028104893863201141 0.69123834371566772
0 0.19584451615810394 0.73378175497055054
0.087108060717582703 0.16100959479808807 0.70755720138549805
0.28413364291191101 0.15439660847187042 0.70172321796417236
0.46020022034645081 0.16036409139633179 0.70665150880813599
0.60125941038131714 0.16333760321140289 0.71265715360641479
0.73268872499465942 0.16900743544101715 0.71802622079849243
0.86396926641464233 0.17916469275951385 0.72391825914382935
0 0.36030244827270508 0.76453232765197754
0.093773648142814636 0.32389435172080994 0.73824161291122437
0.30470046401023865 0.31137374043464661 0.73336642980575562
0.48568451404571533 0.31236183643341064 0.74072802066802979
0.63162600994110107 0.31869816780090332 0.74602794647216797
0.76386576890945435 0.32867008447647095 0.74938225746154785
0.89329248666763306 0.33959302306175232 0.75484412908554077
0 0.52539312839508057 0.79573804140090942
0.12649457156658173 0.48573535680770874 0.76570224761962891
0.3284052312374115 0.47327840328216553 0.76121258735656738
0.50544929504394531 0.47414869070053101 0.77133482694625854
0.65764147043228149 0.48173528909683228 0.77792441844940186
0.7939944863319397 0.49320408701896667 0.77981972694396973
0.92235684394836426 0.50397050380706787 0.78446149826049805
0.0020208021160215139 0.68674689531326294 0.8253512978553772
0.16932108998298645 0.64661693572998047 0.79159367084503174
0.36241668462753296 0.63786780834197998 0.78652328252792358
0.52589625120162964 0.63934588432312012 0.79430472850799561
0.6772875189781189 0.64557254314422607 0.80374157428741455
0.82108169794082642 0.65477091073989868 0.80973178148269653
0.94892138242721558 0.66850334405899048 0.81127387285232544
0.0068492214195430279 0.84837746620178223 0.85482329130172729
0.19603687524795532 0.81287461519241333 0.8186337947845459
0.38872921466827393 0.80259543657302856 0.80798625946044922
0.54778170585632324 0.80447399616241455 0.8135141134262085
0.6904175877571106 0.81053775548934937 0.82118290662765503
0.8359837532043457 0.81914591789245605 0.82861459255218506
0.97307896614074707 0.83081883192062378 0.83566755056381226
0.03095194511115551 0.9876476526260376 0.88131868839263916
0.23242154717445374 0.96731245517730713 0.84317207336425781
0.41756385564804077 0.96124839782714844 0.83213973045349121
0.57411545515060425 0.96595609188079834 0.83539742231369019
0.71380835771560669 0.97213590145111084 0.8400881290435791
0.85074031352996826 0.97840994596481323 0.84268081188201904
0.98589789867401123 0.98476016521453857 0.85068362951278687
0 0.039002452045679092 0.84409159421920776
0.078366391360759735 0.022604040801525116 0.82240217924118042
0.25781625509262085 0.023175498470664024 0.81447970867156982
0.42782142758369446 0.027714777737855911 0.81602776050567627
0.56979578733444214 0.025088142603635788 0.82194173336029053
0.70330619812011719 0.023876085877418518 0.82825565338134766
0.83742606639862061 0.028160903602838516 0.83332979679107666
0 0.20067331194877625 0.87648522853851318
0.09740205854177475 0.17544788122177124 0.85438686609268188
0.28862428665161133 0.16713786125183105 0.84727352857589722
0.45939180254936218 0.16667836904525757 0.85033553838729858
0.59917408227920532 0.16392865777015686 0.85676103830337524
0.73228633403778076 0.16841712594032288 0.86239743232727051
0.86597627401351929 0.17904411256313324 0.86712968349456787
0 0.36556175351142883 0.90821170806884766
0.10995830595493317 0.33543318510055542 0.88524484634399414
0.30897310376167297 0.32014498114585876 0.87890613079071045
0.48347806930541992 0.31738027930259705 0.88374048471450806
0.62880915403366089 0.32002726197242737 0.89044779539108276
0.76311880350112915 0.3273409903049469 0.89555448293685913
0.89539003372192383 0.33822092413902283 0.89983510971069336
0 0.52542281150817871 0.93632477521896362
0.13556136190891266 0.49033257365226746 0.91072928905487061
0.33178502321243286 0.47727593779563904 0.90729629993438721
0.50456613302230835 0.47749355435371399 0.91482758522033691
0.65383446216583252 0.48331969976425171 0.92283409833908081
0.79157286882400513 0.49204364418983459 0.92832225561141968
0.92405980825424194 0.50222790241241455 0.93213629722595215
0.0043204515241086483 0.67933231592178345 0.96391361951828003
0.17397482693195343 0.64573043584823608 0.93605643510818481
0.36216425895690918 0.63883435726165771 0.93446660041809082
0.52701503038406372 0.64139068126678467 0.94348406791687012
0.6759030818939209 0.64712309837341309 0.954245924949646
0.81748694181442261 0.65492397546768188 0.96253907680511475
0.95168423652648926 0.66591840982437134 0.96442604064941406
0.017632996663451195 0.83920884132385254 0.98883026838302612
0.20359991490840912 0.81276565790176392 0.96752381324768066
0.38799047470092773 0.80487173795700073 0.96035361289978027
0.54881763458251953 0.80632543563842773 0.96760445833206177
0.69595032930374146 0.81109261512756348 0.97888582944869995
0.8429378867149353 0.81634443998336792 0.98800283670425415
0.97888749837875366 0.82616901397705078 0.98951655626296997
0.049465734511613846 0.9855647087097168 0.99897480010986328
0.23620317876338959 0.97141927480697632 0.98857408761978149
0.4136413037776947 0.96678727865219116 0.98157382011413574
0.57046365737915039 0.96981745958328247 0.98366069793701172
0.71376413106918335 0.97545135021209717 0.98844820261001587
0.85434502363204956 0.98085612058639526 0.99154090881347656
0.98786956071853638 0.98637551069259644 0.99062854051589966
