assets/lut/ericellerbrock black star.cube
# Created by: G'MIC (https://gmic.eu)
TITLE "black_star"
# LUT size
LUT_3D_SIZE 7
# Data domain
DOMAIN_MIN 0.0 0.0 0.0
DOMAIN_MAX 1.0 1.0 1.0
# LUT data points
0.035491570830345154 0.03539549931883812 0.035898603498935699
0.1976005882024765 0.036725316196680069 0.036970548331737518
0.35539215803146362 0.035403471440076828 0.036345120519399643
0.51372551918029785 0.034662522375583649 0.036287747323513031
0.67284256219863892 0.035635285079479218 0.036967050284147263
0.83427172899246216 0.036720260977745056 0.03766968846321106
0.98848158121109009 0.034482438117265701 0.034603793174028397
0.037084899842739105 0.19757257401943207 0.038057845085859299
0.19893604516983032 0.19778436422348022 0.038250613957643509
0.35539215803146362 0.1964946985244751 0.036210544407367706
0.51342403888702393 0.19436201453208923 0.034094896167516708
0.67215514183044434 0.19681188464164734 0.035631816834211349
0.8337971568107605 0.19812469184398651 0.036650054156780243
0.98860293626785278 0.19732171297073364 0.033229485154151917
0.037496604025363922 0.35695990920066833 0.039403609931468964
0.19926315546035767 0.35671859979629517 0.038981806486845016
0.35539215803146362 0.35527050495147705 0.035935360938310623
0.5134047269821167 0.35376647114753723 0.033210784196853638
0.67217034101486206 0.35537970066070557 0.033111214637756348
0.83395552635192871 0.35741695761680603 0.032804720103740692
0.98860293626785278 0.35710659623146057 0.029740456491708755
0.038607235997915268 0.51630610227584839 0.040811218321323395
0.20088256895542145 0.51643949747085571 0.040558982640504837
0.35918572545051575 0.5148889422416687 0.037091542035341263
0.51498168706893921 0.51409316062927246 0.033562634140253067
0.67431676387786865 0.51532882452011108 0.03225027397274971
0.83534520864486694 0.51715493202209473 0.030084691941738129
0.98864841461181641 0.51698613166809082 0.025842450559139252
0.040072992444038391 0.67587924003601074 0.042225811630487442
0.20298752188682556 0.67615234851837158 0.04206288605928421
0.36174064874649048 0.67622548341751099 0.03849276527762413
0.51808077096939087 0.67622548341751099 0.034029807895421982
0.67686057090759277 0.67660140991210938 0.03083832748234272
0.83764469623565674 0.67702203989028931 0.027114972472190857
0.98997014760971069 0.67663276195526123 0.021323170512914658
0.039828147739171982 0.83575659990310669 0.041677586734294891
0.20413647592067719 0.83751380443572998 0.041627846658229828
0.36323815584182739 0.83825826644897461 0.037604015320539474
0.5215686559677124 0.83859431743621826 0.032475728541612625
0.67990195751190186 0.83915442228317261 0.027808798477053642
0.83934110403060913 0.83915442228317261 0.022378120571374893
0.99093139171600342 0.83829212188720703 0.016321459785103798
0.035687390714883804 0.98857259750366211 0.035679999738931656
0.20177361369132996 0.98994112014770508 0.03586285188794136
0.36292764544487 0.99093139171600342 0.032187517732381821
0.5215686559677124 0.99093139171600342 0.027363525703549385
0.68002724647521973 0.99093139171600342 0.02160625159740448
0.84016352891921997 0.99093139171600342 0.016076032072305679
0.99093139171600342 0.99090105295181274 0.0097169764339923859
0.036294944584369659 0.036659583449363708 0.19902239739894867
0.1983180046081543 0.037928920239210129 0.20039460062980652
0.3566252589225769 0.037953812628984451 0.19924603402614594
0.51435256004333496 0.03774222731590271 0.19908131659030914
0.67430657148361206 0.038096364587545395 0.20063185691833496
0.83523285388946533 0.037948369979858398 0.20098039507865906
0.98860293626785278 0.035976395010948181 0.19887556135654449
0.037657823413610458 0.19809630513191223 0.20094771683216095
0.19820347428321838 0.19840902090072632 0.20067109167575836
0.35539215803146362 0.19705882668495178 0.19732646644115448
0.51371651887893677 0.19705882668495178 0.19701477885246277
0.67216759920120239 0.19705882668495178 0.19757582247257233
0.83390915393829346 0.19856828451156616 0.19945548474788666
0.98860293626785278 0.1976291686296463 0.19744320213794708
0.03870696946978569 0.35769250988960266 0.20115810632705688
0.19874861836433411 0.35684305429458618 0.20083405077457428
0.35539215803146362 0.35539215803146362 0.1970713883638382
0.51291960477828979 0.35537511110305786 0.19549113512039185
0.6716492772102356 0.35539215803146362 0.19610002636909485
0.83292931318283081 0.35664331912994385 0.19668760895729065
0.98834800720214844 0.35690823197364807 0.19473345577716827
0.040779516100883484 0.51727938652038574 0.20452894270420074
0.2009785920381546 0.51653498411178589 0.20232471823692322
0.35822001099586487 0.51484537124633789 0.19905015826225281
0.51374524831771851 0.51409316062927246 0.1966320276260376
0.67231589555740356 0.51458245515823364 0.1953524649143219
0.83375078439712524 0.51597565412521362 0.19499661028385162
0.98854547739028931 0.51640349626541138 0.19189441204071045
0.043134249746799469 0.67622393369674683 0.20707827806472778
0.20473650097846985 0.67622548341751099 0.20535802841186523
0.3613903820514679 0.67609447240829468 0.20155099034309387
0.51764684915542603 0.67550551891326904 0.19783544540405273
0.67580914497375488 0.6758686900138855 0.19572333991527557
0.83578646183013916 0.67616927623748779 0.1934686005115509
0.98875367641448975 0.6761467456817627 0.18873506784439087
0.044019259512424469 0.83764034509658813 0.207781121134758
0.20621092617511749 0.83833783864974976 0.20709423720836639
0.36367496848106384 0.83813583850860596 0.2030644416809082
0.5215686559677124 0.83788871765136719 0.19857387244701385
0.67949962615966797 0.83809840679168701 0.19448298215866089
0.83838927745819092 0.83828622102737427 0.18991099298000336
0.99049133062362671 0.83792489767074585 0.18285296857357025
0.040411137044429779 0.98977935314178467 0.20353551208972931
0.20512770116329193 0.99092131853103638 0.20360292494297028
0.36493939161300659 0.99093139171600342 0.19991761445999146
0.52193629741668701 0.99093139171600342 0.19476756453514099
0.68024426698684692 0.99093139171600342 0.1890617311000824
0.84042835235595703 0.99093139171600342 0.18227246403694153
0.99093139171600342 0.99093139171600342 0.1729789525270462
0.033733010292053223 0.034951318055391312 0.35539215803146362
0.19685913622379303 0.037580423057079315 0.35696440935134888
0.35582348704338074 0.038725491613149643 0.35726273059844971
0.51494508981704712 0.038725491613149643 0.3580729067325592
0.67493712902069092 0.038725491613149643 0.35921463370323181
0.83564245700836182 0.037646155804395676 0.3593137264251709
0.98860293626785278 0.034658826887607574 0.3566773533821106
0.035070218145847321 0.19648438692092896 0.35551935434341431
0.19636303186416626 0.19705834984779358 0.35539215803146362
0.35533913969993591 0.19705882668495178 0.35539215803146362
0.51346230506896973 0.19705882668495178 0.35539215803146362
0.67216604948043823 0.19705882668495178 0.35539215803146362
0.83349233865737915 0.19705834984779358 0.35539215803146362
0.98851859569549561 0.19631597399711609 0.35539215803146362
0.037030059844255447 0.35562193393707275 0.3593137264251709
0.19699369370937347 0.35539934039115906 0.35568401217460632
0.35511842370033264 0.35539215803146362 0.35537156462669373
0.51077926158905029 0.35539215803146362 0.35270678997039795
0.67053961753845215 0.35539215803146362 0.35458832979202271
0.83205497264862061 0.35539215803146362 0.35539215803146362
0.98756951093673706 0.35537350177764893 0.35532915592193604
0.040400426834821701 0.51648283004760742 0.36289745569229126
0.2002701610326767 0.51554334163665771 0.35938167572021484
0.35539969801902771 0.51416957378387451 0.35558530688285828
0.51251304149627686 0.51372551918029785 0.35494521260261536
0.67089956998825073 0.51372551918029785 0.35524654388427734
0.83192616701126099 0.51384061574935913 0.35541537404060364
0.9872017502784729 0.51401215791702271 0.35507482290267944
0.043669577687978745 0.67701196670532227 0.36656615138053894
0.20406867563724518 0.67622548341751099 0.36335310339927673
0.35932809114456177 0.67551076412200928 0.35948696732521057
0.51504302024841309 0.67470842599868774 0.35636276006698608
0.67286407947540283 0.67459404468536377 0.35596984624862671
0.83365851640701294 0.6746259331703186 0.35667893290519714
0.98804479837417603 0.67464381456375122 0.35465225577354431
0.044968876987695694 0.83834463357925415 0.36715686321258545
0.20583957433700562 0.83832645416259766 0.36695638298988342
0.36323529481887817 0.83763581514358521 0.36310508847236633
0.51949858665466309 0.83691912889480591 0.35931864380836487
0.67651158571243286 0.83682596683502197 0.3574768602848053
0.83654361963272095 0.83672136068344116 0.35557413101196289
0.98889994621276855 0.83646601438522339 0.3512650728225708
0.041932348161935806 0.99082165956497192 0.36483615636825562
0.20564830303192139 0.99093139171600342 0.36474609375
0.36425739526748657 0.99093139171600342 0.36218777298927307
0.5215686559677124 0.99093139171600342 0.35824179649353027
0.67990195751190186 0.99079978466033936 0.35451862215995789
0.83882951736450195 0.99062478542327881 0.35015079379081726
0.99080914258956909 0.99021404981613159 0.34329491853713989
0.033031284809112549 0.034156709909439087 0.51372551918029785
0.19613970816135406 0.03727995976805687 0.51372551918029785
0.35611778497695923 0.038725491613149643 0.51380950212478638
0.51576071977615356 0.038753494620323181 0.51430600881576538
0.67558431625366211 0.038725491613149643 0.51488888263702393
0.83591294288635254 0.037264790385961533 0.51442378759384155
0.98876476287841797 0.033962041139602661 0.51373946666717529
0.033494524657726288 0.19466927647590637 0.51367270946502686
0.19466422498226166 0.19689163565635681 0.51166903972625732
0.3550989031791687 0.19705882668495178 0.51157331466674805
0.51362442970275879 0.19705882668495178 0.511962890625
0.67225378751754761 0.19705882668495178 0.51270425319671631
0.83356040716171265 0.19670027494430542 0.51280069351196289
0.98835271596908569 0.19444680213928223 0.51359456777572632
0.036004532128572464 0.35529994964599609 0.51425939798355103
0.19636097550392151 0.35539215803146362 0.51317489147186279
0.35412761569023132 0.35539215803146362 0.50988215208053589
0.51047098636627197 0.35539215803146362 0.50980395078659058
0.67023515701293945 0.35539215803146362 0.51026129722595215
0.83160382509231567 0.35471513867378235 0.51278924942016602
0.98707574605941772 0.35435047745704651 0.51372551918029785
0.040107518434524536 0.51624888181686401 0.51828396320343018
0.1992819607257843 0.51528626680374146 0.51576107740402222
0.35539215803146362 0.51409780979156494 0.51296371221542358
0.51004606485366821 0.51372551918029785 0.51008456945419312
0.66951149702072144 0.51372551918029785 0.51268810033798218
0.83131128549575806 0.51372551918029785 0.51439231634140015
0.98707109689712524 0.51372551918029785 0.51578235626220703
0.043663833290338516 0.67702203989028931 0.52189499139785767
0.20292013883590698 0.67618721723556519 0.52022850513458252
0.3593137264251709 0.67527693510055542 0.51670759916305542
0.51372551918029785 0.67406779527664185 0.51390284299850464
0.67195230722427368 0.67360419034957886 0.51520287990570068
0.83233463764190674 0.67312729358673096 0.51756554841995239
0.98707574605941772 0.67310047149658203 0.51750665903091431
0.044975489377975464 0.83835786581039429 0.52549022436141968
0.20492319762706757 0.83796912431716919 0.52273297309875488
0.36309751868247986 0.83686608076095581 0.52088290452957153
0.51764816045761108 0.83606672286987305 0.51770412921905518
0.67561155557632446 0.83596909046173096 0.51764708757400513
0.83486086130142212 0.83559316396713257 0.51783949136734009
0.98860293626785278 0.83526206016540527 0.51577383279800415
0.0420684814453125 0.99093139171600342 0.52273964881896973
0.20492051541805267 0.99093139171600342 0.52230983972549438
0.36323529481887817 0.99029141664505005 0.5214124321937561
0.52124923467636108 0.99015873670578003 0.51809561252593994
0.67818129062652588 0.98979777097702026 0.51677423715591431
0.83798336982727051 0.98963600397109985 0.51430332660675049
0.98980402946472168 0.9893994927406311 0.50947397947311401
0.03460114449262619 0.035749055445194244 0.67230391502380371
0.19791196286678314 0.038675300776958466 0.67265278100967407
0.35853809118270874 0.039910022169351578 0.67302441596984863
0.51747387647628784 0.040207568556070328 0.67360728979110718
0.67598038911819458 0.039518244564533234 0.6740308403968811
0.83636313676834106 0.038406744599342346 0.67390447854995728
0.98872172832489014 0.035154543817043304 0.6730954647064209
0.036293584853410721 0.19710256159305573 0.67222762107849121
0.19737370312213898 0.19823187589645386 0.67132467031478882
0.35605672001838684 0.1991884708404541 0.67089265584945679
0.51404362916946411 0.19888995587825775 0.67109888792037964
0.67325043678283691 0.19772391021251678 0.67166405916213989
0.8342515230178833 0.19711537659168243 0.67217081785202026
0.98860293626785278 0.19672632217407227 0.67248344421386719
0.038086939603090286 0.35691657662391663 0.67365843057632446
0.19763095676898956 0.35697725415229797 0.67165535688400269
0.35539215803146362 0.35597425699234009 0.66989457607269287
0.51343119144439697 0.35539215803146362 0.66918361186981201
0.67161929607391357 0.35539215803146362 0.6706002950668335
0.83231312036514282 0.35539215803146362 0.67230004072189331
0.98765546083450317 0.35538592934608459 0.67386752367019653
0.041157186031341553 0.51737707853317261 0.67642223834991455
0.20090155303478241 0.51668459177017212 0.67403131723403931
0.35542458295822144 0.51488286256790161 0.67162925004959106
0.51319998502731323 0.51372551918029785 0.67055970430374146
0.67081248760223389 0.51372551918029785 0.67216414213180542
0.8316846489906311 0.51372551918029785 0.67492294311523438
0.98707109689712524 0.51372551918029785 0.67620944976806641
0.043897323310375214 0.67702203989028931 0.67990195751190186
0.20387494564056396 0.67618721723556519 0.67728990316390991
0.3593137264251709 0.6753847599029541 0.67501813173294067
0.51372551918029785 0.67389708757400513 0.67361044883728027
0.67205119132995605 0.67310047149658203 0.67536252737045288
0.83258295059204102 0.67355728149414062 0.67752867937088013
0.98763525485992432 0.67389708757400513 0.67834120988845825
0.044864639639854431 0.83834517002105713 0.68115037679672241
0.20490196347236633 0.83768254518508911 0.67990374565124512
0.36121132969856262 0.83644580841064453 0.67823809385299683
0.51764345169067383 0.8353458046913147 0.67653805017471313
0.67463505268096924 0.83523285388946533 0.67749422788619995
0.83461672067642212 0.83523285388946533 0.67877328395843506
0.98860293626785278 0.83523285388946533 0.67752987146377563
0.041391648352146149 0.99061471223831177 0.67990195751190186
0.20438185334205627 0.99027597904205322 0.67990195751190186
0.3624235987663269 0.98958522081375122 0.67962580919265747
0.51764708757400513 0.98915499448776245 0.67749500274658203
0.67601931095123291 0.98902612924575806 0.67684781551361084
0.83655625581741333 0.9893917441368103 0.67614847421646118
0.9892890453338623 0.98916184902191162 0.67276990413665771
0.036783464252948761 0.037056703120470047 0.83415544033050537
0.20049411058425903 0.040218070149421692 0.83443629741668701
0.3593137264251709 0.040447354316711426 0.83465117216110229
0.51764708757400513 0.040257353335618973 0.83484077453613281
0.67600840330123901 0.04024568572640419 0.8350834846496582
0.83626961708068848 0.03945719450712204 0.83523285388946533
0.98860293626785278 0.036222212016582489 0.83438068628311157
0.039044711738824844 0.19988897442817688 0.83421635627746582
0.20096124708652496 0.20098039507865906 0.83318352699279785
0.3593137264251709 0.20098039507865906 0.83266109228134155
0.51715517044067383 0.20083528757095337 0.83260291814804077
0.67499572038650513 0.20022463798522949 0.83315783739089966
0.83485549688339233 0.20034947991371155 0.83417826890945435
0.98860293626785278 0.19760000705718994 0.83481866121292114
0.040214180946350098 0.35927793383598328 0.83512997627258301
0.20098039507865906 0.3593137264251709 0.83326816558837891
0.35923460125923157 0.35900986194610596 0.83210784196853638
0.51375699043273926 0.35565125942230225 0.83163118362426758
0.67225366830825806 0.35539215803146362 0.83266323804855347
0.83357053995132446 0.35630229115486145 0.83470755815505981
0.98823851346969604 0.35573300719261169 0.83594930171966553
0.041533108800649643 0.51764708757400513 0.8371274471282959
0.20104636251926422 0.51764708757400513 0.83487570285797119
0.3593137264251709 0.51626056432723999 0.83305472135543823
0.51372551918029785 0.51383465528488159 0.83258700370788574
0.6720588207244873 0.51372551918029785 0.83406704664230347
0.83292931318283081 0.51406079530715942 0.83651423454284668
0.98786765336990356 0.51412814855575562 0.83791673183441162
0.0433792844414711 0.67701196670532227 0.83844327926635742
0.20432786643505096 0.67621493339538574 0.83742791414260864
0.3593137264251709 0.67570441961288452 0.83530813455581665
0.51381379365921021 0.67389708757400513 0.8349534273147583
0.67226254940032959 0.67371410131454468 0.83649832010269165
0.8336414098739624 0.67409247159957886 0.8385959267616272
0.98841357231140137 0.67459750175476074 0.83919405937194824
0.043531574308872223 0.83779221773147583 0.83914428949356079
0.20484057068824768 0.83731859922409058 0.83830481767654419
0.3593137264251709 0.83580386638641357 0.83773577213287354
0.51576119661331177 0.83467799425125122 0.83714163303375244
0.6736568808555603 0.83464884757995605 0.83822089433670044
0.83458429574966431 0.83523285388946533 0.83922660350799561
0.98860293626785278 0.83523285388946533 0.83862900733947754
0.039444644004106522 0.98926651477813721 0.83821004629135132
0.20148588716983795 0.98935014009475708 0.83823531866073608
0.35924741625785828 0.98861074447631836 0.83803695440292358
0.51480567455291748 0.98860293626785278 0.8372003436088562
0.67409271001815796 0.98860293626785278 0.8375740647315979
0.83522272109985352 0.98860293626785278 0.83743327856063843
0.98860293626785278 0.98860293626785278 0.83476299047470093
0.034942954778671265 0.03494548425078392 0.98851191997528076
0.19939908385276794 0.037707176059484482 0.98860293626785278
0.35924041271209717 0.03789253905415535 0.98860293626785278
0.51761674880981445 0.037443511188030243 0.98860293626785278
0.67596018314361572 0.037281710654497147 0.98860293626785278
0.83493959903717041 0.036993887275457382 0.98860293626785278
0.98839288949966431 0.033574242144823074 0.98836022615432739
0.03768056258559227 0.19841542840003967 0.98860293626785278
0.20093955099582672 0.20066729187965393 0.98860293626785278
0.3593137264251709 0.2000957727432251 0.98811930418014526
0.51763540506362915 0.19810739159584045 0.98803997039794922
0.67542284727096558 0.19778630137443542 0.98858857154846191
0.83464068174362183 0.1982932984828949 0.98860293626785278
0.98860293626785278 0.1964419037103653 0.98860293626785278
0.038373280316591263 0.35856598615646362 0.98860293626785278
0.20095549523830414 0.3593137264251709 0.98860293626785278
0.3593137264251709 0.35849875211715698 0.98786765336990356
0.51471352577209473 0.35540077090263367 0.98783481121063232
0.67315030097961426 0.35539215803146362 0.98819130659103394
0.83436191082000732 0.35571277141571045 0.98868948221206665
0.98860293626785278 0.35532897710800171 0.98932617902755737
0.039202909916639328 0.51739680767059326 0.98938548564910889
0.20095549523830414 0.51764708757400513 0.98860293626785278
0.3593137264251709 0.51609933376312256 0.98830026388168335
0.51372551918029785 0.51375997066497803 0.9880252480506897
0.67230391502380371 0.51372551918029785 0.98860758543014526
0.83370095491409302 0.51389008760452271 0.98982757329940796
0.98860293626785278 0.51376640796661377 0.99053341150283813
0.039571244269609451 0.67596018314361572 0.99019604921340942
0.20108361542224884 0.67598038911819458 0.98931318521499634
0.3593137264251709 0.67531633377075195 0.98860293626785278
0.51383411884307861 0.67359232902526855 0.98860293626785278
0.67268741130828857 0.67315030097961426 0.98959243297576904
0.83393365144729614 0.67383891344070435 0.99093139171600342
0.98860293626785278 0.67328023910522461 0.99093139171600342
0.038465268909931183 0.83544290065765381 0.98977679014205933
0.20067837834358215 0.8357812762260437 0.98943376541137695
0.35797610878944397 0.83466559648513794 0.98864108324050903
0.51372551918029785 0.8343205451965332 0.98879915475845337
0.67236459255218506 0.83436006307601929 0.99020791053771973
0.83409208059310913 0.83443629741668701 0.99093139171600342
0.98860293626785278 0.83427482843399048 0.99065738916397095
0.03390096127986908 0.98848158121109009 0.98857259750366211
0.19671125710010529 0.98860293626785278 0.98860293626785278
0.3546893298625946 0.98847460746765137 0.98860293626785278
0.5112496018409729 0.98786765336990356 0.98860293626785278
0.6714324951171875 0.98814553022384644 0.98874622583389282
0.83315163850784302 0.98860293626785278 0.98902338743209839
0.98799556493759155 0.98815000057220459 0.98807179927825928
