assets/lut/ericellerbrock seringe 4.cube
# Created by: G'MIC (https://gmic.eu)
TITLE "seringe_4"
# LUT size
LUT_3D_SIZE 13
# Data domain
DOMAIN_MIN 0.0 0.0 0.0
DOMAIN_MAX 1.0 1.0 1.0
# LUT data points
0.043016485869884491 0.054328650236129761 0.057061392813920975
0.051215391606092453 0.058213837444782257 0.060322120785713196
0.092208132147789001 0.062592014670372009 0.062348999083042145
0.17175491154193878 0.065935201942920685 0.054994441568851471
0.27874371409416199 0.066893935203552246 0.047307226806879044
0.39944404363632202 0.069708146154880524 0.049327775835990906
0.52646023035049438 0.078352116048336029 0.05750129371881485
0.64892935752868652 0.093275584280490875 0.067063242197036743
0.75387144088745117 0.10967906564474106 0.077442988753318787
0.83311623334884644 0.12261597812175751 0.085788235068321228
0.88171309232711792 0.12613740563392639 0.088166117668151855
0.90708857774734497 0.12505145370960236 0.08507615327835083
0.92326366901397705 0.12326034903526306 0.080844387412071228
0.046080987900495529 0.061568241566419601 0.061943069100379944
0.051329445093870163 0.063849397003650665 0.062617987394332886
0.090044043958187103 0.065584562718868256 0.060563553124666214
0.16764023900032043 0.070164747536182404 0.052624210715293884
0.27228465676307678 0.07483895868062973 0.045641191303730011
0.39196747541427612 0.079103119671344757 0.049224343150854111
0.52113687992095947 0.088898725807666779 0.058472905308008194
0.64621007442474365 0.10416100919246674 0.068211033940315247
0.75078302621841431 0.11897251009941101 0.078308328986167908
0.82747715711593628 0.12889963388442993 0.086696311831474304
0.87606477737426758 0.13356883823871613 0.090039946138858795
0.9021754264831543 0.13377739489078522 0.087223902344703674
0.91690731048583984 0.13186809420585632 0.085168309509754181
0.04339287057518959 0.093648947775363922 0.060532063245773315
0.047293942421674728 0.095751471817493439 0.059693235903978348
0.082998238503932953 0.096354119479656219 0.056223880499601364
0.16275656223297119 0.096381649374961853 0.048069044947624207
0.27129143476486206 0.098955340683460236 0.041560377925634384
0.38947317004203796 0.10785553604364395 0.045798700302839279
0.51919019222259521 0.11825766414403915 0.05640760064125061
0.64629232883453369 0.1318376213312149 0.067386656999588013
0.74977958202362061 0.14371928572654724 0.078386850655078888
0.82462334632873535 0.15206684172153473 0.08688972145318985
0.87585127353668213 0.15972612798213959 0.088777042925357819
0.90359050035476685 0.16107885539531708 0.088119909167289734
0.91601359844207764 0.15664377808570862 0.088477745652198792
0.039438944309949875 0.13732297718524933 0.054439753293991089
0.04329618439078331 0.13770318031311035 0.053986240178346634
0.07167518138885498 0.14058434963226318 0.05130545049905777
0.14914442598819733 0.1402374655008316 0.044946961104869843
0.27152222394943237 0.13669493794441223 0.040918838232755661
0.39651411771774292 0.14382188022136688 0.04543202742934227
0.52702885866165161 0.15623806416988373 0.055860884487628937
0.65314716100692749 0.1717340350151062 0.066815577447414398
0.75647890567779541 0.18646989762783051 0.076189853250980377
0.83367133140563965 0.20018059015274048 0.081462576985359192
0.89100563526153564 0.21673956513404846 0.079487591981887817
0.9213288426399231 0.22086234390735626 0.078275613486766815
0.9303511381149292 0.21083839237689972 0.081109113991260529
0.03869488462805748 0.18359999358654022 0.050107467919588089
0.042464088648557663 0.18221226334571838 0.050686225295066833
0.06081124022603035 0.18844318389892578 0.049160975962877274
0.11864212900400162 0.20022183656692505 0.045348282903432846
0.25316324830055237 0.19250217080116272 0.043369650840759277
0.40478742122650146 0.18283003568649292 0.04761543869972229
0.54174637794494629 0.19618992507457733 0.057297006249427795
0.66609477996826172 0.2170732319355011 0.06670844554901123
0.76966017484664917 0.23921963572502136 0.071248866617679596
0.85173821449279785 0.26409021019935608 0.070229969918727875
0.91420269012451172 0.2905372679233551 0.064138315618038177
0.94755083322525024 0.29875391721725464 0.061585132032632828
0.95736789703369141 0.28859975934028625 0.064698867499828339
0.038947701454162598 0.23736463487148285 0.046698462218046188
0.040668368339538574 0.23637180030345917 0.048579435795545578
0.049446646124124527 0.24429088830947876 0.049065008759498596
0.090842336416244507 0.26209506392478943 0.045422185212373734
0.21564814448356628 0.26768898963928223 0.04328855499625206
0.39661097526550293 0.25208562612533569 0.047662504017353058
0.5579226016998291 0.24802353978157043 0.056158401072025299
0.68501514196395874 0.26676377654075623 0.064841583371162415
0.78445947170257568 0.29402437806129456 0.066469095647335052
0.86450088024139404 0.32303810119628906 0.061097268015146255
0.92478805780410767 0.35294777154922485 0.05471261590719223
0.9616544246673584 0.36749428510665894 0.052006322890520096
0.9779353141784668 0.36494961380958557 0.053335946053266525
0.039215687662363052 0.3011929988861084 0.045132163912057877
0.039080914109945297 0.30184313654899597 0.050304953008890152
0.04078267514705658 0.3077506422996521 0.051697239279747009
0.072400905191898346 0.32325565814971924 0.048479504883289337
0.18325404822826385 0.34849298000335693 0.046479616314172745
0.37587293982505798 0.36453726887702942 0.050469685345888138
0.56728684902191162 0.3322717547416687 0.052572064101696014
0.70342791080474854 0.3262728750705719 0.059100430458784103
0.7967301607131958 0.35005438327789307 0.060909390449523926
0.86917692422866821 0.37752807140350342 0.05434500053524971
0.92475974559783936 0.40951460599899292 0.050102412700653076
0.96382641792297363 0.42959791421890259 0.048111695796251297
0.98708951473236084 0.43529188632965088 0.050040885806083679
0.03897998109459877 0.37190589308738708 0.046796627342700958
0.037054531276226044 0.37261635065078735 0.053961645811796188
0.036962997168302536 0.37628471851348877 0.055567137897014618
0.06753191351890564 0.39102903008460999 0.051576081663370132
0.17039099335670471 0.42469900846481323 0.047321036458015442
0.3508208692073822 0.46441775560379028 0.049865197390317917
0.55120718479156494 0.46590313315391541 0.056425504386425018
0.70478862524032593 0.43031936883926392 0.055303104221820831
0.80277526378631592 0.41729125380516052 0.049648672342300415
0.86766582727432251 0.43919268250465393 0.047452859580516815
0.91888880729675293 0.47082227468490601 0.047942277044057846
0.95990133285522461 0.49312323331832886 0.049856837838888168
0.98754233121871948 0.50503838062286377 0.051490183919668198
0.037666499614715576 0.44394072890281677 0.050242792814970016
0.034188736230134964 0.44327154755592346 0.056976843625307083
0.035767186433076859 0.44601786136627197 0.057221714407205582
0.069030150771141052 0.46074044704437256 0.05229785293340683
0.16874648630619049 0.49358934164047241 0.046182967722415924
0.33772200345993042 0.5393562912940979 0.04621104896068573
0.52782136201858521 0.58464837074279785 0.059062644839286804
0.67839950323104858 0.58093702793121338 0.065595604479312897
0.78617936372756958 0.53651577234268188 0.053620565682649612
0.85772764682769775 0.52636569738388062 0.049971308559179306
0.91168516874313354 0.54096394777297974 0.053026821464300156
0.95310091972351074 0.56064999103546143 0.056095603853464127
0.98192393779754639 0.5761447548866272 0.057871125638484955
0.039202895015478134 0.51352506875991821 0.052956074476242065
0.035866126418113708 0.51134383678436279 0.058311402797698975
0.037907425314188004 0.51175576448440552 0.057678297162055969
0.070221170783042908 0.52396273612976074 0.053571648895740509
0.16673785448074341 0.55386728048324585 0.048338182270526886
0.33078739047050476 0.60021072626113892 0.04661313071846962
0.51419657468795776 0.65244531631469727 0.053843211382627487
0.65611696243286133 0.68739926815032959 0.067725010216236115
0.75835305452346802 0.67571580410003662 0.068445436656475067
0.83986395597457886 0.64367246627807617 0.06352495402097702
0.90241402387619019 0.62908828258514404 0.063924916088581085
0.94518762826919556 0.63506621122360229 0.066662564873695374
0.97357809543609619 0.64809226989746094 0.067931875586509705
0.04253736138343811 0.57987898588180542 0.05335896834731102
0.041312258690595627 0.57817500829696655 0.058935921639204025
0.043791588395833969 0.57580208778381348 0.05882326140999794
0.072671093046665192 0.58168548345565796 0.057123132050037384
0.1604495495557785 0.61012297868728638 0.054348934441804886
0.31568896770477295 0.65737783908843994 0.051325660198926926
0.49360942840576172 0.70807391405105591 0.053636319935321808
0.63968604803085327 0.75071793794631958 0.063101537525653839
0.7411009669303894 0.77231240272521973 0.071960419416427612
0.82015824317932129 0.76201713085174561 0.073913305997848511
0.88895410299301147 0.73220860958099365 0.075142502784729004
0.93790745735168457 0.71565341949462891 0.075866580009460449
0.9678310751914978 0.71923118829727173 0.075608812272548676
0.044938255101442337 0.65142691135406494 0.050101485103368759
0.047452874481678009 0.65259850025177002 0.057227294892072678
0.052427507936954498 0.64954978227615356 0.059421330690383911
0.078078083693981171 0.65194934606552124 0.059994373470544815
0.15495479106903076 0.67890101671218872 0.059059172868728638
0.30077525973320007 0.72336500883102417 0.05551287904381752
0.47485008835792542 0.76606810092926025 0.054073888808488846
0.62671947479248047 0.80163538455963135 0.057449027895927429
0.73354935646057129 0.8303183913230896 0.066434450447559357
0.80810874700546265 0.84372407197952271 0.076125442981719971
0.87335693836212158 0.82830566167831421 0.081509530544281006
0.92794191837310791 0.79987519979476929 0.07968420535326004
0.9646456241607666 0.78950542211532593 0.076985456049442291
0.045579243451356888 0.7281915545463562 0.043186604976654053
0.053227875381708145 0.73360997438430786 0.051808390766382217
0.064410701394081116 0.73473292589187622 0.056111756712198257
0.094418004155158997 0.7405286431312561 0.057873506098985672
0.16813482344150543 0.76459485292434692 0.057694274932146072
0.30154323577880859 0.79802608489990234 0.055006466805934906
0.46461689472198486 0.82968932390213013 0.052559316158294678
0.61411082744598389 0.85721802711486816 0.054131720215082169
0.72461473941802979 0.87774300575256348 0.061577275395393372
0.8000149130821228 0.89186131954193115 0.072483912110328674
0.86056852340698242 0.89461427927017212 0.079892642796039581
0.91475623846054077 0.87614089250564575 0.079057939350605011
0.95783555507659912 0.86078411340713501 0.074929662048816681
0.046069126576185226 0.05818544328212738 0.068345226347446442
0.053035706281661987 0.060218453407287598 0.070484861731529236
0.092132568359375 0.06323559582233429 0.071052953600883484
0.1693064272403717 0.066266588866710663 0.06300315260887146
0.27565398812294006 0.069570533931255341 0.05441901832818985
0.39688599109649658 0.073350049555301666 0.058103866875171661
0.52755379676818848 0.081697441637516022 0.065977178514003754
0.65306288003921509 0.095554068684577942 0.073402881622314453
0.75737011432647705 0.11105062812566757 0.083429567515850067
0.83218485116958618 0.12226872146129608 0.091580286622047424
0.87841677665710449 0.12555009126663208 0.094330579042434692
0.90370553731918335 0.12604351341724396 0.092359311878681183
0.91972970962524414 0.12704965472221375 0.089041434228420258
0.047157049179077148 0.063134960830211639 0.070719458162784576
0.052141737192869186 0.06437256932258606 0.070439130067825317
0.089234523475170135 0.066949732601642609 0.0692177414894104
0.1647106409072876 0.071266576647758484 0.062474779784679413
0.26896911859512329 0.076737314462661743 0.054063744843006134
0.39014843106269836 0.082808025181293488 0.056240245699882507
0.52252078056335449 0.091297179460525513 0.064174413681030273
0.64986413717269897 0.10442392528057098 0.072683714330196381
0.75391632318496704 0.11892182379961014 0.082576483488082886
0.82926267385482788 0.12871208786964417 0.090764977037906647
0.87626469135284424 0.13198627531528473 0.092537343502044678
0.90146493911743164 0.1326664537191391 0.091987878084182739
0.91477388143539429 0.13239516317844391 0.091485567390918732
0.04470285028219223 0.094816185534000397 0.067264765501022339
0.046755637973546982 0.095541633665561676 0.065247930586338043
0.08067716658115387 0.096946597099304199 0.063992790877819061
0.1589197963476181 0.097759276628494263 0.057163748890161514
0.26890391111373901 0.10053178668022156 0.047831874340772629
0.3906368613243103 0.10866889357566833 0.050028257071971893
0.52124983072280884 0.11851887404918671 0.060826245695352554
0.64731115102767944 0.13092878460884094 0.07226068526506424
0.75060886144638062 0.14347955584526062 0.082814984023571014
0.82737690210342407 0.15347251296043396 0.090221405029296875
0.87827599048614502 0.15981397032737732 0.091419041156768799
0.90477132797241211 0.1600135862827301 0.091295890510082245
0.91632628440856934 0.15625113248825073 0.093124464154243469
0.040062233805656433 0.13936340808868408 0.063018858432769775
0.042600162327289581 0.13755032420158386 0.060081362724304199
0.069287635385990143 0.14061301946640015 0.057560116052627563
0.14577549695968628 0.1407037228345871 0.051940213888883591
0.27033865451812744 0.13621577620506287 0.046308092772960663
0.40006265044212341 0.14236040413379669 0.048743512481451035
0.52827268838882446 0.15645664930343628 0.060022823512554169
0.65084636211395264 0.17255283892154694 0.072301276028156281
0.75504124164581299 0.18791089951992035 0.081539198756217957
0.83585375547409058 0.20425596833229065 0.085458584129810333
0.89385378360748291 0.21818006038665771 0.08292020857334137
0.92371177673339844 0.22034874558448792 0.081077158451080322
0.93261909484863281 0.21149474382400513 0.083908900618553162
0.038790129125118256 0.18599094450473785 0.059275981038808823
0.042102888226509094 0.18311628699302673 0.055259361863136292
0.060240533202886581 0.18806305527687073 0.052862700074911118
0.11856548488140106 0.19677959382534027 0.049393344670534134
0.25095462799072266 0.19041016697883606 0.046510763466358185
0.4060615599155426 0.18391406536102295 0.050617877393960953
0.54064399003982544 0.20012660324573517 0.06223633885383606
0.66264307498931885 0.22254693508148193 0.072804458439350128
0.76712191104888916 0.244169682264328 0.076750136911869049
0.85142123699188232 0.26853397488594055 0.07510673999786377
0.91482186317443848 0.29177173972129822 0.068754695355892181
0.94924694299697876 0.29910358786582947 0.064379476010799408
0.95879334211349487 0.28969272971153259 0.06650061160326004
0.037813551723957062 0.23768174648284912 0.052718456834554672
0.040955711156129837 0.23548449575901031 0.050855103880167007
0.051163047552108765 0.24236805737018585 0.051059603691101074
0.08862227201461792 0.25915712118148804 0.048428315669298172
0.21344341337680817 0.26695716381072998 0.046407751739025116
0.39822423458099365 0.25497424602508545 0.050762686878442764
0.55753952264785767 0.25124004483222961 0.060685593634843826
0.68239396810531616 0.27434837818145752 0.070961177349090576
0.7821810245513916 0.29866805672645569 0.071395650506019592
0.86301243305206299 0.32608726620674133 0.066742002964019775
0.92451983690261841 0.35482412576675415 0.060660194605588913
0.96291053295135498 0.36879473924636841 0.055818967521190643
0.9795382022857666 0.36574366688728333 0.056562222540378571
0.038466975092887878 0.29727727174758911 0.047094188630580902
0.040449358522891998 0.29674071073532104 0.051387369632720947
0.045911870896816254 0.3032585084438324 0.055115405470132828
0.074400119483470917 0.3223414421081543 0.05235474556684494
0.18562415242195129 0.35432106256484985 0.050053466111421585
0.3786408007144928 0.36525154113769531 0.051686994731426239
0.56951606273651123 0.33216854929924011 0.054936233907938004
0.70293319225311279 0.3272242546081543 0.062632150948047638
0.79587018489837646 0.3505522608757019 0.065416164696216583
0.86826896667480469 0.3787931501865387 0.060646161437034607
0.92477762699127197 0.41153612732887268 0.056601297110319138
0.96546018123626709 0.43074843287467957 0.054089564830064774
0.99002212285995483 0.43482476472854614 0.054773561656475067
0.039185736328363419 0.36756742000579834 0.049594849348068237
0.039217527955770493 0.36749458312988281 0.058591339737176895
0.041692007333040237 0.37200874090194702 0.062280915677547455
0.070198863744735718 0.39028584957122803 0.058077465742826462
0.17244225740432739 0.42981132864952087 0.053920701146125793
0.35517406463623047 0.47091534733772278 0.055434700101613998
0.55335336923599243 0.46684813499450684 0.059127628803253174
0.70501172542572021 0.42617803812026978 0.056891169399023056
0.80317783355712891 0.41594529151916504 0.053650472313165665
0.86869299411773682 0.43780237436294556 0.051959361881017685
0.92052304744720459 0.47257643938064575 0.053236015141010284
0.96218752861022949 0.49474361538887024 0.054727204144001007
0.99014711380004883 0.50468289852142334 0.056928224861621857
0.041487779468297958 0.44430243968963623 0.058324448764324188
0.039754442870616913 0.44200575351715088 0.066292136907577515
0.040921483188867569 0.44437912106513977 0.066983088850975037
0.070112265646457672 0.45980021357536316 0.061277829110622406
0.16799281537532806 0.49567112326622009 0.054782163351774216
0.33992215991020203 0.54359579086303711 0.053808517754077911
0.52960348129272461 0.58026903867721558 0.062399350106716156
0.67965304851531982 0.57530969381332397 0.067405357956886292
0.78691500425338745 0.53207874298095703 0.055517774075269699
0.85789817571640015 0.52336317300796509 0.052168227732181549
0.91214531660079956 0.54148167371749878 0.056186974048614502
0.9543340802192688 0.56169062852859497 0.060285113751888275
0.98324668407440186 0.5766451358795166 0.062797695398330688
0.046636827290058136 0.51641815900802612 0.064573906362056732
0.044783499091863632 0.5140424370765686 0.068014062941074371
0.045098546892404556 0.51230710744857788 0.06605694442987442
0.071282178163528442 0.52259403467178345 0.061693798750638962
0.16404867172241211 0.55364513397216797 0.056430578231811523
0.32921051979064941 0.60039925575256348 0.054182838648557663
0.51288300752639771 0.65182697772979736 0.061139814555644989
0.65771239995956421 0.68398123979568481 0.072024941444396973
0.75748652219772339 0.67335814237594604 0.070891708135604858
0.83710485696792603 0.64370077848434448 0.066617600619792938
0.90102797746658325 0.62996947765350342 0.067332640290260315
0.94520491361618042 0.63651579618453979 0.069841481745243073
0.97421133518218994 0.64905804395675659 0.071499362587928772
0.052415061742067337 0.58238828182220459 0.066860154271125793
0.052525747567415237 0.58214622735977173 0.069853179156780243
0.053352653980255127 0.57703536748886108 0.066705264151096344
0.077944688498973846 0.57889646291732788 0.063712805509567261
0.16193494200706482 0.60884362459182739 0.060814443975687027
0.31633263826370239 0.65727299451828003 0.058563277125358582
0.49541649222373962 0.70677608251571655 0.060422785580158234
0.64276087284088135 0.74783658981323242 0.067785032093524933
0.7404446005821228 0.77250009775161743 0.075262896716594696
0.81700819730758667 0.76325923204421997 0.077573679387569427
0.8854215145111084 0.73490750789642334 0.078252874314785004
0.93607401847839355 0.71818333864212036 0.078577272593975067
0.96875286102294922 0.7184375524520874 0.07825247198343277
0.055396299809217453 0.65496951341629028 0.064961992204189301
0.059441704303026199 0.65984082221984863 0.07072245329618454
0.063037186861038208 0.65367674827575684 0.069224834442138672
0.085812889039516449 0.64870327711105347 0.066206090152263641
0.15960194170475006 0.67943555116653442 0.064750611782073975
0.30446341633796692 0.7245182991027832 0.06195463240146637
0.47865435481071472 0.76482623815536499 0.059571225196123123
0.62853068113327026 0.79940700531005859 0.062026932835578918
0.7328985333442688 0.82998102903366089 0.070062436163425446
0.80625271797180176 0.84403085708618164 0.079327180981636047
0.87052106857299805 0.82844418287277222 0.084119237959384918
0.92643064260482788 0.79899710416793823 0.082871533930301666
0.96532177925109863 0.78633540868759155 0.080259434878826141
0.05401216447353363 0.7339133620262146 0.058227136731147766
0.06266428530216217 0.74340105056762695 0.066249608993530273
0.071757674217224121 0.7424737811088562 0.067932292819023132
0.097226329147815704 0.7426263689994812 0.066866435110569
0.16789610683917999 0.76744961738586426 0.065353840589523315
0.30274772644042969 0.80028790235519409 0.062221001833677292
0.46647799015045166 0.82855004072189331 0.058519896119832993
0.61353820562362671 0.85358625650405884 0.058749854564666748
0.7229887843132019 0.87529188394546509 0.065362550318241119
0.79889982938766479 0.89248383045196533 0.076204769313335419
0.85937345027923584 0.89379936456680298 0.084278851747512817
0.91412699222564697 0.87457358837127686 0.084753848612308502
0.95823770761489868 0.85812103748321533 0.081488452851772308
0.045497626066207886 0.06220613420009613 0.10686127841472626
0.051049850881099701 0.066122047603130341 0.10894926637411118
0.084295935928821564 0.06880931556224823 0.10779903829097748
0.15550930798053741 0.069434478878974915 0.10002109408378601
0.26061323285102844 0.070996291935443878 0.091227374970912933
0.38239133358001709 0.076361037790775299 0.092291660606861115
0.51757264137268066 0.085868701338768005 0.093820609152317047
0.64921802282333374 0.10024020820856094 0.095451727509498596
0.75250244140625 0.11609631776809692 0.1029495969414711
0.82676440477371216 0.127452552318573 0.11032257229089737
0.87330663204193115 0.1316407173871994 0.1134914755821228
0.89836663007736206 0.13168230652809143 0.11272562295198441
0.91594761610031128 0.13220004737377167 0.10970623791217804
0.045257057994604111 0.065793804824352264 0.10686997324228287
0.050069577991962433 0.068749397993087769 0.1080964207649231
0.082535974681377411 0.072004057466983795 0.10780558735132217
0.15307721495628357 0.07297777384519577 0.1018918976187706
0.25589823722839355 0.077168241143226624 0.092082872986793518
0.37682980298995972 0.084594950079917908 0.090844757854938507
0.51379239559173584 0.093022018671035767 0.09153544157743454
0.64508283138275146 0.10608389228582382 0.094030790030956268
0.7500070333480835 0.12213019281625748 0.10107047855854034
0.82622700929641724 0.13252465426921844 0.10750588774681091
0.87477010488510132 0.13562317192554474 0.10995983332395554
0.89855527877807617 0.13496345281600952 0.11054292321205139
0.9119647741317749 0.13464754819869995 0.11140299588441849
0.043212112039327621 0.092090204358100891 0.10258609801530838
0.047303382307291031 0.091728731989860535 0.10275482386350632
0.076761312782764435 0.09612572193145752 0.10342990607023239
0.1455506831407547 0.10022538155317307 0.097871027886867523
0.25268897414207458 0.10235969722270966 0.086184576153755188
0.37962034344673157 0.10980215668678284 0.080964215099811554
0.51466214656829834 0.11890411376953125 0.084607064723968506
0.64171749353408813 0.12982469797134399 0.092043869197368622
0.74657577276229858 0.14264228940010071 0.10006365180015564
0.82428759336471558 0.15305452048778534 0.10659439861774445
0.87606567144393921 0.15793220698833466 0.10865873098373413
0.90277355909347534 0.15720327198505402 0.10921970754861832
0.91327774524688721 0.15319940447807312 0.11230289191007614
0.039685714989900589 0.13592696189880371 0.097273357212543488
0.043215882033109665 0.13276807963848114 0.094178296625614166
0.067770548164844513 0.13682016730308533 0.093935541808605194
0.13191571831703186 0.14213746786117554 0.090569622814655304
0.25067675113677979 0.14041359722614288 0.079004772007465363
0.38943752646446228 0.14509297907352448 0.072605788707733154
0.5218011736869812 0.15833675861358643 0.079240031540393829
0.64466243982315063 0.17072273790836334 0.090579390525817871
0.74863129854202271 0.1838032603263855 0.098796457052230835
0.82983994483947754 0.19995974004268646 0.10284588485956192
0.88813287019729614 0.21166720986366272 0.10088836401700974
0.91971087455749512 0.21336925029754639 0.097657866775989532
0.92856961488723755 0.20498846471309662 0.1012611985206604
