assets/lut/ericellerbrock nemesis.cube
# Created by: G'MIC (https://gmic.eu)
TITLE "nemesis"
# LUT size
LUT_3D_SIZE 5
# Data domain
DOMAIN_MIN 0.0 0.0 0.0
DOMAIN_MAX 1.0 1.0 1.0
# LUT data points
0.0010873083956539631 0.026068190112709999 0.0469498410820961
0.17035301029682159 0.0022671569604426622 0.017450474202632904
0.40884590148925781 0.013384800404310226 0.0035610422492027283
0.61789226531982422 0.017796669155359268 0.01124934758991003
0.81710797548294067 0.027015849947929382 0.019942024722695351
0.0065781837329268456 0.26274228096008301 0.079481355845928192
0.19738300144672394 0.21842387318611145 0.022199444472789764
0.45072382688522339 0.21761196851730347 0.024116665124893188
0.66046363115310669 0.22885273396968842 0.048319440335035324
0.85493463277816772 0.25214383006095886 0.064685449004173279
0.033610668033361435 0.50079464912414551 0.11679470539093018
0.24305453896522522 0.46614685654640198 0.071748889982700348
0.48742219805717468 0.45984306931495667 0.065718404948711395
0.70006299018859863 0.47102576494216919 0.084306724369525909
0.89672821760177612 0.49310290813446045 0.099939607083797455
0.019561422988772392 0.74627786874771118 0.16375522315502167
0.27078202366828918 0.71076935529708862 0.12322574853897095
0.5238037109375 0.70405024290084839 0.11103466153144836
0.73973178863525391 0.71705001592636108 0.11946632713079453
0.94196540117263794 0.73512130975723267 0.13047248125076294
0.045516368001699448 0.98075437545776367 0.19709914922714233
0.31795036792755127 0.95064502954483032 0.15895608067512512
0.56675237417221069 0.94789469242095947 0.14765898883342743
0.78352260589599609 0.96215850114822388 0.15189254283905029
0.98399800062179565 0.97769665718078613 0.15736070275306702
0.00031329883495345712 0.033833581954240799 0.23928210139274597
0.1738334596157074 0.0045118890702724457 0.19498541951179504
0.42101952433586121 0.0087478635832667351 0.18514162302017212
0.62536859512329102 0.0097322799265384674 0.20070938766002655
0.82120221853256226 0.021794995293021202 0.21540163457393646
0.0028062260244041681 0.26846995949745178 0.26877376437187195
0.19610871374607086 0.22489477694034576 0.22669942677021027
0.4631955623626709 0.22282546758651733 0.22463923692703247
0.66914993524551392 0.23124426603317261 0.23992988467216492
0.85998225212097168 0.25290712714195251 0.26012352108955383
0.022518038749694824 0.50888937711715698 0.31046709418296814
0.23272816836833954 0.4751894474029541 0.25939202308654785
0.49284273386001587 0.46863868832588196 0.25489947199821472
0.71016609668731689 0.47646981477737427 0.27657398581504822
0.90188306570053101 0.49623826146125793 0.29877761006355286
0.00017538631800562143 0.75564491748809814 0.36195564270019531
0.25472089648246765 0.71200978755950928 0.3116031289100647
0.52662098407745361 0.7093970775604248 0.30162748694419861
0.74535262584686279 0.72261577844619751 0.31585007905960083
0.9446834921836853 0.73851853609085083 0.33398333191871643
0.013813572004437447 0.98383212089538574 0.39799821376800537
0.31428125500679016 0.94608640670776367 0.34989163279533386
0.57177096605300903 0.94955110549926758 0.34422731399536133
0.78688615560531616 0.96639776229858398 0.35454666614532471
0.98428118228912354 0.97959160804748535 0.36529541015625
0 0.028341973200440407 0.43210893869400024
0.15536756813526154 0.0034657944925129414 0.39404135942459106
0.42294785380363464 0.0076736300252377987 0.39497020840644836
0.63240951299667358 0.013908057473599911 0.4029373824596405
0.82818090915679932 0.023844162002205849 0.41500815749168396
8.903952402761206e-05 0.27170628309249878 0.47392004728317261
0.20073939859867096 0.22753272950649261 0.43951058387756348
0.47050163149833679 0.2262292355298996 0.43972089886665344
0.67800223827362061 0.23934642970561981 0.44286042451858521
0.86984390020370483 0.25622314214706421 0.45932847261428833
4.846909359912388e-05 0.51979357004165649 0.51809960603713989
0.23175519704818726 0.47505012154579163 0.47506421804428101
0.49426573514938354 0.47306004166603088 0.4729926586151123
0.72100710868835449 0.48245489597320557 0.48097538948059082
0.91118508577346802 0.50006449222564697 0.5003703236579895
0 0.75468486547470093 0.55502325296401978
0.26277387142181396 0.71172988414764404 0.509002685546875
0.52796292304992676 0.71933162212371826 0.4983905553817749
0.75318527221679688 0.72692954540252686 0.51459133625030518
0.95074009895324707 0.74249374866485596 0.53639006614685059
0.0018134622368961573 0.99127316474914551 0.60900372266769409
0.30116912722587585 0.95752429962158203 0.55734634399414062
0.57545948028564453 0.95758885145187378 0.54966461658477783
0.78957200050354004 0.96987146139144897 0.55771881341934204
0.98489320278167725 0.98089498281478882 0.57297110557556152
0 0.030363135039806366 0.63214647769927979
0.14633205533027649 0.006635613739490509 0.59846478700637817
0.41977265477180481 0.020665666088461876 0.60153853893280029
0.63593006134033203 0.023999352008104324 0.61075598001480103
0.83384925127029419 0.027906918898224831 0.62104576826095581
0 0.27686989307403564 0.67947334051132202
0.18634863197803497 0.22951136529445648 0.64667236804962158
0.47184291481971741 0.23192015290260315 0.65342313051223755
0.68334740400314331 0.24390442669391632 0.65911293029785156
0.87721192836761475 0.25882944464683533 0.66823983192443848
0 0.5246087908744812 0.7266126275062561
0.22586892545223236 0.4761275053024292 0.68976002931594849
0.50329196453094482 0.47267434000968933 0.70072323083877563
0.72807741165161133 0.48725339770317078 0.70509535074234009
0.92075902223587036 0.50395983457565308 0.71169668436050415
0.0023322610650211573 0.76874762773513794 0.76988416910171509
0.27885982394218445 0.72161602973937988 0.7258296012878418
0.53197848796844482 0.72213751077651978 0.72571831941604614
0.76022177934646606 0.73136937618255615 0.73796039819717407
0.96008896827697754 0.74954080581665039 0.74781227111816406
0.020165072754025459 0.98918938636779785 0.81043779850006104
0.32581397891044617 0.959247887134552 0.76087892055511475
0.57549339532852173 0.96377146244049072 0.76131224632263184
0.78423416614532471 0.9736713171005249 0.76566624641418457
0.98566365242004395 0.9834132194519043 0.7791142463684082
0 0.039002452045679092 0.84409159421920776
0.16622795164585114 0.021361317485570908 0.81686919927597046
0.42782142758369446 0.027714777737855911 0.81602776050567627
0.63642740249633789 0.023419817909598351 0.82523566484451294
0.83742606639862061 0.028160903602838516 0.83332979679107666
0 0.28316649794578552 0.89260417222976685
0.20165178179740906 0.2470938116312027 0.8649590015411377
0.47242191433906555 0.24043439328670502 0.86733335256576538
0.68117290735244751 0.24246314167976379 0.87658596038818359
0.88068187236785889 0.25739505887031555 0.88361656665802002
0 0.52542281150817871 0.93632477521896362
0.23544146120548248 0.48108544945716858 0.90672522783279419
0.50456613302230835 0.47749355435371399 0.91482758522033691
0.72363090515136719 0.48747429251670837 0.92567336559295654
0.92405980825424194 0.50222790241241455 0.93213629722595215
0.0098126428201794624 0.75929731130599976 0.97790443897247314
0.28502213954925537 0.72335100173950195 0.94740593433380127
0.53812998533248901 0.72386318445205688 0.95618516206741333
0.75936514139175415 0.73161464929580688 0.97456151247024536
0.96605932712554932 0.74643456935882568 0.97903120517730713
0.049465734511613846 0.9855647087097168 0.99897480010986328
0.32744845747947693 0.96778428554534912 0.98371630907058716
0.57046365737915039 0.96981745958328247 0.98366069793701172
0.78396326303482056 0.97865039110183716 0.9904634952545166
0.98786956071853638 0.98637551069259644 0.99062854051589966
