assets/lut/ericellerbrock helios.cube
# Created by: G'MIC (https://gmic.eu)
TITLE "helios"
# LUT size
LUT_3D_SIZE 7
# Data domain
DOMAIN_MIN 0.0 0.0 0.0
DOMAIN_MAX 1.0 1.0 1.0
# LUT data points
0.025701425969600677 0.0309740100055933 0.029094202443957329
0.055133264511823654 0.043522659689188004 0.048392247408628464
0.15031220018863678 0.040466710925102234 0.044152189046144485
0.37177962064743042 0.014066389761865139 0.014687152579426765
0.61904454231262207 0.0015496945707127452 0
0.84531855583190918 4.3083641685370822e-06 6.0317095631035045e-05
0.98969751596450806 0.015645405277609825 0.0041158339008688927
0.04148571565747261 0.10708751529455185 0.070644810795783997
0.10273554176092148 0.12375082820653915 0.069843128323554993
0.32931622862815857 0.11507825553417206 0.029400095343589783
0.66462409496307373 0.097072973847389221 0.0015043969033285975
0.92505365610122681 0.097228690981864929 7.180606644396903e-06
1 0.1205333024263382 0.011352643370628357
1 0.16830356419086456 0.035236358642578125
0.0016578225186094642 0.31948733329772949 0.0080377915874123573
0.08730354905128479 0.36572787165641785 0.0043765949085354805
0.40689751505851746 0.36312562227249146 1.8190870832768269e-05
0.74531441926956177 0.3510737419128418 0
0.97386008501052856 0.37022185325622559 2.154182038793806e-05
0.99994295835494995 0.40928357839584351 0.0018506367923691869
0.99607765674591064 0.4388355016708374 0.028625743463635445
0.0043466603383421898 0.6252741813659668 0
0.1159399151802063 0.65750491619110107 0
0.40430191159248352 0.65667450428009033 5.484188295667991e-05
0.71496647596359253 0.65976369380950928 0.00071313895750790834
0.96672368049621582 0.67472720146179199 0.0018734352197498083
1 0.6964074969291687 0
0.99890196323394775 0.72041147947311401 0.0026938645169138908
0.002909043338149786 0.90124964714050293 0
0.096146330237388611 0.94617360830307007 0
0.36471438407897949 0.94117802381515503 0.0006656871410086751
0.6944350004196167 0.91702967882156372 0.0064069712534546852
0.92986267805099487 0.8976367712020874 0.0084423590451478958
0.99968242645263672 0.90097349882125854 0.0084968563169240952
0.99675554037094116 0.91628062725067139 0.00048151949886232615
0.014595046639442444 1 2.3336971935350448e-05
0.12315528839826584 1 0
0.38382205367088318 1 0
0.70679807662963867 1 0
0.92753499746322632 0.99410718679428101 0.0011205635964870453
0.99930959939956665 0.99379950761795044 0.0065034306608140469
0.99992996454238892 0.99905741214752197 2.3336971935350448e-05
0.054515734314918518 1 0
0.19034317135810852 1 0
0.42727461457252502 1 0
0.70287626981735229 1 0
0.91165363788604736 1 0
0.999298095703125 1 0.00014216105046216398
1 1 0
0.030471114441752434 0.037734132260084152 0.052547544240951538
0.06152680516242981 0.048766132444143295 0.076466470956802368
0.17208442091941833 0.038172643631696701 0.084414616227149963
0.41093593835830688 0.0044981264509260654 0.070970930159091949
0.67756921052932739 0 0.059960473328828812
0.89665251970291138 0.00018328498117625713 0.050357639789581299
0.99827378988265991 0.013393387198448181 0.05933806300163269
0.040731977671384811 0.10982142388820648 0.12198447436094284
0.10899586230516434 0.13077723979949951 0.14110879600048065
0.35575571656227112 0.11590715497732162 0.12121501564979553
0.70515483617782593 0.08961709588766098 0.077493049204349518
0.94009721279144287 0.099625609815120697 0.082028992474079132
1 0.13699527084827423 0.1205732449889183
1 0.16806645691394806 0.15361203253269196
1.6515396055183373e-05 0.33706486225128174 0.082918994128704071
0.10130078345537186 0.37421050667762756 0.082646600902080536
0.42612689733505249 0.37181246280670166 0.079027257859706879
0.75506627559661865 0.36261612176895142 0.065487220883369446
0.98147451877593994 0.37918645143508911 0.082309961318969727
0.99555760622024536 0.4185333251953125 0.10048145800828934
0.99676167964935303 0.44810521602630615 0.13629557192325592
0.015026960521936417 0.63716518878936768 0.035224255174398422
0.12962858378887177 0.66719645261764526 0.051857534795999527
0.41433423757553101 0.6701127290725708 0.055682837963104248
0.72405529022216797 0.67232656478881836 0.020365187898278236
0.96354508399963379 0.68212807178497314 0.019169272854924202
0.99904972314834595 0.70448583364486694 0.02000834234058857
0.99218147993087769 0.72061347961425781 0.072162196040153503
0.0088320411741733551 0.90740740299224854 0.051721490919589996
0.080446518957614899 0.95833224058151245 0.045965336263179779
0.3618495762348175 0.95278441905975342 0.037860974669456482
0.70149427652359009 0.91948145627975464 0.0070828455500304699
0.9327462911605835 0.90194892883300781 0.00030278225312940776
1 0.90181022882461548 0.00057082832790911198
0.99552339315414429 0.90531224012374878 0.01225624792277813
0.00037460325984284282 1 0.083046659827232361
0.085968717932701111 1 0.071567729115486145
0.36608296632766724 1 0.046478703618049622
0.70695662498474121 1 0.0086204679682850838
0.92811673879623413 0.99865007400512695 0.0032128726597875357
0.99948835372924805 0.99672198295593262 0.0046472586691379547
0.99987167119979858 0.99301719665527344 0.00023920396051835269
0.023530697450041771 1 0.097413532435894012
0.15025308728218079 1 0.097762718796730042
0.40394121408462524 1 0.066126927733421326
0.70253503322601318 1 0.016540601849555969
0.91403830051422119 1 0.007794099859893322
0.99750977754592896 1 0.0092526758089661598
1 1 0.00024503818713128567
0.033005315810441971 0.038562983274459839 0.10923556238412857
0.061924070119857788 0.045516099780797958 0.15422771871089935
0.19210168719291687 0.030456183478236198 0.20317015051841736
0.45376822352409363 0.0013996198540553451 0.24525576829910278
0.7197149395942688 0.00056481454521417618 0.27618378400802612
0.92219370603561401 0.0018687827978283167 0.29682084918022156
0.99772810935974121 0.015632748603820801 0.32638347148895264
0.031078517436981201 0.1108071580529213 0.26817625761032104
0.1101975217461586 0.12382139265537262 0.34536862373352051
0.37738999724388123 0.10578919947147369 0.37092626094818115
0.71152007579803467 0.088204868137836456 0.34767016768455505
0.94523072242736816 0.10121485590934753 0.3564336895942688
1 0.13167929649353027 0.39476087689399719
1 0.16984079778194427 0.45176860690116882
0.0026838264893740416 0.33410543203353882 0.34998580813407898
0.12122365832328796 0.37202179431915283 0.36683234572410583
0.4264119565486908 0.37315854430198669 0.36202523112297058
0.76085257530212402 0.35798537731170654 0.34943887591362
0.9813683032989502 0.37061899900436401 0.37271878123283386
0.99789845943450928 0.40745419263839722 0.41834491491317749
0.99495691061019897 0.444722980260849 0.4568447470664978
0.017295388504862785 0.63092392683029175 0.29883602261543274
0.12817288935184479 0.67188060283660889 0.32834747433662415
0.40842297673225403 0.67652451992034912 0.31820720434188843
0.72302460670471191 0.67072016000747681 0.29227921366691589
0.96131879091262817 0.6710968017578125 0.29662683606147766
1 0.69711887836456299 0.31462457776069641
0.99804610013961792 0.71356296539306641 0.35510057210922241
0.0065349056385457516 0.92463034391403198 0.32862848043441772
0.068281702697277069 0.95825850963592529 0.3367316722869873
0.35095867514610291 0.94962233304977417 0.30185404419898987
0.68997758626937866 0.91011375188827515 0.24250711500644684
0.91950887441635132 0.88990849256515503 0.22005923092365265
0.99994075298309326 0.88747620582580566 0.22846011817455292
0.99918317794799805 0.88901090621948242 0.24091951549053192
0 1 0.3733208179473877
0.062576964497566223 0.99999064207077026 0.3700462281703949
0.34840023517608643 1 0.31340572237968445
0.68849843740463257 0.99903744459152222 0.23722591996192932
0.9068107008934021 0.99225801229476929 0.20943020284175873
0.99655437469482422 0.98745697736740112 0.21385715901851654
0.99944674968719482 0.98466640710830688 0.2038414478302002
0.0042954836972057819 0.99357807636260986 0.38066992163658142
0.10710179805755615 0.99420255422592163 0.38024169206619263
0.37058565020561218 1 0.32046389579772949
0.68407773971557617 0.99996024370193481 0.23508845269680023
0.89659231901168823 0.99962997436523438 0.20568351447582245
0.99104619026184082 1 0.21039088070392609
1 1 0.18124498426914215
0.031266335397958755 0.037524592131376266 0.1635080873966217
0.061226461082696915 0.042361583560705185 0.23854872584342957
0.21307253837585449 0.022026091814041138 0.36453697085380554
0.49481126666069031 2.0464729459490627e-05 0.47682484984397888
0.76639926433563232 0 0.55127745866775513
0.94022673368453979 0.0018267761915922165 0.59055453538894653
0.99799519777297974 0.017318053171038628 0.63149994611740112
0.02424246072769165 0.11045925319194794 0.45462948083877563
0.11615309119224548 0.12228766083717346 0.57609909772872925
0.38479223847389221 0.10382048785686493 0.65303754806518555
0.72723829746246338 0.080042324960231781 0.66337519884109497
0.95225340127944946 0.10479214042425156 0.67269068956375122
0.9998633861541748 0.13016296923160553 0.73896443843841553
0.9996228814125061 0.1639852374792099 0.81607270240783691
0.00052759505342692137 0.33670458197593689 0.64279186725616455
0.1236070990562439 0.36898815631866455 0.68564707040786743
0.42938265204429626 0.36454501748085022 0.68706566095352173
0.7592155933380127 0.35476097464561462 0.69409698247909546
0.9771733283996582 0.37181311845779419 0.73361343145370483
0.99980872869491577 0.39417898654937744 0.80522185564041138
0.9981154203414917 0.42925041913986206 0.84300214052200317
0.0032892564777284861 0.63269627094268799 0.62553912401199341
0.10233097523450851 0.67119139432907104 0.66353529691696167
0.37182936072349548 0.67587864398956299 0.67710119485855103
0.70680898427963257 0.65920549631118774 0.68358057737350464
0.95132672786712646 0.65701973438262939 0.68540245294570923
1 0.68128472566604614 0.70223784446716309
0.99925845861434937 0.69971650838851929 0.72319644689559937
0 0.93381601572036743 0.6893310546875
0.03760986402630806 0.9556354284286499 0.71286606788635254
0.31019821763038635 0.93375587463378906 0.68662667274475098
0.66171550750732422 0.89168030023574829 0.62896955013275146
0.89607518911361694 0.86636382341384888 0.61136984825134277
0.9971807599067688 0.86404949426651001 0.6192014217376709
0.99970579147338867 0.86640298366546631 0.61973708868026733
0 1 0.75351524353027344
0.048423063009977341 1 0.74779939651489258
0.32995763421058655 0.99967861175537109 0.6903388500213623
0.66651350259780884 0.98724913597106934 0.62192755937576294
0.87862497568130493 0.97340458631515503 0.58750057220458984
0.98283952474594116 0.96802294254302979 0.58475500345230103
0.99995797872543335 0.96463936567306519 0.57839226722717285
0 0.99640142917633057 0.75825124979019165
0.052357617765665054 0.99374890327453613 0.73782753944396973
0.33140680193901062 0.99788689613342285 0.66899269819259644
0.65402454137802124 1 0.5998542308807373
0.86360281705856323 1 0.56654620170593262
0.97579395771026611 0.99987971782684326 0.56598412990570068
1 0.9997362494468689 0.55516272783279419
0.026605313643813133 0.038843043148517609 0.20455752313137054
0.064281851053237915 0.039017800241708755 0.32797008752822876
0.24502179026603699 0.011991927400231361 0.51222318410873413
0.53910893201828003 0 0.66545957326889038
0.80156868696212769 7.3421702836640179e-05 0.75642514228820801
0.9559893012046814 0.0063869403675198555 0.8064308762550354
0.9999813437461853 0.023368386551737785 0.84413528442382812
0.021743429824709892 0.10730177909135818 0.59086203575134277
0.12471319735050201 0.12233279645442963 0.74892967939376831
0.39771723747253418 0.10293245315551758 0.85064917802810669
0.73860585689544678 0.085535205900669098 0.88106262683868408
0.96117758750915527 0.10568159818649292 0.91988295316696167
0.99998593330383301 0.13489426672458649 0.95692944526672363
1 0.16721482574939728 0.99062603712081909
0.0035859800409525633 0.33649516105651855 0.84492313861846924
0.142460897564888 0.37490963935852051 0.89741313457489014
0.43029707670211792 0.37352728843688965 0.91371291875839233
0.75986969470977783 0.36641690135002136 0.91635417938232422
0.99530863761901855 0.36186683177947998 0.99438530206680298
1 0.39072361588478088 0.99983280897140503
1 0.42361277341842651 1
0.0090848887339234352 0.63581234216690063 0.83255678415298462
0.11451523751020432 0.67482739686965942 0.88125729560852051
0.35044580698013306 0.68078869581222534 0.93863880634307861
0.70635932683944702 0.65686231851577759 0.94876313209533691
0.95586568117141724 0.65523457527160645 0.94198441505432129
1 0.67608284950256348 0.94717937707901001
0.99994975328445435 0.69423961639404297 0.94991457462310791
1.6335879990947433e-05 0.91796314716339111 0.92563909292221069
0.038670916110277176 0.95444422960281372 0.97063273191452026
0.30017101764678955 0.92939859628677368 0.93967646360397339
0.65595877170562744 0.87930858135223389 0.88801246881484985
0.88453155755996704 0.85499745607376099 0.86644750833511353
0.98992079496383667 0.85131561756134033 0.86848604679107666
0.99970561265945435 0.85293114185333252 0.8670116662979126
0 1 0.98610395193099976
0.051574151962995529 1 0.98470485210418701
0.32167759537696838 0.99956053495407104 0.93985539674758911
0.64988690614700317 0.98291373252868652 0.87989521026611328
0.86358749866485596 0.96176785230636597 0.84047669172286987
0.97095572948455811 0.95172345638275146 0.82915604114532471
0.99956655502319336 0.94320124387741089 0.82476305961608887
0 1 0.98919248580932617
0.041024673730134964 0.99931377172470093 0.98184120655059814
0.31128853559494019 0.99972164630889893 0.92387747764587402
0.62973994016647339 1 0.85935825109481812
0.84164565801620483 1 0.82313108444213867
0.95334964990615845 0.99999392032623291 0.81363958120346069
0.99972838163375854 0.99601888656616211 0.80846208333969116
0.02936636283993721 0.040332868695259094 0.25453045964241028
0.070855081081390381 0.040440339595079422 0.39980858564376831
0.26655378937721252 0.0085676303133368492 0.62099957466125488
0.57286304235458374 0 0.79051691293716431
0.82089149951934814 0.0062995762564241886 0.87466776371002197
0.97530615329742432 0.015116478316485882 0.93132543563842773
1 0.029734428972005844 0.95176619291305542
0.019732426851987839 0.11408661305904388 0.71018731594085693
0.13542741537094116 0.1280423104763031 0.86116355657577515
0.41226372122764587 0.11212210357189178 0.95782363414764404
0.74847906827926636 0.10250581055879593 0.98846232891082764
0.95949923992156982 0.11619002372026443 0.99829459190368652
1 0.14324663579463959 0.99938231706619263
1 0.17753657698631287 0.99999642372131348
0.0067311902530491352 0.35030442476272583 0.9625011682510376
0.16335129737854004 0.38743710517883301 0.99320495128631592
0.45153301954269409 0.3860393762588501 0.99709296226501465
0.78265643119812012 0.37690261006355286 0.99964010715484619
0.99291682243347168 0.3758842945098877 1
1 0.40376406908035278 1
0.99841731786727905 0.4299677312374115 1
0.0053870407864451408 0.64705216884613037 0.95277029275894165
0.10395340621471405 0.69225466251373291 0.99247413873672485
0.373736172914505 0.68848007917404175 1
0.71863436698913574 0.66776615381240845 1
0.94931989908218384 0.66472697257995605 0.9995957612991333
1 0.68084210157394409 0.99996769428253174
1 0.68748146295547485 0.99987876415252686
0 0.94160473346710205 0.99995332956314087
0.045557659119367599 0.96181774139404297 1
0.32108765840530396 0.92431318759918213 0.99925589561462402
0.66572576761245728 0.87672233581542969 0.99797886610031128
0.88466256856918335 0.85350507497787476 0.97968006134033203
0.99221175909042358 0.84910982847213745 0.9889824390411377
1 0.84663683176040649 0.97762691974639893
0.00017685235070530325 1 1
0.072461672127246857 1 1
0.33110997080802917 1 1
0.64993977546691895 0.98396164178848267 0.99079734086990356
0.85768294334411621 0.95668476819992065 0.96847379207611084
0.96876579523086548 0.94626176357269287 0.95844966173171997
1 0.94156843423843384 0.95007002353668213
0.006456322968006134 1 1
0.095862552523612976 1 1
0.33672770857810974 1 0.99998444318771362
0.63019424676895142 1 0.97821283340454102
0.83657479286193848 1 0.9465259313583374
0.95314496755599976 0.99999171495437622 0.9359135627746582
1 0.99808740615844727 0.92702478170394897
0.033129014074802399 0.043889842927455902 0.3100452721118927
0.086670786142349243 0.038263943046331406 0.4855230450630188
0.28029978275299072 0.0098062101751565933 0.71786218881607056
0.59853386878967285 0.00032671759254299104 0.88413733243942261
0.85923188924789429 0.0021808100864291191 0.97183775901794434
0.98590314388275146 0.015495150350034237 0.99838030338287354
1 0.035668615251779556 0.99536216259002686
0.027478789910674095 0.13271574676036835 0.80703526735305786
0.15483421087265015 0.13698402047157288 0.95839625597000122
0.43366765975952148 0.12010125815868378 0.9997018575668335
0.75139391422271729 0.11674641817808151 1
0.9552808403968811 0.11989013105630875 1
0.99989110231399536 0.14221212267875671 1
1 0.18339921534061432 1
0.022176600992679596 0.36679950356483459 0.99933141469955444
0.17995636165142059 0.40474036335945129 0.99978011846542358
0.45145818591117859 0.40274405479431152 1
0.78668344020843506 0.38834530115127563 1
0.99379223585128784 0.38252836465835571 1
1 0.41210255026817322 0.99596291780471802
0.99707216024398804 0.43054661154747009 1
0.0067832348868250847 0.66371703147888184 1
0.11071536689996719 0.71280229091644287 0.99997663497924805
0.37121081352233887 0.70276349782943726 0.99667203426361084
0.72654807567596436 0.67424178123474121 0.99785828590393066
0.9617999792098999 0.66512221097946167 0.9962165355682373
1 0.67968392372131348 0.99979656934738159
1 0.67364126443862915 1
0 0.95149725675582886 0.998432457447052
0.046279322355985641 0.97085529565811157 0.99992340803146362
0.32828375697135925 0.92834150791168213 0.99506330490112305
0.66162610054016113 0.87672603130340576 0.99708598852157593
0.88562369346618652 0.84882479906082153 0.99807339906692505
0.98823320865631104 0.8423963189125061 1
1 0.83228707313537598 1
0.01340115163475275 1 1
0.10436501353979111 1 1
0.35013386607170105 1 1
0.65174055099487305 0.98425167798995972 0.99983853101730347
0.85879385471343994 0.95208114385604858 0.99993389844894409
0.96618533134460449 0.94313746690750122 1
1 0.93405002355575562 0.99989962577819824
0.04128742590546608 1 1
0.15439048409461975 1 1
0.37635058164596558 1 1
0.64367711544036865 1 1
0.84113317728042603 0.99942648410797119 0.99729752540588379
0.94510543346405029 0.99910664558410645 0.99973577260971069
0.99780863523483276 0.9966704249382019 0.99666452407836914
