assets/lut/ericellerbrock helios.cube
# Created by: G'MIC (https://gmic.eu)
TITLE "helios"
# LUT size
LUT_3D_SIZE 13
# Data domain
DOMAIN_MIN 0.0 0.0 0.0
DOMAIN_MAX 1.0 1.0 1.0
# LUT data points
0.025701425969600677 0.0309740100055933 0.029094202443957329
0.037231940776109695 0.038417275995016098 0.040673170238733292
0.055133264511823654 0.043522659689188004 0.048392247408628464
0.089407838881015778 0.045513495802879333 0.050459019839763641
0.15031220018863678 0.040466710925102234 0.044152189046144485
0.24670848250389099 0.028254743665456772 0.031296119093894958
0.37177962064743042 0.014066389761865139 0.014687152579426765
0.50103920698165894 0.0046829520724713802 0.0023282668553292751
0.61904454231262207 0.0015496945707127452 0
0.73112654685974121 0.00016919303743634373 0
0.84531855583190918 4.3083641685370822e-06 6.0317095631035045e-05
0.93505501747131348 0.0028977338224649429 0.00076545268530026078
0.98969751596450806 0.015645405277609825 0.0041158339008688927
0.043944817036390305 0.064185559749603271 0.058876276016235352
0.056855205446481705 0.070771582424640656 0.063568949699401855
0.081906877458095551 0.074269235134124756 0.065873332321643829
0.13613761961460114 0.072935380041599274 0.061077896505594254
0.23811386525630951 0.064623035490512848 0.044865239411592484
0.37651708722114563 0.051396045833826065 0.02650236152112484
0.52954250574111938 0.037987098097801208 0.008191186934709549
0.67580574750900269 0.028938891366124153 0.00011628094944171607
0.80320161581039429 0.024356348440051079 0
0.90946882963180542 0.021465586498379707 0.00029655903927050531
0.98208004236221313 0.022144272923469543 0.0032674004323780537
0.99933189153671265 0.04270649328827858 0.0094284955412149429
1 0.071853905916213989 0.01975301094353199
0.04148571565747261 0.10708751529455185 0.070644810795783997
0.060690756887197495 0.11846832931041718 0.072820372879505157
0.10273554176092148 0.12375082820653915 0.069843128323554993
0.18967612087726593 0.12169176340103149 0.052247948944568634
0.32931622862815857 0.11507825553417206 0.029400095343589783
0.49901583790779114 0.10527786612510681 0.013469980098307133
0.66462409496307373 0.097072973847389221 0.0015043969033285975
0.80813205242156982 0.094602234661579132 0
0.92505365610122681 0.097228690981864929 7.180606644396903e-06
0.99242961406707764 0.10527195781469345 0.0030004763975739479
1 0.1205333024263382 0.011352643370628357
1 0.14302012324333191 0.021245634183287621
1 0.16830356419086456 0.035236358642578125
0.019705872982740402 0.18796516954898834 0.046648390591144562
0.040635757148265839 0.2098323255777359 0.047256916761398315
0.098711051046848297 0.22461685538291931 0.040038105100393295
0.21892911195755005 0.22578611969947815 0.023107551038265228
0.38922727108001709 0.21887780725955963 0.0081486869603395462
0.57428425550460815 0.2087220698595047 0.0023439296055585146
0.73838412761688232 0.20402857661247253 2.7735093681258149e-05
0.8691222071647644 0.20931962132453918 0
0.96750563383102417 0.22047217190265656 0.00012763528502546251
0.99996143579483032 0.23814944922924042 0.0035991445183753967
0.99997270107269287 0.26100122928619385 0.01123358029872179
0.99861299991607666 0.28020766377449036 0.023075463250279427
0.9995427131652832 0.29630345106124878 0.039939027279615402
0.0016578225186094642 0.31948733329772949 0.0080377915874123573
0.019105440005660057 0.34610450267791748 0.0073463139124214649
0.08730354905128479 0.36572787165641785 0.0043765949085354805
0.2270067036151886 0.36893105506896973 0.0010133780306205153
0.40689751505851746 0.36312562227249146 1.8190870832768269e-05
0.58358877897262573 0.35558274388313293 0
0.74531441926956177 0.3510737419128418 0
0.87786626815795898 0.35680034756660461 0
0.97386008501052856 0.37022185325622559 2.154182038793806e-05
1 0.38871321082115173 0.00044076956692151725
0.99994295835494995 0.40928357839584351 0.0018506367923691869
0.99548047780990601 0.42572662234306335 0.010744057595729828
0.99607765674591064 0.4388355016708374 0.028625743463635445
0.0011106603778898716 0.47775766253471375 5.3675033996114507e-05
0.022992152720689774 0.49799144268035889 0
0.099668420851230621 0.51221948862075806 0
0.23866017162799835 0.51434576511383057 0
0.40749824047088623 0.51044672727584839 0
0.57453769445419312 0.50643610954284668 0
0.73362439870834351 0.50489681959152222 0
0.87311536073684692 0.51245242357254028 0.00015596876619383693
0.97625315189361572 0.52535885572433472 6.6510365286376327e-05
1 0.54073357582092285 0
1 0.5563463568687439 0
0.9996788501739502 0.57090884447097778 0.00073921354487538338
0.99791216850280762 0.58362138271331787 0.011997327208518982
0.0043466603383421898 0.6252741813659668 0
0.036408953368663788 0.64478921890258789 0
0.1159399151802063 0.65750491619110107 0
0.24821311235427856 0.65843325853347778 0
0.40430191159248352 0.65667450428009033 5.484188295667991e-05
0.55763554573059082 0.65943467617034912 0.00022384045587386936
0.71496647596359253 0.65976369380950928 0.00071313895750790834
0.85839557647705078 0.66506904363632202 0.0025524215307086706
0.96672368049621582 0.67472720146179199 0.0018734352197498083
0.99991762638092041 0.68519121408462524 1.0501637007109821e-05
1 0.6964074969291687 0
1 0.70982587337493896 0
0.99890196323394775 0.72041147947311401 0.0026938645169138908
0.0040128519758582115 0.76421266794204712 0
0.038207199424505234 0.78921186923980713 0
0.11264018714427948 0.80615556240081787 0
0.23640459775924683 0.80849462747573853 0.00015538533625658602
0.38439938426017761 0.80818086862564087 0.0012843112926930189
0.5286482572555542 0.81631916761398315 0.0017918904777616262
0.69142395257949829 0.80841642618179321 0.0037607529666274786
0.83753448724746704 0.80155909061431885 0.007887193001806736
0.94254904985427856 0.80289965867996216 0.0074012456461787224
0.99478697776794434 0.80697566270828247 0.0018706527771428227
1 0.81401866674423218 0.00092822802253067493
0.99997693300247192 0.82595223188400269 0.00043056713184341788
0.99807000160217285 0.83488166332244873 0.00017327701789326966
0.002909043338149786 0.90124964714050293 0
0.031687013804912567 0.92780721187591553 0
0.096146330237388611 0.94617360830307007 0
0.21323214471340179 0.94782465696334839 8.9847337221726775e-05
0.36471438407897949 0.94117802381515503 0.0006656871410086751
0.52654922008514404 0.93354916572570801 0.0023696750868111849
0.6944350004196167 0.91702967882156372 0.0064069712534546852
0.83431017398834229 0.90279471874237061 0.0087087592110037804
0.92986267805099487 0.8976367712020874 0.0084423590451478958
0.98391449451446533 0.89721822738647461 0.007223974447697401
0.99968242645263672 0.90097349882125854 0.0084968563169240952
0.99947196245193481 0.91011255979537964 0.0057863271795213223
0.99675554037094116 0.91628062725067139 0.00048151949886232615
0.0055592707358300686 0.99321466684341431 7.0010914896556642e-06
0.035129815340042114 0.9989662766456604 0
0.099074900150299072 1 0
0.21282878518104553 1 0
0.36690396070480347 0.99941229820251465 0
0.53796648979187012 0.99587786197662354 0.00037766998866572976
0.70531511306762695 0.98426967859268188 0.0025184482801705599
0.83850580453872681 0.96872508525848389 0.0039029140025377274
0.92869013547897339 0.95999300479888916 0.0053039100021123886
0.97971504926681519 0.95763736963272095 0.0084182145074009895
0.99862802028656006 0.96065992116928101 0.011531904339790344
0.999400794506073 0.96803557872772217 0.0065752663649618626
0.99668192863464355 0.97225826978683472 0.00037086335942149162
0.014595046639442444 1 2.3336971935350448e-05
0.053205437958240509 1 0
0.12315528839826584 1 0
0.23577205836772919 1 0
0.38382205367088318 1 0
0.54872184991836548 1 0
0.70679807662963867 1 0
0.83646863698959351 0.99870181083679199 9.8209755378775299e-05
0.92753499746322632 0.99410718679428101 0.0011205635964870453
0.97988724708557129 0.99149948358535767 0.0050279507413506508
0.99930959939956665 0.99379950761795044 0.0065034306608140469
1 0.99783545732498169 0.0020750456023961306
0.99992996454238892 0.99905741214752197 2.3336971935350448e-05
0.031965982168912888 1 0
0.079781517386436462 1 0
0.15633414685726166 1 0
0.26686140894889832 1 0
0.4059426486492157 1 0
0.55864405632019043 1 0
0.70575636625289917 1 0
0.83026623725891113 1 0
0.92236626148223877 1 8.556889952160418e-06
0.9792172908782959 0.99991661310195923 0.0013047312386333942
0.99977630376815796 1 0.002123469952493906
1 1 0.0001026826721499674
1 1 0
0.054515734314918518 1 0
0.11015370488166809 1 0
0.19034317135810852 1 0
0.29775407910346985 1 0
0.42727461457252502 1 0
0.56730681657791138 1 0
0.70287626981735229 1 0
0.82074528932571411 1 0
0.91165363788604736 1 0
0.97287493944168091 1 4.4923668610863388e-05
0.999298095703125 1 0.00014216105046216398
1 1 0
1 1 0
0.030337704345583916 0.03434053435921669 0.038320578634738922
0.042302224785089493 0.041752684861421585 0.050130777060985565
0.059250462800264359 0.045860022306442261 0.059503190219402313
0.09251442551612854 0.04675375297665596 0.062095180153846741
0.15713830292224884 0.03911856934428215 0.057245876640081406
0.25814563035964966 0.024181889370083809 0.045732967555522919
0.38669660687446594 0.0081468168646097183 0.02995147742331028
0.52331429719924927 0.0004898968618363142 0.016431411728262901
0.64905804395675659 1.4361213516167481e-06 0.010665010660886765
0.76098430156707764 0 0.01029414776712656
0.86218446493148804 0.00028551887953653932 0.0079842815175652504
0.94827699661254883 0.0042660580947995186 0.0041202469728887081
0.99506562948226929 0.014961631968617439 0.0086284708231687546
0.046366613358259201 0.065579324960708618 0.069960348308086395
0.060442741960287094 0.073275215923786163 0.077315464615821838
0.085595332086086273 0.076593570411205292 0.082412466406822205
0.14315232634544373 0.073217220604419708 0.080641396343708038
0.24806405603885651 0.062532238662242889 0.066649869084358215
0.39144843816757202 0.046382486820220947 0.046171929687261581
0.55153763294219971 0.030165787786245346 0.024284886196255684
0.70255935192108154 0.019921889528632164 0.009232599288225174
0.82782924175262451 0.018162909895181656 0.007078896276652813
0.92136085033416748 0.023586243391036987 0.015374636277556419
0.98412328958511353 0.030477995052933693 0.021481413394212723
0.99970799684524536 0.046001628041267395 0.027093745768070221
1 0.070159643888473511 0.042391113936901093
0.041648294776678085 0.10929613560438156 0.088010601699352264
0.063618965446949005 0.1204342395067215 0.095020532608032227
0.10594965517520905 0.12725049257278442 0.094862751662731171
0.19625131785869598 0.12463051080703735 0.082901895046234131
0.34090307354927063 0.11611288040876389 0.058994591236114502
0.5139310359954834 0.10349936038255692 0.036296918988227844
0.6847463846206665 0.092532649636268616 0.016827182844281197
0.8305705189704895 0.08863811194896698 0.007380122784525156
0.93936169147491455 0.094549946486949921 0.010850285179913044
0.99318647384643555 0.11081346869468689 0.028759017586708069
1 0.1283625066280365 0.04421297088265419
1 0.1453080028295517 0.055710900574922562
1 0.16663302481174469 0.073770932853221893
0.015973169356584549 0.19333252310752869 0.07389608770608902
0.038201663643121719 0.21429304778575897 0.072179712355136871
0.10390201956033707 0.22832033038139343 0.066405355930328369
0.23112654685974121 0.22928521037101746 0.051860090345144272
0.40281084179878235 0.22302389144897461 0.03471687063574791
0.5826791524887085 0.21356445550918579 0.022594930604100227
0.74620288610458374 0.20745944976806641 0.012833135202527046
0.87930482625961304 0.21076580882072449 0.010524016804993153
0.97305381298065186 0.22316552698612213 0.019459951668977737
0.99999028444290161 0.24466250836849213 0.03543548658490181
0.99986666440963745 0.26672360301017761 0.049187559634447098
0.99842435121536255 0.28145116567611694 0.062202900648117065
0.99901986122131348 0.29572749137878418 0.082466661930084229
0.00013523476081900299 0.33272579312324524 0.031037289649248123
0.010980733670294285 0.35724785923957825 0.022036159411072731
0.091873228549957275 0.3711954653263092 0.019369088113307953
0.24270209670066833 0.37317368388175964 0.015588333830237389
0.42375722527503967 0.3686920702457428 0.011279939673841
0.59469097852706909 0.36176759004592896 0.0099828531965613365
0.74819236993789673 0.35814970731735229 0.0072243334725499153
0.87748974561691284 0.36378341913223267 0.008409193716943264
0.97604542970657349 0.37587320804595947 0.016284972429275513
1 0.39396491646766663 0.019978975877165794
0.99875140190124512 0.41326108574867249 0.023885942995548248
0.99226915836334229 0.42850953340530396 0.039558291435241699
0.99304187297821045 0.4414309561252594 0.063256509602069855
0.00045391905587166548 0.49138405919075012 0.0047784093767404556
0.017742710188031197 0.50984203815460205 0.0012451171642169356
0.1027495414018631 0.51946628093719482 0.0022271100897341967
0.25050592422485352 0.51978135108947754 0.0044339797459542751
0.42100334167480469 0.51683014631271362 0.0050099841319024563
0.58297747373580933 0.51447790861129761 0.0036003710702061653
0.73615223169326782 0.51327031850814819 0.0011921752011403441
0.87418335676193237 0.5198243260383606 0.0015547509538009763
0.97871297597885132 0.53091573715209961 0.0053562987595796585
1 0.54478639364242554 0.0024177699815481901
0.99945318698883057 0.55970841646194458 0.0014253504341468215
0.99565833806991577 0.57453936338424683 0.011118914932012558
0.99305897951126099 0.58697426319122314 0.037282411009073257
0.007939731702208519 0.63555991649627686 0.0005554049857892096
0.040708325803279877 0.65239900350570679 0.00065822229953482747
0.12221365422010422 0.66271191835403442 0.001829244545660913
0.25625133514404297 0.66401779651641846 0.0043955785222351551
0.41274324059486389 0.66331487894058228 0.0052631450816988945
0.56225496530532837 0.66821831464767456 0.0014097924577072263
0.71644008159637451 0.66887003183364868 5.9240005612082314e-06
0.86096251010894775 0.67199212312698364 4.4878791527480644e-07
0.96669268608093262 0.68001949787139893 0.00011532353528309613
0.99954640865325928 0.68930196762084961 8.8860006144386716e-06
0.99998092651367188 0.70023256540298462 0
0.99831771850585938 0.7124066948890686 0.001240898622199893
0.99409401416778564 0.72094953060150146 0.016959216445684433
0.0099160885438323021 0.77007251977920532 0.00077374029206112027
0.045969899743795395 0.79271739721298218 0.001804785686545074
0.118147112429142 0.80969506502151489 0.0027077468112111092
0.2392505407333374 0.8148990273475647 0.0039949901401996613
0.38986456394195557 0.81398999691009521 0.0042860442772507668
0.53780853748321533 0.81920653581619263 0.00062760000582784414
0.6961095929145813 0.81430500745773315 0
0.83942431211471558 0.80830276012420654 2.4429022232652642e-05
0.94002264738082886 0.8089289665222168 6.6585169406607747e-05
0.99258595705032349 0.81159687042236328 0
1 0.81703633069992065 0
0.99889838695526123 0.82574236392974854 2.5057324819499627e-05
0.9940255880355835 0.83170545101165771 0.0044136345386505127
0.0038457983173429966 0.90160322189331055 0.0025498634204268456
0.031397860497236252 0.93014633655548096 0.0034174600150436163
0.093048498034477234 0.95020049810409546 0.00239588413387537
0.2086908370256424 0.95442843437194824 0.0017997891409322619
0.36502397060394287 0.9474300742149353 0.0015763526316732168
0.53264081478118896 0.93777823448181152 0.00017689722881186754
0.69980424642562866 0.92166221141815186 0
0.83770543336868286 0.90837174654006958 7.2105258368537761e-06
0.93157279491424561 0.9032590389251709 8.1529806266189553e-06
0.98459196090698242 0.90206801891326904 1.7951516895209352e-07
0.99978744983673096 0.90254402160644531 8.6870379163883626e-05
0.99852347373962402 0.90819460153579712 8.7588443420827389e-05
0.99411982297897339 0.9126431941986084 9.9376600701361895e-05
0.0011091494234278798 0.9923098087310791 0.010920461267232895
0.024113135412335396 0.99912732839584351 0.0079952310770750046
0.085136845707893372 1 0.0044312421232461929
0.20047979056835175 1 0.0022816527634859085
0.36151152849197388 0.99990546703338623 0.001061173970811069
0.53959751129150391 0.99726265668869019 5.2657782362075523e-05
0.70984452962875366 0.98704802989959717 0
0.84332454204559326 0.97349333763122559 0
0.93220514059066772 0.96663796901702881 0
0.98220175504684448 0.96468275785446167 2.7376063371775672e-06
0.99946624040603638 0.96362268924713135 8.5823208792135119e-05
0.99961584806442261 0.96607863903045654 3.5708559153135866e-05
0.99640661478042603 0.96789294481277466 0
0.0041834814473986626 1 0.018565412610769272
0.035788159817457199 1 0.014252606779336929
0.1042330414056778 1 0.0098467208445072174
0.2196822464466095 1 0.005816770251840353
0.3752501904964447 1 0.0021622003987431526
0.54769885540008545 1 8.6391672084573656e-05
0.71069836616516113 1 0
0.84138005971908569 0.99962514638900757 0
0.93085891008377075 0.9980739951133728 0
0.98151808977127075 0.99717384576797485 0
0.99970585107803345 0.99679118394851685 1.9447477370704291e-06
1 0.99740463495254517 0
0.99974918365478516 0.99741268157958984 0
0.016713250428438187 1 0.021530838683247566
0.060688167810440063 1 0.018568718805909157
0.13604862987995148 1 0.015727773308753967
0.24998550117015839 1 0.010276614688336849
0.39600637555122375 1 0.0041158786043524742
0.55627214908599854 1 0.00031364290043711662
0.70867842435836792 1 0
0.83499825000762939 1 0
0.92585426568984985 1 0
0.9807092547416687 1 0
0.9999050498008728 1 0
1 1 0
1 1 0
0.038228202611207962 1 0.02491302415728569
0.090582139790058136 1 0.023668386042118073
0.17043241858482361 1 0.0211944580078125
0.28112828731536865 1 0.015472277067601681
0.41679868102073669 1 0.0071813696995377541
0.56364136934280396 1 0.0011145947501063347
0.70495796203613281 1 0
0.82517427206039429 1 0
0.91555404663085938 1 0
0.97390908002853394 1 0
0.9990965723991394 1 0
1 1 0
1 1 0
0.030471114441752434 0.037734132260084152 0.052547544240951538
0.043725419789552689 0.044504515826702118 0.065570205450057983
0.06152680516242981 0.048766132444143295 0.076466470956802368
0.098183877766132355 0.049036961048841476 0.081945784389972687
0.17208442091941833 0.038172643631696701 0.084414616227149963
0.28048574924468994 0.020284496247768402 0.079977162182331085
0.41093593835830688 0.0044981264509260654 0.070970930159091949
0.54875737428665161 3.5184973967261612e-05 0.062995344400405884
0.67756921052932739 0 0.059960473328828812
0.79141449928283691 0.00019674861687235534 0.058177303522825241
0.89665251970291138 0.00018328498117625713 0.050357639789581299
0.97201299667358398 0.0025387334171682596 0.046404279768466949
0.99827378988265991 0.013393387198448181 0.05933806300163269
0.045197132974863052 0.06661880761384964 0.091568201780319214
0.059607159346342087 0.074584826827049255 0.10293978452682495
0.087401218712329865 0.079009294509887695 0.11203727126121521
0.1509096771478653 0.075707815587520599 0.11490334570407867
0.26603525876998901 0.06042703241109848 0.11081448942422867
0.41612619161605835 0.040949638932943344 0.095821604132652283
0.57657402753829956 0.025073017925024033 0.077279917895793915
0.72160238027572632 0.018395727500319481 0.066708944737911224
0.84020650386810303 0.020852765068411827 0.067867010831832886
0.92993009090423584 0.02891489677131176 0.077003374695777893
0.99069547653198242 0.035256046801805496 0.080405183136463165
0.99999690055847168 0.0475502610206604 0.08728288859128952
1 0.069851502776145935 0.10919234156608582
0.040731977671384811 0.10982142388820648 0.12198447436094284
0.060109112411737442 0.12237667292356491 0.13398392498493195
0.10899586230516434 0.13077723979949951 0.14110879600048065
0.20592772960662842 0.12886099517345428 0.13555516302585602
0.35575571656227112 0.11590715497732162 0.12121501564979553
0.53295981884002686 0.10094719380140305 0.09861031174659729
0.70515483617782593 0.08961709588766098 0.077493049204349518
0.84251409769058228 0.089533291757106781 0.071535937488079071
0.94009721279144287 0.099625609815120697 0.082028992474079132
0.99049144983291626 0.11916294693946838 0.10374769568443298
1 0.13699527084827423 0.1205732449889183
1 0.14983382821083069 0.1325770765542984
1 0.16806645691394806 0.15361203253269196
0.012867946177721024 0.19616921246051788 0.12299884110689163
0.036759860813617706 0.21775846183300018 0.12531334161758423
0.11020558327436447 0.23108868300914764 0.12632107734680176
0.24031928181648254 0.23210538923740387 0.11766283959150314
0.41005575656890869 0.22489197552204132 0.10564247518777847
0.59010010957717896 0.21558244526386261 0.090655066072940826
0.75587242841720581 0.21017968654632568 0.077515967190265656
0.88791072368621826 0.21302732825279236 0.077573247253894806
0.97428518533706665 0.22747386991977692 0.093399956822395325
0.99968189001083374 0.25171166658401489 0.11618907004594803
0.99848902225494385 0.27423200011253357 0.13328619301319122
0.99863547086715698 0.28671485185623169 0.14386540651321411
0.99992501735687256 0.29993653297424316 0.16262635588645935
1.6515396055183373e-05 0.33706486225128174 0.082918994128704071
0.013496862724423409 0.36094054579734802 0.079768925905227661
0.10130078345537186 0.37421050667762756 0.082646600902080536
0.25091737508773804 0.37675777077674866 0.081492766737937927
0.42612689733505249 0.37181246280670166 0.079027257859706879
0.59728622436523438 0.36617901921272278 0.07402985543012619
0.75506627559661865 0.36261612176895142 0.065487220883369446
0.88999658823013306 0.36627200245857239 0.06630852073431015
0.98147451877593994 0.37918645143508911 0.082309961318969727
1 0.39855116605758667 0.093457207083702087
0.99555760622024536 0.4185333251953125 0.10048145800828934
0.99176764488220215 0.43470245599746704 0.1143522709608078
0.99676167964935303 0.44810521602630615 0.13629557192325592
0.0012914919061586261 0.49523401260375977 0.043134517967700958
0.023624958470463753 0.51322835683822632 0.046626925468444824
0.11244618892669678 0.52288973331451416 0.056015148758888245
0.25832027196884155 0.52418220043182373 0.062610477209091187
0.42498782277107239 0.52163147926330566 0.063282221555709839
0.5865710973739624 0.52003538608551025 0.055408328771591187
0.74343180656433105 0.51856982707977295 0.040357086807489395
0.88475459814071655 0.52322828769683838 0.034567605704069138
0.97987598180770874 0.53420251607894897 0.048436526209115982
1 0.54828000068664551 0.050225846469402313
0.99645400047302246 0.56471610069274902 0.050479020923376083
0.99198079109191895 0.58048129081726074 0.072896353900432587
0.9931715726852417 0.59117144346237183 0.10475022345781326
0.015026960521936417 0.63716518878936768 0.035224255174398422
0.050707872956991196 0.65493249893188477 0.043497495353221893
0.12962858378887177 0.66719645261764526 0.051857534795999527
0.25883108377456665 0.67107665538787842 0.057233355939388275
0.41433423757553101 0.6701127290725708 0.055682837963104248
0.5676887035369873 0.67282116413116455 0.040459964424371719
0.72405529022216797 0.67232656478881836 0.020365187898278236
0.86739951372146606 0.67460149526596069 0.01225407887250185
0.96354508399963379 0.68212807178497314 0.019169272854924202
0.99806070327758789 0.6923823356628418 0.018939059227705002
0.99904972314834595 0.70448583364486694 0.02000834234058857
0.99438399076461792 0.71500760316848755 0.039373002946376801
0.99218147993087769 0.72061347961425781 0.072162196040153503
0.020712923258543015 0.77359068393707275 0.042402110993862152
0.056715574115514755 0.7949633002281189 0.051131170243024826
0.11863581091165543 0.81654655933380127 0.051460042595863342
0.23316992819309235 0.82538068294525146 0.049931380897760391
0.38824543356895447 0.82207322120666504 0.04651743546128273
0.54608070850372314 0.81929075717926025 0.030401460826396942
0.70406317710876465 0.81324964761734009 0.012145337648689747
0.84440499544143677 0.80776995420455933 0.0052755619399249554
0.94093650579452515 0.80867689847946167 0.0053335749544203281
0.99008357524871826 0.81264621019363403 0.0043368469923734665
0.99999517202377319 0.81898725032806396 0.0054491381160914898
0.99801492691040039 0.82478690147399902 0.016288548707962036
0.99334841966629028 0.82651114463806152 0.039958085864782333
0.0088320411741733551 0.90740740299224854 0.051721490919589996
0.033479444682598114 0.93465274572372437 0.055205851793289185
