assets/lut/ericellerbrock victory.cube
# Created by: G'MIC (https://gmic.eu)
TITLE "victory"
# LUT size
LUT_3D_SIZE 13
# Data domain
DOMAIN_MIN 0.0 0.0 0.0
DOMAIN_MAX 1.0 1.0 1.0
# LUT data points
0.06469002366065979 0.095612332224845886 0.10683678835630417
0.082144536077976227 0.093483090400695801 0.10065783560276031
0.15327301621437073 0.1051655188202858 0.098195485770702362
0.31060072779655457 0.13213267922401428 0.093597307801246643
0.51644480228424072 0.16327771544456482 0.12254973500967026
0.69189828634262085 0.19388644397258759 0.14997553825378418
0.80878669023513794 0.21893692016601562 0.16352416574954987
0.8393779993057251 0.22789435088634491 0.16562329232692719
0.84879887104034424 0.23148378729820251 0.16533453762531281
0.85352611541748047 0.23418256640434265 0.16534550487995148
0.85490196943283081 0.23484176397323608 0.16515570878982544
0.85490196943283081 0.23529411852359772 0.16467301547527313
0.85490196943283081 0.23523810505867004 0.16470588743686676
0.062981985509395599 0.092224448919296265 0.097193129360675812
0.074757836759090424 0.09110654890537262 0.093942396342754364
0.12758323550224304 0.10284027457237244 0.096410386264324188
0.27359595894813538 0.13184918463230133 0.092771895229816437
0.47152683138847351 0.16008192300796509 0.1134052500128746
0.66032445430755615 0.18946023285388947 0.14469633996486664
0.79468363523483276 0.21715688705444336 0.16211678087711334
0.83568984270095825 0.22751067578792572 0.1651892215013504
0.8479505181312561 0.23137255012989044 0.16537286341190338
0.85176503658294678 0.23388171195983887 0.16470588743686676
0.85304337739944458 0.23501090705394745 0.16470588743686676
0.8519018292427063 0.23351237177848816 0.16479401290416718
0.85119104385375977 0.23258958756923676 0.16523988544940948
0.051950957626104355 0.1312672346830368 0.086652703583240509
0.059587098658084869 0.12510763108730316 0.088095709681510925
0.094097167253494263 0.1238832026720047 0.097539804875850677
0.2270854115486145 0.14673376083374023 0.1062261089682579
0.43019130825996399 0.16616298258304596 0.10461216419935226
0.6297227144241333 0.19051848351955414 0.13280287384986877
0.79286140203475952 0.22702315449714661 0.1513897180557251
0.84424138069152832 0.23236536979675293 0.16379128396511078
0.84972852468490601 0.23389588296413422 0.16392587125301361
0.85071831941604614 0.23369292914867401 0.16432987153530121
0.85259705781936646 0.2357393205165863 0.16361019015312195
0.84863805770874023 0.23132441937923431 0.16627126932144165
0.8481372594833374 0.23137255012989044 0.16772940754890442
0.02024148590862751 0.22965829074382782 0.047563932836055756
0.035881642252206802 0.22473742067813873 0.055013410747051239
0.053294237703084946 0.22006408870220184 0.060449622571468353
0.15739203989505768 0.20285815000534058 0.10525962710380554
0.37939721345901489 0.20370608568191528 0.10414014011621475
0.60251826047897339 0.23135508596897125 0.10110114514827728
0.80066484212875366 0.27527144551277161 0.11443870514631271
0.88784545660018921 0.28947147727012634 0.12405283004045486
0.88045275211334229 0.27732178568840027 0.13395014405250549
0.87413263320922852 0.2639065682888031 0.14492908120155334
0.87275987863540649 0.25966143608093262 0.14810937643051147
0.86334854364395142 0.25107315182685852 0.15315626561641693
0.85645240545272827 0.24009808897972107 0.16018742322921753
0.0069855633191764355 0.34876856207847595 0.022449253126978874
0.016800913959741592 0.34265369176864624 0.023439593613147736
0.021809941157698631 0.34343916177749634 0.013637632131576538
0.10535478591918945 0.33396705985069275 0.046516507863998413
0.36891332268714905 0.31511422991752625 0.15415310859680176
0.58076566457748413 0.32011762261390686 0.12078562378883362
0.79431116580963135 0.36058121919631958 0.070703469216823578
0.9355960488319397 0.39946013689041138 0.047449987381696701
0.93396085500717163 0.38046306371688843 0.064101710915565491
0.91637837886810303 0.35230174660682678 0.091673098504543304
0.91310548782348633 0.3372349739074707 0.098541006445884705
0.91114592552185059 0.32327288389205933 0.10448430478572845
0.90229278802871704 0.30506959557533264 0.11765103787183762
0.0041223415173590183 0.467568039894104 0.010264706797897816
0.0089966123923659325 0.46369513869285583 0.010735141113400459
0.020110828801989555 0.46516892313957214 0.0087420595809817314
0.11400084942579269 0.46098852157592773 0.023684242740273476
0.38806912302970886 0.45305827260017395 0.122969850897789
0.58478611707687378 0.47379821538925171 0.22368693351745605
0.76453334093093872 0.48519808053970337 0.19220755994319916
0.92051273584365845 0.49685147404670715 0.075426004827022552
0.9476616382598877 0.47713246941566467 0.038399085402488708
0.94188481569290161 0.45794522762298584 0.042941536754369736
0.94568163156509399 0.44767019152641296 0.046679120510816574
0.94623470306396484 0.43553712964057922 0.047001197934150696
0.93802064657211304 0.4281618595123291 0.054547522217035294
0.00017161649884656072 0.64370477199554443 0.0011338776675984263
0.0012101117754355073 0.64732545614242554 0.0011945537989959121
0.0075052599422633648 0.63712072372436523 0.0018408681498840451
0.071590349078178406 0.60541784763336182 0.0099657392129302025
0.31191393733024597 0.5768011212348938 0.048682596534490585
0.58640062808990479 0.62017035484313965 0.18591469526290894
0.76172268390655518 0.65627199411392212 0.31870931386947632
0.89714974164962769 0.63906741142272949 0.2899690568447113
0.9472576379776001 0.61938339471817017 0.21244949102401733
0.94725549221038818 0.60270828008651733 0.19615991413593292
0.94558250904083252 0.58656346797943115 0.16882798075675964
0.9454534649848938 0.57319813966751099 0.14106491208076477
0.94508820772171021 0.56327170133590698 0.12365326285362244
0 0.90601581335067749 0
0 0.88967806100845337 0
0.00098921835888177156 0.90120929479598999 0
0.012947965413331985 0.9068416953086853 0.00060273712733760476
0.10244635492563248 0.88495385646820068 0.0068297889083623886
0.418670654296875 0.84707129001617432 0.042157895863056183
0.72237670421600342 0.839316725730896 0.25654613971710205
0.90800905227661133 0.82628625631332397 0.49752700328826904
0.9459606409072876 0.80028343200683594 0.49962911009788513
0.94509804248809814 0.78331929445266724 0.48259428143501282
0.94509804248809814 0.77746009826660156 0.47079652547836304
0.94506645202636719 0.7732585072517395 0.45740288496017456
0.94242876768112183 0.76368677616119385 0.45232406258583069
0 0.94439154863357544 0
0 0.92770475149154663 0
0.003708753501996398 0.94254225492477417 0
0.018780771642923355 0.94814282655715942 0.0012133729178458452
0.053933326154947281 0.93887108564376831 0.0036914900410920382
0.2172190248966217 0.92333316802978516 0.0082536432892084122
0.61548668146133423 0.91364490985870361 0.14578871428966522
0.89876061677932739 0.91867309808731079 0.56695073843002319
0.94190382957458496 0.91588085889816284 0.64621984958648682
0.94473493099212646 0.91291689872741699 0.64868533611297607
0.94509804248809814 0.91150820255279541 0.64446812868118286
0.94509804248809814 0.91053563356399536 0.64031749963760376
0.94509804248809814 0.90249031782150269 0.62752002477645874
0 0.94866305589675903 0
0.00080365949543192983 0.94099140167236328 0
0.0083667384460568428 0.94598156213760376 0
0.028179887682199478 0.94656217098236084 0.0014777688775211573
0.040604386478662491 0.94359129667282104 0.0010263181757181883
0.10786762833595276 0.93812477588653564 0.0054299598559737206
0.50375831127166748 0.91990965604782104 0.10096071660518646
0.8690522313117981 0.92081981897354126 0.52178806066513062
0.93396961688995361 0.9241529107093811 0.63515198230743408
0.94299662113189697 0.92275649309158325 0.65603172779083252
0.94502741098403931 0.92161762714385986 0.65696543455123901
0.94509804248809814 0.92083227634429932 0.65497547388076782
0.94509804248809814 0.91557306051254272 0.6466224193572998
0 0.95135200023651123 0
0.0020672366954386234 0.94728690385818481 0
0.012017268687486649 0.94837558269500732 0
0.036630142480134964 0.94668948650360107 0.00088770251022651792
0.073730990290641785 0.94279670715332031 0.0034614114556461573
0.14088165760040283 0.93615621328353882 0.0056718415580689907
0.38242718577384949 0.9236980676651001 0.053736221045255661
0.80980414152145386 0.91781467199325562 0.39750611782073975
0.93364739418029785 0.92474406957626343 0.6321900486946106
0.94164639711380005 0.92470246553421021 0.6548762321472168
0.94228404760360718 0.92188674211502075 0.65871959924697876
0.94395291805267334 0.92134183645248413 0.65801346302032471
0.94433683156967163 0.91773265600204468 0.6531980037689209
0 0.9529411792755127 0
0.0020824058447033167 0.95196163654327393 0
0.01562239695340395 0.95083987712860107 0.00023516487271990627
0.055462945252656937 0.94741582870483398 0.0037815168034285307
0.10036930441856384 0.94251316785812378 0.0064842225983738899
0.14112432301044464 0.93747258186340332 0.0073561724275350571
0.32858023047447205 0.92780524492263794 0.030425621196627617
0.77134698629379272 0.91877555847167969 0.32204744219779968
0.9305264949798584 0.92436254024505615 0.62906831502914429
0.94123899936676025 0.92549020051956177 0.65887308120727539
0.94230610132217407 0.92307573556900024 0.66319155693054199
0.94282990694046021 0.92156863212585449 0.66173660755157471
0.94310116767883301 0.9210665225982666 0.66048884391784668
0 0.95574063062667847 0
0.0016602011164650321 0.95521938800811768 0
0.017305979505181313 0.95322060585021973 0.0011006823042407632
0.066071905195713043 0.94901096820831299 0.0049559199251234531
0.11721933633089066 0.94301748275756836 0.0078431377187371254
0.1640004962682724 0.93661439418792725 0.0068219504319131374
0.27936616539955139 0.92787677049636841 0.010390636511147022
0.72498655319213867 0.91803556680679321 0.27744188904762268
0.91342175006866455 0.9229121208190918 0.59249979257583618
0.94126904010772705 0.92549020051956177 0.66309469938278198
0.94355648756027222 0.92523229122161865 0.66905850172042847
0.94312101602554321 0.92344319820404053 0.66802448034286499
0.94296175241470337 0.92162930965423584 0.66761320829391479
0.070100642740726471 0.1338554322719574 0.15759170055389404
0.083194836974143982 0.13493120670318604 0.15583491325378418
0.16885896027088165 0.12791760265827179 0.13833494484424591
0.33556190133094788 0.13748112320899963 0.12193337082862854
0.53481829166412354 0.16755758225917816 0.13768839836120605
0.69654303789138794 0.19501763582229614 0.15673220157623291
0.80932390689849854 0.21987873315811157 0.16669756174087524
0.84706646203994751 0.22768107056617737 0.16995151340961456
0.85059076547622681 0.22927069664001465 0.1699003130197525
0.85336220264434814 0.23020285367965698 0.16949564218521118
0.85490196943283081 0.23057346045970917 0.16907219588756561
0.85490196943283081 0.23133210837841034 0.16797925531864166
0.85490196943283081 0.23188422620296478 0.16783028841018677
0.067733138799667358 0.11916588991880417 0.13529089093208313
0.082088649272918701 0.11954860389232635 0.13391938805580139
0.1394726037979126 0.11460251361131668 0.12208639085292816
0.29175695776939392 0.13708284497261047 0.11245033144950867
0.49039521813392639 0.16452491283416748 0.12563261389732361
0.66965723037719727 0.19203953444957733 0.15165245532989502
0.80014288425445557 0.21832668781280518 0.16501770913600922
0.84381181001663208 0.22826555371284485 0.16901634633541107
0.85026735067367554 0.23103535175323486 0.16836923360824585
0.85444951057434082 0.23335401713848114 0.16624529659748077
0.85478681325912476 0.23256963491439819 0.16669376194477081
0.85334879159927368 0.23138323426246643 0.16808579862117767
0.85290372371673584 0.23137311637401581 0.16856153309345245
0.060830418020486832 0.12943877279758453 0.11099734157323837
0.070300891995429993 0.12899348139762878 0.11236897110939026
0.10190580785274506 0.13112697005271912 0.11550478637218475
0.23185452818870544 0.14945524930953979 0.11530459672212601
0.4347870945930481 0.16882699728012085 0.10643555968999863
0.63002997636795044 0.19400371611118317 0.1367388516664505
0.79195249080657959 0.22600181400775909 0.15454302728176117
0.84797924757003784 0.23598352074623108 0.16216909885406494
0.85509097576141357 0.23943509161472321 0.1614498496055603
0.85720187425613403 0.23935693502426147 0.16142524778842926
0.85568773746490479 0.23726162314414978 0.16275176405906677
0.85065531730651855 0.2321256548166275 0.16615714132785797
0.84937679767608643 0.23137255012989044 0.16834366321563721
0.0205561313778162 0.2246260792016983 0.057953823357820511
0.029902245849370956 0.2180759608745575 0.057614672929048538
0.038482248783111572 0.2175837904214859 0.058435536921024323
0.15671089291572571 0.20278643071651459 0.10758433490991592
0.3769056499004364 0.20134581625461578 0.10251681506633759
0.59724462032318115 0.23505203425884247 0.10621340572834015
0.79760807752609253 0.27677449584007263 0.11814072728157043
0.88293886184692383 0.29145997762680054 0.12203191220760345
0.8851851224899292 0.27805671095848083 0.13443188369274139
0.87747335433959961 0.26745167374610901 0.14252083003520966
0.87096500396728516 0.26160722970962524 0.14623567461967468
0.86123347282409668 0.25073060393333435 0.15324114263057709
0.85804480314254761 0.24359618127346039 0.15773674845695496
0.0043293819762766361 0.3472326397895813 0.018965987488627434
0.007203210610896349 0.33891704678535461 0.01380544900894165
0.015987111255526543 0.34111660718917847 0.014279593713581562
0.11165915429592133 0.33098515868186951 0.057066343724727631
0.36788946390151978 0.31370911002159119 0.14938889443874359
0.57791197299957275 0.32096916437149048 0.11904546618461609
0.79432904720306396 0.36340457201004028 0.071361705660820007
0.93283945322036743 0.39947676658630371 0.047450285404920578
0.93268334865570068 0.37610384821891785 0.066598527133464813
0.92244768142700195 0.3603094220161438 0.084078349173069
0.91495394706726074 0.34675756096839905 0.094599686563014984
0.91031402349472046 0.33358478546142578 0.097103893756866455
0.904468834400177 0.32031956315040588 0.10768595337867737
0.0028839560691267252 0.46754550933837891 0.0075245578773319721
0.0051081487908959389 0.46597775816917419 0.0081986971199512482
0.012048519216477871 0.46374562382698059 0.0077060176990926266
0.080378755927085876 0.4618287980556488 0.021776236593723297
0.38333553075790405 0.45322564244270325 0.12734523415565491
0.58721673488616943 0.47209593653678894 0.21860183775424957
0.76624685525894165 0.47799327969551086 0.1754792183637619
0.92127144336700439 0.49162736535072327 0.058076716959476471
0.94548565149307251 0.47725376486778259 0.044002220034599304
0.94457918405532837 0.46560579538345337 0.051900226622819901
0.94055509567260742 0.45354121923446655 0.063924722373485565
0.94320350885391235 0.43906879425048828 0.056831315159797668
0.93772900104522705 0.43109461665153503 0.056043602526187897
4.7751032980158925e-05 0.63761430978775024 0.00056464999215677381
0.00090243772137910128 0.6478506326675415 0.0012025272008031607
0.0067597185261547565 0.6362607479095459 0.0015318926889449358
0.059660322964191437 0.61173349618911743 0.0085356021299958229
0.30061006546020508 0.58421385288238525 0.054013196378946304
0.5778423547744751 0.62931770086288452 0.18753035366535187
0.76412498950958252 0.65148693323135376 0.32848122715950012
0.89858061075210571 0.63990098237991333 0.28892534971237183
0.93961560726165771 0.61331695318222046 0.22510123252868652
0.94526904821395874 0.60785043239593506 0.20631861686706543
0.94515419006347656 0.58448129892349243 0.16343779861927032
0.94527590274810791 0.57378411293029785 0.14429345726966858
0.94524979591369629 0.56251364946365356 0.12500396370887756
0 0.90873676538467407 0
0 0.89242678880691528 0
0.0014747768873348832 0.904563307762146 0
0.012636596336960793 0.90528261661529541 0.00035458733327686787
0.099118523299694061 0.88766157627105713 0.0059148753061890602
0.41714715957641602 0.84742921590805054 0.038374058902263641
0.73069792985916138 0.84498018026351929 0.27067053318023682
0.9081839919090271 0.82373225688934326 0.4945715069770813
0.94146287441253662 0.79601472616195679 0.49359896779060364
0.9479174017906189 0.79853218793869019 0.48849886655807495
0.94551795721054077 0.77980643510818481 0.47196713089942932
0.94501614570617676 0.7721894383430481 0.4606001079082489
0.94276893138885498 0.75974249839782715 0.45021876692771912
0 0.9450652003288269 0
0 0.94082307815551758 0
0.003207232803106308 0.94401025772094727 0
0.016899587586522102 0.94790226221084595 0.0018520280718803406
0.055572330951690674 0.94030857086181641 0.0039970846846699715
0.23494136333465576 0.92129385471343994 0.014313686639070511
0.61245608329772949 0.91040277481079102 0.1459827721118927
0.89591431617736816 0.91506493091583252 0.55221343040466309
0.94121682643890381 0.91315585374832153 0.64045679569244385
0.94494068622589111 0.91175031661987305 0.64645516872406006
0.94509804248809814 0.9134865403175354 0.64599150419235229
0.94509804248809814 0.90887737274169922 0.63839507102966309
0.94509804248809814 0.89918720722198486 0.62562787532806396
0 0.94680845737457275 0
0.00021227668912615627 0.94512689113616943 0
0.0068691628985106945 0.94668269157409668 0
0.025768639519810677 0.94676750898361206 0.0033223319333046675
0.04466044157743454 0.94325006008148193 0.003869419451802969
0.13557960093021393 0.93662327527999878 0.010212976485490799
0.5203012228012085 0.91871720552444458 0.11337431520223618
0.86834192276000977 0.92146033048629761 0.52091395854949951
0.93881016969680786 0.9247097373008728 0.64229851961135864
0.94255483150482178 0.92157900333404541 0.65451842546463013
0.94491285085678101 0.92101317644119263 0.65566372871398926
0.94423723220825195 0.91891205310821533 0.65229594707489014
0.94493073225021362 0.91426461935043335 0.64738082885742188
0 0.95054334402084351 0
0.00096668914193287492 0.94846385717391968 0
0.0094849234446883202 0.94880282878875732 0
0.03427448496222496 0.94736313819885254 0.002783666830509901
0.068891622126102448 0.94351798295974731 0.0052571017295122147
0.14074654877185822 0.93755173683166504 0.010776534676551819
0.42313578724861145 0.92371273040771484 0.073290057480335236
0.80555588006973267 0.91872572898864746 0.39382204413414001
0.93197345733642578 0.92507457733154297 0.63267171382904053
0.94240468740463257 0.9236215353012085 0.65843880176544189
0.94291985034942627 0.92157870531082153 0.65985149145126343
0.94134396314620972 0.92050230503082275 0.65642881393432617
0.94159126281738281 0.91762822866439819 0.65422725677490234
0 0.95328778028488159 0
0.00075525022111833096 0.95265555381774902 0
0.011309395544230938 0.95201510190963745 3.321030453662388e-05
0.04845760390162468 0.94842386245727539 0.0032027300912886858
0.089889943599700928 0.94383507966995239 0.006913547869771719
0.11177665740251541 0.94054174423217773 0.0078071891330182552
0.26662614941596985 0.93218344449996948 0.028589734807610512
0.75154250860214233 0.92050617933273315 0.3078666627407074
0.9272005558013916 0.92570984363555908 0.62604284286499023
0.94372671842575073 0.92544203996658325 0.66660511493682861
0.94137376546859741 0.92304617166519165 0.66404885053634644
0.94117647409439087 0.92156863212585449 0.66103440523147583
0.94117647409439087 0.92103850841522217 0.65975099802017212
0 0.95670187473297119 0
0.00052977917948737741 0.95640784502029419 0
0.013376542367041111 0.95426541566848755 0.0005861918325535953
0.061088234186172485 0.94976425170898438 0.0039773527532815933
0.10431644320487976 0.94439369440078735 0.0068928138352930546
0.13424171507358551 0.93985843658447266 0.0079265665262937546
0.32297191023826599 0.92948001623153687 0.018900508061051369
0.71947723627090454 0.9200369119644165 0.26435691118240356
0.92477059364318848 0.92636001110076904 0.6131255030632019
0.94120681285858154 0.92552870512008667 0.66357564926147461
0.94117647409439087 0.9254341721534729 0.6666606068611145
0.94117647409439087 0.92350679636001587 0.66571778059005737
0.94117647409439087 0.92162466049194336 0.66511940956115723
0.064803317189216614 0.21358650922775269 0.25869941711425781
0.071612849831581116 0.20725828409194946 0.24828457832336426
0.17643773555755615 0.17866116762161255 0.21227146685123444
0.36844787001609802 0.16466690599918365 0.17422781884670258
0.57959175109863281 0.18113212287425995 0.16101674735546112
0.72060340642929077 0.20457494258880615 0.16653385758399963
0.83188945055007935 0.22679372131824493 0.17360369861125946
0.85747671127319336 0.22800765931606293 0.17564947903156281
0.85389333963394165 0.22709181904792786 0.17447680234909058
0.85410451889038086 0.22619594633579254 0.17394441366195679
0.85449898242950439 0.22625751793384552 0.17450477182865143
0.85490196943283081 0.22783315181732178 0.17410922050476074
0.85490196943283081 0.22883644700050354 0.17362809181213379
0.066627338528633118 0.18531256914138794 0.22276686131954193
0.078525140881538391 0.17960499227046967 0.21180374920368195
0.13902057707309723 0.1597096174955368 0.18892201781272888
0.3149750828742981 0.15838676691055298 0.16527499258518219
0.52645254135131836 0.17407655715942383 0.14668813347816467
0.68926775455474854 0.19749307632446289 0.15993180871009827
0.8092726469039917 0.22223389148712158 0.17034010589122772
0.84718680381774902 0.22556403279304504 0.17388880252838135
0.85355287790298462 0.22816990315914154 0.1723799854516983
0.85795575380325317 0.23283882439136505 0.16892299056053162
0.85567194223403931 0.22988924384117126 0.17058493196964264
0.85479891300201416 0.22882166504859924 0.17158560454845428
0.85441941022872925 0.22851711511611938 0.1725410670042038
0.064750313758850098 0.15855796635150909 0.17324921488761902
0.069560572504997253 0.1541612446308136 0.16502456367015839
0.10160861909389496 0.15393663942813873 0.16399653255939484
0.24776932597160339 0.1576254814863205 0.14757706224918365
0.44967228174209595 0.17100332677364349 0.11748635023832321
0.6340143084526062 0.19408050179481506 0.1443134993314743
0.77788972854614258 0.21988074481487274 0.15907236933708191
0.84486693143844604 0.23334658145904541 0.16593897342681885
0.85527342557907104 0.23538020253181458 0.16596263647079468
0.85984182357788086 0.23806439340114594 0.1638704240322113
0.85717189311981201 0.23450109362602234 0.16629566252231598
0.85300254821777344 0.23061138391494751 0.16918168962001801
0.85098469257354736 0.22919219732284546 0.17037275433540344
0.040016502141952515 0.22027425467967987 0.13733565807342529
0.039653044193983078 0.21130020916461945 0.12216152250766754
0.046095427125692368 0.20941071212291718 0.11416732519865036
0.15482529997825623 0.20659860968589783 0.13366679847240448
0.38976073265075684 0.20476847887039185 0.11291533708572388
0.60507714748382568 0.23300902545452118 0.10511818528175354
0.78690052032470703 0.2779289186000824 0.11317531764507294
0.86973637342453003 0.28609541058540344 0.12556126713752747
0.87866628170013428 0.26740095019340515 0.14282099902629852
0.87041199207305908 0.25579828023910522 0.15085767209529877
0.86823177337646484 0.25481376051902771 0.15104964375495911
0.86027806997299194 0.24476824700832367 0.15777669847011566
0.85996091365814209 0.24259057641029358 0.15981468558311462
0.014571605250239372 0.34685295820236206 0.072335623204708099
0.008996596559882164 0.33662694692611694 0.047045823186635971
0.008515077643096447 0.33198609948158264 0.032380435615777969
0.085900820791721344 0.33545386791229248 0.061569362878799438
0.36007657647132874 0.3152708113193512 0.16274075210094452
0.57455819845199585 0.31362611055374146 0.12099094688892365
0.79384589195251465 0.36169618368148804 0.065643951296806335
0.92889237403869629 0.39678871631622314 0.05338020995259285
0.9305303692817688 0.36852368712425232 0.072785079479217529
0.92086803913116455 0.35398739576339722 0.088966697454452515
0.91476058959960938 0.34261733293533325 0.094659201800823212
0.90762621164321899 0.32477939128875732 0.10212459415197372
0.89913296699523926 0.31074640154838562 0.11745677143335342
0.0023723079357296228 0.46957209706306458 0.014685656875371933
0.0028425478376448154 0.46512711048126221 0.010617827996611595
0.0079988818615674973 0.45617341995239258 0.013292903080582619
0.085603930056095123 0.45813027024269104 0.031539376825094223
0.38082093000411987 0.45346188545227051 0.13278642296791077
