assets/lut/ericellerbrock killstreak.cube
# Created by: G'MIC (https://gmic.eu)
TITLE "killstreak"
# LUT size
LUT_3D_SIZE 13
# Data domain
DOMAIN_MIN 0.0 0.0 0.0
DOMAIN_MAX 1.0 1.0 1.0
# LUT data points
0.00024542715982533991 0.027966069057583809 0.031984277069568634
0.021810853853821754 0.017974434420466423 0.019335009157657623
0.10069712996482849 0.011133290827274323 0.01408513356000185
0.19621181488037109 0.0073458501137793064 0.0069914273917675018
0.32046613097190857 0.00060804776148870587 0.0032058716751635075
0.45564797520637512 0 0.00062830309616401792
0.58141970634460449 0 0
0.69039243459701538 0.00095222325762733817 0.00032718136208131909
0.7706378698348999 0.0003408394695725292 0.0014474607305601239
0.82681000232696533 0 0.00019674861687235534
0.87835294008255005 0 0
0.93023818731307983 0.00023787254758644849 0
0.97700196504592896 0.0056568519212305546 0
0 0.087806835770606995 0.028030829504132271
0.0077780480496585369 0.077718161046504974 0.018155431374907494
0.069857366383075714 0.067043915390968323 0.013771984726190567
0.17609387636184692 0.049426645040512085 0.0074071697890758514
0.30515399575233459 0.027057424187660217 0.0026834225282073021
0.44381910562515259 0.010587983764708042 0.0010359820444136858
0.57010424137115479 0.008178037591278553 0.00052894145483151078
0.67553186416625977 0.014631757512688637 0.0012060278095304966
0.75650477409362793 0.012640650384128094 0.0028079312760382891
0.8175579309463501 0.0059117632918059826 0.0018197003519162536
0.88080513477325439 0.0087994895875453949 0.00032225964241661131
0.94329708814620972 0.024611275643110275 0
0.98918217420578003 0.049124069511890411 0
0 0.15548290312290192 0.019158666953444481
0.00074790505459532142 0.143076092004776 0.018182417377829552
0.044002816081047058 0.13093997538089752 0.015035711228847504
0.15373063087463379 0.11537451297044754 0.0065090106800198555
0.2879054844379425 0.093279249966144562 0.00081362255150452256
0.42845502495765686 0.072564639151096344 2.297794162586797e-05
0.55662280321121216 0.062769077718257904 9.7656251455191523e-05
0.66677665710449219 0.063599184155464172 0.00035941926762461662
0.75750970840454102 0.061935693025588989 0.00099035527091473341
0.83138316869735718 0.05803273618221283 0.0018206278327852488
0.90587610006332397 0.066983453929424286 0.0010295493993908167
0.97143459320068359 0.090425945818424225 0.00035472196759656072
0.9990045428276062 0.11803629249334335 0.0009928983636200428
0 0.22986981272697449 0.0058255214244127274
0.0010390786919742823 0.21707482635974884 0.0097906971350312233
0.039529807865619659 0.20535491406917572 0.012280662544071674
0.13652478158473969 0.19384612143039703 0.0088331485167145729
0.26778250932693481 0.17924734950065613 0.0015846103196963668
0.4098147451877594 0.16404838860034943 0
0.54301083087921143 0.15401312708854675 0
0.6651226282119751 0.15057073533535004 0
0.77355968952178955 0.14988499879837036 2.1541820842685411e-06
0.86457306146621704 0.15144799649715424 0.00030930462526157498
0.94269686937332153 0.16208481788635254 0.0010262882569804788
0.9945712685585022 0.18275903165340424 0.0013929628767073154
1 0.20837527513504028 0.0030582202598452568
0.00086363247828558087 0.30698907375335693 0.00064284383552148938
0.011633659712970257 0.29853779077529907 0.0036804049741476774
0.056456726044416428 0.29140326380729675 0.0074595729820430279
0.14347514510154724 0.28519293665885925 0.0077075883746147156
0.26408854126930237 0.2772652804851532 0.0033925075549632311
0.39665991067886353 0.26980897784233093 0.001407189411111176
0.52935796976089478 0.26442942023277283 0.00082636816659942269
0.66134423017501831 0.26185351610183716 4.5058306568535045e-05
0.78392744064331055 0.26213818788528442 0
0.88628602027893066 0.26517751812934875 0.00018382353300694376
0.96395140886306763 0.2755376398563385 0.0020762274507433176
0.99917829036712646 0.29343315958976746 0.002595175988972187
1 0.31442829966545105 0.0025573731400072575
0.0053596943616867065 0.38546144962310791 0.00086550245760008693
0.029125498607754707 0.38616961240768433 0.0023566600866615772
0.077917344868183136 0.38790038228034973 0.0048149107024073601
0.1594289243221283 0.38794520497322083 0.005856742151081562
0.26855844259262085 0.38671284914016724 0.0055447597987949848
0.3884492814540863 0.38597333431243896 0.0067937513813376427
0.51599174737930298 0.38483747839927673 0.0058518801815807819
0.65076988935470581 0.38321328163146973 0.0012542724143713713
0.77839916944503784 0.38357734680175781 1.0052849575004075e-05
0.8866811990737915 0.38758090138435364 5.8701458328869194e-05
0.96556925773620605 0.3969636857509613 0.0010141110979020596
0.99890446662902832 0.41184142231941223 0.00054409552831202745
1 0.42949745059013367 0.00026424633688293397
0.01051438320428133 0.47338765859603882 0.0045087626203894615
0.042886562645435333 0.4823935329914093 0.0039624529890716076
0.094862528145313263 0.49220043420791626 0.0051044989377260208
0.1719571053981781 0.49981603026390076 0.0063257855363190174
0.2712094783782959 0.50434333086013794 0.0081918155774474144
0.38458690047264099 0.50673264265060425 0.010349961929023266
0.50865399837493896 0.50724714994430542 0.0092993192374706268
0.63916182518005371 0.50632405281066895 0.003733526449650526
0.76356053352355957 0.50707888603210449 0.00051362282829359174
0.87141597270965576 0.51155215501785278 9.6938192655215971e-06
0.95319235324859619 0.52011674642562866 0
0.99548166990280151 0.53229981660842896 0
1 0.54566377401351929 0
0.014113003388047218 0.57600927352905273 0.0076238294132053852
0.052902746945619583 0.58949035406112671 0.0069583072327077389
0.10773316770792007 0.60401511192321777 0.0071574938483536243
0.18232627213001251 0.6158146858215332 0.0079387743026018143
0.27673029899597168 0.62308192253112793 0.0093397703021764755
0.38713210821151733 0.62592071294784546 0.01097711268812418
0.50779396295547485 0.62555700540542603 0.010350814089179039
0.63136839866638184 0.62452739477157593 0.0064194025471806526
0.74800944328308105 0.62554705142974854 0.0028909272514283657
0.8500826358795166 0.63047784566879272 0.0011414621258154511
0.93296843767166138 0.63855838775634766 0.00043382830335758626
0.9867856502532959 0.64855289459228516 0.00022367590281646699
0.99998831748962402 0.65696150064468384 5.7444853155175224e-05
0.018794041126966476 0.68662095069885254 0.01064275112003088
0.062795780599117279 0.70192605257034302 0.012632781639695168
0.12035629898309708 0.71733397245407104 0.013649854809045792
0.1943993866443634 0.73015844821929932 0.012817726470530033
0.28684920072555542 0.73745691776275635 0.012185788713395596
0.39601954817771912 0.7378838062286377 0.013072548434138298
0.51368355751037598 0.73491960763931274 0.012822588905692101
0.63084131479263306 0.73221409320831299 0.010759674943983555
0.73941117525100708 0.7323036789894104 0.0082901297137141228
0.83351606130599976 0.7369227409362793 0.0069444095715880394
0.91157799959182739 0.74498289823532104 0.0070593291893601418
0.97112417221069336 0.75375932455062866 0.0073300083167850971
0.99929594993591309 0.7576867938041687 0.0049778656102716923
0.02763722650706768 0.79593175649642944 0.021902451291680336
0.075758226215839386 0.81152933835983276 0.026178427040576935
0.13612490892410278 0.8257526159286499 0.028860354796051979
0.21177883446216583 0.83630079030990601 0.026945600286126137
0.30421271920204163 0.84035634994506836 0.023044422268867493
0.41220062971115112 0.83755278587341309 0.021251603960990906
0.52705258131027222 0.83139544725418091 0.019653709605336189
0.63930314779281616 0.82563948631286621 0.017814725637435913
0.74196606874465942 0.8236737847328186 0.016272841021418571
0.83029961585998535 0.82643735408782959 0.016216129064559937
0.90340399742126465 0.83308088779449463 0.017378624528646469
0.96337407827377319 0.83960640430450439 0.018081022426486015
0.998576819896698 0.84171545505523682 0.014125525020062923
0.041265122592449188 0.89734208583831787 0.041025843471288681
0.093584753572940826 0.91199404001235962 0.047683432698249817
0.15679189562797546 0.92365813255310059 0.052090603858232498
0.23505975306034088 0.92996770143508911 0.049868505448102951
0.32848617434501648 0.92934048175811768 0.043057609349489212
0.4343116283416748 0.92298513650894165 0.036427948623895645
0.54586684703826904 0.91367447376251221 0.031262863427400589
0.65496170520782471 0.9046669602394104 0.027394955977797508
0.7543872594833374 0.89958018064498901 0.024894369766116142
0.83781957626342773 0.89997029304504395 0.024065593257546425
0.90687805414199829 0.90423440933227539 0.0236982312053442
0.96451365947723389 0.90879404544830322 0.022768476977944374
0.99882078170776367 0.9105069637298584 0.019021278247237206
0.059337764978408813 0.98182100057601929 0.064634673297405243
0.11481548845767975 0.98975616693496704 0.072119757533073425
0.1812673807144165 0.99387407302856445 0.077182263135910034
0.26132184267044067 0.99511921405792236 0.074235178530216217
0.35496160387992859 0.99359887838363647 0.064674198627471924
0.45824465155601501 0.98942446708679199 0.054115414619445801
0.56589591503143311 0.98177570104598999 0.044950239360332489
0.67164486646652222 0.9721297025680542 0.037846613675355911
0.76799440383911133 0.96424585580825806 0.033178038895130157
0.84768843650817871 0.96209615468978882 0.029900165274739265
0.91343092918395996 0.96469169855117798 0.027943195775151253
0.96904104948043823 0.96791344881057739 0.025467082858085632
0.99963557720184326 0.96964526176452637 0.022411137819290161
0.080093100666999817 1 0.088917359709739685
0.13916239142417908 1 0.094904594123363495
0.20844826102256775 1 0.097977131605148315
0.28918012976646423 1 0.093969322741031647
0.38090723752975464 1 0.083651401102542877
0.4805331826210022 1 0.071384221315383911
0.58348894119262695 1 0.059121508151292801
0.68389648199081421 1 0.049050215631723404
0.77552223205566406 0.9998466968536377 0.041494540870189667
0.85319632291793823 0.99929273128509521 0.036179888993501663
0.91794323921203613 0.99954938888549805 0.032303199172019958
0.97296565771102905 0.99994832277297974 0.029194163158535957
1 1 0.025962606072425842
0.00012368595344014466 0.0258344616740942 0.11508521437644958
0.019001979380846024 0.016335431486368179 0.098163798451423645
0.090337909758090973 0.0089828195050358772 0.088118411600589752
0.18660560250282288 0.0039876452647149563 0.069820672273635864
0.30899715423583984 0.0011751512065529823 0.050753276795148849
0.43914255499839783 0.0010291006183251739 0.029051776975393295
0.55790418386459351 0.0014518887037411332 0.0095980623736977577
0.66593033075332642 0.0029055126942694187 0.0075609246268868446
0.75140678882598877 0.00045756920007988811 0.012828483246266842
0.81117933988571167 0 0.01302363071590662
0.86202925443649292 0 0.0093458583578467369
0.91239053010940552 1.6335879990947433e-05 0.0072348350659012794
0.95938211679458618 0.0048006093129515648 0.0082025416195392609
0 0.085319280624389648 0.10836964100599289
0.0070855235680937767 0.07444433867931366 0.091860093176364899
0.063483253121376038 0.060807052999734879 0.078567966818809509
0.16380944848060608 0.0439162477850914 0.062969177961349487
0.29025542736053467 0.029354723170399666 0.045133896172046661
0.42455151677131653 0.020986713469028473 0.028654420748353004
0.54659128189086914 0.01807301864027977 0.01775055006146431
0.65328001976013184 0.018857290968298912 0.015998406335711479
0.74006015062332153 0.014215790666639805 0.019484275951981544
0.80701595544815063 0.007630456704646349 0.020999385043978691
0.86841702461242676 0.0088570835068821907 0.01861756294965744
0.92720401287078857 0.021775219589471817 0.017623363062739372
0.97535568475723267 0.045622192323207855 0.021566098555922508
0 0.15293362736701965 0.092511929571628571
0.0024996439460664988 0.1411362886428833 0.083462566137313843
0.047515075653791428 0.12800061702728271 0.070614010095596313
0.14978420734405518 0.11184971779584885 0.053336571902036667
0.28167000412940979 0.095390453934669495 0.032622765749692917
0.41775137186050415 0.081121377646923065 0.018544724211096764
0.54065775871276855 0.070860795676708221 0.017300430685281754
0.65136289596557617 0.067276254296302795 0.019341442734003067
0.74770361185073853 0.064552873373031616 0.022384688258171082
0.82630521059036255 0.062046200037002563 0.02665354497730732
0.89809870719909668 0.069366529583930969 0.028223015367984772
0.95860421657562256 0.08897506445646286 0.031400524079799652
0.99343305826187134 0.11500028520822525 0.039986375719308853
0.00094444426940754056 0.22709798812866211 0.062876082956790924
0.0060187992639839649 0.21524499356746674 0.064327061176300049
0.049268804490566254 0.2044541984796524 0.05927937850356102
0.14571930468082428 0.19322186708450317 0.046287938952445984
0.2760559618473053 0.18094658851623535 0.027788484469056129
0.41207784414291382 0.16861417889595032 0.016092875972390175
0.53943884372711182 0.15843802690505981 0.015743181109428406
0.66126340627670288 0.15367433428764343 0.016294710338115692
0.77284687757492065 0.15294331312179565 0.01755593903362751
0.86395877599716187 0.15507209300994873 0.02447274886071682
0.93772006034851074 0.16456462442874908 0.032424509525299072
0.98809456825256348 0.18320189416408539 0.040371298789978027
0.99979919195175171 0.206581711769104 0.051846671849489212
0.0055186999961733818 0.30384951829910278 0.037568364292383194
0.019271131604909897 0.29713112115859985 0.043452125042676926
0.065378256142139435 0.29173749685287476 0.046394169330596924
0.15491439402103424 0.28606432676315308 0.041506510227918625
0.27615046501159668 0.27970299124717712 0.032519441097974777
0.40517771244049072 0.27372413873672485 0.02661660872399807
0.53528708219528198 0.26852715015411377 0.022888977080583572
0.66750705242156982 0.26517567038536072 0.0169499721378088
0.79035979509353638 0.26524785161018372 0.013935687951743603
0.88980937004089355 0.26874670386314392 0.019416136667132378
0.96246349811553955 0.27823713421821594 0.030346065759658813
0.99786567687988281 0.29469472169876099 0.03895079717040062
1 0.31416821479797363 0.04678884893655777
0.0096752839162945747 0.38431954383850098 0.026544667780399323
0.033806055784225464 0.38633152842521667 0.031831808388233185
0.083940066397190094 0.38908505439758301 0.037910178303718567
0.16770979762077332 0.39078569412231445 0.040069580078125
0.27721300721168518 0.39119809865951538 0.039440035820007324
0.3967193067073822 0.39102298021316528 0.040063478052616119
0.52539002895355225 0.39006546139717102 0.034635894000530243
0.66067379713058472 0.38796895742416382 0.02314097061753273
0.78706461191177368 0.38763153553009033 0.01469599362462759
0.89221346378326416 0.39103531837463379 0.014644383452832699
0.967498779296875 0.40008965134620667 0.020686639472842216
0.99900448322296143 0.41456496715545654 0.024533649906516075
1 0.4312751293182373 0.028183342888951302
0.012333693914115429 0.47563150525093079 0.024786990135908127
0.045103710144758224 0.48513075709342957 0.029032448306679726
0.098857983946800232 0.49565482139587402 0.036019928753376007
0.17774651944637299 0.50410276651382446 0.041781391948461533
0.277944415807724 0.50986945629119873 0.046210810542106628
0.39174219965934753 0.51331466436386108 0.048431921750307083
0.51695346832275391 0.51377284526824951 0.043102115392684937
0.64780086278915405 0.51247298717498779 0.031231898814439774
0.77074980735778809 0.51258385181427002 0.020318290218710899
0.87654995918273926 0.51623231172561646 0.01436151284724474
0.95797288417816162 0.52422696352005005 0.012586181983351707
0.99782216548919678 0.53596675395965576 0.011315708979964256
1 0.54920381307601929 0.014055020175874233
0.013789980672299862 0.58105260133743286 0.027763770893216133
0.053863584995269775 0.59456008672714233 0.032573848962783813
0.11054913699626923 0.60905539989471436 0.039763849228620529
0.18739625811576843 0.62105256319046021 0.046181220561265945
0.28317087888717651 0.62918055057525635 0.050665326416492462
0.39402225613594055 0.63261014223098755 0.052314653992652893
0.51473796367645264 0.63265866041183472 0.048338752239942551
0.63709449768066406 0.63145583868026733 0.039789490401744843
0.75117713212966919 0.63205492496490479 0.030325273051857948
0.85053259134292603 0.63661974668502808 0.02343221940100193
0.93411135673522949 0.64397680759429932 0.01868489570915699
0.99111437797546387 0.65269297361373901 0.015721699222922325
1 0.66059160232543945 0.018056323751807213
0.017440302297472954 0.6936497688293457 0.036086346954107285
0.062832042574882507 0.70868319272994995 0.042402260005474091
0.12288857251405716 0.72366154193878174 0.050102803856134415
0.19987002015113831 0.73570305109024048 0.055163290351629257
0.29418274760246277 0.74285143613815308 0.057484228163957596
0.40322864055633545 0.74440819025039673 0.057495102286338806
0.51963669061660767 0.74222499132156372 0.054633840918540955
0.63434559106826782 0.7391963005065918 0.049343138933181763
0.73898792266845703 0.73899441957473755 0.043481279164552689
0.82975345849990845 0.74327921867370605 0.038846544921398163
0.90807068347930908 0.75046879053115845 0.036108218133449554
0.97503602504730225 0.75688403844833374 0.035511299967765808
0.99994558095932007 0.76032149791717529 0.035482101142406464
0.02673758752644062 0.80430811643600464 0.054500609636306763
0.076417677104473114 0.819050133228302 0.061758361756801605
0.13933989405632019 0.83223950862884521 0.069105528295040131
0.21743050217628479 0.84165072441101074 0.072149969637393951
0.31166473031044006 0.84529823064804077 0.071052789688110352
0.41904416680335999 0.84326094388961792 0.068607091903686523
0.53200429677963257 0.83748716115951538 0.064750552177429199
0.64149051904678345 0.83142906427383423 0.060590751469135284
0.74060559272766113 0.82886892557144165 0.056821245700120926
0.82625108957290649 0.83107775449752808 0.054275870323181152
0.90074414014816284 0.83663976192474365 0.053153079003095627
0.96518152952194214 0.84153956174850464 0.052518058568239212
0.99923062324523926 0.84298324584960938 0.050741411745548248
0.041732113808393478 0.90582156181335449 0.081383615732192993
0.094779878854751587 0.91949242353439331 0.089177541434764862
0.16041064262390137 0.92946863174438477 0.095926083624362946
0.2401997298002243 0.9343416690826416 0.096764147281646729
0.33439779281616211 0.93363630771636963 0.09236425906419754
0.43995457887649536 0.92702960968017578 0.085447676479816437
0.54972177743911743 0.91728132963180542 0.078439272940158844
0.65602338314056396 0.90779459476470947 0.072556845843791962
0.75223398208618164 0.9018368124961853 0.068419270217418671
0.83450210094451904 0.90153813362121582 0.065862767398357391
0.90465056896209717 0.90469616651535034 0.064386866986751556
0.96447551250457764 0.90847969055175781 0.062977813184261322
0.99895954132080078 0.91012108325958252 0.061378583312034607
0.060651414096355438 0.98686051368713379 0.11227188259363174
0.11739536374807358 0.99269038438796997 0.11957823485136032
0.18510201573371887 0.99557024240493774 0.12496299296617508
0.26600086688995361 0.9962729811668396 0.12363050878047943
0.35969188809394836 0.99486112594604492 0.11588640511035919
0.46254655718803406 0.99062663316726685 0.1052372083067894
0.56905311346054077 0.98226499557495117 0.094178609549999237
0.672585129737854 0.97130352258682251 0.084941193461418152
0.76601749658584595 0.9627109169960022 0.078433096408843994
0.84532225131988525 0.96017336845397949 0.074610903859138489
0.91183209419250488 0.96150612831115723 0.072245188057422638
0.96814358234405518 0.96449446678161621 0.070306800305843353
0.99949324131011963 0.96664643287658691 0.068777479231357574
0.081625722348690033 1 0.14360032975673676
0.14155186712741852 1 0.14900180697441101
0.21133540570735931 1 0.15154887735843658
0.29262000322341919 1 0.14818251132965088
0.38458746671676636 1 0.13839541375637054
0.48409149050712585 1 0.12470348924398422
0.58638477325439453 1 0.11078856140375137
0.68552988767623901 0.99999010562896729 0.098391003906726837
0.77540719509124756 0.99919432401657104 0.08927232027053833
0.85249394178390503 0.9983375072479248 0.083529435098171234
0.91726016998291016 0.99855148792266846 0.080102764070034027
0.97225433588027954 0.99903583526611328 0.077742449939250946
1 0.99946719408035278 0.076174043118953705
0 0.027326412498950958 0.20944216847419739
0.011608363129198551 0.017042675986886024 0.19318602979183197
0.080081567168235779 0.010141829028725624 0.18368561565876007
0.18260708451271057 0.0071631036698818207 0.16465762257575989
0.30436715483665466 0.0069333543069660664 0.13920475542545319
0.42740941047668457 0.0069144302979111671 0.10588593035936356
0.54034626483917236 0.0062827016226947308 0.073314055800437927
0.64631301164627075 0.0061019300483167171 0.05805683508515358
0.73383396863937378 0.001529199886135757 0.055117469280958176
0.7943037748336792 0 0.054260853677988052
0.84328114986419678 0 0.051416642963886261
0.89283782243728638 0.00013463637151289731 0.051787208765745163
0.94142216444015503 0.0053707496263086796 0.057377789169549942
0 0.084984734654426575 0.20012810826301575
0.0029951357282698154 0.073194794356822968 0.18551638722419739
0.054614212363958359 0.059555307030677795 0.17226946353912354
0.15525759756565094 0.046451941132545471 0.15440282225608826
0.27905416488647461 0.037304282188415527 0.13150195777416229
0.40603837370872498 0.03114846907556057 0.10278450697660446
0.5218387246131897 0.026343716308474541 0.078480109572410583
0.6280519962310791 0.023801123723387718 0.067245438694953918
0.72085052728652954 0.019548512995243073 0.064835645258426666
0.79244089126586914 0.012727789580821991 0.064707346260547638
0.8510933518409729 0.011796195991337299 0.06452014297246933
0.90778559446334839 0.02330678328871727 0.069655612111091614
0.95731854438781738 0.04612484946846962 0.08055463433265686
0 0.14895661175251007 0.18587052822113037
0.0018058926798403263 0.13781194388866425 0.17330355942249298
0.043756134808063507 0.12546625733375549 0.15609703958034515
0.14309379458427429 0.11078821867704391 0.13654501736164093
0.27095329761505127 0.097153954207897186 0.11486155539751053
0.4002210795879364 0.086010396480560303 0.09248834103345871
0.51640194654464722 0.076733998954296112 0.079006001353263855
0.62636089324951172 0.072171367704868317 0.075654484331607819
0.72967231273651123 0.071652539074420929 0.077420972287654877
0.8132900595664978 0.072437644004821777 0.080520063638687134
0.88191092014312744 0.078202083706855774 0.085148513317108154
0.93774455785751343 0.092668361961841583 0.095167987048625946
0.97894036769866943 0.11538805812597275 0.10950015485286713
0.0011383953969925642 0.21965175867080688 0.15375365316867828
0.008029010146856308 0.21077632904052734 0.14773347973823547
0.050662562251091003 0.2028413861989975 0.13435044884681702
0.14834637939929962 0.19207197427749634 0.11673500388860703
0.27817314863204956 0.1806204617023468 0.096609942615032196
0.40706884860992432 0.17051239311695099 0.081790536642074585
0.52756410837173462 0.1622900515794754 0.075679227709770203
0.6467210054397583 0.15799592435359955 0.076332136988639832
0.75973618030548096 0.15895213186740875 0.082629784941673279
0.85116034746170044 0.16477951407432556 0.088913500308990479
0.92115259170532227 0.17473870515823364 0.097128786146640778
0.96919053792953491 0.18856000900268555 0.11125940084457397
0.995269775390625 0.20775072276592255 0.12865078449249268
0.0046079149469733238 0.29700031876564026 0.11399724334478378
0.020834485068917274 0.29377621412277222 0.11368829756975174
0.069436125457286835 0.2914891242980957 0.11086874455213547
0.16210347414016724 0.28698825836181641 0.10307855159044266
0.28365284204483032 0.28164049983024597 0.093123689293861389
0.40852376818656921 0.27728265523910522 0.085780948400497437
0.53569149971008301 0.27295359969139099 0.077561363577842712
0.6657177209854126 0.26953616738319397 0.072373256087303162
0.78479313850402832 0.26978352665901184 0.075950413942337036
0.88107848167419434 0.27544361352920532 0.08031107485294342
0.95102125406265259 0.28563329577445984 0.089797094464302063
0.99078106880187988 0.29955711960792542 0.10524402558803558
0.99988609552383423 0.31678220629692078 0.12079339474439621
0.0082056382670998573 0.38101762533187866 0.082042410969734192
