assets/lut/ericellerbrock yellowstone.cube
# Created by: G'MIC (https://gmic.eu)
TITLE "yellowstone"
# LUT size
LUT_3D_SIZE 5
# Data domain
DOMAIN_MIN 0.0 0.0 0.0
DOMAIN_MAX 1.0 1.0 1.0
# LUT data points
2.8004365958622657e-05 0.00013786765339318663 0.00040236828499473631
0.19222669303417206 0.034229159355163574 0.00086559221381321549
0.64368593692779541 0.10239113867282867 0.033284131437540054
0.91283106803894043 0.18032914400100708 0.054901961237192154
0.91372549533843994 0.18039216101169586 0.054901961237192154
0.00024270449648611248 0.094921261072158813 0.013444130308926105
0.12319241464138031 0.096232563257217407 0.0029575871303677559
0.6328427791595459 0.14974832534790039 0.021076098084449768
0.93229812383651733 0.23291134834289551 0.040836215019226074
0.94304096698760986 0.25308802723884583 0.034411128610372543
0.0021020479034632444 0.29840889573097229 0.021848162636160851
0.026210306212306023 0.31684225797653198 0.020316420122981071
0.66935479640960693 0.33760088682174683 0.022236304357647896
0.99037629365921021 0.47106549143791199 0.03103485144674778
0.99694979190826416 0.48235294222831726 0.03332049772143364
0.065072692930698395 0.61192226409912109 0.076052241027355194
0.075811348855495453 0.60905981063842773 0.072477243840694427
0.59085738658905029 0.71443748474121094 0.056021343916654587
0.96027660369873047 0.69175887107849121 0.076089940965175629
1 0.7079043984413147 0.092108845710754395
0.08046519011259079 0.65490198135375977 0.086656458675861359
0.29451122879981995 0.71703028678894043 0.078631982207298279
0.77056205272674561 0.87823009490966797 0.15268786251544952
0.95895683765411377 0.92567002773284912 0.240976482629776
0.99978762865066528 0.91905820369720459 0.33224344253540039
0 0.032804243266582489 0.12464331835508347
0.10521050542593002 0.054246280342340469 0.10180560499429703
0.60201364755630493 0.12488910555839539 0.084931030869483948
0.92227017879486084 0.20804931223392487 0.075020134449005127
0.92336231470108032 0.21183541417121887 0.080347649753093719
0 0.095723412930965424 0.11070025712251663
0.075158603489398956 0.11607760190963745 0.10609900951385498
0.63802415132522583 0.16577000916004181 0.057149894535541534
0.93930476903915405 0.25693264603614807 0.062870949506759644
0.94884103536605835 0.27510270476341248 0.055260855704545975
0.0044585880823433399 0.31975576281547546 0.049829371273517609
0.02272389642894268 0.33187592029571533 0.047086633741855621
0.6776617169380188 0.33640184998512268 0.022458663210272789
0.98953777551651001 0.47154191136360168 0.033791545778512955
0.99539214372634888 0.48283481597900391 0.037443540990352631
0.064824000000953674 0.61289012432098389 0.083499565720558167
0.074134647846221924 0.60488414764404297 0.077414162456989288
0.59147775173187256 0.71540427207946777 0.057275570929050446
0.95683199167251587 0.69091176986694336 0.075783856213092804
1 0.73263001441955566 0.12158139050006866
0.078431375324726105 0.65313047170639038 0.14809975028038025
0.22684481739997864 0.75779223442077637 0.27692398428916931
0.75611156225204468 0.89980936050415039 0.36683151125907898
0.95798909664154053 0.94104528427124023 0.42392352223396301
1 0.93702423572540283 0.555012047290802
0.0024190566036850214 0.1554124504327774 0.38848793506622314
0.028374077752232552 0.1615547388792038 0.35560125112533569
0.41005918383598328 0.20287303626537323 0.26550784707069397
0.87234890460968018 0.34006771445274353 0.30456399917602539
0.87647056579589844 0.34140527248382568 0.30479037761688232
0.0041675493121147156 0.18947966396808624 0.3928467333316803
0.021713212132453918 0.20128104090690613 0.40162983536720276
0.43214336037635803 0.25748848915100098 0.30598035454750061
0.88957935571670532 0.39359387755393982 0.35079780220985413
0.89726942777633667 0.40934887528419495 0.36186292767524719
0.01929900236427784 0.32900005578994751 0.42875900864601135
0.02634359709918499 0.3440338671207428 0.44621941447257996
0.4290626049041748 0.49940735101699829 0.45507892966270447
0.97147244215011597 0.63250494003295898 0.4310983419418335
0.98931318521499634 0.63850700855255127 0.42672368884086609
0.09779733419418335 0.76827031373977661 0.69050735235214233
0.095066294074058533 0.75874602794647217 0.68126881122589111
0.39748638868331909 0.74677294492721558 0.43668684363365173
0.93436098098754883 0.79667210578918457 0.28703039884567261
0.99942266941070557 0.82852059602737427 0.44349989295005798
0.11602660268545151 0.82744878530502319 0.79619652032852173
0.16158875823020935 0.85365891456604004 0.83006459474563599
0.72889399528503418 0.92751693725585938 0.67471921443939209
0.94692593812942505 0.95359092950820923 0.70130491256713867
0.99712967872619629 0.95324033498764038 0.78235656023025513
0.028832903131842613 0.30809435248374939 0.68919086456298828
0.052996303886175156 0.31398165225982666 0.67142319679260254
0.18916818499565125 0.36216083168983459 0.63427424430847168
0.79907429218292236 0.44854992628097534 0.53862905502319336
0.80662238597869873 0.44766342639923096 0.53751718997955322
0.03667309507727623 0.3486553430557251 0.71383911371231079
0.057931698858737946 0.36278095841407776 0.73073732852935791
0.18901117146015167 0.40168493986129761 0.68941545486450195
0.81772541999816895 0.49994102120399475 0.60838770866394043
0.82430660724639893 0.49903714656829834 0.599570631980896
0.056145582348108292 0.42736637592315674 0.72959661483764648
0.062543831765651703 0.43061989545822144 0.73933357000350952
0.22251227498054504 0.52523899078369141 0.78770869970321655
0.90939962863922119 0.68771600723266602 0.73541176319122314
0.93821084499359131 0.69832366704940796 0.73396408557891846
0.096492990851402283 0.61892962455749512 0.79695123434066772
0.096751704812049866 0.616649329662323 0.79042279720306396
0.24213704466819763 0.68669557571411133 0.80635356903076172
0.88540792465209961 0.85190922021865845 0.76716774702072144
0.99073463678359985 0.88231825828552246 0.79092276096343994
0.11444129049777985 0.69651311635971069 0.8411065936088562
0.15006661415100098 0.73417216539382935 0.86616009473800659
0.53711944818496704 0.90531045198440552 0.91649371385574341
0.92812275886535645 0.95558035373687744 0.85050511360168457
0.98999541997909546 0.96522504091262817 0.87815302610397339
0.029540792107582092 0.30980393290519714 0.69411766529083252
0.053998176008462906 0.31872260570526123 0.67846012115478516
0.19231654703617096 0.37426099181175232 0.65835845470428467
0.77859687805175781 0.46668067574501038 0.58039218187332153
0.79534316062927246 0.47070959210395813 0.58431375026702881
0.037661008536815643 0.35055321455001831 0.72052693367004395
0.060481440275907516 0.36535069346427917 0.73307293653488159
0.19689230620861053 0.41574317216873169 0.70940601825714111
0.81299370527267456 0.50995254516601562 0.63106453418731689
0.81627440452575684 0.5059889554977417 0.62459480762481689
0.064705885946750641 0.45627161860466003 0.7861449122428894
0.072223007678985596 0.46326401829719543 0.79596346616744995
0.20830526947975159 0.5516853928565979 0.85587888956069946
0.87911045551300049 0.69146335124969482 0.82573878765106201
0.916861891746521 0.69735896587371826 0.81645947694778442
0.099448531866073608 0.60902756452560425 0.8540845513343811
0.10605836659669876 0.6002466082572937 0.852774977684021
0.21288689970970154 0.66351699829101562 0.89246499538421631
0.85133999586105347 0.86414867639541626 0.88952720165252686
0.9831775426864624 0.89264154434204102 0.8804088830947876
0.11093712598085403 0.65211009979248047 0.86666667461395264
0.16410629451274872 0.69924122095108032 0.89284610748291016
0.594432532787323 0.87825846672058105 0.94023048877716064
0.93023759126663208 0.96182715892791748 0.90661263465881348
0.9716838002204895 0.94964504241943359 0.89426702260971069
