assets/lut/ericellerbrock hypnosis.cube
# Created by: G'MIC (https://gmic.eu)
TITLE "hypnosis"
# LUT size
LUT_3D_SIZE 7
# Data domain
DOMAIN_MIN 0.0 0.0 0.0
DOMAIN_MAX 1.0 1.0 1.0
# LUT data points
0.0047554615885019302 0.0039215688593685627 0.0039215688593685627
0.011887195520102978 0.0078388284891843796 0.0049445061013102531
0.04015553742647171 0.017308104783296585 0.011026345193386078
0.2175251841545105 0.044914454221725464 0.015201837755739689
0.58137905597686768 0.058199595659971237 0.0052083334885537624
0.81526428461074829 0.066536784172058105 0
0.84461069107055664 0.07112438976764679 0
0.0039215688593685627 0.0039215688593685627 0.0035726809874176979
0.010141978971660137 0.0081119611859321594 0.0064773112535476685
0.039368003606796265 0.019540045410394669 0.011864097788929939
0.23857396841049194 0.05244344100356102 0.014006895013153553
0.6562238335609436 0.079931788146495819 0.0052509233355522156
0.89958053827285767 0.10010354965925217 0
0.93096417188644409 0.11029802262783051 0
0.00044041054206900299 0.0059847664088010788 0.0044347574003040791
0.0065366257913410664 0.013892005197703838 0.010816805996000767
0.060882151126861572 0.057656802237033844 0.027591630816459656
0.34514507651329041 0.087054312229156494 0.0091327289119362831
0.7788698673248291 0.11706998944282532 0.00073833094211295247
0.95515614748001099 0.17054536938667297 0
0.96796393394470215 0.18239800631999969 0
0.0027287651319056749 0.14150403439998627 0.076209694147109985
0.0031293982174247503 0.12945449352264404 0.067908599972724915
0.011411704123020172 0.13731251657009125 0.06167043000459671
0.41910865902900696 0.24303832650184631 0.0044161477126181126
0.89474970102310181 0.26864302158355713 0
0.98995226621627808 0.25707206130027771 0.00017638861027080566
0.99409973621368408 0.28279298543930054 2.8004365958622657e-05
0 0.60259151458740234 0.26385372877120972
0 0.61248838901519775 0.25079643726348877
0.00026304955827072263 0.60500919818878174 0.21150323748588562
0.087367132306098938 0.66288775205612183 0.13846772909164429
0.89155769348144531 0.73393046855926514 0.10498944669961929
0.9868464469909668 0.75756919384002686 0.19367882609367371
0.98819661140441895 0.73900169134140015 0.19591619074344635
0 0.84328651428222656 0.43250998854637146
0 0.84330612421035767 0.42002424597740173
0.0036832173354923725 0.85651445388793945 0.41987258195877075
0.10520985722541809 0.87657302618026733 0.36134368181228638
0.70060360431671143 0.91077888011932373 0.44600597023963928
0.95045375823974609 0.9330742359161377 0.82027477025985718
0.9529411792755127 0.93598198890686035 0.82846605777740479
0 0.85816150903701782 0.45181348919868469
0.00026658002752810717 0.87509816884994507 0.45716595649719238
0.015644043684005737 0.88267034292221069 0.43217474222183228
0.11441559344530106 0.89832645654678345 0.38516026735305786
0.66186857223510742 0.91856598854064941 0.46156281232833862
0.9494890570640564 0.93458902835845947 0.80986398458480835
0.94971740245819092 0.93333333730697632 0.80282723903656006
0.0035614012740552425 0.0016907935496419668 0.00019722733122762293
0.0045800902880728245 0.0039215688593685627 0.0033196692820638418
0.041808273643255234 0.014462579041719437 0.010203268378973007
0.20005054771900177 0.03982442244887352 0.019910505041480064
0.53036397695541382 0.045186720788478851 0.0042705461382865906
0.78137743473052979 0.056033998727798462 0.00055503094336017966
0.82288289070129395 0.061684150248765945 0.0029122147243469954
0.0022588095162063837 0.0037823247257620096 0.0028667375445365906
0.0074362060986459255 0.0058235917240381241 0.0043840892612934113
0.048181015998125076 0.02530936524271965 0.018316620960831642
0.23205766081809998 0.05304819718003273 0.019166415557265282
0.61665230989456177 0.069809496402740479 0.0072208181954920292
0.85088890790939331 0.082933209836483002 0
0.90316504240036011 0.093467026948928833 9.1403140686452389e-05
0.0025309843476861715 0.013692594133317471 0.012041817419230938
0.0047299554571509361 0.015081891790032387 0.012767178006470203
0.069544471800327301 0.062757916748523712 0.033214390277862549
0.34225746989250183 0.087782628834247589 0.0078827952966094017
0.76417785882949829 0.10614080727100372 0.0018154218560084701
0.94380873441696167 0.15387071669101715 0
0.9606931209564209 0.15724863111972809 0
0.002545465249568224 0.15786005556583405 0.10293136537075043
0.0027768900617957115 0.14501464366912842 0.090126857161521912
0.0069789513945579529 0.1457248330116272 0.075405523180961609
0.45347136259078979 0.26254874467849731 0.0065095787867903709
0.8908388614654541 0.26546773314476013 0
0.98877453804016113 0.27628856897354126 0
0.99498414993286133 0.27961498498916626 0.00081000232603400946
0 0.61506074666976929 0.30577340722084045
0 0.61118626594543457 0.29446381330490112
0.00051458022790029645 0.61131167411804199 0.25290217995643616
0.16612140834331512 0.66921836137771606 0.1651492565870285
0.89149016141891479 0.735973060131073 0.10955993086099625
0.98542040586471558 0.76124030351638794 0.22078754007816315
0.98614990711212158 0.74832391738891602 0.22457276284694672
0 0.85531783103942871 0.49120563268661499
0.0063310363329946995 0.85696518421173096 0.4818444550037384
0.025955919176340103 0.85223829746246338 0.4321478009223938
0.095113165676593781 0.87706601619720459 0.39102369546890259
0.69236099720001221 0.90799820423126221 0.46312755346298218
0.95293819904327393 0.93660092353820801 0.83101457357406616
0.95331805944442749 0.93738162517547607 0.83230686187744141
0 0.87203335762023926 0.50784116983413696
0.019606392830610275 0.87933862209320068 0.49514135718345642
0.072948575019836426 0.88303154706954956 0.4548167884349823
0.21019010245800018 0.91039597988128662 0.42126598954200745
0.66364932060241699 0.91808450222015381 0.48814874887466431
0.95291942358016968 0.93638134002685547 0.81498342752456665
0.94901961088180542 0.93104159832000732 0.77837467193603516
0.003484000451862812 0.0068777045235037804 0.012937000021338463
0.0039682425558567047 0.0039215688593685627 0.0053800544701516628
0.046831347048282623 0.015584294684231281 0.015822930261492729
0.21767464280128479 0.039922468364238739 0.039185438305139542
0.54130178689956665 0.045492988079786301 0.019035309553146362
0.77041608095169067 0.051418036222457886 0.012821421958506107
0.8200640082359314 0.056877825409173965 0.029355531558394432
0.0046383724547922611 0.011966181918978691 0.017554713413119316
0.0081250658258795738 0.010713345371186733 0.013709901832044125
0.04988422617316246 0.022485082969069481 0.022299822419881821
0.22212623059749603 0.0467238649725914 0.036451525986194611
0.56816822290420532 0.052112653851509094 0.01399860717356205
0.80100888013839722 0.066207632422447205 0.0069916518405079842
0.86088091135025024 0.071396864950656891 0.015723060816526413
0.0079003581777215004 0.044645152986049652 0.053754199296236038
0.0085561415180563927 0.036791916936635971 0.043600328266620636
0.052753075957298279 0.062870606780052185 0.059124097228050232
0.32401794195175171 0.10641121864318848 0.044591207057237625
0.78798007965087891 0.11996970325708389 0.0018531949026510119
0.90647095441818237 0.14904505014419556 0.0074276793748140335
0.90888255834579468 0.13729509711265564 0.0049210195429623127
0.0019607844296842813 0.20279407501220703 0.17108197510242462
0.0015738692600280046 0.18730972707271576 0.16024085879325867
0.0059018600732088089 0.18879501521587372 0.14151240885257721
0.43660199642181396 0.30264592170715332 0.041996661573648453
0.91083627939224243 0.27662917971611023 0.0028531241696327925
0.98679012060165405 0.28935438394546509 0.0078397411853075027
0.99226254224777222 0.29853472113609314 0.0078425090759992599
0 0.61591273546218872 0.38109681010246277
0 0.62161844968795776 0.37077996134757996
0.0013289657654240727 0.6297295093536377 0.34193450212478638
0.098000064492225647 0.68320447206497192 0.24063706398010254
0.88955229520797729 0.75247806310653687 0.13266611099243164
0.98203963041305542 0.76330173015594482 0.26485955715179443
0.98414188623428345 0.74304622411727905 0.24539628624916077
0 0.85174733400344849 0.53388988971710205
0.013426732271909714 0.85081356763839722 0.52018684148788452
0.031986325979232788 0.85368305444717407 0.49250298738479614
0.078195966780185699 0.87452876567840576 0.44683808088302612
0.68222129344940186 0.90944439172744751 0.49854281544685364
0.95454418659210205 0.94143772125244141 0.85584616661071777
0.95644748210906982 0.94484490156173706 0.86606407165527344
9.8015283583663404e-05 0.88388854265213013 0.57514184713363647
0.036615200340747833 0.88080263137817383 0.5425686240196228
0.085921913385391235 0.88100320100784302 0.50184106826782227
0.20069320499897003 0.91191941499710083 0.47452551126480103
0.6179049015045166 0.92290371656417847 0.5354730486869812
0.95335167646408081 0.94301378726959229 0.84628361463546753
0.95467054843902588 0.94281846284866333 0.83643287420272827
0.008290623314678669 0.027851119637489319 0.054934468120336533
0.0037564595695585012 0.004385839682072401 0.0081199798732995987
0.037397362291812897 0.019239822402596474 0.030425276607275009
0.2540552020072937 0.045597299933433533 0.085531570017337799
0.56749254465103149 0.042810462415218353 0.079070419073104858
0.80967217683792114 0.056767962872982025 0.10016170144081116
0.84173691272735596 0.057880416512489319 0.083316922187805176
0.0074823116883635521 0.06137993186712265 0.10949591547250748
0.007841058075428009 0.034429930150508881 0.064066298305988312
0.031426820904016495 0.021376769989728928 0.033470392227172852
0.27822697162628174 0.050438735634088516 0.085388794541358948
0.61716890335083008 0.0533115454018116 0.084975838661193848
0.82166033983230591 0.060630425810813904 0.081336647272109985
0.85124099254608154 0.062294844537973404 0.0715508833527565
0.0043042651377618313 0.12402676045894623 0.19323034584522247
0.0032193351071327925 0.11256386339664459 0.1817893385887146
0.031518660485744476 0.086802221834659576 0.13847768306732178
0.31629681587219238 0.090226300060749054 0.11279042810201645
0.71389466524124146 0.096034809947013855 0.065423049032688141
0.85756343603134155 0.083724290132522583 0.046845141798257828
0.87626796960830688 0.093181535601615906 0.044899512082338333
4.9635942559689283e-05 0.23920756578445435 0.3023039698600769
0 0.24356478452682495 0.30880597233772278
0.0029467265121638775 0.24762822687625885 0.30760961771011353
0.22188591957092285 0.27331221103668213 0.25977501273155212
0.86390924453735352 0.34473636746406555 0.10825258493423462
0.97896665334701538 0.35558596253395081 0.095298886299133301
0.98745954036712646 0.36063185334205627 0.098976507782936096
0 0.62787258625030518 0.50723826885223389
0 0.65177685022354126 0.49727684259414673
0.00051556754624471068 0.65968853235244751 0.48313471674919128
0.095623627305030823 0.69406020641326904 0.43735256791114807
0.86780214309692383 0.79890972375869751 0.28711941838264465
0.97771334648132324 0.7825014591217041 0.37520742416381836
0.97710442543029785 0.77112895250320435 0.37345108389854431
0 0.8566969633102417 0.62871909141540527
0.0095683382824063301 0.85966700315475464 0.62280678749084473
0.024153197184205055 0.8699219822883606 0.63012790679931641
0.1372239738702774 0.88185769319534302 0.56546169519424438
0.65548735857009888 0.91236871480941772 0.58707958459854126
0.96015208959579468 0.95298928022384644 0.89963346719741821
0.96151697635650635 0.95566147565841675 0.90664416551589966
0 0.88953042030334473 0.66796886920928955
0.026417572051286697 0.89027082920074463 0.65869820117950439
0.066816233098506927 0.8906022310256958 0.64531803131103516
0.15952099859714508 0.91090625524520874 0.59734451770782471
0.58172941207885742 0.92272424697875977 0.61487859487533569
0.95716404914855957 0.95121163129806519 0.88570326566696167
0.95760726928710938 0.95068228244781494 0.88091731071472168
0.02108338288962841 0.055826105177402496 0.16044564545154572
0.026645032688975334 0.034346606582403183 0.099415801465511322
0.060621164739131927 0.038375511765480042 0.11124849319458008
0.21415175497531891 0.056115094572305679 0.18858452141284943
0.70852071046829224 0.066647939383983612 0.28890421986579895
0.92318928241729736 0.10162672400474548 0.31764790415763855
0.94190388917922974 0.11227881908416748 0.31530410051345825
0.0075263376347720623 0.10715015232563019 0.30196613073348999
0.019803125411272049 0.077662914991378784 0.21276456117630005
0.048977240920066833 0.048527825623750687 0.14245694875717163
0.22487685084342957 0.062916621565818787 0.20495389401912689
0.73916232585906982 0.070008732378482819 0.29901894927024841
0.92401200532913208 0.11533155292272568 0.32764196395874023
0.94735813140869141 0.12869015336036682 0.32801848649978638
0 0.28682473301887512 0.57867395877838135
0.00053221761481836438 0.27170595526695251 0.57027286291122437
0.022788058966398239 0.18736459314823151 0.4548400342464447
0.22879412770271301 0.10890893638134003 0.29296624660491943
0.78852123022079468 0.10782162845134735 0.3232097327709198
0.94749552011489868 0.16149230301380157 0.32729038596153259
0.96129488945007324 0.17621399462223053 0.31877094507217407
0 0.38622191548347473 0.60123330354690552
0 0.40213516354560852 0.62318336963653564
5.7444854064669926e-06 0.41989913582801819 0.65945261716842651
0.091132022440433502 0.35318443179130554 0.62543749809265137
0.85623729228973389 0.27269402146339417 0.38642400503158569
0.97319388389587402 0.29522651433944702 0.34276622533798218
0.98103642463684082 0.3002171516418457 0.33313643932342529
0 0.66746616363525391 0.73518520593643188
0 0.67097216844558716 0.74111407995223999
3.829657089227112e-06 0.691700279712677 0.7571563720703125
0.028385072946548462 0.72503358125686646 0.77491414546966553
0.70205146074295044 0.79064059257507324 0.72526639699935913
0.95876467227935791 0.77463251352310181 0.64189654588699341
0.96327650547027588 0.767833411693573 0.62519669532775879
0 0.8842695951461792 0.83478718996047974
0.0033204322680830956 0.89140087366104126 0.83770847320556641
0.018219128251075745 0.90021157264709473 0.844859778881073
0.090693533420562744 0.90651363134384155 0.83197265863418579
0.47630053758621216 0.91940206289291382 0.79059934616088867
0.9673575758934021 0.96524167060852051 0.93330371379852295
0.96964716911315918 0.96163976192474365 0.92087149620056152
0 0.90968978404998779 0.84814184904098511
0.011918999254703522 0.9118649959564209 0.85089784860610962
0.044858567416667938 0.9157097339630127 0.84858691692352295
0.12201907485723495 0.92561864852905273 0.83815962076187134
0.45041120052337646 0.92696303129196167 0.79534685611724854
0.96540027856826782 0.96539849042892456 0.92611372470855713
0.97014135122299194 0.96886241436004639 0.93300080299377441
0.055815260857343674 0.061414651572704315 0.22879421710968018
0.08075423538684845 0.060665324330329895 0.24033080041408539
0.14188891649246216 0.065690957009792328 0.28131586313247681
0.29694050550460815 0.074528619647026062 0.35848891735076904
0.75971323251724243 0.094933606684207916 0.48928144574165344
0.96020805835723877 0.16923031210899353 0.53424263000488281
0.97457587718963623 0.18353430926799774 0.53926175832748413
0.02790851891040802 0.089508995413780212 0.30623099207878113
0.05760810524225235 0.079209767282009125 0.29781115055084229
0.12215463817119598 0.086680471897125244 0.33815613389015198
0.28259590268135071 0.089621677994728088 0.38985395431518555
0.78389877080917358 0.11170649528503418 0.50642406940460205
0.95992028713226318 0.18011133372783661 0.53678685426712036
0.98221749067306519 0.19958579540252686 0.54438477754592896
0.0018692765152081847 0.23490665853023529 0.62729930877685547
0.0079646836966276169 0.18392935395240784 0.55165427923202515
0.036652568727731705 0.17429435253143311 0.54514998197555542
0.26871958374977112 0.13464045524597168 0.49010741710662842
0.78330928087234497 0.15686425566673279 0.51673382520675659
0.96963930130004883 0.22522491216659546 0.53065609931945801
0.98740804195404053 0.24623183906078339 0.54955935478210449
0 0.53170567750930786 0.82052838802337646
0 0.52665764093399048 0.82079803943634033
1.4361213516167481e-06 0.50908023118972778 0.81975167989730835
0.077744007110595703 0.35859721899032593 0.75632214546203613
0.79888039827346802 0.28698104619979858 0.56082695722579956
0.97546136379241943 0.34058472514152527 0.55565541982650757
0.98977446556091309 0.37205332517623901 0.57041484117507935
0 0.72741401195526123 0.8733212947845459
0 0.72310179471969604 0.87740427255630493
0 0.71985322237014771 0.87727981805801392
0.017760049551725388 0.73590290546417236 0.89563202857971191
0.59058070182800293 0.73808544874191284 0.8166009783744812
0.9618648886680603 0.71592491865158081 0.73798084259033203
0.96912878751754761 0.72662675380706787 0.75057888031005859
0 0.89361166954040527 0.94413548707962036
0 0.89391648769378662 0.94619733095169067
0.0049475724808871746 0.8978767991065979 0.94685083627700806
0.056193795055150986 0.90932440757751465 0.95067512989044189
0.37457481026649475 0.92822456359863281 0.95439654588699341
0.96649962663650513 0.97388076782226562 0.96039783954620361
0.9746396541595459 0.97177928686141968 0.95957028865814209
0 0.91406011581420898 0.94867652654647827
0.0014955707592889667 0.91266721487045288 0.94897520542144775
0.020528098568320274 0.91841238737106323 0.95268779993057251
0.071558214724063873 0.92888468503952026 0.95830297470092773
0.36506599187850952 0.93781149387359619 0.95684266090393066
0.97219157218933105 0.98329675197601318 0.97105860710144043
0.97651964426040649 0.98369711637496948 0.97271323204040527
0.047452621161937714 0.066666670143604279 0.2537848949432373
0.076813161373138428 0.069403313100337982 0.26871767640113831
0.17265188694000244 0.073260635137557983 0.31443038582801819
0.33207216858863831 0.078929126262664795 0.39106744527816772
0.75137114524841309 0.099090531468391418 0.50799232721328735
0.95917439460754395 0.17234180867671967 0.56362813711166382
0.9686274528503418 0.18097303807735443 0.56397056579589844
0.038286007940769196 0.079091630876064301 0.29065945744514465
0.062053978443145752 0.083599403500556946 0.31476834416389465
0.14455240964889526 0.088845886290073395 0.3501485288143158
0.30814090371131897 0.097467802464962006 0.42085793614387512
0.77994024753570557 0.12226955592632294 0.51969903707504272
0.95997601747512817 0.18860869109630585 0.56040549278259277
0.97945648431777954 0.2094343900680542 0.56721246242523193
0.0020966173615306616 0.23708388209342957 0.61681205034255981
0.0099029242992401123 0.17836621403694153 0.54797816276550293
0.041877776384353638 0.19003908336162567 0.58297592401504517
0.27820286154747009 0.13886900246143341 0.5116686224937439
0.79064595699310303 0.16522935032844543 0.54584348201751709
0.97350335121154785 0.23995053768157959 0.56823784112930298
0.98628026247024536 0.26517400145530701 0.57324421405792236
0 0.54192686080932617 0.83371084928512573
0 0.53423839807510376 0.83291900157928467
0.00036715337773784995 0.51792234182357788 0.83180105686187744
0.099517062306404114 0.36294898390769958 0.75371360778808594
0.80267417430877686 0.28495988249778748 0.57702410221099854
0.97367781400680542 0.34390407800674438 0.58726590871810913
0.98931586742401123 0.37758323550224304 0.58932429552078247
0 0.73335522413253784 0.89449775218963623
0 0.73351407051086426 0.89486420154571533
0 0.7346070408821106 0.89717036485671997
0.0083454502746462822 0.74419742822647095 0.91067582368850708
0.58809351921081543 0.72292494773864746 0.81366437673568726
0.96565264463424683 0.70340549945831299 0.73851460218429565
0.97248512506484985 0.7151145339012146 0.7455984354019165
0 0.88753974437713623 0.95061993598937988
0 0.88699960708618164 0.9490390419960022
0.0050904066301882267 0.8890756368637085 0.95325416326522827
0.063832767307758331 0.90592139959335327 0.96166783571243286
0.34386160969734192 0.92555183172225952 0.96415811777114868
0.97272592782974243 0.9782375693321228 0.96829158067703247
0.97485315799713135 0.97698527574539185 0.96639752388000488
0 0.89954859018325806 0.94901961088180542
0 0.90015441179275513 0.94901961088180542
0.018289050087332726 0.90536439418792725 0.95496618747711182
0.085265949368476868 0.92359930276870728 0.96466386318206787
0.34992077946662903 0.93407565355300903 0.9642326831817627
0.97497886419296265 0.98735803365707397 0.97785216569900513
0.99122554063796997 0.99315965175628662 0.98803263902664185
