assets/lut/ericellerbrock helios.cube
# Created by: G'MIC (https://gmic.eu)
TITLE "helios"
# LUT size
LUT_3D_SIZE 5
# Data domain
DOMAIN_MIN 0.0 0.0 0.0
DOMAIN_MAX 1.0 1.0 1.0
# LUT data points
0.025701425969600677 0.0309740100055933 0.029094202443957329
0.089407838881015778 0.045513495802879333 0.050459019839763641
0.37177962064743042 0.014066389761865139 0.014687152579426765
0.73112654685974121 0.00016919303743634373 0
0.98969751596450806 0.015645405277609825 0.0041158339008688927
0.019705872982740402 0.18796516954898834 0.046648390591144562
0.21892911195755005 0.22578611969947815 0.023107551038265228
0.73838412761688232 0.20402857661247253 2.7735093681258149e-05
0.99996143579483032 0.23814944922924042 0.0035991445183753967
0.9995427131652832 0.29630345106124878 0.039939027279615402
0.0043466603383421898 0.6252741813659668 0
0.24821311235427856 0.65843325853347778 0
0.71496647596359253 0.65976369380950928 0.00071313895750790834
0.99991762638092041 0.68519121408462524 1.0501637007109821e-05
0.99890196323394775 0.72041147947311401 0.0026938645169138908
0.0055592707358300686 0.99321466684341431 7.0010914896556642e-06
0.21282878518104553 1 0
0.70531511306762695 0.98426967859268188 0.0025184482801705599
0.97971504926681519 0.95763736963272095 0.0084182145074009895
0.99668192863464355 0.97225826978683472 0.00037086335942149162
0.054515734314918518 1 0
0.29775407910346985 1 0
0.70287626981735229 1 0
0.97287493944168091 1 4.4923668610863388e-05
1 1 0
0.030495228245854378 0.03916352242231369 0.077320680022239685
0.10307726263999939 0.047380290925502777 0.12122062593698502
0.43586280941963196 0.0025844797492027283 0.14439396560192108
0.81075119972229004 0.0013074388261884451 0.15571829676628113
0.99821799993515015 0.01423034630715847 0.17638091742992401
0.010384698398411274 0.19538687169551849 0.21138207614421844
0.2457556426525116 0.23139916360378265 0.23848293721675873
0.76009452342987061 0.20875881612300873 0.1994767040014267
0.99973934888839722 0.24731168150901794 0.24215573072433472
0.99904853105545044 0.29848691821098328 0.30236446857452393
0.021626910194754601 0.63576346635818481 0.14079990983009338
0.25983229279518127 0.67537999153137207 0.17004147171974182
0.72938823699951172 0.67309176921844482 0.12165045738220215
0.99660980701446533 0.69117015600204468 0.12771318852901459
0.99503904581069946 0.71830880641937256 0.18754242360591888
0.00040229348815046251 0.99822038412094116 0.18557718396186829
0.17321416735649109 1 0.15667687356472015
0.69969487190246582 0.9813806414604187 0.080587007105350494
0.98211514949798584 0.95838665962219238 0.057481460273265839
0.99908691644668579 0.95220673084259033 0.056983198970556259
0.011849496513605118 0.99915838241577148 0.2132451981306076
0.2438710480928421 1 0.20195041596889496
0.69606471061706543 1 0.096562482416629791
0.96464592218399048 1 0.082262180745601654
1 1 0.046622078865766525
0.031266335397958755 0.037524592131376266 0.1635080873966217
0.11444854736328125 0.035258229821920395 0.29704961180686951
0.49481126666069031 2.0464729459490627e-05 0.47682484984397888
0.8666805624961853 9.2809343186672777e-05 0.57494217157363892
0.99799519777297974 0.017318053171038628 0.63149994611740112
0.0077318828552961349 0.2000703364610672 0.59208697080612183
0.2569642961025238 0.22749139368534088 0.69659149646759033
0.75956064462661743 0.20688216388225555 0.68580812215805054
0.99968153238296509 0.24007073044776917 0.74770140647888184
0.99684000015258789 0.28073680400848389 0.86957246065139771
0.0032892564777284861 0.63269627094268799 0.62553912401199341
0.21530322730541229 0.67866700887680054 0.67561715841293335
0.70680898427963257 0.65920549631118774 0.68358057737350464
0.99573498964309692 0.66824936866760254 0.69247984886169434
0.99925845861434937 0.69971650838851929 0.72319644689559937
0 0.99964100122451782 0.73250651359558105
0.15186432003974915 0.99789619445800781 0.71837747097015381
0.66116774082183838 0.95342987775802612 0.6218268871307373
0.95146054029464722 0.92530781030654907 0.59752839803695679
0.9999813437461853 0.92222833633422852 0.59315782785415649
0 0.99640142917633057 0.75825124979019165
0.17262038588523865 0.99422448873519897 0.70623373985290527
0.65402454137802124 1 0.5998542308807373
0.92879778146743774 0.9999687671661377 0.56694835424423218
1 0.9997362494468689 0.55516272783279419
0.026301858946681023 0.04013945534825325 0.22782972455024719
0.13989245891571045 0.027465805411338806 0.45959869027137756
0.55850100517272949 0 0.73397970199584961
0.89890629053115845 0.006906561553478241 0.85024857521057129
1 0.027145834639668465 0.90872287750244141
0.0090063354000449181 0.20280316472053528 0.83503460884094238
0.27398306131362915 0.23531113564968109 0.96116214990615845
0.77374750375747681 0.21981100738048553 0.97127854824066162
1 0.23953704535961151 0.99998748302459717
1 0.28969597816467285 1
0.0070644603110849857 0.64155995845794678 0.89509105682373047
0.19649015367031097 0.69188171625137329 0.99138844013214111
0.71019440889358521 0.66185241937637329 0.99654769897460938
0.99603474140167236 0.66719359159469604 0.99006789922714233
0.99998944997787476 0.69307869672775269 0.99053728580474854
0 0.99706494808197021 0.99991422891616821
0.15931114554405212 0.99878281354904175 0.99897134304046631
0.65295767784118652 0.94141489267349243 0.9549441933631897
0.9309883713722229 0.90714329481124878 0.91619789600372314
1 0.90115487575531006 0.90954852104187012
0.00011843512766063213 1 1
0.1721598207950592 1 0.99916386604309082
0.6266944408416748 1 0.93239897489547729
0.90178662538528442 1 0.88662523031234741
1 0.99575728178024292 0.87513327598571777
0.033129014074802399 0.043889842927455902 0.3100452721118927
0.16487704217433929 0.025593012571334839 0.60311836004257202
0.59853386878967285 0.00032671759254299104 0.88413733243942261
0.93425834178924561 0.0070970421656966209 0.98969560861587524
1 0.035668615251779556 0.99536216259002686
0.02363554947078228 0.2325567901134491 0.96650975942611694
0.30332770943641663 0.25636494159698486 1
0.78134006261825562 0.24216419458389282 1
0.99892580509185791 0.24209009110927582 0.99960732460021973
0.99937385320663452 0.29634225368499756 0.99991130828857422
0.0067832348868250847 0.66371703147888184 1
0.22755487263202667 0.71194899082183838 0.99845141172409058
0.72654807567596436 0.67424178123474121 0.99785828590393066
0.99619865417480469 0.67131030559539795 0.99656587839126587
1 0.67364126443862915 1
0.0023382597137242556 0.99993181228637695 0.99997729063034058
0.18573290109634399 0.99933856725692749 1
0.65370047092437744 0.94070976972579956 0.9981921911239624
0.9300534725189209 0.90153253078460693 1
1 0.8881029486656189 1
0.04128742590546608 1 1
0.25329664349555969 1 1
0.64367711544036865 1 1
0.89904516935348511 0.99997901916503906 0.99757575988769531
0.99780863523483276 0.9966704249382019 0.99666452407836914
