assets/lut/ericellerbrock hydracore.cube
# Created by: G'MIC (https://gmic.eu)
TITLE "hydracore"
# LUT size
LUT_3D_SIZE 5
# Data domain
DOMAIN_MIN 0.0 0.0 0.0
DOMAIN_MAX 1.0 1.0 1.0
# LUT data points
0.0005371393053792417 0.00082729564746841788 0.021700944751501083
0.3417300283908844 0 0.0032167022582143545
0.88147813081741333 0 0.021649723872542381
1 0.0027014489751309156 0.012568186037242413
1 0.00014702291809953749 0.0098191509023308754
0.0019813089165836573 0.23516164720058441 0.014015541411936283
0.18647141754627228 0.19086635112762451 0.0076845055446028709
0.77155077457427979 0.11569911241531372 0.0077825658954679966
0.99970889091491699 0.056437041610479355 0.030249862000346184
0.99928569793701172 0.056133061647415161 0.031554084271192551
0.00043688007281161845 0.6430516242980957 0.038222786039113998
0.060791883617639542 0.62678301334381104 0.039806529879570007
0.58624255657196045 0.5613359808921814 0.01332219410687685
1 0.50598317384719849 0.022254390642046928
1 0.49993446469306946 0.026055146008729935
0.001714175334200263 0.99967259168624878 0.071702040731906891
0 0.99976587295532227 0.0735907182097435
0.38484078645706177 0.97634315490722656 0.034607697278261185
0.96504706144332886 0.90882521867752075 0.012827435508370399
0.99987107515335083 0.898753821849823 0.0088174110278487206
0.0018819322576746345 1 0.074535280466079712
0.00027051439974457026 1 0.074977368116378784
0.32099863886833191 0.99665391445159912 0.041160028427839279
0.89766210317611694 0.99843782186508179 0.016318840906023979
1 1 0.00057214475236833096
0 0 0.35625812411308289
0.31365576386451721 0 0.29962342977523804
0.86656737327575684 0.001582605647854507 0.23234850168228149
0.99995404481887817 0.0039906222373247147 0.14286740124225616
0.99876236915588379 0.00046751732588745654 0.11173655092716217
0.00035472196759656072 0.2254946380853653 0.23584315180778503
0.18117822706699371 0.1816803514957428 0.1977996826171875
0.77831107378005981 0.10736965388059616 0.13482797145843506
0.99999517202377319 0.07620403915643692 0.089104808866977692
0.9998481273651123 0.044270683079957962 0.08178507536649704
7.5845155151910149e-06 0.63056284189224243 0.052087072283029556
0.040610011667013168 0.62322032451629639 0.049095600843429565
0.58946865797042847 0.55289047956466675 0.0068566114641726017
1 0.50277137756347656 0.026911986991763115
0.99839001893997192 0.49941608309745789 0.024719178676605225
0.00097879150416702032 0.99860274791717529 0.049117352813482285
0 0.99911946058273315 0.042349856346845627
0.36914989352226257 0.96983259916305542 0.030009504407644272
0.95505630970001221 0.91354477405548096 0.0013571346644312143
0.99994927644729614 0.8946537971496582 0
0.026590654626488686 1 0.080394729971885681
0 0.99491196870803833 0.059684108942747116
0.28419902920722961 0.99087375402450562 0.017443638294935226
0.87613397836685181 0.99955564737319946 0.0021654914598912001
1 1 0.0013193167978897691
0.0025349785573780537 0.0011018939549103379 0.84534388780593872
0.27626731991767883 0 0.7682955265045166
0.83303153514862061 0.0051811966113746166 0.72918212413787842
1 0.003660792950540781 0.68209964036941528
1 0.0025940840132534504 0.67320138216018677
0 0.19176787137985229 0.73463237285614014
0.14396001398563385 0.15685950219631195 0.71709364652633667
0.75290852785110474 0.089178107678890228 0.66671884059906006
1 0.05284779891371727 0.62415438890457153
0.99696439504623413 0.068988576531410217 0.60291951894760132
0.00065440760226920247 0.61251437664031982 0.57248592376708984
0.0099065294489264488 0.60651880502700806 0.57271599769592285
0.56962603330612183 0.53750729560852051 0.50710439682006836
1 0.48555827140808105 0.45420590043067932
0.99991017580032349 0.48112797737121582 0.45169055461883545
0.0040783151052892208 0.99327677488327026 0.40638059377670288
0 0.99383604526519775 0.4121716320514679
0.34744015336036682 0.95946973562240601 0.34221726655960083
0.94230329990386963 0.89424550533294678 0.23537205159664154
0.99516499042510986 0.87114566564559937 0.20935116708278656
0.015781581401824951 0.99998599290847778 0.39992392063140869
0 0.99040544033050537 0.35683926939964294
0.27081459760665894 0.99447214603424072 0.25816655158996582
0.85906946659088135 0.99987322092056274 0.19851170480251312
1 1 0.18441905081272125
0 0 0.9760778546333313
0.22777116298675537 8.2651771663222462e-05 0.93694370985031128
0.82066828012466431 0.00026137407985515893 0.9636847972869873
1 0.0026856965851038694 0.96284788846969604
0.99709665775299072 0 0.97942841053009033
0.00057350605493411422 0.15681582689285278 0.95548295974731445
0.10180209577083588 0.1417856365442276 0.96027195453643799
0.71890872716903687 0.079453505575656891 0.96915000677108765
1 0.046843823045492172 0.98056995868682861
0.9894179105758667 0.070776425302028656 0.94292014837265015
0.00044842888019047678 0.59761828184127808 0.96022039651870728
0.014477718621492386 0.59309738874435425 0.9678109884262085
0.5508570671081543 0.52325296401977539 0.9330260157585144
0.99956905841827393 0.46441176533699036 0.91746246814727783
0.9981042742729187 0.45637795329093933 0.92700850963592529
0 0.98422855138778687 0.93730694055557251
0.00032083847327157855 0.98797738552093506 0.93198645114898682
0.3268757164478302 0.94874691963195801 0.87796497344970703
0.91601485013961792 0.86355078220367432 0.80097293853759766
0.99532449245452881 0.84067094326019287 0.77837032079696655
9.1014189820270985e-05 0.99938505887985229 0.92087608575820923
0.0019619062077254057 0.99965792894363403 0.90062236785888672
0.19993849098682404 0.99912172555923462 0.82096391916275024
0.81472140550613403 0.99991637468338013 0.7126460075378418
1 1 0.68206912279129028
0.013967925682663918 0 0.95981180667877197
0.24542462825775146 0 0.931651771068573
0.80242037773132324 2.8004365958622657e-05 0.94098126888275146
1 0 0.96149981021881104
1 0 0.98334938287734985
0 0.14310798048973083 0.94437986612319946
0.10315851122140884 0.12680289149284363 0.94217181205749512
0.7204442024230957 0.07941080629825592 0.9393191933631897
1 0.050143253058195114 0.95737779140472412
0.99932366609573364 0.028239769861102104 0.96402645111083984
0 0.58704560995101929 0.95293009281158447
0.006206931546330452 0.58715903759002686 0.95640039443969727
0.54217493534088135 0.51389491558074951 0.93283295631408691
0.99864524602890015 0.46497794985771179 0.93078052997589111
0.99905657768249512 0.45882439613342285 0.9371262788772583
0 0.98490113019943237 0.97251170873641968
0 0.98417043685913086 0.97645485401153564
0.31744983792304993 0.94390422105789185 0.94440078735351562
0.90470010042190552 0.85431212186813354 0.91926747560501099
1 0.82362562417984009 0.92089945077896118
0 1 0.99322706460952759
0 1 0.9873623251914978
0.22726061940193176 0.99936872720718384 0.95703202486038208
0.80210012197494507 0.99998599290847778 0.92785638570785522
1 0.99997413158416748 0.91631025075912476
