assets/lut/ericellerbrock yellowstone.cube
# Created by: G'MIC (https://gmic.eu)
TITLE "yellowstone"
# LUT size
LUT_3D_SIZE 13
# Data domain
DOMAIN_MIN 0.0 0.0 0.0
DOMAIN_MAX 1.0 1.0 1.0
# LUT data points
2.8004365958622657e-05 0.00013786765339318663 0.00040236828499473631
0.0070763980038464069 0.0033091376535594463 0.00074947578832507133
0.07585626095533371 0.015772232785820961 0.001403120462782681
0.19222669303417206 0.034229159355163574 0.00086559221381321549
0.32540702819824219 0.050716925412416458 0.0042347176931798458
0.4812522828578949 0.074592456221580505 0.017161410301923752
0.64368593692779541 0.10239113867282867 0.033284131437540054
0.79900574684143066 0.13940589129924774 0.046247534453868866
0.90146595239639282 0.17584136128425598 0.054457660764455795
0.91283106803894043 0.18032914400100708 0.054901961237192154
0.91368061304092407 0.18039216101169586 0.054901961237192154
0.91372549533843994 0.18039216101169586 0.054901961237192154
0.91372549533843994 0.18039216101169586 0.054901961237192154
0.00018436207028571516 0.0046159783378243446 0.0014079674147069454
0.011444181203842163 0.010915509425103664 0.0038902731612324715
0.060054194182157516 0.020254770293831825 0.0039215688593685627
0.17739510536193848 0.037232402712106705 0.0036584443878382444
0.31484445929527283 0.055137887597084045 0.0033465067390352488
0.46650552749633789 0.075459964573383331 0.013827170245349407
0.62692368030548096 0.10197653621435165 0.028824256733059883
0.78498560190200806 0.13987924158573151 0.043180279433727264
0.89700567722320557 0.17541798949241638 0.053964279592037201
0.91126704216003418 0.18039216101169586 0.054901961237192154
0.9136536717414856 0.18039216101169586 0.054901961237192154
0.91372549533843994 0.18039216101169586 0.054901961237192154
0.91372549533843994 0.18039216101169586 0.054901961237192154
0 0.041660487651824951 0.0074566411785781384
0.0067033055238425732 0.039536554366350174 0.0068609649315476418
0.046246189624071121 0.049437534064054489 0.0068557891063392162
0.15850786864757538 0.058646302670240402 0.0038846184033900499
0.30589330196380615 0.07437916100025177 0.0045226151123642921
0.45750913023948669 0.088272273540496826 0.01214548759162426
0.61066257953643799 0.10515910387039185 0.023964392021298409
0.78533369302749634 0.14338654279708862 0.041945021599531174
0.90041571855545044 0.17883975803852081 0.053333058953285217
0.91324007511138916 0.18299372494220734 0.054114188998937607
0.91474413871765137 0.1843281090259552 0.053833562880754471
0.91531258821487427 0.18492618203163147 0.053604815155267715
0.91597175598144531 0.18623162806034088 0.0531807541847229
0.00024270449648611248 0.094921261072158813 0.013444130308926105
0.0043727201409637928 0.096777521073818207 0.01292546559125185
0.019050657749176025 0.099881112575531006 0.011842330917716026
0.12319241464138031 0.096232563257217407 0.0029575871303677559
0.29939654469490051 0.098115570843219757 0.0027368133887648582
0.46749544143676758 0.12037911266088486 0.010003048926591873
0.6328427791595459 0.14974832534790039 0.021076098084449768
0.81246453523635864 0.19280059635639191 0.034465864300727844
0.92331033945083618 0.23261244595050812 0.034813422709703445
0.93229812383651733 0.23291134834289551 0.040836215019226074
0.93567287921905518 0.23688282072544098 0.037485130131244659
0.93925857543945312 0.24304506182670593 0.034491073340177536
0.94304096698760986 0.25308802723884583 0.034411128610372543
0 0.15401722490787506 0.01687074638903141
0.0010055542225018144 0.15401387214660645 0.015062130056321621
0.0045485254377126694 0.15410497784614563 0.012374773621559143
0.058811426162719727 0.16925986111164093 0.005392126739025116
0.27540433406829834 0.15233272314071655 0.00019244026043452322
0.4861609935760498 0.16245099902153015 0.0069421804510056973
0.66015684604644775 0.20277638733386993 0.021198974922299385
0.82741695642471313 0.25972500443458557 0.02418079786002636
0.95088320970535278 0.32077884674072266 0.01778157614171505
0.96689045429229736 0.32945376634597778 0.021057218313217163
0.96876239776611328 0.32956123352050781 0.020580993965268135
0.97022467851638794 0.33046120405197144 0.019769780337810516
0.97179722785949707 0.33518403768539429 0.019203200936317444
1.5079273907758761e-05 0.22357732057571411 0.018799515441060066
0.0013398414012044668 0.22454375028610229 0.017578395083546638
0.0031082301866263151 0.22685526311397552 0.016701553016901016
0.027462977916002274 0.23889733850955963 0.012401221320033073
0.20212279260158539 0.25659209489822388 0.0042213588021695614
0.48346439003944397 0.23623378574848175 0.0083213057368993759
0.67234271764755249 0.25011450052261353 0.019761238247156143
0.8241538405418396 0.31283050775527954 0.022956669330596924
0.94716036319732666 0.38271769881248474 0.020411232486367226
0.98393863439559937 0.40551608800888062 0.021585561335086823
0.98797369003295898 0.40684816241264343 0.021083129569888115
0.99012643098831177 0.40591806173324585 0.019977644085884094
0.98897373676300049 0.40778729319572449 0.021475294604897499
0.0021020479034632444 0.29840889573097229 0.021848162636160851
0.0058349906466901302 0.30675140023231506 0.023765308782458305
0.0062095490284264088 0.31012675166130066 0.023881815373897552
0.026210306212306023 0.31684225797653198 0.020316420122981071
0.16611969470977783 0.35357087850570679 0.015286030247807503
0.4472196102142334 0.37875461578369141 0.025298802182078362
0.66935479640960693 0.33760088682174683 0.022236304357647896
0.82065385580062866 0.35706159472465515 0.022088399156928062
0.93294495344161987 0.42414161562919617 0.026428312063217163
0.99037629365921021 0.47106549143791199 0.03103485144674778
0.99628883600234985 0.47854170203208923 0.033197470009326935
0.9994349479675293 0.48093560338020325 0.031057978048920631
0.99694979190826416 0.48235294222831726 0.03332049772143364
0.016754060983657837 0.40386715531349182 0.036489672958850861
0.018733229488134384 0.41004836559295654 0.038204357028007507
0.018579011783003807 0.41105130314826965 0.037832986563444138
0.027766328305006027 0.40773537755012512 0.035139389336109161
0.13843359053134918 0.43718248605728149 0.031466256827116013
0.39847704768180847 0.49801787734031677 0.03368917852640152
0.62940549850463867 0.50934356451034546 0.045343004167079926
0.80964654684066772 0.45967105031013489 0.032552488148212433
0.9237176775932312 0.47843274474143982 0.032457686960697174
0.98025590181350708 0.53144490718841553 0.044089972972869873
0.99875754117965698 0.55435729026794434 0.051132604479789734
1 0.5580437183380127 0.05234546959400177
0.99914819002151489 0.55965995788574219 0.05263480544090271
0.03787091001868248 0.51743710041046143 0.056249998509883881
0.038106221705675125 0.51698809862136841 0.056249998509883881
0.037895023822784424 0.51639777421951294 0.056199435144662857
0.041572540998458862 0.50891607999801636 0.052782770246267319
0.12037802487611771 0.52090221643447876 0.048198040574789047
0.37695181369781494 0.58439809083938599 0.041302908211946487
0.5990833044052124 0.62970608472824097 0.054611776024103165
0.76843595504760742 0.63465666770935059 0.062926903367042542
0.89925682544708252 0.58704251050949097 0.051603682339191437
0.97429639101028442 0.60046988725662231 0.056950125843286514
0.99424982070922852 0.62326347827911377 0.065124839544296265
0.99979746341705322 0.63505488634109497 0.069335594773292542
1 0.63931834697723389 0.072323277592658997
0.065072692930698395 0.61192226409912109 0.076052241027355194
0.065089613199234009 0.61226809024810791 0.076055847108364105
0.065437152981758118 0.61179554462432861 0.075979657471179962
0.075811348855495453 0.60905981063842773 0.072477243840694427
0.16349336504936218 0.61659896373748779 0.063427343964576721
0.37652963399887085 0.6639283299446106 0.055007379502058029
0.59085738658905029 0.71443748474121094 0.056021343916654587
0.74882727861404419 0.74617892503738403 0.075994528830051422
0.87291842699050903 0.73678106069564819 0.08243357390165329
0.96027660369873047 0.69175887107849121 0.076089940965175629
0.99170875549316406 0.69805330038070679 0.081254743039608002
0.9995461106300354 0.70935577154159546 0.088338114321231842
1 0.7079043984413147 0.092108845710754395
0.078211463987827301 0.6528172492980957 0.086274512112140656
0.07799404114484787 0.65158051252365112 0.086085572838783264
0.08222382515668869 0.65379434823989868 0.086210183799266815
0.099396727979183197 0.65362417697906494 0.082124315202236176
0.18962179124355316 0.68032187223434448 0.075188547372817993
0.42574551701545715 0.73679763078689575 0.065924368798732758
0.63824725151062012 0.78070837259292603 0.068422205746173859
0.77196300029754639 0.80782729387283325 0.086923249065876007
0.87422728538513184 0.82335966825485229 0.098483622074127197
0.94831031560897827 0.78692430257797241 0.096338190138339996
0.98848789930343628 0.76619118452072144 0.097179576754570007
0.99724662303924561 0.76836103200912476 0.10558465868234634
1 0.77245855331420898 0.11436628550291061
0.078433707356452942 0.65490198135375977 0.086274512112140656
0.080559536814689636 0.65491050481796265 0.086274512112140656
0.089837394654750824 0.65758198499679565 0.084857717156410217
0.11481170356273651 0.66473948955535889 0.084359891712665558
0.29887869954109192 0.71810686588287354 0.077037543058395386
0.54772478342056274 0.79195183515548706 0.073364228010177612
0.71107769012451172 0.83682519197463989 0.086088620126247406
0.82352268695831299 0.86244738101959229 0.10415224730968475
0.89690512418746948 0.88143908977508545 0.13632133603096008
0.95029580593109131 0.86563175916671753 0.14080950617790222
0.98649895191192627 0.84688174724578857 0.15107950568199158
0.99649208784103394 0.84925693273544312 0.17464311420917511
1 0.85393059253692627 0.18166995048522949
0.08046519011259079 0.65490198135375977 0.086656458675861359
0.09244246780872345 0.65893983840942383 0.086340047419071198
0.14262957870960236 0.67466771602630615 0.08302721381187439
0.29451122879981995 0.71703028678894043 0.078631982207298279
0.46824154257774353 0.77006232738494873 0.086014389991760254
0.63952964544296265 0.82873237133026123 0.10843140631914139
0.77056205272674561 0.87823009490966797 0.15268786251544952
0.86168903112411499 0.90974652767181396 0.18627743422985077
0.91711121797561646 0.92290526628494263 0.21806485950946808
0.95895683765411377 0.92567002773284912 0.240976482629776
0.98451393842697144 0.92093449831008911 0.25518655776977539
0.99475294351577759 0.92104637622833252 0.29989486932754517
0.99978762865066528 0.91905820369720459 0.33224344253540039
5.6008731917245314e-05 0.0011217155260965228 0.014292907901108265
0.0040526296943426132 0.0035664278548210859 0.015948306769132614
0.061465349048376083 0.017536312341690063 0.015290668234229088
0.17981584370136261 0.035512767732143402 0.010198600590229034
0.32511842250823975 0.055287826806306839 0.014371311292052269
0.47584205865859985 0.077675417065620422 0.024610886350274086
0.64153599739074707 0.10967575013637543 0.038269251585006714
0.81164973974227905 0.14823368191719055 0.050005353987216949
0.89219832420349121 0.17150118947029114 0.054880298674106598
0.9054749608039856 0.1778361052274704 0.054901961237192154
0.91217029094696045 0.18039216101169586 0.054901961237192154
0.91372549533843994 0.18039216101169586 0.054901961237192154
0.91372549533843994 0.18044349551200867 0.054901961237192154
6.5343519963789731e-05 0.005968939047306776 0.012710945680737495
0.0073588201776146889 0.0099819554015994072 0.015664597973227501
0.054500207304954529 0.021819589659571648 0.011113977991044521
0.1699972003698349 0.036349456757307053 0.0076413773931562901
0.30840417742729187 0.052242249250411987 0.0091401943936944008
0.46220237016677856 0.076622113585472107 0.020677274093031883
0.62865203619003296 0.10616102069616318 0.034384109079837799
0.79501217603683472 0.14521363377571106 0.046851783990859985
0.90062230825424194 0.17678122222423553 0.054610665887594223
0.90976858139038086 0.18049781024456024 0.054901961237192154
0.91313678026199341 0.18125225603580475 0.054901961237192154
0.91372549533843994 0.18117135763168335 0.054901961237192154
0.91372549533843994 0.18110932409763336 0.054901961237192154
0 0.042586293071508408 0.018159125000238419
0.0040563843213021755 0.038489069789648056 0.01868865080177784
0.039702471345663071 0.044312167912721634 0.010947582311928272
0.15377315878868103 0.052870865911245346 0.0061943652108311653
0.29874637722969055 0.065733723342418671 0.004996864590793848
0.45911753177642822 0.08933500200510025 0.014059463515877724
0.62618404626846313 0.11269497126340866 0.028406852856278419
0.79587429761886597 0.1436552107334137 0.04442271962761879
0.90073609352111816 0.18083523213863373 0.052350603044033051
0.91320085525512695 0.18580150604248047 0.053568523377180099
0.91427600383758545 0.18478226661682129 0.054222691804170609
0.91474533081054688 0.18490017950534821 0.05433138832449913
0.91590625047683716 0.18676026165485382 0.053323887288570404
0 0.10052813589572906 0.026414759457111359
0.0034997528418898582 0.095962956547737122 0.020529234781861305
0.023525731638073921 0.099003151059150696 0.012803350575268269
0.12527947127819061 0.098337329924106598 0.0050240163691341877
0.30159452557563782 0.098662495613098145 0.0026611627545207739
0.4705435037612915 0.12296326458454132 0.0084577519446611404
0.64496463537216187 0.15689867734909058 0.020045455545186996
0.82145035266876221 0.2008226215839386 0.029970370233058929
0.92744982242584229 0.23749533295631409 0.032871261239051819
0.93404978513717651 0.23787140846252441 0.039070069789886475
0.93548482656478882 0.23633269965648651 0.03771890327334404
0.93833726644515991 0.24100632965564728 0.034299962222576141
0.94308972358703613 0.25486630201339722 0.032151840627193451
0 0.15865755081176758 0.029804633930325508
0.0021538229193538427 0.15475167334079742 0.02033253014087677
0.0063696620054543018 0.1583566814661026 0.015539610758423805
0.059540513902902603 0.17090804874897003 0.0062635233625769615
0.27862298488616943 0.153675377368927 0.000186217061127536
0.49007868766784668 0.16356061398983002 0.0062662609852850437
0.66849106550216675 0.20773816108703613 0.018771735951304436
0.83898270130157471 0.2665221095085144 0.022857127711176872
0.9550817608833313 0.32413658499717712 0.01831786148250103
0.96643602848052979 0.33117961883544922 0.020631063729524612
0.9689975380897522 0.33029195666313171 0.020037183538079262
0.96908605098724365 0.33035007119178772 0.019452862441539764
0.97085356712341309 0.33636006712913513 0.019769242033362389
0.00055338541278615594 0.22660897672176361 0.028739210218191147
0.0036382488906383514 0.22835360467433929 0.026295052841305733
0.0041034473106265068 0.23156549036502838 0.020450562238693237
0.024706657975912094 0.23960377275943756 0.011134099215269089
0.20786622166633606 0.26425272226333618 0.0042336108162999153
0.4885161817073822 0.23862667381763458 0.0081186778843402863
0.67953801155090332 0.25631576776504517 0.018461743369698524
0.83590990304946899 0.31326392292976379 0.023391708731651306
0.95518875122070312 0.38538146018981934 0.020704681053757668
0.98524606227874756 0.40655377507209778 0.021558679640293121
0.9886164665222168 0.40821436047554016 0.021829163655638695
0.98927116394042969 0.40707188844680786 0.021821519359946251
0.98731100559234619 0.40836897492408752 0.02338714525103569
0.0054038255475461483 0.30656081438064575 0.028789684176445007
0.0087015340104699135 0.3138701319694519 0.031087582930922508
0.0092313280329108238 0.31454700231552124 0.025767352432012558
0.028094183653593063 0.32039919495582581 0.019851027056574821
0.16168215870857239 0.35608676075935364 0.017091788351535797
0.45541715621948242 0.38211137056350708 0.024897705763578415
0.67538970708847046 0.33639740943908691 0.020779479295015335
0.83084249496459961 0.35751938819885254 0.023812521249055862
0.93865352869033813 0.42652186751365662 0.02529011107981205
0.98981320858001709 0.47119924426078796 0.031125759705901146
0.99601376056671143 0.4793374240398407 0.033473894000053406
0.99744647741317749 0.48115342855453491 0.032871633768081665
0.99619895219802856 0.48241612315177917 0.033995114266872406
0.0186589565128088 0.40918835997581482 0.040367484092712402
0.020388808101415634 0.41457784175872803 0.043384954333305359
0.020842278376221657 0.41459187865257263 0.039933580905199051
0.037350073456764221 0.41605725884437561 0.035376276820898056
0.14232556521892548 0.439435213804245 0.033527210354804993
0.41338363289833069 0.49741828441619873 0.037422735244035721
0.63297873735427856 0.51299375295639038 0.046300701797008514
0.81095010042190552 0.46383893489837646 0.032699570059776306
0.9205547571182251 0.48329624533653259 0.032710656523704529
0.98093110322952271 0.53311127424240112 0.044294934719800949
0.99648052453994751 0.55360925197601318 0.050942588597536087
0.99831557273864746 0.55786246061325073 0.052509322762489319
0.99883741140365601 0.55955880880355835 0.05263480544090271
0.037496738135814667 0.52001821994781494 0.056889090687036514
0.038592021912336349 0.51905703544616699 0.058652002364397049
0.038302253931760788 0.51685774326324463 0.056392069905996323
0.042997308075428009 0.51003986597061157 0.052787631750106812
0.11608594655990601 0.52179127931594849 0.049183491617441177
0.3807140588760376 0.58354651927947998 0.045917555689811707
0.60508131980895996 0.6295134425163269 0.057298310101032257
0.76899534463882446 0.63523674011230469 0.062470827251672745
0.89947551488876343 0.59075117111206055 0.052570104598999023
0.97413742542266846 0.60196548700332642 0.057485155761241913
0.99364286661148071 0.62422764301300049 0.065490379929542542
0.99934875965118408 0.63631463050842285 0.070967055857181549
1 0.63706576824188232 0.072829030454158783
0.064812876284122467 0.61438071727752686 0.076590746641159058
0.064423531293869019 0.61240988969802856 0.077145867049694061
0.066155590116977692 0.61124861240386963 0.076101683080196381
0.072716854512691498 0.60567504167556763 0.072517946362495422
0.13992486894130707 0.61275613307952881 0.064506083726882935
0.37440550327301025 0.66325217485427856 0.05615602433681488
0.60007131099700928 0.71276748180389404 0.059927653521299362
0.75519448518753052 0.74626630544662476 0.075560428202152252
0.87459450960159302 0.73744988441467285 0.081930510699748993
0.96048343181610107 0.69551056623458862 0.075894393026828766
0.99288040399551392 0.69674438238143921 0.081339158117771149
0.99926078319549561 0.70923811197280884 0.091120868921279907
1 0.71500933170318604 0.10142843425273895
0.077850714325904846 0.65061956644058228 0.086490049958229065
0.075615808367729187 0.64539414644241333 0.086022831499576569
0.08157368004322052 0.65265733003616333 0.086647331714630127
0.10021500289440155 0.65649741888046265 0.083356313407421112
0.19908149540424347 0.68224114179611206 0.075400196015834808
0.43601298332214355 0.73688846826553345 0.066487960517406464
0.64042657613754272 0.78272515535354614 0.069364316761493683
0.7751879096031189 0.8138735294342041 0.085145734250545502
0.87564784288406372 0.82666438817977905 0.1001940593123436
0.9472651481628418 0.78755617141723633 0.096493951976299286
0.986114501953125 0.76789760589599609 0.10104925185441971
0.9968031644821167 0.77552825212478638 0.11695180833339691
1 0.79181373119354248 0.13905313611030579
0.078431375324726105 0.65412622690200806 0.086562275886535645
0.07844281941652298 0.65299558639526367 0.088275328278541565
0.082148052752017975 0.65498834848403931 0.087126143276691437
0.11755602806806564 0.66643071174621582 0.086485259234905243
0.33134043216705322 0.7284245491027832 0.080711618065834045
0.55327701568603516 0.79045552015304565 0.075041614472866058
0.7129446268081665 0.83738595247268677 0.08980204164981842
0.82062643766403198 0.86446249485015869 0.11770544946193695
0.89655107259750366 0.87845772504806519 0.13536830246448517
0.95083379745483398 0.86447781324386597 0.14795385301113129
0.98232024908065796 0.85380810499191284 0.16628584265708923
0.99649012088775635 0.85875314474105835 0.18549007177352905
1 0.86690777540206909 0.19896745681762695
0.079450033605098724 0.65490198135375977 0.086679600179195404
0.082876317203044891 0.65574657917022705 0.089479722082614899
0.12741170823574066 0.67571598291397095 0.091005600988864899
0.27164331078529358 0.72759342193603516 0.1054418683052063
0.4768940806388855 0.78565257787704468 0.14316554367542267
0.64554047584533691 0.84500366449356079 0.20003047585487366
0.77286893129348755 0.88882535696029663 0.23155501484870911
0.86146724224090576 0.91422152519226074 0.25453266501426697
0.91969114542007446 0.92852407693862915 0.27647742629051208
0.9587094783782959 0.93034851551055908 0.28948712348937988
0.98462104797363281 0.92545574903488159 0.29877498745918274
0.99727648496627808 0.92212003469467163 0.31637698411941528
1 0.92071783542633057 0.36358490586280823
0 0.0073490515351295471 0.060913819819688797
0.001616369467228651 0.007834041491150856 0.052747420966625214
0.030984722077846527 0.021989142522215843 0.051406800746917725
0.15172465145587921 0.040628440678119659 0.048677302896976471
0.30124461650848389 0.059827812016010284 0.044123467057943344
0.4565902054309845 0.080969430506229401 0.039608418941497803
0.63006937503814697 0.11480098217725754 0.051732365041971207
0.80317956209182739 0.15464209020137787 0.06019161269068718
0.89647758007049561 0.18007384240627289 0.059223487973213196
0.90981209278106689 0.18477141857147217 0.058517158031463623
0.91345560550689697 0.18539425730705261 0.057880252599716187
0.9147225022315979 0.18390220403671265 0.056460734456777573
0.91538530588150024 0.18639117479324341 0.058834780007600784
0 0.01022440567612648 0.052885152399539948
0.0018110387027263641 0.010435351170599461 0.048348430544137955
0.029204888269305229 0.024268670007586479 0.045610569417476654
0.14093761146068573 0.040190290659666061 0.042454589158296585
0.28828954696655273 0.058165322989225388 0.03723805770277977
0.44685825705528259 0.078782700002193451 0.031535115092992783
0.6183476448059082 0.10865233093500137 0.043144449591636658
0.79257291555404663 0.14963823556900024 0.053828027099370956
0.89832460880279541 0.17998628318309784 0.057624861598014832
0.91228049993515015 0.18681773543357849 0.058200355619192123
0.91550618410110474 0.18893218040466309 0.058467954397201538
0.91600292921066284 0.18844813108444214 0.05752868577837944
0.91641640663146973 0.18900887668132782 0.059268563985824585
0 0.044809348881244659 0.053596794605255127
0.00095537968445569277 0.038099925965070724 0.049980748444795609
0.021603858098387718 0.0452614426612854 0.045060370117425919
0.13189840316772461 0.059692248702049255 0.041051078587770462
0.28627318143844604 0.071642450988292694 0.03077412024140358
0.45305845141410828 0.094048656523227692 0.028234563767910004
0.61764812469482422 0.11229192465543747 0.03295585885643959
0.78332579135894775 0.14477197825908661 0.043730359524488449
0.90269094705581665 0.18410342931747437 0.054269079118967056
0.91413480043411255 0.18736256659030914 0.056349121034145355
0.91594105958938599 0.18920177221298218 0.056800588965415955
0.91700959205627441 0.19076888263225555 0.056144416332244873
0.9175611138343811 0.19181448221206665 0.055249817669391632
0 0.10347718000411987 0.05410434678196907
0.00037372065708041191 0.095732204616069794 0.043734099715948105
0.016555158421397209 0.097404882311820984 0.033373020589351654
0.11381512880325317 0.10250845551490784 0.024262970313429832
0.29683738946914673 0.1027580127120018 0.016232853755354881
0.46886935830116272 0.12298016995191574 0.013932426460087299
0.64187812805175781 0.15670543909072876 0.021691685542464256
0.820198655128479 0.20514528453350067 0.031551733613014221
0.9273257851600647 0.23903788626194 0.03597564622759819
0.93190932273864746 0.23334795236587524 0.043058179318904877
0.93446958065032959 0.23496249318122864 0.042090754956007004
0.94035667181015015 0.24566774070262909 0.03657899796962738
0.94518059492111206 0.26135692000389099 0.034125879406929016
0 0.16511525213718414 0.04709312692284584
0.00028943829238414764 0.15953060984611511 0.034730635583400726
0.0085439197719097137 0.16444095969200134 0.028028735890984535
0.061244845390319824 0.17745193839073181 0.013556222431361675
0.28113934397697449 0.15801440179347992 0.0035707810893654823
