assets/lut/ericellerbrock seringe 4.cube
# Created by: G'MIC (https://gmic.eu)
TITLE "seringe_4"
# LUT size
LUT_3D_SIZE 7
# Data domain
DOMAIN_MIN 0.0 0.0 0.0
DOMAIN_MAX 1.0 1.0 1.0
# LUT data points
0.043016485869884491 0.054328650236129761 0.057061392813920975
0.092208132147789001 0.062592014670372009 0.062348999083042145
0.27874371409416199 0.066893935203552246 0.047307226806879044
0.52646023035049438 0.078352116048336029 0.05750129371881485
0.75387144088745117 0.10967906564474106 0.077442988753318787
0.88171309232711792 0.12613740563392639 0.088166117668151855
0.92326366901397705 0.12326034903526306 0.080844387412071228
0.04339287057518959 0.093648947775363922 0.060532063245773315
0.082998238503932953 0.096354119479656219 0.056223880499601364
0.27129143476486206 0.098955340683460236 0.041560377925634384
0.51919019222259521 0.11825766414403915 0.05640760064125061
0.74977958202362061 0.14371928572654724 0.078386850655078888
0.87585127353668213 0.15972612798213959 0.088777042925357819
0.91601359844207764 0.15664377808570862 0.088477745652198792
0.03869488462805748 0.18359999358654022 0.050107467919588089
0.06081124022603035 0.18844318389892578 0.049160975962877274
0.25316324830055237 0.19250217080116272 0.043369650840759277
0.54174637794494629 0.19618992507457733 0.057297006249427795
0.76966017484664917 0.23921963572502136 0.071248866617679596
0.91420269012451172 0.2905372679233551 0.064138315618038177
0.95736789703369141 0.28859975934028625 0.064698867499828339
0.039215687662363052 0.3011929988861084 0.045132163912057877
0.04078267514705658 0.3077506422996521 0.051697239279747009
0.18325404822826385 0.34849298000335693 0.046479616314172745
0.56728684902191162 0.3322717547416687 0.052572064101696014
0.7967301607131958 0.35005438327789307 0.060909390449523926
0.92475974559783936 0.40951460599899292 0.050102412700653076
0.98708951473236084 0.43529188632965088 0.050040885806083679
0.037666499614715576 0.44394072890281677 0.050242792814970016
0.035767186433076859 0.44601786136627197 0.057221714407205582
0.16874648630619049 0.49358934164047241 0.046182967722415924
0.52782136201858521 0.58464837074279785 0.059062644839286804
0.78617936372756958 0.53651577234268188 0.053620565682649612
0.91168516874313354 0.54096394777297974 0.053026821464300156
0.98192393779754639 0.5761447548866272 0.057871125638484955
0.04253736138343811 0.57987898588180542 0.05335896834731102
0.043791588395833969 0.57580208778381348 0.05882326140999794
0.1604495495557785 0.61012297868728638 0.054348934441804886
0.49360942840576172 0.70807391405105591 0.053636319935321808
0.7411009669303894 0.77231240272521973 0.071960419416427612
0.88895410299301147 0.73220860958099365 0.075142502784729004
0.9678310751914978 0.71923118829727173 0.075608812272548676
0.045579243451356888 0.7281915545463562 0.043186604976654053
0.064410701394081116 0.73473292589187622 0.056111756712198257
0.16813482344150543 0.76459485292434692 0.057694274932146072
0.46461689472198486 0.82968932390213013 0.052559316158294678
0.72461473941802979 0.87774300575256348 0.061577275395393372
0.86056852340698242 0.89461427927017212 0.079892642796039581
0.95783555507659912 0.86078411340713501 0.074929662048816681
0.045497626066207886 0.06220613420009613 0.10686127841472626
0.084295935928821564 0.06880931556224823 0.10779903829097748
0.26061323285102844 0.070996291935443878 0.091227374970912933
0.51757264137268066 0.085868701338768005 0.093820609152317047
0.75250244140625 0.11609631776809692 0.1029495969414711
0.87330663204193115 0.1316407173871994 0.1134914755821228
0.91594761610031128 0.13220004737377167 0.10970623791217804
0.043212112039327621 0.092090204358100891 0.10258609801530838
0.076761312782764435 0.09612572193145752 0.10342990607023239
0.25268897414207458 0.10235969722270966 0.086184576153755188
0.51466214656829834 0.11890411376953125 0.084607064723968506
0.74657577276229858 0.14264228940010071 0.10006365180015564
0.87606567144393921 0.15793220698833466 0.10865873098373413
0.91327774524688721 0.15319940447807312 0.11230289191007614
0.036157075315713882 0.19316691160202026 0.090972185134887695
0.061234045773744583 0.18818807601928711 0.08148522675037384
0.23632992804050446 0.1935456395149231 0.069631479680538177
0.53761500120162964 0.20045177638530731 0.07726866751909256
0.76093858480453491 0.24401083588600159 0.091591134667396545
0.9090082049369812 0.28679671883583069 0.083405561745166779
0.95460045337677002 0.28415322303771973 0.081107012927532196
0.033488284796476364 0.30454045534133911 0.057894911617040634
0.049163609743118286 0.30609768629074097 0.065201416611671448
0.17604658007621765 0.34724649786949158 0.065816693007946014
0.56423544883728027 0.32706204056739807 0.070100925862789154
0.79160326719284058 0.35110634565353394 0.079097256064414978
0.91941744089126587 0.40759319067001343 0.072182625532150269
0.98810839653015137 0.43219080567359924 0.067498289048671722
0.040326692163944244 0.44366419315338135 0.072505667805671692
0.049524731934070587 0.44320589303970337 0.083299629390239716
0.16504794359207153 0.48790308833122253 0.070998296141624451
0.52314382791519165 0.58442938327789307 0.078106269240379333
0.78523927927017212 0.52974718809127808 0.068456806242465973
0.91263294219970703 0.53868192434310913 0.068698659539222717
0.983867347240448 0.57511389255523682 0.073121868073940277
0.054008617997169495 0.58058315515518188 0.083804532885551453
0.06128857284784317 0.57781094312667847 0.081411637365818024
0.16078385710716248 0.60723000764846802 0.075690083205699921
0.49093306064605713 0.70419585704803467 0.073340997099876404
0.73859971761703491 0.7711181640625 0.087006524205207825
0.88605034351348877 0.72944289445877075 0.089399166405200958
0.96717745065689087 0.71686327457427979 0.088293232023715973
0.057138584554195404 0.73491472005844116 0.075288064777851105
0.074960954487323761 0.74149924516677856 0.083894319832324982
0.17135435342788696 0.76244276762008667 0.078078866004943848
0.46534749865531921 0.82504498958587646 0.068046361207962036
0.71888703107833862 0.87236964702606201 0.074076138436794281
0.85461223125457764 0.89496743679046631 0.096413888037204742
0.95518589019775391 0.85899430513381958 0.093679539859294891
0.043766438961029053 0.092646308243274689 0.23768442869186401
0.067346565425395966 0.093969322741031647 0.22852878272533417
0.1928962767124176 0.093075528740882874 0.20727671682834625
0.46296080946922302 0.099378354847431183 0.18908992409706116
0.7194705605506897 0.1347326785326004 0.19349300861358643
0.88223803043365479 0.17352114617824554 0.19201281666755676
0.92181873321533203 0.17293968796730042 0.18606044352054596
0.039094094187021255 0.11673054099082947 0.23145167529582977
0.064953356981277466 0.11520090699195862 0.22482094168663025
0.17848886549472809 0.12433782964944839 0.20978212356567383
0.47262051701545715 0.1292392909526825 0.18155662715435028
0.72737580537796021 0.15738113224506378 0.18628445267677307
0.88539797067642212 0.19533972442150116 0.18008512258529663
0.92314833402633667 0.19143407046794891 0.18040046095848083
0.038664095103740692 0.19270800054073334 0.2240721583366394
0.058412842452526093 0.19445209205150604 0.219438835978508
0.15603189170360565 0.20479501783847809 0.21265819668769836
0.50219869613647461 0.21552443504333496 0.16688297688961029
0.76126939058303833 0.23685851693153381 0.14932280778884888
0.89861726760864258 0.27571377158164978 0.13865469396114349
0.95473825931549072 0.2864435613155365 0.13005566596984863
0.044503305107355118 0.38231608271598816 0.24032573401927948
0.061023503541946411 0.37778690457344055 0.23214805126190186
0.11385219544172287 0.36652114987373352 0.18573445081710815
0.51542752981185913 0.35635411739349365 0.1299157589673996
0.78147494792938232 0.36174425482749939 0.11243537813425064
0.90753138065338135 0.42102128267288208 0.11543229222297668
0.97761040925979614 0.44502905011177063 0.10336806625127792
0.0399513840675354 0.49667656421661377 0.17190283536911011
0.054848060011863708 0.48949477076530457 0.16929696500301361
0.11623641103506088 0.47576528787612915 0.13329996168613434
0.44424611330032349 0.56622910499572754 0.12247205525636673
0.76788699626922607 0.5471457839012146 0.12449575960636139
0.90807449817657471 0.54606574773788452 0.11683328449726105
0.98362290859222412 0.58525246381759644 0.11556927859783173
0.047475598752498627 0.59081226587295532 0.15309932827949524
0.060452420264482498 0.58508425951004028 0.14660771191120148
0.11561585962772369 0.59225845336914062 0.13208524882793427
0.4223768413066864 0.6866767406463623 0.11250142008066177
0.72583317756652832 0.76309829950332642 0.13127775490283966
0.88409674167633057 0.72579300403594971 0.13416188955307007
0.96689367294311523 0.7117425799369812 0.12917201220989227
0.049511194229125977 0.74103760719299316 0.11947581171989441
0.066079951822757721 0.72502332925796509 0.14194446802139282
0.1184827908873558 0.74748837947845459 0.12980897724628448
0.41338410973548889 0.80861860513687134 0.098290383815765381
0.70492446422576904 0.8684113621711731 0.11207909882068634
0.84717148542404175 0.89042836427688599 0.13871127367019653
0.95459967851638794 0.8516351580619812 0.13047999143600464
0.054327782243490219 0.14828401803970337 0.4149729311466217
0.079267449676990509 0.14284308254718781 0.39728358387947083
0.1200510635972023 0.14939750730991364 0.37347757816314697
0.33216845989227295 0.14782354235649109 0.32835066318511963
0.70342755317687988 0.15467692911624908 0.28042316436767578
0.86925274133682251 0.20117112994194031 0.29777783155441284
0.9103584885597229 0.22618827223777771 0.31041806936264038
0.048513777554035187 0.17100681364536285 0.40527302026748657
0.075897902250289917 0.16760312020778656 0.39965724945068359
0.1281360387802124 0.17304490506649017 0.38078656792640686
0.32309442758560181 0.17879347503185272 0.33036798238754272
0.69181603193283081 0.18879425525665283 0.28853511810302734
0.86958450078964233 0.24865914881229401 0.31157538294792175
0.91676753759384155 0.2553732693195343 0.30492201447486877
0.045795485377311707 0.21779204905033112 0.39204278588294983
0.069897837936878204 0.22247451543807983 0.39525282382965088
0.11312714964151382 0.23559334874153137 0.41259065270423889
0.31537213921546936 0.26329508423805237 0.36666002869606018
0.69665801525115967 0.30277508497238159 0.32805490493774414
0.87102335691452026 0.35477858781814575 0.33817300200462341
0.94099825620651245 0.35221043229103088 0.31630471348762512
0.049205031245946884 0.31691226363182068 0.40756267309188843
0.067909717559814453 0.31868872046470642 0.40604099631309509
0.12039826065301895 0.34600663185119629 0.42956015467643738
0.306214839220047 0.39471006393432617 0.41459730267524719
0.70734286308288574 0.45806008577346802 0.37417331337928772
0.8828810453414917 0.48915642499923706 0.33754786849021912
0.96459829807281494 0.4933742880821228 0.29638171195983887
0.07591826468706131 0.58564108610153198 0.56236445903778076
0.089949637651443481 0.57472044229507446 0.54756748676300049
0.13227841258049011 0.56972837448120117 0.4979308545589447
0.25775635242462158 0.58165639638900757 0.3957265317440033
0.71124410629272461 0.61749517917633057 0.27914121747016907
0.87511861324310303 0.62242585420608521 0.26321762800216675
0.97172683477401733 0.64319562911987305 0.24548335373401642
0.084771037101745605 0.74142563343048096 0.58319014310836792
0.09749767929315567 0.73018908500671387 0.55926519632339478
0.13061675429344177 0.70464318990707397 0.4991130530834198
0.26641970872879028 0.69115543365478516 0.33891886472702026
0.65790009498596191 0.76070111989974976 0.25931426882743835
0.86117535829544067 0.75716793537139893 0.20801800489425659
0.96693164110183716 0.73166525363922119 0.20413553714752197
0.078784823417663574 0.84309196472167969 0.48517340421676636
0.092612169682979584 0.83734047412872314 0.48524409532546997
0.12552320957183838 0.81379777193069458 0.39728221297264099
0.28085228800773621 0.80204838514328003 0.26741039752960205
0.6328626275062561 0.85963922739028931 0.24815356731414795
0.82471311092376709 0.88515830039978027 0.22387108206748962
0.9450763463973999 0.85822635889053345 0.198094442486763
0.065775327384471893 0.21812927722930908 0.61208850145339966
0.095088735222816467 0.21443744003772736 0.59737086296081543
0.15429112315177917 0.21068458259105682 0.56014937162399292
0.22204847633838654 0.2189929336309433 0.52679598331451416
0.61397832632064819 0.22868074476718903 0.41792961955070496
0.86277258396148682 0.25115984678268433 0.41028732061386108
0.89805960655212402 0.25877857208251953 0.41312944889068604
0.057676263153553009 0.2416050136089325 0.60527998208999634
0.088393673300743103 0.24028272926807404 0.6028781533241272
0.14759087562561035 0.23608162999153137 0.57013684511184692
0.21236488223075867 0.24297548830509186 0.52884465456008911
0.58940529823303223 0.25274842977523804 0.4250786304473877
0.85034066438674927 0.27932775020599365 0.41320177912712097
0.896076500415802 0.28570270538330078 0.41924050450325012
0.057700376957654953 0.29489651322364807 0.59783196449279785
0.081980042159557343 0.29759666323661804 0.60152387619018555
0.14148640632629395 0.30655995011329651 0.60189568996429443
0.20199857652187347 0.31024092435836792 0.57171201705932617
0.5914577841758728 0.35342532396316528 0.47645783424377441
0.84211897850036621 0.39497512578964233 0.48067203164100647
0.91396063566207886 0.40474805235862732 0.48785668611526489
0.058664869517087936 0.35660228133201599 0.59351307153701782
0.075802788138389587 0.35900166630744934 0.59511607885360718
0.13484388589859009 0.37273684144020081 0.6062006950378418
0.19219414889812469 0.39875626564025879 0.63050270080566406
0.58170366287231445 0.49200978875160217 0.58634930849075317
0.8539002537727356 0.54238122701644897 0.58549594879150391
0.93377912044525146 0.55157440900802612 0.58175516128540039
0.070161394774913788 0.46970871090888977 0.61577969789505005
0.083621591329574585 0.46513336896896362 0.61118012666702271
0.13182482123374939 0.47599732875823975 0.61329323053359985
0.20081914961338043 0.5179133415222168 0.64745932817459106
0.55890083312988281 0.62419503927230835 0.62831532955169678
0.83237838745117188 0.67043489217758179 0.61156338453292847
0.94567292928695679 0.67375290393829346 0.58608007431030273
0.091765642166137695 0.6693274974822998 0.7196357250213623
0.10545307397842407 0.66287088394165039 0.70946234464645386
0.153177410364151 0.6802980899810791 0.72327625751495361
0.19897790253162384 0.70661872625350952 0.72045427560806274
0.49301427602767944 0.75474214553833008 0.61460304260253906
0.82615256309509277 0.78279787302017212 0.50428307056427002
0.95035856962203979 0.76149028539657593 0.45706740021705627
0.10903529822826385 0.83180797100067139 0.80363631248474121
0.12189874053001404 0.83283340930938721 0.79589897394180298
0.16397841274738312 0.84134149551391602 0.79919463396072388
0.21415762603282928 0.84975564479827881 0.7316402792930603
0.50631362199783325 0.86013609170913696 0.53654205799102783
0.78255456686019897 0.88059401512145996 0.47565028071403503
0.93492496013641357 0.86938357353210449 0.3442351222038269
0.072924084961414337 0.26035958528518677 0.73276990652084351
0.10271453857421875 0.26512756943702698 0.7306288480758667
0.16269519925117493 0.26843631267547607 0.71042370796203613
0.21642327308654785 0.28120437264442444 0.70001435279846191
0.47494503855705261 0.32551690936088562 0.68274992704391479
0.82808601856231689 0.34445032477378845 0.63229548931121826
0.87212175130844116 0.34545394778251648 0.63010841608047485
0.071239784359931946 0.29691392183303833 0.74362432956695557
0.097653426229953766 0.29904606938362122 0.74598324298858643
0.16241787374019623 0.29921677708625793 0.72684335708618164
0.21409045159816742 0.30781456828117371 0.71192634105682373
0.44601011276245117 0.35380145907402039 0.69970810413360596
0.82131052017211914 0.36478549242019653 0.64194709062576294
0.86747688055038452 0.36764660477638245 0.63224220275878906
0.073699489235877991 0.36504599452018738 0.76052063703536987
0.095298096537590027 0.36560735106468201 0.76179641485214233
0.15370044112205505 0.37223827838897705 0.76151144504547119
0.21196456253528595 0.37681299448013306 0.74955910444259644
0.42753773927688599 0.43251100182533264 0.73148578405380249
0.81609505414962769 0.44635710120201111 0.69157332181930542
0.88870918750762939 0.45523202419281006 0.66705214977264404
0.075146272778511047 0.42773786187171936 0.7602350115776062
0.092223159968852997 0.42375412583351135 0.75486963987350464
0.14534337818622589 0.43575689196586609 0.76770484447479248
0.18974795937538147 0.45040467381477356 0.78360956907272339
0.41002878546714783 0.50843650102615356 0.76762682199478149
0.80868709087371826 0.55698549747467041 0.73143297433853149
0.90836995840072632 0.57038891315460205 0.71917057037353516
0.077987834811210632 0.49579569697380066 0.75701236724853516
0.091052323579788208 0.48796144127845764 0.74873393774032593
0.13871470093727112 0.49685958027839661 0.75751799345016479
0.19615721702575684 0.52362412214279175 0.77823656797409058
0.39741364121437073 0.59068453311920166 0.78626197576522827
0.79215431213378906 0.67729741334915161 0.7654605507850647
0.9177057147026062 0.68884551525115967 0.74946755170822144
0.08678881824016571 0.60566717386245728 0.78008604049682617
0.10011962056159973 0.59805452823638916 0.77002382278442383
0.14444358646869659 0.59886139631271362 0.76431471109390259
0.20090977847576141 0.61650329828262329 0.76556551456451416
0.34520432353019714 0.68017059564590454 0.79737383127212524
0.78268325328826904 0.7848774790763855 0.76084893941879272
0.92007613182067871 0.78689765930175781 0.74562942981719971
0.096997536718845367 0.74244230985641479 0.83106791973114014
0.1156337782740593 0.73452198505401611 0.81891119480133057
0.15735489130020142 0.73843789100646973 0.81575137376785278
0.20511613786220551 0.75703805685043335 0.81866884231567383
0.30173403024673462 0.80388915538787842 0.81607669591903687
0.71945679187774658 0.87438589334487915 0.72177976369857788
0.91566449403762817 0.87094056606292725 0.63544517755508423
0.071391388773918152 0.26199132204055786 0.77434128522872925
0.10394870489835739 0.26097095012664795 0.76258784532546997
0.15142068266868591 0.26197198033332825 0.74149709939956665
0.19959935545921326 0.28214144706726074 0.73885929584503174
0.45294669270515442 0.32874888181686401 0.74306619167327881
0.81764543056488037 0.34999322891235352 0.68497055768966675
0.87848293781280518 0.35891580581665039 0.69089305400848389
0.074270002543926239 0.29823088645935059 0.78236633539199829
0.10418295860290527 0.29756948351860046 0.77758234739303589
0.15375013649463654 0.29799655079841614 0.76381278038024902
0.19372323155403137 0.30940476059913635 0.75657045841217041
0.4242398738861084 0.35408428311347961 0.75467431545257568
0.81163704395294189 0.37245646119117737 0.70554912090301514
0.86685317754745483 0.38086080551147461 0.69942575693130493
0.072248511016368866 0.36747255921363831 0.8050159215927124
0.10124822705984116 0.3717784583568573 0.81029629707336426
0.15297861397266388 0.3813653290271759 0.81684625148773193
0.20458905398845673 0.38793849945068359 0.80876672267913818
0.36271888017654419 0.43847882747650146 0.80936503410339355
0.7755131721496582 0.46961084008216858 0.78600317239761353
0.88805556297302246 0.4618803858757019 0.75074166059494019
0.075950160622596741 0.44954246282577515 0.83389973640441895
0.1011974886059761 0.44649925827980042 0.83099943399429321
0.15345299243927002 0.45746004581451416 0.84299039840698242
0.21276581287384033 0.47346910834312439 0.85212361812591553
0.34480935335159302 0.51745939254760742 0.84872657060623169
0.75785917043685913 0.57668513059616089 0.84893888235092163
0.8971676230430603 0.56399309635162354 0.81706392765045166
0.079228311777114868 0.52888029813766479 0.85515350103378296
0.098059497773647308 0.51772737503051758 0.84299564361572266
0.14624257385730743 0.5257643461227417 0.85094690322875977
0.20209662616252899 0.54797065258026123 0.86793226003646851
0.30748218297958374 0.57927054166793823 0.87404471635818481
0.71185743808746338 0.6791495680809021 0.87568134069442749
0.89949679374694824 0.67643207311630249 0.84691858291625977
0.081366747617721558 0.61157047748565674 0.86994773149490356
0.10193873196840286 0.60050094127655029 0.85812079906463623
0.14656294882297516 0.60277879238128662 0.85736948251724243
0.2050425261259079 0.62450039386749268 0.86912000179290771
0.27390730381011963 0.64365488290786743 0.8739856481552124
0.68911612033843994 0.76223540306091309 0.87704181671142578
0.8937562108039856 0.78249949216842651 0.8549613356590271
0.081689171493053436 0.70824253559112549 0.88778293132781982
0.10661148279905319 0.69434458017349243 0.87330520153045654
0.14699549973011017 0.69306027889251709 0.86634141206741333
0.1819673627614975 0.70241630077362061 0.86809736490249634
0.24935233592987061 0.72375726699829102 0.87180012464523315
0.59719419479370117 0.82155698537826538 0.87848758697509766
0.85832273960113525 0.86231493949890137 0.82962572574615479
