assets/lut/ericellerbrock black star.cube
# Created by: G'MIC (https://gmic.eu)
TITLE "black_star"
# LUT size
LUT_3D_SIZE 13
# Data domain
DOMAIN_MIN 0.0 0.0 0.0
DOMAIN_MAX 1.0 1.0 1.0
# LUT data points
0.035491570830345154 0.03539549931883812 0.035898603498935699
0.11763241142034531 0.036700036376714706 0.036899760365486145
0.1976005882024765 0.036725316196680069 0.036970548331737518
0.2779390811920166 0.036254297941923141 0.03677082434296608
0.35539215803146362 0.035403471440076828 0.036345120519399643
0.43537136912345886 0.03478718176484108 0.036252353340387344
0.51372551918029785 0.034662522375583649 0.036287747323513031
0.59343022108078003 0.034897059202194214 0.036335784941911697
0.67284256219863892 0.035635285079479218 0.036967050284147263
0.75333273410797119 0.03634103387594223 0.037139352411031723
0.83427172899246216 0.036720260977745056 0.03766968846321106
0.91527199745178223 0.036338701844215393 0.037051644176244736
0.98848158121109009 0.034482438117265701 0.034603793174028397
0.036828972399234772 0.11741246283054352 0.037260286509990692
0.1187831237912178 0.11834283173084259 0.038387656211853027
0.19863830506801605 0.11815010756254196 0.037993352860212326
0.27818566560745239 0.1171201691031456 0.037181749939918518
0.35539215803146362 0.11605984717607498 0.036484166979789734
0.43467533588409424 0.11568127572536469 0.035916496068239212
0.51372551918029785 0.11556167900562286 0.035493124276399612
0.59253191947937012 0.11576353758573532 0.036093469709157944
0.67240488529205322 0.11633677780628204 0.036691479384899139
0.75330477952957153 0.11746496707201004 0.037132937461137772
0.83419358730316162 0.11826445907354355 0.037310492247343063
0.91536551713943481 0.11817363649606705 0.036961019039154053
0.98860293626785278 0.1167096272110939 0.034501887857913971
0.037084899842739105 0.19757257401943207 0.038057845085859299
0.11898265033960342 0.19832247495651245 0.038664214313030243
0.19893604516983032 0.19778436422348022 0.038250613957643509
0.27818626165390015 0.19708132743835449 0.037313994020223618
0.35539215803146362 0.1964946985244751 0.036210544407367706
0.43292006850242615 0.19495594501495361 0.034759834408760071
0.51342403888702393 0.19436201453208923 0.034094896167516708
0.59161657094955444 0.19551174342632294 0.034486763179302216
0.67215514183044434 0.19681188464164734 0.035631816834211349
0.75285381078720093 0.1972077339887619 0.036464527249336243
0.8337971568107605 0.19812469184398651 0.036650054156780243
0.91531634330749512 0.19841095805168152 0.035605292767286301
0.98860293626785278 0.19732171297073364 0.033229485154151917
0.037395477294921875 0.27797195315361023 0.038570091128349304
0.11915962398052216 0.27818566560745239 0.039355184882879257
0.19894109666347504 0.27811315655708313 0.038500122725963593
0.27818626165390015 0.27696207165718079 0.037219475954771042
0.35539215803146362 0.27492520213127136 0.035825289785861969
0.43259802460670471 0.27426064014434814 0.033845040947198868
0.51254045963287354 0.27423843741416931 0.033214285969734192
0.59123772382736206 0.27431130409240723 0.033294603228569031
0.6720588207244873 0.27558979392051697 0.033895932137966156
0.75263482332229614 0.27765849232673645 0.034597627818584442
0.83378410339355469 0.27817288041114807 0.034517697989940643
0.91528576612472534 0.27818566560745239 0.033550232648849487
0.98860293626785278 0.27784362435340881 0.031608119606971741
0.037496604025363922 0.35695990920066833 0.039403609931468964
0.11935935169458389 0.35756164789199829 0.040119081735610962
0.19926315546035767 0.35671859979629517 0.038981806486845016
0.27818626165390015 0.35556820034980774 0.037424873560667038
0.35539215803146362 0.35527050495147705 0.035935360938310623
0.4331868588924408 0.35418263077735901 0.033811978995800018
0.5134047269821167 0.35376647114753723 0.033210784196853638
0.59159773588180542 0.35465338826179504 0.032990638166666031
0.67217034101486206 0.35537970066070557 0.033111214637756348
0.75292718410491943 0.35607516765594482 0.033133964985609055
0.83395552635192871 0.35741695761680603 0.032804720103740692
0.91559523344039917 0.35794594883918762 0.032016050070524216
0.98860293626785278 0.35710659623146057 0.029740456491708755
0.037881184369325638 0.43650698661804199 0.040167506784200668
0.11961032450199127 0.43651959300041199 0.040395233780145645
0.2001989483833313 0.43651959300041199 0.039857707917690277
0.27818626165390015 0.43619024753570557 0.037951331585645676
0.35626274347305298 0.43494719266891479 0.036471333354711533
0.43608495593070984 0.43393632769584656 0.034468334168195724
0.51372551918029785 0.43382352590560913 0.033266987651586533
0.59312373399734497 0.43430542945861816 0.032617636024951935
0.67271965742111206 0.43552616238594055 0.032414216548204422
0.75348621606826782 0.43645128607749939 0.032309003174304962
0.83456385135650635 0.43651959300041199 0.031690977513790131
0.91624438762664795 0.43658766150474548 0.030120745301246643
0.98860293626785278 0.43651959300041199 0.027871688827872276
0.038607235997915268 0.51630610227584839 0.040811218321323395
0.12033579498529434 0.51685971021652222 0.041041087359189987
0.20088256895542145 0.51643949747085571 0.040558982640504837
0.27940189838409424 0.51563769578933716 0.03899504616856575
0.35918572545051575 0.5148889422416687 0.037091542035341263
0.43651959300041199 0.51423877477645874 0.035498809069395065
0.51498168706893921 0.51409316062927246 0.033562634140253067
0.59476464986801147 0.51470649242401123 0.032711178064346313
0.67431676387786865 0.51532882452011108 0.03225027397274971
0.75442451238632202 0.51620900630950928 0.031420134007930756
0.83534520864486694 0.51715493202209473 0.030084691941738129
0.91663664579391479 0.51733773946762085 0.028531827032566071
0.98864841461181641 0.51698613166809082 0.025842450559139252
0.039456311613321304 0.59530866146087646 0.041377212852239609
0.12140112370252609 0.595786452293396 0.041990198194980621
0.20139212906360626 0.59595590829849243 0.041199434548616409
0.28180009126663208 0.59561377763748169 0.040101774036884308
0.35935202240943909 0.59515929222106934 0.037802767008543015
0.4383399486541748 0.59515929222106934 0.036201015114784241
0.51757282018661499 0.59515929222106934 0.033964268863201141
0.59564310312271118 0.5951845645904541 0.03268083930015564
0.67585909366607666 0.59589678049087524 0.031735796481370926
0.75593441724777222 0.59628647565841675 0.030181884765625
0.83638119697570801 0.59675246477127075 0.02886657789349556
0.91742080450057983 0.59675246477127075 0.026653604581952095
0.98933511972427368 0.59645920991897583 0.02374623529613018
0.040072992444038391 0.67587924003601074 0.042225811630487442
0.12217338383197784 0.67603498697280884 0.042595896869897842
0.20298752188682556 0.67615234851837158 0.04206288605928421
0.28218138217926025 0.67622315883636475 0.040694143623113632
0.36174064874649048 0.67622548341751099 0.03849276527762413
0.44044119119644165 0.67622548341751099 0.036451302468776703
0.51808077096939087 0.67622548341751099 0.034029807895421982
0.59831207990646362 0.67622548341751099 0.032489866018295288
0.67686057090759277 0.67660140991210938 0.03083832748234272
0.75711631774902344 0.67702203989028931 0.029187684878706932
0.83764469623565674 0.67702203989028931 0.027114972472190857
0.91836416721343994 0.67702203989028931 0.02459634467959404
0.98997014760971069 0.67663276195526123 0.021323170512914658
0.040237322449684143 0.75580805540084839 0.042317796498537064
0.12269865721464157 0.7566412091255188 0.043035797774791718
0.20399820804595947 0.75694328546524048 0.042305979877710342
0.28337013721466064 0.75714647769927979 0.040711645036935806
0.36321118474006653 0.75726425647735596 0.038450952619314194
0.44088327884674072 0.75729167461395264 0.036158032715320587
0.5209805965423584 0.75729167461395264 0.033547122031450272
0.59885108470916748 0.75729167461395264 0.03177928552031517
0.67908531427383423 0.75786226987838745 0.029611356556415558
0.75811219215393066 0.75808823108673096 0.027576431632041931
0.83843898773193359 0.75808823108673096 0.025031490251421928
0.91928523778915405 0.75801008939743042 0.022046735510230064
0.9907112717628479 0.75727647542953491 0.018954033032059669
0.039828147739171982 0.83575659990310669 0.041677586734294891
0.12265004217624664 0.83689463138580322 0.042368751019239426
0.20413647592067719 0.83751380443572998 0.041627846658229828
0.28447219729423523 0.83779364824295044 0.039954554289579391
0.36323815584182739 0.83825826644897461 0.037604015320539474
0.44299012422561646 0.83835786581039429 0.034950166940689087
0.5215686559677124 0.83859431743621826 0.032475728541612625
0.60028064250946045 0.83915442228317261 0.030217563733458519
0.67990195751190186 0.83915442228317261 0.027808798477053642
0.75968033075332642 0.83915442228317261 0.02527770958840847
0.83934110403060913 0.83915442228317261 0.022378120571374893
0.91990399360656738 0.83901047706604004 0.019421551376581192
0.99093139171600342 0.83829212188720703 0.016321459785103798
0.038486078381538391 0.91628146171569824 0.039607193320989609
0.12187252938747406 0.91751307249069214 0.040463078767061234
0.2036263644695282 0.91833513975143433 0.039634853601455688
0.2840820848941803 0.91886228322982788 0.03782406821846962
0.36332499980926514 0.91944831609725952 0.035399820655584335
0.44358956813812256 0.92014980316162109 0.032897546887397766
0.5215686559677124 0.92022061347961426 0.030503500252962112
0.60166507959365845 0.92022061347961426 0.027912797406315804
0.67998278141021729 0.92062687873840332 0.025228507816791534
0.76065987348556519 0.92097669839859009 0.022241406142711639
0.84001904726028442 0.92041581869125366 0.019383823499083519
0.92022061347961426 0.92021805047988892 0.016552120447158813
0.99093139171600342 0.91952031850814819 0.013163981959223747
0.035687390714883804 0.98857259750366211 0.035679999738931656
0.11958764493465424 0.98896235227584839 0.036565054208040237
0.20177361369132996 0.98994112014770508 0.03586285188794136
0.28260079026222229 0.99065423011779785 0.034298662096261978
0.36292764544487 0.99093139171600342 0.032187517732381821
0.44249901175498962 0.99093139171600342 0.029986288398504257
0.5215686559677124 0.99093139171600342 0.027363525703549385
0.60139244794845581 0.99093139171600342 0.024529371410608292
0.68002724647521973 0.99093139171600342 0.02160625159740448
0.76072698831558228 0.99093139171600342 0.01889413595199585
0.84016352891921997 0.99093139171600342 0.016076032072305679
0.920154869556427 0.99093139171600342 0.012936445884406567
0.99093139171600342 0.99090105295181274 0.0097169764339923859
0.036606494337320328 0.036700036376714706 0.11836577951908112
0.11854002624750137 0.037613485008478165 0.11936187744140625
0.198804572224617 0.037858325988054276 0.11940991133451462
0.27818626165390015 0.037575948983430862 0.1189844012260437
0.35630488395690918 0.037115823477506638 0.11833427101373672
0.43651482462882996 0.036683700978755951 0.11819852888584137
0.51385498046875 0.036508284509181976 0.11819852888584137
0.59453994035720825 0.036760129034519196 0.11855402588844299
0.67369246482849121 0.037290461361408234 0.11920668929815292
0.7540278434753418 0.037666186690330505 0.12034523487091064
0.83480328321456909 0.037754673510789871 0.12049271911382675
0.91612476110458374 0.037388280034065247 0.12009596079587936
0.98860293626785278 0.035893939435482025 0.11791070550680161
0.037459265440702438 0.11834283173084259 0.1196267232298851
0.11949101090431213 0.11935487389564514 0.12032858282327652
0.19951246678829193 0.11928816884756088 0.11987282335758209
0.27818626165390015 0.11851669102907181 0.11928778141736984
0.3555397093296051 0.11739850789308548 0.11833232641220093
0.43597137928009033 0.11631228774785995 0.11771272867918015
0.51372551918029785 0.11610069870948792 0.11762424558401108
0.59332621097564697 0.11656316369771957 0.11795446276664734
0.67276853322982788 0.11769682914018631 0.11875881254673004
0.75340503454208374 0.11882103979587555 0.11968091875314713
0.83443844318389893 0.1193721815943718 0.12019737064838409
0.91591924428939819 0.11912714689970016 0.11972443759441376
0.98860293626785278 0.11785741895437241 0.11779440939426422
0.037926003336906433 0.19857724010944366 0.12031654268503189
0.1197916641831398 0.19926451146602631 0.12052696198225021
0.19941133260726929 0.19878435134887695 0.11997644603252411
0.27818626165390015 0.19733841717243195 0.11911353468894958
0.35539215803146362 0.19705508649349213 0.11773607134819031
0.43363791704177856 0.19687974452972412 0.11665253341197968
0.51370012760162354 0.19666776061058044 0.11634347587823868
0.59186100959777832 0.19696648418903351 0.11672393232584
0.67221581935882568 0.19705858826637268 0.11758357286453247
0.75303059816360474 0.19773514568805695 0.11844725906848907
0.83394092321395874 0.19910231232643127 0.1187337264418602
0.91536885499954224 0.19924972951412201 0.11835726350545883
0.98860293626785278 0.19798466563224792 0.11646435409784317
0.037928920239210129 0.27818626165390015 0.12086281925439835
0.1197916641831398 0.27818626165390015 0.12092310935258865
0.19926470518112183 0.27818626165390015 0.12000756710767746
0.27818626165390015 0.27789300680160522 0.11892800778150558
0.35539215803146362 0.2759338915348053 0.11721565574407578
0.43260964751243591 0.27444383502006531 0.11585033684968948
0.51317137479782104 0.27427360415458679 0.11515890061855316
0.59123772382736206 0.27473375201225281 0.11538773775100708
0.6720588207244873 0.27658900618553162 0.11614321172237396
0.75263482332229614 0.2781120240688324 0.11695625633001328
0.83370226621627808 0.27818626165390015 0.11730563640594482
0.91483539342880249 0.27818626165390015 0.11660030484199524
0.98860293626785278 0.27814894914627075 0.11458373814821243
0.038529310375452042 0.35803696513175964 0.12151917070150375
0.11980951577425003 0.35827204585075378 0.12145304679870605
0.19985474646091461 0.35727980732917786 0.12031758576631546
0.27818626165390015 0.35587602853775024 0.11912555992603302
0.35539215803146362 0.35539168119430542 0.1172662153840065
0.4328797459602356 0.35511183738708496 0.11570039391517639
0.51351428031921387 0.35483011603355408 0.11507353186607361
0.59128224849700928 0.35528534650802612 0.11501285433769226
0.67205929756164551 0.35539215803146362 0.11514995992183685
0.7526358962059021 0.35616230964660645 0.11545181274414062
0.83371055126190186 0.35766357183456421 0.11542019993066788
0.91488111019134521 0.35827204585075378 0.11455926299095154
0.98860293626785278 0.35769563913345337 0.11271330714225769
0.039535731077194214 0.43651959300041199 0.12238672375679016
0.12006019055843353 0.43651959300041199 0.12232546508312225
0.20083099603652954 0.43651959300041199 0.12123148143291473
0.27818626165390015 0.43641334772109985 0.11965952813625336
0.35603854060173035 0.43526071310043335 0.11795543879270554
0.43568626046180725 0.43432819843292236 0.11618483066558838
0.51372551918029785 0.43383637070655823 0.11517776548862457
0.59238517284393311 0.43457069993019104 0.11461418122053146
0.67222940921783447 0.43567025661468506 0.11444790661334991
0.75298315286636353 0.43647652864456177 0.11449341475963593
0.83395248651504517 0.43651959300041199 0.11411883682012558
0.91538619995117188 0.43655771017074585 0.11307378858327866
0.98860293626785278 0.43651959300041199 0.11063616722822189
0.040317054837942123 0.51724147796630859 0.12332018464803696
0.12137292325496674 0.51727938652038574 0.12329591065645218
0.20098039507865906 0.51682883501052856 0.1224137544631958
0.27980232238769531 0.51588541269302368 0.12069638073444366
0.35913145542144775 0.51493948698043823 0.11892939358949661
0.43651959300041199 0.51431715488433838 0.11709784716367722
0.51422238349914551 0.51409316062927246 0.11569356173276901
0.59440082311630249 0.51451945304870605 0.11483432352542877
0.67334812879562378 0.51514172554016113 0.11427229642868042
0.753642737865448 0.51602697372436523 0.11386985331773758
0.83466053009033203 0.51694005727767944 0.11301159113645554
0.91617286205291748 0.51731210947036743 0.11116798222064972
0.98860293626785278 0.51708984375 0.10870827734470367
0.04105314239859581 0.59622174501419067 0.12477165460586548
0.12267201393842697 0.59660851955413818 0.12472923099994659
0.20235458016395569 0.5960688591003418 0.12361215054988861
0.28208714723587036 0.5958438515663147 0.12198513001203537
0.35934543609619141 0.59515929222106934 0.11997978389263153
0.43781545758247375 0.59515929222106934 0.11815885454416275
0.51721382141113281 0.59515929222106934 0.11647928506135941
0.59508907794952393 0.59515929222106934 0.11497512459754944
0.67530214786529541 0.59540784358978271 0.11410221457481384
0.75496554374694824 0.59595996141433716 0.11319719254970551
0.83560216426849365 0.59646636247634888 0.1115570068359375
0.91685909032821655 0.59672892093658447 0.10955420136451721
0.98882639408111572 0.59647434949874878 0.10650411993265152
0.041668970137834549 0.67609250545501709 0.12570542097091675
0.12362544983625412 0.67622387409210205 0.12582074105739594
0.20440889894962311 0.67622548341751099 0.12490711361169815
0.28254681825637817 0.67622548341751099 0.12304660677909851
0.36217215657234192 0.67622548341751099 0.12110736221075058
0.44043460488319397 0.67619520425796509 0.11884494870901108
0.51788723468780518 0.67618334293365479 0.11707346141338348
0.59760576486587524 0.67621231079101562 0.11499100923538208
0.67622131109237671 0.67622876167297363 0.11377741396427155
0.7566688060760498 0.67652362585067749 0.11205330491065979
0.83688974380493164 0.67685991525650024 0.11005624383687973
0.9177013635635376 0.67688512802124023 0.10755065083503723
0.98951715230941772 0.67651855945587158 0.10393675416707993
0.04219798743724823 0.7568061351776123 0.12604166567325592
0.1245788112282753 0.75710964202880859 0.12604166567325592
0.20492015779018402 0.7571948766708374 0.12561708688735962
0.28504231572151184 0.75728923082351685 0.12364934384822845
0.36323529481887817 0.75729167461395264 0.12162703275680542
0.44111236929893494 0.75722354650497437 0.11913293600082397
0.52082961797714233 0.75719690322875977 0.11705272644758224
0.59879714250564575 0.75726205110549927 0.11465077102184296
0.67839151620864868 0.75730758905410767 0.11283732205629349
0.75751137733459473 0.75757205486297607 0.11052084714174271
0.83814287185668945 0.75776427984237671 0.10802099108695984
0.91886442899703979 0.75755167007446289 0.10492558032274246
0.99028080701828003 0.75729167461395264 0.10083619505167007
0.042069632560014725 0.83689457178115845 0.12580499053001404
0.12487363815307617 0.83759742975234985 0.12603738903999329
0.20540305972099304 0.8379330039024353 0.12551964819431305
0.28596547245979309 0.8383413553237915 0.12343814224004745
0.3636171817779541 0.83835786581039429 0.12138091772794724
0.44406265020370483 0.83835786581039429 0.11859549582004547
0.5215686559677124 0.83837670087814331 0.11616251617670059
0.60021710395812988 0.83875459432601929 0.11359801888465881
0.67987322807312012 0.83900582790374756 0.11104696244001389
0.75923001766204834 0.83915442228317261 0.1084173172712326
0.83896148204803467 0.83915013074874878 0.10520737618207932
0.91961669921875 0.83887577056884766 0.10151335597038269
0.99091160297393799 0.83835786581039429 0.096871666610240936
0.041054639965295792 0.91751313209533691 0.12426823377609253
0.12421031296253204 0.9183351993560791 0.12492945045232773
0.20529104769229889 0.91882646083831787 0.12402062863111496
0.28590869903564453 0.91937851905822754 0.12209578603506088
0.36455711722373962 0.91981178522109985 0.11966591328382492
0.44436269998550415 0.92022061347961426 0.11707965284585953
0.52170616388320923 0.92022061347961426 0.11422616988420486
0.60229068994522095 0.92022061347961426 0.11138546466827393
0.6800263524055481 0.92023652791976929 0.10833577066659927
0.76073431968688965 0.92038720846176147 0.105205237865448
0.84001320600509644 0.92022508382797241 0.10144568234682083
0.92022061347961426 0.92022061347961426 0.097318939864635468
0.99093139171600342 0.91973519325256348 0.092014312744140625
0.038635626435279846 0.98890161514282227 0.12077607959508896
0.12211167812347412 0.9898374080657959 0.12165724486112595
0.20399682223796844 0.99050718545913696 0.12086141109466553
0.28475216031074524 0.99093085527420044 0.11914131045341492
0.36389052867889404 0.99093139171600342 0.11678124219179153
0.44424167275428772 0.99093139171600342 0.11401058733463287
0.52186983823776245 0.99093139171600342 0.11100160330533981
0.6026160717010498 0.99093139171600342 0.1078273132443428
0.6803290843963623 0.99093139171600342 0.10442383587360382
0.76102942228317261 0.99093139171600342 0.1007654070854187
0.84074753522872925 0.99093139171600342 0.09649340808391571
0.92066556215286255 0.99093139171600342 0.091675147414207458
0.99093139171600342 0.99093139171600342 0.08590216189622879
0.036294944584369659 0.036659583449363708 0.19902239739894867
0.11809448897838593 0.03772938996553421 0.20035979151725769
0.1983180046081543 0.037928920239210129 0.20039460062980652
0.27818626165390015 0.038047552108764648 0.19988352060317993
0.3566252589225769 0.037953812628984451 0.19924603402614594
0.43651959300041199 0.037787731736898422 0.19899904727935791
0.51435256004333496 0.03774222731590271 0.19908131659030914
0.594798743724823 0.037865132093429565 0.1997845321893692
0.67430657148361206 0.038096364587545395 0.20063185691833496
0.75440686941146851 0.038240469992160797 0.2009584903717041
0.83523285388946533 0.037948369979858398 0.20098039507865906
0.91632425785064697 0.037565641105175018 0.20092090964317322
0.98860293626785278 0.035976395010948181 0.19887556135654449
0.037172608077526093 0.11814504861831665 0.20055978000164032
0.11880917847156525 0.11916176229715347 0.20094774663448334
0.19866183400154114 0.11942566186189651 0.20079627633094788
0.27818626165390015 0.11896884441375732 0.19969235360622406
0.35557112097740173 0.11829926818609238 0.19847708940505981
0.43603792786598206 0.11766022443771362 0.19778820872306824
0.51372754573822021 0.11737006902694702 0.19776034355163574
0.59372031688690186 0.11784983426332474 0.19839322566986084
0.67309486865997314 0.11860925704240799 0.19954650104045868
0.75356960296630859 0.11912520229816437 0.20058275759220123
0.83457267284393311 0.1195913553237915 0.20093055069446564
0.91616213321685791 0.11899743229150772 0.2007286548614502
0.98860293626785278 0.11761413514614105 0.198651522397995
0.037657823413610458 0.19809630513191223 0.20094771683216095
0.11905227601528168 0.1988450288772583 0.20098039507865906
0.19820347428321838 0.19840902090072632 0.20067109167575836
0.27817010879516602 0.19730807840824127 0.19892981648445129
0.35539215803146362 0.19705882668495178 0.19732646644115448
0.43370920419692993 0.19705882668495178 0.19704267382621765
0.51371651887893677 0.19705882668495178 0.19701477885246277
0.59209656715393066 0.19705882668495178 0.19708739221096039
0.67216759920120239 0.19705882668495178 0.19757582247257233
0.7529226541519165 0.19754008948802948 0.19864214956760406
0.83390915393829346 0.19856828451156616 0.19945548474788666
0.91518318653106689 0.19863227009773254 0.19913271069526672
0.98860293626785278 0.1976291686296463 0.19744320213794708
0.037923086434602737 0.27818045020103455 0.20098039507865906
0.11935292929410934 0.27818626165390015 0.20098039507865906
0.19799472391605377 0.27818626165390015 0.20060379803180695
0.2781575620174408 0.27796033024787903 0.1983562558889389
0.35539215803146362 0.27658995985984802 0.19706061482429504
0.43261498212814331 0.27522757649421692 0.19677665829658508
0.51304894685745239 0.27480116486549377 0.19624997675418854
0.5911259651184082 0.2754528820514679 0.19648495316505432
0.67188000679016113 0.27703163027763367 0.19693170487880707
0.75228607654571533 0.27811843156814575 0.19710461795330048
0.83331936597824097 0.27818626165390015 0.1973290890455246
0.91482710838317871 0.27818626165390015 0.19722917675971985
0.98858678340911865 0.27809682488441467 0.19624930620193481
0.03870696946978569 0.35769250988960266 0.20115810632705688
0.11973550915718079 0.35774952173233032 0.20099714398384094
0.19874861836433411 0.35684305429458618 0.20083405077457428
0.2781786322593689 0.35567125678062439 0.19874921441078186
0.35539215803146362 0.35539215803146362 0.1970713883638382
