assets/lut/ericellerbrock serpent.cube
# Created by: G'MIC (https://gmic.eu)
TITLE "serpent"
# LUT size
LUT_3D_SIZE 13
# Data domain
DOMAIN_MIN 0.0 0.0 0.0
DOMAIN_MAX 1.0 1.0 1.0
# LUT data points
0.00089263916015625 0.002193645341321826 0.0063376780599355698
0.008574766106903553 0.013418967835605145 0.015832399949431419
0.05647895485162735 0.024107435718178749 0.032737642526626587
0.16846518218517303 0.022215524688363075 0.042303018271923065
0.31077772378921509 0.0078385891392827034 0.031655345112085342
0.48303335905075073 0.00071263033896684647 0.020832465961575508
0.67500209808349609 0 0.010319743305444717
0.86674660444259644 0 0.0010593190090730786
0.98860287666320801 0 0
1 7.0010914896556642e-06 0
1 0.00030279721249826252 0
1 0.0028325398452579975 0
1 0.012079590000212193 0
0.00014643950271420181 0.017458224669098854 0.01266035158187151
0.012292809784412384 0.049583509564399719 0.021793784573674202
0.095167212188243866 0.066133253276348114 0.021864034235477448
0.22321011126041412 0.059962522238492966 0.033253539353609085
0.41034123301506042 0.038602296262979507 0.020279139280319214
0.61174434423446655 0.019392739981412888 0.012613782659173012
0.82572072744369507 0.008078346960246563 0.0058229933492839336
0.9856296181678772 0.004199054092168808 0.00014914717758074403
1 0.0048069674521684647 0
1 0.0055547226220369339 0
1 0.0070422603748738766 0
1 0.013212241232395172 0
1 0.028540786355733871 0
0.0012323865666985512 0.079478949308395386 0.013050168752670288
0.0017583959270268679 0.11614737659692764 0.016885315999388695
0.056480571627616882 0.13252818584442139 0.0068046119995415211
0.22619146108627319 0.12387583404779434 0.0068145454861223698
0.45646163821220398 0.099651709198951721 0.0020631677471101284
0.66922467947006226 0.073228694498538971 0.0028644485864788294
0.87811094522476196 0.053305234760046005 0.0017548504984006286
0.99781334400177002 0.042901281267404556 0
1 0.039613086730241776 0
1 0.038431413471698761 0
1 0.038774721324443817 0
1 0.048058900982141495 0
1 0.068776316940784454 0
0.002394313458353281 0.18750534951686859 0.0062310462817549706
1.6156365063579869e-06 0.22252838313579559 0.0042721917852759361
0.005114446859806776 0.23727652430534363 0.0028613968752324581
0.15725302696228027 0.22726565599441528 4.321827509556897e-05
0.41319751739501953 0.20025309920310974 2.1541820842685411e-06
0.63822609186172485 0.1712593287229538 0.0011785918613895774
0.84912824630737305 0.14582991600036621 0.0010242237476631999
0.99211573600769043 0.12786440551280975 0
1 0.1184556856751442 0
1 0.11293318867683411 0
0.99991303682327271 0.11110865324735641 6.8260640546213835e-05
0.99846762418746948 0.1210724338889122 0
0.99752140045166016 0.14476369321346283 0
0.0033220029436051846 0.33783012628555298 0.00081057078205049038
0.00025730507331900299 0.36929973959922791 0
0.00056631048209965229 0.37725979089736938 0
0.081792198121547699 0.36368408799171448 0
0.31491130590438843 0.33826255798339844 0
0.55666470527648926 0.31070598959922791 0.00022831336536910385
0.77501863241195679 0.28260138630867004 0.00023434209288097918
0.96119284629821777 0.25644686818122864 0
1 0.24031791090965271 0
1 0.23097312450408936 0.00020692114776466042
0.99441951513290405 0.2282404899597168 0.0015575484139844775
0.98512727022171021 0.23732420802116394 0.00092453300021588802
0.98679983615875244 0.25706514716148376 1.8669577912078239e-05
0.0038761512842029333 0.51526236534118652 0.00087747012730687857
0.0010388094233348966 0.53281289339065552 7.4678311648312956e-05
9.7237380032311194e-06 0.53252792358398438 0
0.027923149988055229 0.51598787307739258 6.4954569097608328e-05
0.20149801671504974 0.49028980731964111 0.0018166635418310761
0.45179450511932373 0.46259945631027222 0.0027034087106585503
0.67706412076950073 0.43586117029190063 0.0018998389132320881
0.8849678635597229 0.40971848368644714 0.00082530599320307374
0.99526119232177734 0.38937246799468994 0.00015357522352132946
1 0.37708041071891785 0.00045954386587254703
0.99775969982147217 0.3742334246635437 0.0017664142651483417
0.98950517177581787 0.38021901249885559 0.0044196182861924171
0.98799592256546021 0.39289376139640808 0.0050726947374641895
0.004585909191519022 0.68267518281936646 0.0052728839218616486
0.00058322981931269169 0.68743664026260376 0.00047695683315396309
0 0.68406879901885986 0
0.0099992044270038605 0.66887956857681274 0.0011555689852684736
0.13140815496444702 0.6431509256362915 0.0064904456958174706
0.35494315624237061 0.61431068181991577 0.0070341220125555992
0.58521789312362671 0.58780467510223389 0.0048097199760377407
0.80162322521209717 0.5640254020690918 0.0030195647850632668
0.96359860897064209 0.54361498355865479 0.00057278800522908568
0.99984234571456909 0.53020596504211426 0.00024717743508517742
1 0.52621006965637207 0.0020287607330828905
0.99982345104217529 0.52898919582366943 0.0072661903686821461
0.99809229373931885 0.53555440902709961 0.011905326507985592
0.0039283903315663338 0.83805197477340698 0.0095904329791665077
0.00039322796510532498 0.83768069744110107 0.001377165550366044
0 0.83341443538665771 0.00013107598351780325
0.0081704379990696907 0.81892228126525879 0.0019700294360518456
0.099313996732234955 0.79258304834365845 0.0069801332429051399
0.28558659553527832 0.76210016012191772 0.0066538644023239613
0.505809485912323 0.73426789045333862 0.0020366893149912357
0.71988832950592041 0.71183449029922485 0.00067180558107793331
0.89274948835372925 0.69148308038711548 0
0.98618632555007935 0.67744916677474976 0.0003866158367600292
1 0.67136484384536743 0.0025839861482381821
1 0.67105996608734131 0.0062021743506193161
1 0.67254114151000977 0.0082729710265994072
0.0005040785763412714 0.97034257650375366 0.0023457545321434736
2.1781173927593045e-05 0.96989583969116211 0.00038350422983057797
5.0563437980599701e-05 0.9656493067741394 0.00011921302939299494
0.0090154008939862251 0.95135164260864258 0.00094806449487805367
0.082945927977561951 0.92595231533050537 0.0043163076043128967
0.23944121599197388 0.89828634262084961 0.0049689947627484798
0.44171279668807983 0.87275564670562744 0.00099502259399741888
0.64634221792221069 0.84889024496078491 0
0.82216030359268188 0.82559555768966675 0
0.94821608066558838 0.80969732999801636 0.0014041227987036109
0.99882018566131592 0.80223345756530762 0.0042285243980586529
1 0.79947996139526367 0.0049782847054302692
1 0.79668545722961426 0.0034530938137322664
0 1 0
0 1 0
0 1 0
0.0077363555319607258 0.9999842643737793 0
0.074667729437351227 0.99782019853591919 0.00042793422471731901
0.21377673745155334 0.99062633514404297 0.0031038322485983372
0.39815589785575867 0.9789879322052002 0.0026199789717793465
0.59313172101974487 0.95930105447769165 0.00096288940403610468
0.77042251825332642 0.93443650007247925 0.00096561206737533212
0.91298645734786987 0.91924691200256348 0.0036416295915842056
0.99258232116699219 0.91208416223526001 0.0061563230119645596
1 0.90692973136901855 0.0048564388416707516
1 0.90131384134292603 0.0016703886212781072
0 1 0
0 1 0
0 1 0
0.0040180431678891182 1 0
0.061804931610822678 1 0
0.19054275751113892 1 0.00072471768362447619
0.36711043119430542 1 0.0043011982925236225
0.56058496236801147 0.99973779916763306 0.0047660078853368759
0.73890256881713867 0.99555838108062744 0.004350998904556036
0.88470816612243652 0.99018979072570801 0.0038024154491722584
0.97787010669708252 0.98644357919692993 0.0041375253349542618
0.99976962804794312 0.98143714666366577 0.0042359745129942894
1 0.97662001848220825 0.0019980487413704395
0 1 0
0 1 0
0 1 0
0.00119718664791435 1 0
0.044161912053823471 1 0
0.16386991739273071 1 7.9166187788359821e-05
0.34046468138694763 1 0.0032487607095390558
0.53798753023147583 1 0.005347816739231348
0.71204525232315063 1 0.0043956683948636055
0.84970355033874512 1 0.0028668122831732035
0.94693011045455933 1 0.0022440892644226551
0.99317342042922974 1 0.0028295628726482391
0.99996733665466309 1 0.0022924235090613365
0 1 0
0 1 0
0 1 0
0.00035705565824173391 1 0
0.033483810722827911 1 0
0.1453140527009964 1 0
0.31885793805122375 1 0.00033867033198475838
0.51564836502075195 1 0.00086909276433289051
0.68186068534851074 1 0.00059002148918807507
0.80958300828933716 1 0.00028722427668981254
0.9109455943107605 1 0.00032222972367890179
0.97748571634292603 1 0.0004414427385199815
0.99922865629196167 1 0.00077807856723666191
2.3336972390097799e-06 0.00057678221492096782 0.00059762096498161554
0.0057069668546319008 0.010110563598573208 0.014509104192256927
0.056151445955038071 0.023920545354485512 0.050362307578325272
0.18006265163421631 0.02237701416015625 0.071806423366069794
0.32657188177108765 0.0063957064412534237 0.06568414717912674
0.49198433756828308 0.00015079273725859821 0.054489031434059143
0.68370097875595093 0 0.039169549942016602
0.87712258100509644 6.1259546782821417e-05 0.01958700455725193
0.98736226558685303 0.0004443748330231756 0.0084254695102572441
1 0 0.0034494288265705109
1 0 0.00049591064453125
1 3.739899341326236e-07 0
1 0.0022600062657147646 0
0.00023531446640845388 0.01851266622543335 0.019224308431148529
0.0052502802573144436 0.047222241759300232 0.04939023032784462
0.085435636341571808 0.063239216804504395 0.069164201617240906
0.23329363763332367 0.057882018387317657 0.078564032912254333
0.41868281364440918 0.03490099310874939 0.060453854501247406
0.61682337522506714 0.01430689450353384 0.043849572539329529
0.82507991790771484 0.0040428610518574715 0.026846148073673248
0.98192387819290161 0.0013957603368908167 0.0082507859915494919
1 0.0010684443404898047 0.0014749414985999465
1 0.00063166901236400008 0.00013065712118986994
1 0.00019181195239070803 0
1 0.00091732246801257133 0
1 0.0083878310397267342 0
0.00025253294734284282 0.078922465443611145 0.045048657804727554
0.0007457508472725749 0.11464764177799225 0.062454596161842346
0.075700379908084869 0.13109788298606873 0.052788093686103821
0.25938019156455994 0.1206774115562439 0.031645473092794418
0.45229971408843994 0.096245512366294861 0.031118804588913918
0.67007339000701904 0.067229174077510834 0.020652726292610168
0.87913358211517334 0.044344689697027206 0.0084847547113895416
0.99755585193634033 0.032530780881643295 0.00058566825464367867
1 0.028007237240672112 2.6328891635785112e-06
1 0.024570031091570854 0
1 0.019969191402196884 0
0.99995559453964233 0.023711470887064934 0
0.99973791837692261 0.04168388620018959 0
0.0033149269875138998 0.18646286427974701 0.041155032813549042
0.00019553689344320446 0.22210802137851715 0.038878019899129868
0.0031833273824304342 0.23642025887966156 0.034942716360092163
0.15092037618160248 0.22617526352405548 0.0048399982042610645
0.40433013439178467 0.20046907663345337 0.0081337122246623039
0.63525700569152832 0.16801144182682037 0.0051077152602374554
0.85040885210037231 0.13792431354522705 0.00040947410161606967
0.99157160520553589 0.11751755326986313 0
1 0.10646336525678635 0
1 0.097786486148834229 0
0.99982821941375732 0.090229153633117676 0
0.99560391902923584 0.096406109631061554 0
0.99263066053390503 0.1194317415356636 0
0.007842344231903553 0.34235811233520508 0.016695238649845123
0.001463661901652813 0.36973792314529419 0.0056807426735758781
0 0.37714475393295288 0.0037927215453237295
0.063573382794857025 0.36391004920005798 0.0011227926006540656
0.30884110927581787 0.33919212222099304 0.00041593663627281785
0.55491870641708374 0.30886822938919067 3.7698184314649552e-05
0.77548885345458984 0.27786046266555786 0
0.95895135402679443 0.25200241804122925 0
1 0.2343212366104126 0
1 0.22201959788799286 0
0.99775564670562744 0.21552792191505432 0
0.9872022271156311 0.2219562828540802 0
0.98532968759536743 0.2399401068687439 0
0.0031275730580091476 0.52216321229934692 0.0017503775889053941
0.00031171311275102198 0.53486806154251099 1.5453264495590702e-05
0 0.53367990255355835 0
0.014822657220065594 0.51636981964111328 0
0.18211230635643005 0.48993271589279175 0.00050419825129210949
0.44444513320922852 0.4614773690700531 0.0012968324590474367
0.6795838475227356 0.43293094635009766 0.0026530246250331402
0.89020586013793945 0.40811997652053833 0.00068935321178287268
0.99628752470016479 0.38844513893127441 3.2342650229111314e-05
1 0.37426254153251648 0
0.99962228536605835 0.3693181574344635 0
0.99497807025909424 0.37334463000297546 5.8492023526923731e-06
0.98959195613861084 0.38399273157119751 0.00040352018550038338
0.0010614432394504547 0.6880875825881958 0.00037077360320836306
0 0.69356179237365723 8.9757584476046759e-08
0 0.68801140785217285 0
0.0005103616276755929 0.66981548070907593 0
0.098085768520832062 0.64184081554412842 0.0024264168459922075
0.34936898946762085 0.61296099424362183 0.00588251743465662
0.58894354104995728 0.58600401878356934 0.0086316578090190887
0.80440670251846313 0.5630183219909668 0.0049861087463796139
0.96250385046005249 0.54359787702560425 0.00024750654119998217
0.99983853101730347 0.52957868576049805 0
1 0.52445340156555176 0
0.99998122453689575 0.5258021354675293 3.8087135180830956e-05
0.99876749515533447 0.53099501132965088 0.0024638306349515915
0.00081271003000438213 0.83815258741378784 0.0018872728105634451
0 0.8419223427772522 5.9389599300629925e-06
0 0.83654463291168213 0
1.1309455658192746e-05 0.81955194473266602 0
0.053525678813457489 0.79235690832138062 0.0025135115720331669
0.25468575954437256 0.76237833499908447 0.0076881111599504948
0.49346661567687988 0.73520088195800781 0.0057800291106104851
0.71419441699981689 0.71147149801254272 0.0015714458422735333
0.89059090614318848 0.69074487686157227 0
0.98777711391448975 0.67558783292770386 0
1 0.66853970289230347 0
1 0.66808146238327026 9.9331728051765822e-06
1 0.66945165395736694 0.00026174806407652795
0 0.96633869409561157 2.6448567950865254e-05
0 0.96912580728530884 0
0 0.96512061357498169 0
8.6167283370741643e-06 0.95117133855819702 0
0.03273378312587738 0.92753106355667114 0.00078498991206288338
0.19403345882892609 0.90165132284164429 0.0055302935652434826
0.41920286417007446 0.87545263767242432 0.0026076072826981544
0.63814908266067505 0.84843575954437256 0
0.82130897045135498 0.82325321435928345 0
0.95407944917678833 0.80540913343429565 2.9739678211626597e-05
0.99982237815856934 0.79690802097320557 0.00013451669656205922
1 0.79508310556411743 1.5438305126735941e-05
1 0.7937016487121582 0
0 1 0
0 1 0
0 1 0
8.2128190115327016e-06 1 0
0.033353559672832489 0.99832290410995483 1.0770910421342705e-06
0.17816658318042755 0.99226135015487671 0.0015820970293134451
0.3801080584526062 0.98001599311828613 0.0036790436133742332
0.58748817443847656 0.95697528123855591 0.0022606195416301489
0.76962226629257202 0.93151503801345825 0.0012415717355906963
0.91719239950180054 0.91468727588653564 0.0032459034118801355
0.99548310041427612 0.90501958131790161 0.0045858346857130527
1 0.90160435438156128 0.0011396071640774608
1 0.8983379602432251 1.0456757991050836e-05
0 1 0
0 1 0
0 1 0
0 1 0
0.026807418093085289 1 0
0.15602990984916687 1 0.00040498620364814997
0.34683951735496521 1 0.0059624165296554565
0.55489611625671387 0.99948489665985107 0.0080837476998567581
0.73791021108627319 0.99479198455810547 0.0073040979914367199
0.88242077827453613 0.98844558000564575 0.0074488171376287937
0.9773135781288147 0.98167359828948975 0.0071761487051844597
0.99997895956039429 0.97629696130752563 0.0054142521694302559
1 0.97338473796844482 0.0030566644854843616
0 1 0
0 1 0
0 1 0
0 1 0
0.011938191950321198 1 0
0.11925195157527924 1 0.00019037583842873573
0.31045183539390564 1 0.0055397031828761101
0.53046518564224243 1 0.0073852837085723877
0.71192950010299683 1 0.0063985339365899563
0.8484572172164917 1 0.0052475426346063614
0.94985711574554443 1 0.0052568772807717323
0.99780690670013428 1 0.0070563671179115772
1 1 0.0077507765963673592
0 1 0
0 1 0
0 1 0
0 1 0
0.0045779510401189327 1 0
0.089726485311985016 0.99990952014923096 0
0.28073009848594666 0.99889355897903442 0.001717107486911118
0.50961840152740479 0.99862897396087646 0.0014350592391565442
0.68358057737350464 0.99878025054931641 0.00068962248042225838
0.8124384880065918 0.99839597940444946 0.00053287582704797387
0.92122507095336914 0.99879968166351318 0.00084020575741305947
0.9914974570274353 0.99992507696151733 0.002186689293012023
1 1 0.0053130057640373707
0 0.00029386632377281785 0.00040929458918981254
0.0034155005123466253 0.0094057423993945122 0.021096203476190567
0.059518281370401382 0.022615948691964149 0.074103444814682007
0.18111898005008698 0.020316658541560173 0.11410163342952728
0.32878655195236206 0.0058877235278487206 0.12543731927871704
0.49074229598045349 4.846909359912388e-05 0.12117427587509155
0.67843335866928101 0 0.10748863965272903
0.8677135705947876 6.2231927586253732e-05 0.089135095477104187
0.98196172714233398 0.00077984377276152372 0.07022877037525177
0.99980568885803223 0.0002602072199806571 0.05644843727350235
1 0 0.045913934707641602
1 0 0.035846740007400513
0.99997472763061523 7.5845156970899552e-05 0.033423181623220444
0 0.019137663766741753 0.031104084104299545
0.0014039881061762571 0.045836728066205978 0.084312260150909424
0.064670071005821228 0.061570126563310623 0.12757879495620728
0.22775121033191681 0.05545947328209877 0.14972215890884399
0.42041885852813721 0.031832259148359299 0.14046099781990051
0.61329394578933716 0.010994256474077702 0.12105757743120193
0.82138288021087646 0.0026651120278984308 0.095930464565753937
0.97865927219390869 0.00052476773271337152 0.069327272474765778
1 6.5986780100502074e-05 0.049636047333478928
0.99999511241912842 2.9620002806041157e-06 0.036536768078804016
0.9996105432510376 0 0.030095089226961136
0.99957650899887085 0 0.024178314954042435
0.99995881319046021 0.00035627777106128633 0.021593160927295685
0.0017391429282724857 0.082315899431705475 0.085936270654201508
0.0004784378397744149 0.1149730458855629 0.1225329264998436
0.0429672971367836 0.12908567488193512 0.14074616134166718
0.23682381212711334 0.1176329106092453 0.13004939258098602
0.44861701130867004 0.091920621693134308 0.11785039305686951
0.66556167602539062 0.062919303774833679 0.091691069304943085
0.87772828340530396 0.040183767676353455 0.062513507902622223
0.99719393253326416 0.02637908048927784 0.036024581640958786
1 0.019965631887316704 0.025945072993636131
0.99956929683685303 0.017544705420732498 0.021246727555990219
0.99440401792526245 0.013506063260138035 0.021752869710326195
0.9939655065536499 0.011956159025430679 0.018812546506524086
0.99673831462860107 0.020868698135018349 0.015992362052202225
0.0050037610344588757 0.18936185538768768 0.10276055335998535
0.0010066761169582605 0.22159679234027863 0.11333531141281128
0.0037485759239643812 0.23489102721214294 0.11537317186594009
0.16319669783115387 0.22252379357814789 0.080257594585418701
0.40785309672355652 0.19621799886226654 0.067167483270168304
0.63199073076248169 0.16521501541137695 0.05262775719165802
0.85094219446182251 0.13440787792205811 0.025477465242147446
0.99083805084228516 0.11141973733901978 0.0088574131950736046
1 0.097909338772296906 0.0072974711656570435
0.99991875886917114 0.090853899717330933 0.0085272546857595444
0.9957999587059021 0.087416812777519226 0.0089776283130049706
0.99013513326644897 0.089429937303066254 0.0078975455835461617
0.99160301685333252 0.10229505598545074 0.0087012946605682373
0.0096923680976033211 0.34286448359489441 0.073711812496185303
0.005194555502384901 0.36720645427703857 0.060228072106838226
0.00021987616491969675 0.37640848755836487 0.047982938587665558
0.059846047312021255 0.36296769976615906 0.040588662028312683
0.30196747183799744 0.33650550246238708 0.019135074689984322
0.55492734909057617 0.30649575591087341 0.0089605292305350304
0.77599430084228516 0.27578231692314148 0.003627582686021924
0.95655792951583862 0.25158917903900146 0.00040411856025457382
1 0.2327398806810379 0.00019612032338045537
1 0.22036556899547577 0.00036142385215498507
0.99960100650787354 0.21855765581130981 0.00010082768130814657
0.99426782131195068 0.22219887375831604 5.6996064813574776e-05
0.99096786975860596 0.23097088932991028 0.00090037327026948333
0.0077735749073326588 0.51875859498977661 0.025329006835818291
0.0042147468775510788 0.53115475177764893 0.013527081348001957
2.7495740141603164e-05 0.5309026837348938 0.0070012561045587063
0.017330693081021309 0.51424658298492432 0.0067987628281116486
0.18817916512489319 0.48751381039619446 0.0023021772503852844
0.45049792528152466 0.45850718021392822 2.8393315005814657e-05
0.67882847785949707 0.43015608191490173 8.9443434262648225e-05
0.8830026388168335 0.4085477888584137 1.4660405440736213e-06
0.99320042133331299 0.38932543992996216 0
1 0.37527823448181152 0
1 0.37124216556549072 0
0.99969309568405151 0.37401369214057922 0
0.99527084827423096 0.37872558832168579 0
0.0031339158304035664 0.68534547090530396 0.00055338541278615594
0.00056771672097966075 0.69113612174987793 0.00013326009502634406
0 0.68513661623001099 1.3463637515087612e-05
0.0018850738415494561 0.66623896360397339 4.308364077587612e-05
0.10591836273670197 0.63841468095779419 2.6927275030175224e-05
0.35401785373687744 0.60901731252670288 4.8020305257523432e-05
0.58555924892425537 0.58222216367721558 0.0013544568791985512
0.7908250093460083 0.56057059764862061 0.00069123809225857258
0.95041167736053467 0.54304105043411255 0
0.99945497512817383 0.53011542558670044 0
1 0.5243154764175415 0
1 0.52450919151306152 0
0.9992746114730835 0.52673822641372681 0
0.00011921302939299494 0.83517682552337646 0
0 0.83986777067184448 0
0 0.83383870124816895 0
0 0.81592673063278198 0
0.038807634264230728 0.78824347257614136 5.4093903600005433e-05
0.23506233096122742 0.7584151029586792 0.00077396468259394169
0.48317179083824158 0.73184704780578613 0.00041014727321453393
0.70264631509780884 0.70857721567153931 7.3331946623511612e-05
0.88046890497207642 0.68950444459915161 0
0.98535072803497314 0.67477214336395264 0
1 0.66698282957077026 0
1 0.66513937711715698 0
1 0.66454768180847168 0
0 0.96137434244155884 0
0 0.96560841798782349 0
0 0.96170967817306519 0
0 0.9476277232170105 0
0.014547789469361305 0.92409765720367432 5.0264247875020374e-06
0.16552929580211639 0.89812928438186646 0.00035240323632024229
0.40468791127204895 0.87183034420013428 2.471325387887191e-05
0.63166636228561401 0.84551042318344116 0
0.81858879327774048 0.82223182916641235 0
0.95332098007202148 0.80446076393127441 0
0.99984478950500488 0.79336714744567871 0
1 0.79012513160705566 0
1 0.78775948286056519 0
0 1 0
0 1 0
0 1 0
0 0.99995642900466919 0
0.019696313887834549 0.99773585796356201 0
0.15922752022743225 0.99086487293243408 4.6075560931058135e-06
0.36919799447059631 0.97625017166137695 0.00010328106145607308
0.58645808696746826 0.95386040210723877 0.00025933957658708096
0.77269130945205688 0.93222993612289429 6.8559835199266672e-05
0.91615897417068481 0.915446937084198 0.00011764227383537218
0.99443143606185913 0.90159064531326294 0.00012762032565660775
1 0.8958936333656311 0
1 0.89207786321640015 0
0 1 0
0 1 0
0 1 0
0 1 0
0.017413120716810226 1 0
0.14149372279644012 1 0
0.33649376034736633 1 0.00094143737806007266
0.55180209875106812 0.99937409162521362 0.0035979477688670158
0.73606270551681519 0.99549579620361328 0.0032272788230329752
0.87465864419937134 0.99032974243164062 0.0013977948110550642
0.97034370899200439 0.98078107833862305 0.00077118218177929521
0.99959647655487061 0.97233814001083374 0.00030299168429337442
0.99989134073257446 0.96983253955841064 0.00051096000242978334
0 1 0
0 1 0
0 1 0
0 1 0
0.0060058142989873886 1 0
0.10319259017705917 1 0
0.29424163699150085 1 0.0010290108621120453
0.51662224531173706 1 0.0021051294170320034
0.70250797271728516 1 0.0014448727015405893
0.84104323387145996 1 0.00062067370163276792
0.9441077709197998 1 0.00048125023022294044
0.99619770050048828 0.99974590539932251 0.0017255746060982347
1 0.99991613626480103 0.0056991428136825562
0 1 0
0 1 0
0 1 0
0 1 0
0.00099678791593760252 1 0
0.071328118443489075 0.99904334545135498 0
0.25825032591819763 0.99524211883544922 0.00018632177670951933
0.48637276887893677 0.99575126171112061 3.5573921195464209e-05
0.67090380191802979 0.99760061502456665 0
0.81022757291793823 0.99820053577423096 0
0.92210394144058228 0.99854403734207153 7.1806067580837407e-07
