assets/lut/ericellerbrock black star.cube
# Created by: G'MIC (https://gmic.eu)
TITLE "black_star"
# LUT size
LUT_3D_SIZE 5
# Data domain
DOMAIN_MIN 0.0 0.0 0.0
DOMAIN_MAX 1.0 1.0 1.0
# LUT data points
0.035491570830345154 0.03539549931883812 0.035898603498935699
0.2779390811920166 0.036254297941923141 0.03677082434296608
0.51372551918029785 0.034662522375583649 0.036287747323513031
0.75333273410797119 0.03634103387594223 0.037139352411031723
0.98848158121109009 0.034482438117265701 0.034603793174028397
0.037395477294921875 0.27797195315361023 0.038570091128349304
0.27818626165390015 0.27696207165718079 0.037219475954771042
0.51254045963287354 0.27423843741416931 0.033214285969734192
0.75263482332229614 0.27765849232673645 0.034597627818584442
0.98860293626785278 0.27784362435340881 0.031608119606971741
0.038607235997915268 0.51630610227584839 0.040811218321323395
0.27940189838409424 0.51563769578933716 0.03899504616856575
0.51498168706893921 0.51409316062927246 0.033562634140253067
0.75442451238632202 0.51620900630950928 0.031420134007930756
0.98864841461181641 0.51698613166809082 0.025842450559139252
0.040237322449684143 0.75580805540084839 0.042317796498537064
0.28337013721466064 0.75714647769927979 0.040711645036935806
0.5209805965423584 0.75729167461395264 0.033547122031450272
0.75811219215393066 0.75808823108673096 0.027576431632041931
0.9907112717628479 0.75727647542953491 0.018954033032059669
0.035687390714883804 0.98857259750366211 0.035679999738931656
0.28260079026222229 0.99065423011779785 0.034298662096261978
0.5215686559677124 0.99093139171600342 0.027363525703549385
0.76072698831558228 0.99093139171600342 0.01889413595199585
0.99093139171600342 0.99090105295181274 0.0097169764339923859
0.03513684868812561 0.035995647311210632 0.27817866206169128
0.27806475758552551 0.038511179387569427 0.27818626165390015
0.51469987630844116 0.038541518151760101 0.278196781873703
0.75467485189437866 0.038634281605482101 0.2802787721157074
0.98860293626785278 0.035484760999679565 0.27817109227180481
0.037132352590560913 0.27760595083236694 0.27870196104049683
0.27632841467857361 0.27742156386375427 0.27816161513328552
0.51248425245285034 0.27558240294456482 0.27433431148529053
0.75193315744400024 0.27737218141555786 0.27702617645263672
0.98814249038696289 0.27713203430175781 0.27620083093643188
0.040763959288597107 0.51694238185882568 0.28328263759613037
0.27823713421821594 0.51523542404174805 0.27936699986457825
0.51369261741638184 0.51391422748565674 0.27470302581787109
0.75194746255874634 0.51425939798355103 0.27526852488517761
0.98789888620376587 0.51519507169723511 0.27395260334014893
0.044351030141115189 0.7572636604309082 0.2881145179271698
0.2846754789352417 0.75707817077636719 0.28499084711074829
0.51805168390274048 0.75621682405471802 0.27864521741867065
0.75609689950942993 0.75616121292114258 0.27598458528518677
0.98874884843826294 0.756183922290802 0.27040991187095642
0.041427880525588989 0.99033623933792114 0.28482192754745483
0.28599032759666443 0.99093139171600342 0.2834298312664032
0.52170723676681519 0.99093139171600342 0.27707082033157349
0.76047545671463013 0.99093139171600342 0.26983776688575745
0.99093139171600342 0.99077737331390381 0.25865980982780457
0.033031284809112549 0.034156709909439087 0.51372551918029785
0.27660146355628967 0.038397412747144699 0.51373600959777832
0.51576071977615356 0.038753494620323181 0.51430600881576538
0.75541579723358154 0.038397412747144699 0.51484084129333496
0.98876476287841797 0.033962041139602661 0.51373946666717529
0.034491010010242462 0.27460873126983643 0.51372224092483521
0.27426469326019287 0.27588307857513428 0.51036584377288818
0.51208233833312988 0.27675953507423401 0.5099366307258606
0.75150972604751587 0.27449801564216614 0.51132673025131226
0.98776614665985107 0.27426469326019287 0.51348543167114258
0.040107518434524536 0.51624888181686401 0.51828396320343018
0.27811652421951294 0.51470732688903809 0.51381164789199829
0.51004606485366821 0.51372551918029785 0.51008456945419312
0.75024509429931641 0.51372551918029785 0.51371526718139648
0.98707109689712524 0.51372551918029785 0.51578235626220703
0.044701669365167618 0.75729167461395264 0.52483469247817993
0.2821190357208252 0.75655639171600342 0.52060991525650024
0.51593106985092163 0.754963219165802 0.51680439710617065
0.75319993495941162 0.75416666269302368 0.51762312650680542
0.98781460523605347 0.75416666269302368 0.51727235317230225
0.0420684814453125 0.99093139171600342 0.52273964881896973
0.28539159893989563 0.99082130193710327 0.52158933877944946
0.52124923467636108 0.99015873670578003 0.51809561252593994
0.7572827935218811 0.98979020118713379 0.51567167043685913
0.98980402946472168 0.9893994927406311 0.50947397947311401
0.036100082099437714 0.036669112741947174 0.75330239534378052
0.27921000123023987 0.040199011564254761 0.75349146127700806
0.51764708757400513 0.040257353335618973 0.75380748510360718
0.75649511814117432 0.039756983518600464 0.75427711009979248
0.98860293626785278 0.035881880670785904 0.75336247682571411
0.038457158952951431 0.27824011445045471 0.75341403484344482
0.27820849418640137 0.27833053469657898 0.75107139348983765
0.51382255554199219 0.27818626165390015 0.75052511692047119
0.75314778089523315 0.27818626165390015 0.75207781791687012
0.98837137222290039 0.27731618285179138 0.75410658121109009
0.041558388620615005 0.51764708757400513 0.75683444738388062
0.2786802351474762 0.51687067747116089 0.75299841165542603
0.51372551918029785 0.51377379894256592 0.75132620334625244
0.75149869918823242 0.51372551918029785 0.7541080117225647
0.98759382963180542 0.51395153999328613 0.75700044631958008
0.044325750321149826 0.75729167461395264 0.76079785823822021
0.28210783004760742 0.75646650791168213 0.75715690851211548
0.51503336429595947 0.75416666269302368 0.75574833154678345
0.7532382607460022 0.75416666269302368 0.75772404670715332
0.988525390625 0.75438863039016724 0.75877106189727783
0.040700756013393402 0.99013286828994751 0.75891047716140747
0.28209850192070007 0.9894983172416687 0.75813001394271851
0.51756912469863892 0.98860293626785278 0.75710785388946533
0.75533568859100342 0.98860293626785278 0.75707817077636719
0.98867124319076538 0.98862391710281372 0.75382822751998901
0.034942954778671265 0.03494548425078392 0.98851191997528076
0.27929455041885376 0.038020893931388855 0.98860293626785278
0.51761674880981445 0.037443511188030243 0.98860293626785278
0.75530725717544556 0.037281710654497147 0.98860293626785278
0.98839288949966431 0.033574242144823074 0.98836022615432739
0.037987638264894485 0.27831515669822693 0.98860293626785278
0.28114455938339233 0.27925699949264526 0.9879767894744873
0.51678979396820068 0.27813377976417542 0.98786765336990356
0.75373101234436035 0.27814894914627075 0.98860293626785278
0.98860293626785278 0.27615830302238464 0.98862391710281372
0.039202909916639328 0.51739680767059326 0.98938548564910889
0.28052458167076111 0.51748162508010864 0.98860293626785278
0.51372551918029785 0.51375997066497803 0.9880252480506897
0.75318628549575806 0.51372873783111572 0.98905879259109497
0.98860293626785278 0.51376640796661377 0.99053341150283813
0.039312984794378281 0.7559698224067688 0.99019604921340942
0.28022778034210205 0.7554786205291748 0.9891815185546875
0.51373517513275146 0.75338411331176758 0.98869240283966064
0.75331580638885498 0.75354903936386108 0.99083280563354492
0.98860293626785278 0.75349164009094238 0.99093139171600342
0.03390096127986908 0.98848158121109009 0.98857259750366211
0.27594670653343201 0.98860293626785278 0.98860293626785278
0.5112496018409729 0.98786765336990356 0.98860293626785278
0.75210058689117432 0.98843955993652344 0.98896157741546631
0.98799556493759155 0.98815000057220459 0.98807179927825928
