assets/lut/ericellerbrock serpent.cube
# Created by: G'MIC (https://gmic.eu)
TITLE "serpent"
# LUT size
LUT_3D_SIZE 7
# Data domain
DOMAIN_MIN 0.0 0.0 0.0
DOMAIN_MAX 1.0 1.0 1.0
# LUT data points
0.00089263916015625 0.002193645341321826 0.0063376780599355698
0.05647895485162735 0.024107435718178749 0.032737642526626587
0.31077772378921509 0.0078385891392827034 0.031655345112085342
0.67500209808349609 0 0.010319743305444717
0.98860287666320801 0 0
1 0.00030279721249826252 0
1 0.012079590000212193 0
0.0012323865666985512 0.079478949308395386 0.013050168752670288
0.056480571627616882 0.13252818584442139 0.0068046119995415211
0.45646163821220398 0.099651709198951721 0.0020631677471101284
0.87811094522476196 0.053305234760046005 0.0017548504984006286
1 0.039613086730241776 0
1 0.038774721324443817 0
1 0.068776316940784454 0
0.0033220029436051846 0.33783012628555298 0.00081057078205049038
0.00056631048209965229 0.37725979089736938 0
0.31491130590438843 0.33826255798339844 0
0.77501863241195679 0.28260138630867004 0.00023434209288097918
1 0.24031791090965271 0
0.99441951513290405 0.2282404899597168 0.0015575484139844775
0.98679983615875244 0.25706514716148376 1.8669577912078239e-05
0.004585909191519022 0.68267518281936646 0.0052728839218616486
0 0.68406879901885986 0
0.13140815496444702 0.6431509256362915 0.0064904456958174706
0.58521789312362671 0.58780467510223389 0.0048097199760377407
0.96359860897064209 0.54361498355865479 0.00057278800522908568
1 0.52621006965637207 0.0020287607330828905
0.99809229373931885 0.53555440902709961 0.011905326507985592
0.0005040785763412714 0.97034257650375366 0.0023457545321434736
5.0563437980599701e-05 0.9656493067741394 0.00011921302939299494
0.082945927977561951 0.92595231533050537 0.0043163076043128967
0.44171279668807983 0.87275564670562744 0.00099502259399741888
0.82216030359268188 0.82559555768966675 0
0.99882018566131592 0.80223345756530762 0.0042285243980586529
1 0.79668545722961426 0.0034530938137322664
0 1 0
0 1 0
0.061804931610822678 1 0
0.36711043119430542 1 0.0043011982925236225
0.73890256881713867 0.99555838108062744 0.004350998904556036
0.97787010669708252 0.98644357919692993 0.0041375253349542618
1 0.97662001848220825 0.0019980487413704395
0 1 0
0 1 0
0.033483810722827911 1 0
0.31885793805122375 1 0.00033867033198475838
0.68186068534851074 1 0.00059002148918807507
0.9109455943107605 1 0.00032222972367890179
0.99922865629196167 1 0.00077807856723666191
0 0.00029386632377281785 0.00040929458918981254
0.059518281370401382 0.022615948691964149 0.074103444814682007
0.32878655195236206 0.0058877235278487206 0.12543731927871704
0.67843335866928101 0 0.10748863965272903
0.98196172714233398 0.00077984377276152372 0.07022877037525177
1 0 0.045913934707641602
0.99997472763061523 7.5845156970899552e-05 0.033423181623220444
0.0017391429282724857 0.082315899431705475 0.085936270654201508
0.0429672971367836 0.12908567488193512 0.14074616134166718
0.44861701130867004 0.091920621693134308 0.11785039305686951
0.87772828340530396 0.040183767676353455 0.062513507902622223
1 0.019965631887316704 0.025945072993636131
0.99440401792526245 0.013506063260138035 0.021752869710326195
0.99673831462860107 0.020868698135018349 0.015992362052202225
0.0096923680976033211 0.34286448359489441 0.073711812496185303
0.00021987616491969675 0.37640848755836487 0.047982938587665558
0.30196747183799744 0.33650550246238708 0.019135074689984322
0.77599430084228516 0.27578231692314148 0.003627582686021924
1 0.2327398806810379 0.00019612032338045537
0.99960100650787354 0.21855765581130981 0.00010082768130814657
0.99096786975860596 0.23097088932991028 0.00090037327026948333
0.0031339158304035664 0.68534547090530396 0.00055338541278615594
0 0.68513661623001099 1.3463637515087612e-05
0.10591836273670197 0.63841468095779419 2.6927275030175224e-05
0.58555924892425537 0.58222216367721558 0.0013544568791985512
0.95041167736053467 0.54304105043411255 0
1 0.5243154764175415 0
0.9992746114730835 0.52673822641372681 0
0 0.96137434244155884 0
0 0.96170967817306519 0
0.014547789469361305 0.92409765720367432 5.0264247875020374e-06
0.40468791127204895 0.87183034420013428 2.471325387887191e-05
0.81858879327774048 0.82223182916641235 0
0.99984478950500488 0.79336714744567871 0
1 0.78775948286056519 0
0 1 0
0 1 0
0.017413120716810226 1 0
0.33649376034736633 1 0.00094143737806007266
0.73606270551681519 0.99549579620361328 0.0032272788230329752
0.97034370899200439 0.98078107833862305 0.00077118218177929521
0.99989134073257446 0.96983253955841064 0.00051096000242978334
0 1 0
0 1 0
0.00099678791593760252 1 0
0.25825032591819763 0.99524211883544922 0.00018632177670951933
0.67090380191802979 0.99760061502456665 0
0.92210394144058228 0.99854403734207153 7.1806067580837407e-07
1 1 0.0054908604361116886
0 0.00013786765339318663 0.00055147061357274652
0.050503332167863846 0.016030538827180862 0.14945226907730103
0.31725227832794189 0.00040506100049242377 0.32121714949607849
0.67011004686355591 0 0.34299653768539429
0.99106425046920776 0.00157991296146065 0.34046551585197449
1 0.00028626684797927737 0.34401461482048035
0.99814403057098389 0 0.35929432511329651
0 0.077189333736896515 0.19509787857532501
0.045763425529003143 0.11366861313581467 0.37082394957542419
0.44039922952651978 0.067863553762435913 0.43820655345916748
0.86373883485794067 0.026061443611979485 0.39159020781517029
0.99998980760574341 0.0072826910763978958 0.34558475017547607
0.98962897062301636 0.0043198680505156517 0.33259418606758118
0.99951529502868652 0.0025764615274965763 0.33514466881752014
0.00068111048312857747 0.32694721221923828 0.33457952737808228
0 0.35465985536575317 0.35415172576904297
0.29178926348686218 0.31822216510772705 0.32305559515953064
0.76187092065811157 0.2628723680973053 0.26398828625679016
0.99991863965988159 0.21196374297142029 0.23129148781299591
1 0.20030154287815094 0.21806259453296661
0.99786233901977539 0.20691962540149689 0.21496862173080444
0.00076518341666087508 0.66626071929931641 0.20131929218769073
0.00085000431863591075 0.65969431400299072 0.18970245122909546
0.093479827046394348 0.62163829803466797 0.16323159635066986
0.57155704498291016 0.56651586294174194 0.11147511750459671
0.951518714427948 0.5270695686340332 0.094329267740249634
1 0.51190412044525146 0.078668512403964996
0.99729257822036743 0.50943189859390259 0.079047001898288727
4.8828125727595761e-05 0.95520609617233276 0.087565042078495026
0.00042117250268347561 0.95023661851882935 0.075687289237976074
0.032807353883981705 0.91230219602584839 0.063615299761295319
0.39793509244918823 0.84762084484100342 0.035796999931335449
0.79958570003509521 0.80244696140289307 0.0099292974919080734
0.99835193157196045 0.77714592218399048 0.0097970403730869293
0.99920672178268433 0.76340305805206299 0.0053481454961001873
0.00018105600611306727 1 0.048124171793460846
0 1 0.043323054909706116
0.045459717512130737 1 0.047306463122367859
0.33399322628974915 0.9987989068031311 0.032088618725538254
0.70897847414016724 0.98296922445297241 0.0073445336893200874
0.95959526300430298 0.95689588785171509 0.0038061852101236582
0.99848878383636475 0.94131100177764893 0.00028928869869560003
0.00010812796972459182 0.9994504451751709 0.038685187697410583
0 1 0.059494856745004654
0.028571782633662224 1 0.069063045084476471
0.28433376550674438 0.99969273805618286 0.031348060816526413
0.63886290788650513 0.99919718503952026 5.4093903600005433e-05
0.88877218961715698 1 0.0021556778810918331
0.99377620220184326 1 0.021555641666054726
2.8004365958622657e-05 0.00013786765339318663 0.00068933825241401792
0.039323020726442337 0.012246046215295792 0.23216331005096436
0.30357414484024048 4.3083641685370822e-06 0.57848763465881348
0.68916553258895874 0 0.69102740287780762
0.9905741810798645 0.00022636861831415445 0.71798717975616455
0.99978780746459961 0.00057700660545378923 0.77576524019241333
0.99943375587463379 0.00094456394435837865 0.79956328868865967
0.00013127046986483037 0.067618593573570251 0.35023930668830872
0.045373894274234772 0.092954032123088837 0.68991613388061523
0.39636752009391785 0.048891659826040268 0.84261858463287354
0.84229892492294312 0.0085722384974360466 0.84998869895935059
1 0.002470547566190362 0.81500804424285889
0.99623042345046997 0.0011454563355073333 0.78689742088317871
0.99553835391998291 0.024162173271179199 0.7687116265296936
0 0.31586918234825134 0.72554761171340942
0.0013488769764080644 0.33288484811782837 0.79986047744750977
0.25683489441871643 0.29871928691864014 0.76762229204177856
0.74267673492431641 0.24043063819408417 0.74053823947906494
0.99975597858428955 0.19096057116985321 0.69205695390701294
0.99944698810577393 0.18101294338703156 0.66599375009536743
0.9819566011428833 0.2014402449131012 0.65159720182418823
0.0029212054796516895 0.64616268873214722 0.65275180339813232
0 0.63894295692443848 0.6475830078125
0.066051974892616272 0.60215079784393311 0.59525275230407715
0.54957455396652222 0.54530054330825806 0.54779016971588135
0.93096685409545898 0.50507932901382446 0.51374799013137817
1 0.49068516492843628 0.49069997668266296
0.99303215742111206 0.48785760998725891 0.49160367250442505
2.4892769943107851e-05 0.93231010437011719 0.49292847514152527
3.0607334338128567e-05 0.93301862478256226 0.49531540274620056
0.041858315467834473 0.89008921384811401 0.45309433341026306
0.38969460129737854 0.82258492708206177 0.39771974086761475
0.7840045690536499 0.77719324827194214 0.34970280528068542
0.99610787630081177 0.75198107957839966 0.3303600549697876
0.99754208326339722 0.73712217807769775 0.31169161200523376
0.0042852363549172878 1 0.42741659283638
0.0016188827576115727 1 0.41712778806686401
0.063018813729286194 1 0.37981852889060974
0.33336198329925537 0.99699443578720093 0.3230273425579071
0.68692368268966675 0.96355950832366943 0.26730525493621826
0.94290632009506226 0.927115797996521 0.24150112271308899
0.99847680330276489 0.91101449728012085 0.22595183551311493
0.0020678353030234575 0.99756479263305664 0.40645104646682739
0.00020351035345811397 0.9994807243347168 0.39031824469566345
0.054812189191579819 1 0.35182943940162659
0.2894020676612854 1 0.27755621075630188
0.62020057439804077 0.99859094619750977 0.20138008892536163
0.86328208446502686 0.99713236093521118 0.1859438419342041
0.9921146035194397 1 0.19883628189563751
0.00020167032198514789 0.00025383444153703749 0.0008918313542380929
0.026393741369247437 0.0074472464621067047 0.33928391337394714
0.27960079908370972 0 0.81300795078277588
0.67403030395507812 0.00077445834176614881 0.96119463443756104
0.98410725593566895 0 0.98910468816757202
1 1.5557981896563433e-05 1
1 7.9345700214616954e-05 1
0 0.064195193350315094 0.52475345134735107
0.015891743823885918 0.075402155518531799 0.9671776294708252
0.35073289275169373 0.035345848649740219 0.99999183416366577
0.82986825704574585 0.0073078530840575695 1
1 0.00076973112300038338 1
1 0.0040377597324550152 1
0.99998444318771362 0.035520784556865692 1
0 0.30499929189682007 0.9957195520401001
0.019719621166586876 0.30801242589950562 1
0.27884438633918762 0.27361530065536499 0.99969851970672607
0.70878159999847412 0.2180401086807251 0.99996364116668701
0.99713623523712158 0.17548546195030212 0.99412053823471069
1 0.17375250160694122 0.98779541254043579
0.99489325284957886 0.20107920467853546 0.98523813486099243
0 0.624442458152771 0.99562698602676392
0 0.61670243740081787 0.99270093441009521
0.074870720505714417 0.57915174961090088 0.98258042335510254
0.51702260971069336 0.52823394536972046 0.95531582832336426
0.90399068593978882 0.4863240122795105 0.89195865392684937
1 0.46908825635910034 0.88433915376663208
0.99574214220046997 0.46869146823883057 0.90432077646255493
0 0.91897368431091309 0.92233091592788696
2.956016396638006e-05 0.90643811225891113 0.91999167203903198
0.027956195175647736 0.87032580375671387 0.86730402708053589
0.36104491353034973 0.80717945098876953 0.80576658248901367
0.75570029020309448 0.75455498695373535 0.751251220703125
0.98567694425582886 0.72881048917770386 0.73609966039657593
0.99988645315170288 0.71942716836929321 0.72666364908218384
0.00025296679814346135 1 0.85836482048034668
0.0033892462961375713 1 0.83648931980133057
0.027362359687685966 1 0.79300636053085327
0.29335993528366089 0.99232655763626099 0.71564418077468872
0.65744185447692871 0.94150418043136597 0.66065800189971924
0.91349124908447266 0.90418004989624023 0.62433582544326782
1 0.89153158664703369 0.59839224815368652
0.0012469572247937322 0.99856597185134888 0.81270360946655273
0 0.99374061822891235 0.77910506725311279
0.0063590402714908123 0.99907767772674561 0.72293770313262939
0.21331450343132019 1 0.64866262674331665
0.58184182643890381 0.99829977750778198 0.59354108572006226
0.84207057952880859 0.99269664287567139 0.54793977737426758
0.99484157562255859 0.994362473487854 0.53293722867965698
0.0008018194348551333 0.00013786765339318663 0.0028200037777423859
0.02972971647977829 0.0029946272261440754 0.43413537740707397
0.29241275787353516 0 0.96922957897186279
0.70652812719345093 0 0.99858784675598145
0.9981347918510437 0.00011415668268455192 1
1 0 1
1 0 1
7.2150134656112641e-05 0.064790405333042145 0.67880815267562866
0.032244648784399033 0.064780093729496002 0.99390172958374023
0.35794788599014282 0.030921801924705505 1
0.82075756788253784 0.0020711412653326988 0.99758410453796387
1 0.0059128254652023315 1
1 0.016394462436437607 1
1 0.037744976580142975 1
1.1668485967675224e-05 0.29647064208984375 1
0.026467237621545792 0.29598158597946167 1
0.28697401285171509 0.26307317614555359 0.99999380111694336
0.70149064064025879 0.20447483658790588 0.98769325017929077
0.99875307083129883 0.17885963618755341 0.99988764524459839
1 0.1783323734998703 1
0.99965208768844604 0.19170787930488586 1
0.00017405491962563246 0.61968809366226196 1
0.00010824764467542991 0.61007446050643921 1
0.10090499371290207 0.57196885347366333 1
0.50179421901702881 0.52420341968536377 1
0.90370696783065796 0.47949722409248352 1
1 0.45704144239425659 1
0.99685209989547729 0.44991093873977661 1
0.0045638289302587509 0.90695971250534058 1
0.0021719690412282944 0.90078675746917725 0.99897044897079468
0.015547867864370346 0.85619074106216431 1
0.34819447994232178 0.79542350769042969 0.9998132586479187
0.7482607364654541 0.74308186769485474 0.99000060558319092
0.98027795553207397 0.71571224927902222 0.97972017526626587
0.99996423721313477 0.70302724838256836 0.97620850801467896
0.0011362711666151881 1 1
0.0017616869881749153 1 1
0 0.99972116947174072 0.99951291084289551
0.22570818662643433 0.98303186893463135 0.97520655393600464
0.64453423023223877 0.9271424412727356 0.93407255411148071
0.89751553535461426 0.89296573400497437 0.89573365449905396
1 0.87400275468826294 0.8753960132598877
0 1 0.99970048666000366
0 1 0.99662047624588013
0 0.99976664781570435 0.97555911540985107
0.12558618187904358 1 0.92125183343887329
0.55609613656997681 0.99996012449264526 0.86379772424697876
0.82034587860107422 0.99730652570724487 0.8147892951965332
0.99069702625274658 0.99235165119171143 0.79704338312149048
8.8680491899140179e-05 0.0004974514595232904 0.016145249828696251
0.03368644043803215 0.0015529408119618893 0.56890368461608887
0.31061002612113953 0 0.99970442056655884
0.7268492579460144 0.00032107782317325473 0.99692165851593018
0.99864929914474487 8.0901503679342568e-05 0.99961322546005249
1 0 1
1 0 1
0 0.067523077130317688 0.846077561378479
0.018283544108271599 0.056536160409450531 1
0.35310754179954529 0.026188315823674202 0.98065030574798584
0.82398796081542969 0.0062043434008955956 0.99358868598937988
1 0.017222953960299492 1
1 0.030466850847005844 1
1 0.041992787271738052 1
0 0.3034575879573822 1
0.02544880285859108 0.29094484448432922 1
0.28094741702079773 0.25502482056617737 0.97455275058746338
0.71271145343780518 0.20161697268486023 0.98435693979263306
0.99899792671203613 0.18497923016548157 0.99894052743911743
1 0.18462242186069489 0.99939537048339844
0.99823194742202759 0.17981380224227905 0.99904805421829224
0 0.61794614791870117 0.99650007486343384
0.0012001337017863989 0.6076081395149231 0.99233359098434448
0.081743322312831879 0.56853640079498291 0.98843157291412354
0.52854114770889282 0.52059662342071533 0.99836426973342896
0.91490429639816284 0.47867241501808167 0.99316573143005371
1 0.4512535035610199 0.99936956167221069
0.99967736005783081 0.42572230100631714 1
0.0019120608922094107 0.9128953218460083 0.99976992607116699
5.5111155234044418e-05 0.89453518390655518 0.99550706148147583
0.0098413052037358284 0.84664738178253174 0.99362039566040039
0.34978678822517395 0.79406476020812988 0.99948400259017944
0.75219100713729858 0.74287360906600952 0.99589890241622925
0.97256737947463989 0.70590817928314209 1
1 0.67386698722839355 1
0 1 1
0 1 1
0.0034268398303538561 0.99929571151733398 1
0.26935663819313049 0.98126238584518433 1
0.6466827392578125 0.92411321401596069 1
0.88273429870605469 0.88172668218612671 1
0.99995100498199463 0.85834795236587524 1
0 1 1
0 1 1
0.001900212955661118 1 1
0.22168505191802979 1 1
0.57545685768127441 0.99885177612304688 0.99994164705276489
0.81087577342987061 0.99643135070800781 0.99396908283233643
0.98799228668212891 0.99065011739730835 0.98608154058456421
