assets/lut/ericellerbrock terra 4.cube
# Created by: G'MIC (https://gmic.eu)
TITLE "terra_4"
# LUT size
LUT_3D_SIZE 7
# Data domain
DOMAIN_MIN 0.0 0.0 0.0
DOMAIN_MAX 1.0 1.0 1.0
# LUT data points
0.047000482678413391 0.08235294371843338 0.086274512112140656
0.055656209588050842 0.078431375324726105 0.082683771848678589
0.10112542659044266 0.089117176830768585 0.08235294371843338
0.19605527818202972 0.10912789404392242 0.081977024674415588
0.40709695219993591 0.144850954413414 0.097367048263549805
0.65965962409973145 0.19348683953285217 0.14637953042984009
0.81643694639205933 0.2311648428440094 0.17254902422428131
0.046500291675329208 0.10269628465175629 0.084331944584846497
0.072491005063056946 0.1086275577545166 0.098798640072345734
0.18000151216983795 0.12268039584159851 0.089946925640106201
0.39694249629974365 0.15329399704933167 0.087272852659225464
0.65082567930221558 0.19530436396598816 0.14206947386264801
0.81833422183990479 0.2389913946390152 0.16630920767784119
0.82705575227737427 0.24081726372241974 0.16856490075588226
0.050428923219442368 0.21379627287387848 0.070745505392551422
0.058916516602039337 0.21631063520908356 0.073834061622619629
0.2142636775970459 0.21696494519710541 0.14539164304733276
0.44517755508422852 0.21979287266731262 0.082102984189987183
0.70429211854934692 0.27378460764884949 0.10154581815004349
0.86973845958709717 0.33376932144165039 0.11435099691152573
0.88051503896713257 0.31559956073760986 0.13228327035903931
0.063660100102424622 0.34092825651168823 0.054128728806972504
0.067638829350471497 0.32887566089630127 0.057728562504053116
0.2468111664056778 0.35738348960876465 0.10671054571866989
0.46760910749435425 0.38584977388381958 0.22552938759326935
0.68058574199676514 0.37670966982841492 0.11759990453720093
0.84483712911605835 0.43053829669952393 0.068505458533763885
0.91597598791122437 0.46126583218574524 0.062244623899459839
0.11746370047330856 0.45635783672332764 0.071934327483177185
0.1131901890039444 0.45196044445037842 0.064141228795051575
0.24903349578380585 0.46593987941741943 0.090485788881778717
0.55128628015518188 0.55017697811126709 0.2093157023191452
0.70031052827835083 0.5925605297088623 0.34267076849937439
0.81518149375915527 0.58689665794372559 0.30821090936660767
0.90364879369735718 0.59360605478286743 0.23785704374313354
0.16887529194355011 0.64796721935272217 0.064795613288879395
0.17065754532814026 0.61584770679473877 0.073676452040672302
0.2618865966796875 0.60684221982955933 0.087142050266265869
0.53077852725982666 0.67183023691177368 0.14783325791358948
0.75803893804550171 0.74349468946456909 0.38818272948265076
0.84401053190231323 0.75240880250930786 0.45316123962402344
0.92182296514511108 0.73664778470993042 0.44601538777351379
0.18493624031543732 0.80669867992401123 0.043137256056070328
0.18605543673038483 0.8072887659072876 0.043137256056070328
0.24697376787662506 0.80394500494003296 0.043683517724275589
0.48833709955215454 0.8397594690322876 0.056751281023025513
0.75084406137466431 0.85470259189605713 0.33260238170623779
0.88140410184860229 0.8619115948677063 0.51856368780136108
0.92310029268264771 0.84636479616165161 0.51387524604797363
0.04314156249165535 0.078399240970611572 0.08919835090637207
0.054372690618038177 0.080206386744976044 0.088770560920238495
0.10560405999422073 0.086398616433143616 0.091230355203151703
0.2218828946352005 0.10893598198890686 0.08582635223865509
0.44790250062942505 0.1514841616153717 0.10476481169462204
0.696114182472229 0.19915498793125153 0.15847648680210114
0.82307696342468262 0.2298552542924881 0.17831024527549744
0.047641858458518982 0.10627260059118271 0.10517013818025589
0.078362978994846344 0.11278471350669861 0.11360829323530197
0.20674917101860046 0.12692059576511383 0.095443755388259888
0.4320252537727356 0.1554466038942337 0.096392810344696045
0.66909128427505493 0.1996212899684906 0.14731118083000183
0.82051962614059448 0.2389184981584549 0.169481560587883
0.82678663730621338 0.23466485738754272 0.17449094355106354
0.044711858034133911 0.20790205895900726 0.095843330025672913
0.058473668992519379 0.21233132481575012 0.086526893079280853
0.21005435287952423 0.21490979194641113 0.147189661860466
0.45007097721099854 0.21789823472499847 0.081924349069595337
0.71121615171432495 0.27103331685066223 0.10792969167232513
0.87190443277359009 0.32308238744735718 0.12236733734607697
0.87448877096176147 0.30861112475395203 0.13332691788673401
0.050557572394609451 0.33160322904586792 0.067861340939998627
0.061292283236980438 0.32273757457733154 0.071500860154628754
0.23618195950984955 0.35125079751014709 0.10389155894517899
0.45691001415252686 0.37819868326187134 0.21963320672512054
0.67769497632980347 0.37018030881881714 0.11514044553041458
0.85307437181472778 0.42692390084266663 0.065176598727703094
0.91529703140258789 0.45174899697303772 0.06760089099407196
0.10916268080472946 0.45599129796028137 0.07543964684009552
0.10439137369394302 0.44567567110061646 0.071287356317043304
0.24228985607624054 0.46018579602241516 0.092252679169178009
0.53763294219970703 0.54013973474502563 0.20536285638809204
0.69231295585632324 0.58784109354019165 0.34005340933799744
0.80992400646209717 0.58436870574951172 0.31590422987937927
0.895824134349823 0.5876765251159668 0.23318898677825928
0.17027993500232697 0.63794398307800293 0.061807982623577118
0.16773943603038788 0.61603081226348877 0.068748459219932556
0.24324612319469452 0.60275018215179443 0.081382513046264648
0.51806271076202393 0.6547200083732605 0.14934881031513214
0.75426769256591797 0.73902374505996704 0.38644486665725708
0.84084123373031616 0.74793797731399536 0.44766274094581604
0.91736221313476562 0.73461973667144775 0.4485335648059845
0.18869931995868683 0.81278932094573975 0.043137256056070328
0.179763063788414 0.80174058675765991 0.043137256056070328
0.2625003457069397 0.80555742979049683 0.044431276619434357
0.47429564595222473 0.83608460426330566 0.052503488957881927
0.74611997604370117 0.85588932037353516 0.32128331065177917
0.8733636736869812 0.85503673553466797 0.508350670337677
0.94000494480133057 0.84858840703964233 0.50199812650680542
0.044496230781078339 0.089430086314678192 0.10544028133153915
0.059848170727491379 0.098121464252471924 0.11458452790975571
0.1136627197265625 0.10288045555353165 0.12295662611722946
0.26191377639770508 0.1184607595205307 0.12234142422676086
0.51654845476150513 0.15821593999862671 0.13784803450107574
0.74030387401580811 0.2090446949005127 0.17300628125667572
0.84675180912017822 0.23659105598926544 0.1844586580991745
0.043137256056070328 0.13568165898323059 0.15726712346076965
0.065314091742038727 0.14892964065074921 0.17467667162418365
0.23224936425685883 0.1485503613948822 0.17272481322288513
0.49030408263206482 0.16192211210727692 0.14489781856536865
0.70700538158416748 0.20225585997104645 0.1712067723274231
0.83770763874053955 0.23520933091640472 0.1825634092092514
0.83839184045791626 0.2341519296169281 0.18747808039188385
0.043140128254890442 0.22517317533493042 0.20897272229194641
0.049196459352970123 0.22217129170894623 0.20576740801334381
0.19754885137081146 0.23534777760505676 0.21527719497680664
0.50974136590957642 0.22514992952346802 0.13818176090717316
0.7400476336479187 0.26025891304016113 0.13326224684715271
0.87753933668136597 0.30378240346908569 0.14010010659694672
0.88055235147476196 0.29230567812919617 0.14996170997619629
0.043738599866628647 0.35162070393562317 0.21214056015014648
0.044247690588235855 0.33008408546447754 0.18760527670383453
0.16471898555755615 0.36721724271774292 0.13946327567100525
0.44968625903129578 0.38898536562919617 0.26331689953804016
0.70107406377792358 0.38011270761489868 0.12556138634681702
0.87206417322158813 0.43446004390716553 0.065164275467395782
0.92181342840194702 0.45688465237617493 0.070761963725090027
0.072612598538398743 0.44824382662773132 0.17218902707099915
0.072079814970493317 0.43445762991905212 0.14095291495323181
0.19682365655899048 0.46087431907653809 0.12440885603427887
0.5132637619972229 0.53913265466690063 0.21649453043937683
0.68850487470626831 0.5878637433052063 0.35795301198959351
0.81089764833450317 0.5784984827041626 0.31879523396492004
0.90461277961730957 0.58818858861923218 0.23225142061710358
0.11354029178619385 0.64900320768356323 0.094672150909900665
0.13008399307727814 0.61541259288787842 0.096440061926841736
0.21168437600135803 0.59635806083679199 0.10472630709409714
0.49867692589759827 0.64827150106430054 0.1500910222530365
0.73934793472290039 0.73037934303283691 0.38076946139335632
0.83683675527572632 0.74430423974990845 0.45410504937171936
0.91120797395706177 0.73161822557449341 0.44863539934158325
0.13135001063346863 0.81150835752487183 0.047194432467222214
0.16133780777454376 0.80809289216995239 0.046138420701026917
0.21997405588626862 0.80605113506317139 0.046614896506071091
0.4664803147315979 0.83419305086135864 0.064886428415775299
0.72995328903198242 0.84521979093551636 0.30956906080245972
0.87296837568283081 0.85495764017105103 0.52139240503311157
0.93783491849899292 0.84350979328155518 0.51901340484619141
0.043137256056070328 0.11039247363805771 0.13282281160354614
0.057213231921195984 0.1197209507226944 0.14645698666572571
0.12062133848667145 0.13240399956703186 0.16570323705673218
0.28111070394515991 0.15196922421455383 0.17753450572490692
0.54101669788360596 0.188290074467659 0.18337930738925934
0.78310823440551758 0.24889072775840759 0.21223236620426178
0.8742755651473999 0.28263735771179199 0.23025752604007721
0.043137256056070328 0.20266619324684143 0.24871785938739777
0.052904047071933746 0.22625371813774109 0.27822762727737427
0.20565062761306763 0.22589382529258728 0.28817069530487061
0.50532084703445435 0.2234681099653244 0.2319536954164505
0.74061053991317749 0.25084134936332703 0.22109705209732056
0.87504297494888306 0.29185929894447327 0.24015717208385468
0.88366442918777466 0.29393023252487183 0.23897317051887512
0.043137256056070328 0.27366507053375244 0.32165572047233582
0.04669870063662529 0.27820020914077759 0.32897040247917175
0.12648791074752808 0.2979310154914856 0.36095491051673889
0.52698987722396851 0.27691319584846497 0.28854653239250183
0.77709752321243286 0.28627872467041016 0.25475624203681946
0.89441841840744019 0.31271684169769287 0.25655931234359741
0.8952147364616394 0.30549487471580505 0.24060261249542236
0.043137256056070328 0.39830693602561951 0.38152390718460083
0.043137256056070328 0.37629413604736328 0.36118736863136292
0.078438445925712585 0.4040970504283905 0.38600683212280273
0.41524741053581238 0.41758176684379578 0.3916051983833313
0.74912059307098389 0.40487554669380188 0.28640422224998474
0.90751248598098755 0.43326091766357422 0.21929289400577545
0.92923510074615479 0.42201060056686401 0.1766071617603302
0.056550074368715286 0.54944479465484619 0.44026726484298706
0.056748319417238235 0.5244261622428894 0.41255384683609009
0.10356181859970093 0.51767158508300781 0.37738609313964844
0.40532955527305603 0.54624199867248535 0.3049166202545166
0.69153189659118652 0.61082375049591064 0.46017512679100037
0.83445996046066284 0.60647940635681152 0.39198657870292664
0.9381406307220459 0.60408252477645874 0.26420331001281738
0.092811882495880127 0.63192737102508545 0.41731280088424683
0.087507642805576324 0.6008334755897522 0.38227170705795288
0.12657518684864044 0.58212614059448242 0.32942643761634827
0.38951301574707031 0.67373901605606079 0.22259216010570526
0.71966797113418579 0.73678803443908691 0.4293133020401001
0.83677399158477783 0.75189459323883057 0.52296322584152222
0.92379242181777954 0.73927682638168335 0.48862898349761963
0.055743243545293808 0.84702861309051514 0.29774779081344604
0.055199671536684036 0.82726573944091797 0.26343172788619995
0.099582940340042114 0.80458182096481323 0.22248898446559906
0.33515477180480957 0.89721691608428955 0.09818490594625473
0.6924748420715332 0.86169683933258057 0.32985743880271912
0.86494296789169312 0.85994565486907959 0.56495732069015503
0.9335627555847168 0.85564494132995605 0.59730517864227295
0.043137256056070328 0.14691436290740967 0.18053987622261047
0.053460139781236649 0.16399961709976196 0.20125296711921692
0.1202813982963562 0.19454571604728699 0.24500122666358948
0.29780668020248413 0.21393492817878723 0.259378582239151
0.60207843780517578 0.24949751794338226 0.2320471853017807
0.78321123123168945 0.29119965434074402 0.25960201025009155
0.87084805965423584 0.34489873051643372 0.33119499683380127
0.043137256056070328 0.28157719969749451 0.3505856990814209
0.045400805771350861 0.33335912227630615 0.41697099804878235
0.15985944867134094 0.3374515175819397 0.40830811858177185
0.49260517954826355 0.31538096070289612 0.33023461699485779
0.74740982055664062 0.3066159188747406 0.26730832457542419
0.8549075722694397 0.34508955478668213 0.3316839337348938
0.87637525796890259 0.34854412078857422 0.33876299858093262
0.043137256056070328 0.38439851999282837 0.48430523276329041
0.043157599866390228 0.39104393124580383 0.49816286563873291
0.08123384416103363 0.40532746911048889 0.52298474311828613
0.48232680559158325 0.36464574933052063 0.43728560209274292
0.75076866149902344 0.35879179835319519 0.37476399540901184
0.87005990743637085 0.39855387806892395 0.43040278553962708
0.88807851076126099 0.40749090909957886 0.42993751168251038
0.043137256056070328 0.42543017864227295 0.50765043497085571
0.043144434690475464 0.40997913479804993 0.48919367790222168
0.052721690386533737 0.44053739309310913 0.53062170743942261
0.27739560604095459 0.44536641240119934 0.5720444917678833
0.71994185447692871 0.45525246858596802 0.51118725538253784
0.87601584196090698 0.48114636540412903 0.51984357833862305
0.89918714761734009 0.47826504707336426 0.49507954716682434
0.043137256056070328 0.57611709833145142 0.59058362245559692
0.043137256056070328 0.55443680286407471 0.56387639045715332
0.050253234803676605 0.56737637519836426 0.57581049203872681
0.2143370658159256 0.61077374219894409 0.61669749021530151
0.67244446277618408 0.62967783212661743 0.60782140493392944
0.87027835845947266 0.63683611154556274 0.55422651767730713
0.93509590625762939 0.63168013095855713 0.50733166933059692
0.044240780174732208 0.7433478832244873 0.69145071506500244
0.045407522469758987 0.72158795595169067 0.66637563705444336
0.058013632893562317 0.70945698022842407 0.64630329608917236
0.27687501907348633 0.72335845232009888 0.61568289995193481
0.63961011171340942 0.75021904706954956 0.52690058946609497
0.83445525169372559 0.77109408378601074 0.64349770545959473
0.93223327398300171 0.76523596048355103 0.58783429861068726
0.048130437731742859 0.87697172164916992 0.68429398536682129
0.048249982297420502 0.85765665769577026 0.65168571472167969
0.058738544583320618 0.82886183261871338 0.62255936861038208
0.22599542140960693 0.87824016809463501 0.50664019584655762
0.59192168712615967 0.90972352027893066 0.41095402836799622
0.84684067964553833 0.85591655969619751 0.64148420095443726
0.92316341400146484 0.86631894111633301 0.70768022537231445
0.043137256056070328 0.18233734369277954 0.22505764663219452
0.048516009002923965 0.22258253395557404 0.27464482188224792
0.10901818424463272 0.26613456010818481 0.3236948549747467
0.31193891167640686 0.29169318079948425 0.34644961357116699
0.61662310361862183 0.31070193648338318 0.29515880346298218
0.80708390474319458 0.36129811406135559 0.36845317482948303
0.88081735372543335 0.41707363724708557 0.49185863137245178
0.043137256056070328 0.37168678641319275 0.46954730153083801
0.043816301971673965 0.3986639678478241 0.49924957752227783
0.13860888779163361 0.3979516327381134 0.47468283772468567
0.49015581607818604 0.3962922990322113 0.46594500541687012
0.72269541025161743 0.38232636451721191 0.41568207740783691
0.85850805044174194 0.41405877470970154 0.49023577570915222
0.8891904354095459 0.4268956184387207 0.51881355047225952
0.043137256056070328 0.42485600709915161 0.5458366870880127
0.043137256056070328 0.42294269800186157 0.54412007331848145
0.071218200027942657 0.43302187323570251 0.56292057037353516
0.4369608461856842 0.41312769055366516 0.58094340562820435
0.73755651712417603 0.41818848252296448 0.54044729471206665
0.87800067663192749 0.44658538699150085 0.58640515804290771
0.9070199728012085 0.47594758868217468 0.6106840968132019
0.043137256056070328 0.49012705683708191 0.62237143516540527
0.043137256056070328 0.47995960712432861 0.60936456918716431
0.047065287828445435 0.49688166379928589 0.63597559928894043
0.18015183508396149 0.49670696258544922 0.68224656581878662
0.69553345441818237 0.47285076975822449 0.67286783456802368
0.87461578845977783 0.5078614354133606 0.66833019256591797
0.91868633031845093 0.54801994562149048 0.69182115793228149
0.043137256056070328 0.57370173931121826 0.68423998355865479
0.043137256056070328 0.56447011232376099 0.66989386081695557
0.045174140483140945 0.57825511693954468 0.68342125415802002
0.098408959805965424 0.59872162342071533 0.71945279836654663
0.55301731824874878 0.61087238788604736 0.75850582122802734
0.84184139966964722 0.63349628448486328 0.7309688925743103
0.91641062498092651 0.65765869617462158 0.73301917314529419
0.043137256056070328 0.70771372318267822 0.77007710933685303
0.043137256056070328 0.69406664371490479 0.7504962682723999
0.046630799770355225 0.69374829530715942 0.7430691123008728
0.13240967690944672 0.73181772232055664 0.76565361022949219
0.50813382863998413 0.75327193737030029 0.76470571756362915
0.82122796773910522 0.78234732151031494 0.75584942102432251
0.93204754590988159 0.78373485803604126 0.72404021024703979
0.043137256056070328 0.84866046905517578 0.84244048595428467
0.043137256056070328 0.83894962072372437 0.82242691516876221
0.045076481997966766 0.83748435974121094 0.81503236293792725
0.12280475348234177 0.84555298089981079 0.80453437566757202
0.54808950424194336 0.87948727607727051 0.74389159679412842
0.80566108226776123 0.88660663366317749 0.71191239356994629
0.91590338945388794 0.88083881139755249 0.79402405023574829
0.043137256056070328 0.22546663880348206 0.279001384973526
0.043137256056070328 0.28608536720275879 0.3507506251335144
0.088480107486248016 0.3493046760559082 0.41792166233062744
0.32031416893005371 0.37670040130615234 0.43738403916358948
0.63346666097640991 0.39253690838813782 0.42778697609901428
0.81341558694839478 0.42251300811767578 0.502857506275177
0.89407503604888916 0.44242644309997559 0.57247185707092285
0.043137256056070328 0.40637990832328796 0.51359200477600098
0.045226257294416428 0.40782821178436279 0.5122535228729248
0.14147348701953888 0.40264669060707092 0.47646662592887878
0.50956976413726807 0.41680029034614563 0.51643586158752441
0.71741831302642822 0.42525973916053772 0.50543385744094849
0.86112129688262939 0.43996652960777283 0.55953645706176758
0.90073955059051514 0.44874602556228638 0.5904572606086731
0.043137256056070328 0.42637220025062561 0.54663562774658203
0.043137256056070328 0.42644163966178894 0.55105918645858765
0.096657693386077881 0.43162795901298523 0.55936771631240845
0.43938416242599487 0.41493690013885498 0.58778029680252075
0.75021135807037354 0.44217422604560852 0.64642596244812012
0.88850969076156616 0.46850264072418213 0.69410675764083862
0.93156611919403076 0.50238722562789917 0.72562533617019653
0.043137256056070328 0.4973408579826355 0.63362991809844971
0.044053304940462112 0.486724853515625 0.620525062084198
0.054558023810386658 0.49984848499298096 0.6396515965461731
0.20256227254867554 0.49644678831100464 0.68218833208084106
0.69107365608215332 0.48486825823783875 0.75344830751419067
0.88377654552459717 0.51827311515808105 0.78882086277008057
0.94020366668701172 0.56104928255081177 0.79324311017990112
0.043137256056070328 0.59426277875900269 0.73295742273330688
0.043137256056070328 0.58155035972595215 0.71873754262924194
0.046852622181177139 0.59048259258270264 0.72797983884811401
0.075379721820354462 0.60543632507324219 0.75515478849411011
0.48135483264923096 0.60233539342880249 0.8044435977935791
0.85333132743835449 0.62518841028213501 0.83727061748504639
0.94401252269744873 0.65763020515441895 0.84906554222106934
0.043137256056070328 0.70200216770172119 0.81612223386764526
0.043137256056070328 0.68773412704467773 0.80850064754486084
0.043323323130607605 0.68599152565002441 0.8057519793510437
0.052473794668912888 0.6993863582611084 0.81934452056884766
0.32248526811599731 0.71271347999572754 0.83485150337219238
0.76771098375320435 0.75352007150650024 0.84923148155212402
0.92970693111419678 0.77493965625762939 0.84967076778411865
0.043137256056070328 0.78347229957580566 0.86002737283706665
0.043137256056070328 0.78029674291610718 0.86517608165740967
0.043137256056070328 0.78198051452636719 0.86509454250335693
0.055107057094573975 0.80430454015731812 0.8689342737197876
0.34900674223899841 0.83583265542984009 0.86362659931182861
0.77242738008499146 0.87270742654800415 0.85801583528518677
0.91303086280822754 0.89210450649261475 0.85481923818588257
