assets/lut/ericellerbrock hypnosis.cube
# Created by: G'MIC (https://gmic.eu)
TITLE "hypnosis"
# LUT size
LUT_3D_SIZE 5
# Data domain
DOMAIN_MIN 0.0 0.0 0.0
DOMAIN_MAX 1.0 1.0 1.0
# LUT data points
0.0047554615885019302 0.0039215688593685627 0.0039215688593685627
0.015526700764894485 0.0088574578985571861 0.0078296735882759094
0.2175251841545105 0.044914454221725464 0.015201837755739689
0.76556366682052612 0.062421925365924835 0.00055147061357274652
0.84461069107055664 0.07112438976764679 0
0.0019263173453509808 0.0030048144981265068 0.0013776442501693964
0.015025254338979721 0.016658663749694824 0.011375457048416138
0.28277963399887085 0.064433962106704712 0.012518774718046188
0.89166456460952759 0.11324574798345566 0.00015712065214756876
0.95263713598251343 0.14358976483345032 0
0.0027287651319056749 0.14150403439998627 0.076209694147109985
0.0030737335328012705 0.12528020143508911 0.063739866018295288
0.41910865902900696 0.24303832650184631 0.0044161477126181126
0.97174906730651855 0.24012015759944916 1.4002182979311328e-05
0.99409973621368408 0.28279298543930054 2.8004365958622657e-05
0 0.79961574077606201 0.39192977547645569
0 0.80181509256362915 0.36931407451629639
0.10722627490758896 0.82704508304595947 0.2802911102771759
0.94456595182418823 0.87826120853424072 0.47456991672515869
0.95870411396026611 0.89368420839309692 0.66327601671218872
0 0.85816150903701782 0.45181348919868469
0.0042053223587572575 0.88271111249923706 0.45507991313934326
0.11441559344530106 0.89832645654678345 0.38516026735305786
0.91189342737197876 0.91824942827224731 0.63315904140472412
0.94971740245819092 0.93333333730697632 0.80282723903656006
0.0017487021395936608 0.0013709872728213668 0.002006336348131299
0.0080104004591703415 0.0043363384902477264 0.004106469452381134
0.19430482387542725 0.038218613713979721 0.026280436664819717
0.69715338945388794 0.049173645675182343 0.0044949701987206936
0.81710046529769897 0.058863066136837006 0.014372462406754494
0.0031753838993608952 0.0080263921990990639 0.010434707626700401
0.019962700083851814 0.01820158027112484 0.016319096088409424
0.28516408801078796 0.070971548557281494 0.024176564067602158
0.84026980400085449 0.095972202718257904 0.0014443341642618179
0.90899527072906494 0.10593830049037933 0.0002142513549188152
0.0021133723203092813 0.1806243509054184 0.13436375558376312
0.0024482277221977711 0.16580958664417267 0.11033057421445847
0.47311937808990479 0.29115742444992065 0.013983318582177162
0.96727597713470459 0.25281220674514771 9.6938192655215971e-06
0.99144202470779419 0.29253941774368286 0.00013979744107928127
0 0.79650372266769409 0.45314183831214905
0.0026394263841211796 0.80269449949264526 0.44034391641616821
0.062855571508407593 0.82664626836776733 0.33322849869728088
0.94074493646621704 0.88058948516845703 0.50432956218719482
0.95776551961898804 0.9081425666809082 0.7067253589630127
0 0.88036465644836426 0.54048126935958862
0.05648619681596756 0.87834900617599487 0.49009811878204346
0.21084032952785492 0.91068965196609497 0.43989679217338562
0.92141377925872803 0.92262274026870728 0.66061604022979736
0.95198351144790649 0.93469655513763428 0.7958977222442627
0.008290623314678669 0.027851119637489319 0.054934468120336533
0.012838580645620823 0.0093183182179927826 0.015644866973161697
0.2540552020072937 0.045597299933433533 0.085531570017337799
0.72646123170852661 0.049333877861499786 0.089459784328937531
0.84173691272735596 0.057880416512489319 0.083316922187805176
0.0049095903523266315 0.084942057728767395 0.14049281179904938
0.010247623547911644 0.057393677532672882 0.10221797227859497
0.29976567625999451 0.063348434865474701 0.094533555209636688
0.7672809362411499 0.06464327871799469 0.072068154811859131
0.85808438062667847 0.069894023239612579 0.059566840529441833
4.9635942559689283e-05 0.23920756578445435 0.3023039698600769
0.00047234928933903575 0.2482801228761673 0.31098473072052002
0.22188591957092285 0.27331221103668213 0.25977501273155212
0.95017421245574951 0.35279637575149536 0.093976087868213654
0.98745954036712646 0.36063185334205627 0.098976507782936096
0 0.80624771118164062 0.59266823530197144
0.0022967320401221514 0.81578004360198975 0.58183938264846802
0.097124852240085602 0.83412051200866699 0.50542348623275757
0.9394645094871521 0.90380507707595825 0.63660699129104614
0.96050596237182617 0.9268919825553894 0.79893428087234497
0 0.88953042030334473 0.66796886920928955
0.045861817896366119 0.88993078470230103 0.65207976102828979
0.15952099859714508 0.91090625524520874 0.59734451770782471
0.91739523410797119 0.93641221523284912 0.77818828821182251
0.95760726928710938 0.95068228244781494 0.88091731071472168
0.041564416140317917 0.059875473380088806 0.20110145211219788
0.075935125350952148 0.049729142338037491 0.18898646533489227
0.24944522976875305 0.066247798502445221 0.28614187240600586
0.882343590259552 0.11658044159412384 0.43193238973617554
0.96443849802017212 0.15928277373313904 0.45701470971107483
0.0079308152198791504 0.14656928181648254 0.44935092329978943
0.035819526761770248 0.11390002071857452 0.37409213185310364
0.26214084029197693 0.094411842525005341 0.35450649261474609
0.90927481651306152 0.15309295058250427 0.46237578988075256
0.9789423942565918 0.19398772716522217 0.48127758502960205
0 0.48576992750167847 0.75340878963470459
0 0.49098491668701172 0.77192515134811401
0.07647424191236496 0.36815783381462097 0.73780989646911621
0.9493517279624939 0.30716833472251892 0.50134766101837158
0.98832494020462036 0.34381890296936035 0.48852702975273132
0 0.86274260282516479 0.90594232082366943
0 0.86168277263641357 0.90375882387161255
0.040394023060798645 0.87927794456481934 0.91377311944961548
0.90081369876861572 0.94642788171768188 0.9264603853225708
0.95551294088363647 0.93216228485107422 0.90399712324142456
0 0.91882771253585815 0.93056434392929077
0.011859205551445484 0.92078989744186401 0.93399566411972046
0.089211784303188324 0.93182092905044556 0.93244963884353638
0.8301389217376709 0.95770347118377686 0.93395662307739258
0.97431528568267822 0.9789879322052002 0.96159118413925171
0.047452621161937714 0.066666670143604279 0.2537848949432373
0.10623357445001602 0.070404410362243652 0.28422373533248901
0.33207216858863831 0.078929126262664795 0.39106744527816772
0.90469026565551758 0.13598506152629852 0.54746133089065552
0.9686274528503418 0.18097303807735443 0.56397056579589844
0.021113570779561996 0.11411584913730621 0.40111294388771057
0.055601637810468674 0.12638819217681885 0.43212279677391052
0.3002680242061615 0.11029799282550812 0.45269191265106201
0.92741298675537109 0.18186187744140625 0.55587267875671387
0.98585444688796997 0.22813673317432404 0.57023048400878906
0 0.54192686080932617 0.83371084928512573
0 0.5270305871963501 0.83209699392318726
0.099517062306404114 0.36294898390769958 0.75371360778808594
0.94134312868118286 0.32318311929702759 0.57894361019134521
0.98931586742401123 0.37758323550224304 0.58932429552078247
0 0.85905593633651733 0.9424019455909729
0 0.86000913381576538 0.94304567575454712
0.031441528350114822 0.87112939357757568 0.95201462507247925
0.86664360761642456 0.9368630051612854 0.93335199356079102
0.95819908380508423 0.93813347816467285 0.9244123101234436
0 0.89954859018325806 0.94901961088180542
0.0046176835894584656 0.89952796697616577 0.95094180107116699
0.085265949368476868 0.92359930276870728 0.96466386318206787
0.77679109573364258 0.95644813776016235 0.95920830965042114
0.99122554063796997 0.99315965175628662 0.98803263902664185
