assets/lut/ericellerbrock hypnosis.cube
# Created by: G'MIC (https://gmic.eu)
TITLE "hypnosis"
# LUT size
LUT_3D_SIZE 13
# Data domain
DOMAIN_MIN 0.0 0.0 0.0
DOMAIN_MAX 1.0 1.0 1.0
# LUT data points
0.0047554615885019302 0.0039215688593685627 0.0039215688593685627
0.0084181986749172211 0.0049966252408921719 0.0039215688593685627
0.011887195520102978 0.0078388284891843796 0.0049445061013102531
0.015526700764894485 0.0088574578985571861 0.0078296735882759094
0.04015553742647171 0.017308104783296585 0.011026345193386078
0.10540729761123657 0.033285535871982574 0.018248584121465683
0.2175251841545105 0.044914454221725464 0.015201837755739689
0.3700920045375824 0.053080987185239792 0.0099867423996329308
0.58137905597686768 0.058199595659971237 0.0052083334885537624
0.76556366682052612 0.062421925365924835 0.00055147061357274652
0.81526428461074829 0.066536784172058105 0
0.833332359790802 0.069927036762237549 0
0.84461069107055664 0.07112438976764679 0
0.0040847477503120899 0.0039215688593685627 0.0039215688593685627
0.0076585509814321995 0.0050381827168166637 0.0039215688593685627
0.010648001916706562 0.0078334435820579529 0.0050924113020300865
0.012542095966637135 0.0080612776800990105 0.0076850741170346737
0.035474725067615509 0.016218267381191254 0.011120276525616646
0.11024430394172668 0.034462902694940567 0.018204035237431526
0.23082055151462555 0.047439679503440857 0.014748337678611279
0.40036961436271667 0.05762442946434021 0.0098422477021813393
0.61946386098861694 0.06739208847284317 0.0052643422968685627
0.81116551160812378 0.07588852196931839 0.00057714123977348208
0.85846239328384399 0.081258274614810944 0
0.87673783302307129 0.086559146642684937 0
0.88915812969207764 0.088331170380115509 0
0.0039215688593685627 0.0039215688593685627 0.0035726809874176979
0.0063166897743940353 0.0052505792118608952 0.0039215688593685627
0.010141978971660137 0.0081119611859321594 0.0064773112535476685
0.013677843846380711 0.011075980961322784 0.0079211369156837463
0.039368003606796265 0.019540045410394669 0.011864097788929939
0.11851648241281509 0.038390681147575378 0.018488297238945961
0.23857396841049194 0.05244344100356102 0.014006895013153553
0.42778146266937256 0.065583214163780212 0.0092701036483049393
0.6562238335609436 0.079931788146495819 0.0052509233355522156
0.85107588768005371 0.092058874666690826 0.00067749025765806437
0.89958053827285767 0.10010354965925217 0
0.91913479566574097 0.10615057498216629 0
0.93096417188644409 0.11029802262783051 0
0.0019263173453509808 0.0030048144981265068 0.0013776442501693964
0.004301796667277813 0.0043896394781768322 0.0037241766694933176
0.0083660949021577835 0.0098512386903166771 0.0071194819174706936
0.015025254338979721 0.016658663749694824 0.011375457048416138
0.052313845604658127 0.035226501524448395 0.018223002552986145
0.1430896669626236 0.054775193333625793 0.020455200225114822
0.28277963399887085 0.064433962106704712 0.012518774718046188
0.48603144288063049 0.078489445149898529 0.0067871091887354851
0.71360278129577637 0.095320336520671844 0.0038449305575340986
0.89166456460952759 0.11324574798345566 0.00015712065214756876
0.93313771486282349 0.13119286298751831 0
0.94757556915283203 0.14071828126907349 0
0.95263713598251343 0.14358976483345032 0
0.00044041054206900299 0.0059847664088010788 0.0044347574003040791
0.0026233149692416191 0.0068726185709238052 0.0050553265027701855
0.0065366257913410664 0.013892005197703838 0.010816805996000767
0.016533825546503067 0.026762031018733978 0.017778689041733742
0.060882151126861572 0.057656802237033844 0.027591630816459656
0.17736993730068207 0.079805977642536163 0.023807885125279427
0.34514507651329041 0.087054312229156494 0.0091327289119362831
0.54622179269790649 0.095420509576797485 0.0022419348824769258
0.7788698673248291 0.11706998944282532 0.00073833094211295247
0.91984421014785767 0.14115151762962341 0
0.95515614748001099 0.17054536938667297 0
0.96689540147781372 0.18089979887008667 0
0.96796393394470215 0.18239800631999969 0
0.0047768685035407543 0.047461684793233871 0.032906506210565567
0.0063978307880461216 0.044680323451757431 0.030405530706048012
0.007426796481013298 0.04613017663359642 0.030982162803411484
0.010691564530134201 0.05148812010884285 0.03348928689956665
0.039664443582296371 0.078198015689849854 0.042058534920215607
0.18506401777267456 0.119918093085289 0.027436515316367149
0.41849046945571899 0.13962328433990479 0.0028258827514946461
0.66322463750839233 0.15102525055408478 0
0.84184777736663818 0.16742834448814392 0
0.94505232572555542 0.18414996564388275 0
0.9777715802192688 0.20681346952915192 0
0.98200118541717529 0.2108570784330368 0
0.98306804895401001 0.22021929919719696 0
0.0027287651319056749 0.14150403439998627 0.076209694147109985
0.0042555714026093483 0.13525675237178802 0.071943335235118866
0.0031293982174247503 0.12945449352264404 0.067908599972724915
0.0030737335328012705 0.12528020143508911 0.063739866018295288
0.011411704123020172 0.13731251657009125 0.06167043000459671
0.079929307103157043 0.19999358057975769 0.04350942000746727
0.41910865902900696 0.24303832650184631 0.0044161477126181126
0.74271523952484131 0.2605387270450592 8.5284664237406105e-05
0.89474970102310181 0.26864302158355713 0
0.97174906730651855 0.24012015759944916 1.4002182979311328e-05
0.98995226621627808 0.25707206130027771 0.00017638861027080566
0.99332922697067261 0.26730784773826599 3.8506004784721881e-05
0.99409973621368408 0.28279298543930054 2.8004365958622657e-05
0 0.33945533633232117 0.14450007677078247
0 0.33059757947921753 0.14119432866573334
0 0.332376629114151 0.13193142414093018
0 0.33760780096054077 0.11612840741872787
0.00098326441366225481 0.3156282901763916 0.10485697537660599
0.021186605095863342 0.35979557037353516 0.068505138158798218
0.20570306479930878 0.45069032907485962 0.038502756506204605
0.67900252342224121 0.48862051963806152 0.021191824227571487
0.92429494857788086 0.50326627492904663 0.0049481708556413651
0.9849126935005188 0.4672941267490387 0.014625788666307926
0.9990050196647644 0.46446239948272705 0.022058539092540741
0.9994056224822998 0.46587887406349182 0.018626732751727104
0.99965149164199829 0.47004443407058716 0.017198840156197548
0 0.60259151458740234 0.26385372877120972
0 0.60500305891036987 0.25952884554862976
0 0.61248838901519775 0.25079643726348877
0 0.6081244945526123 0.23013085126876831
0.00026304955827072263 0.60500919818878174 0.21150323748588562
0.0060906801372766495 0.61269658803939819 0.1671108603477478
0.087367132306098938 0.66288775205612183 0.13846772909164429
0.4832693338394165 0.74012547731399536 0.13766656816005707
0.89155769348144531 0.73393046855926514 0.10498944669961929
0.97720599174499512 0.73506605625152588 0.14010493457317352
0.9868464469909668 0.75756919384002686 0.19367882609367371
0.98732542991638184 0.7534477710723877 0.20761105418205261
0.98819661140441895 0.73900169134140015 0.19591619074344635
0 0.79961574077606201 0.39192977547645569
0 0.80190461874008179 0.38765883445739746
0 0.79631751775741577 0.37637755274772644
0 0.80181509256362915 0.36931407451629639
0.00011177810665685683 0.79351645708084106 0.35449367761611938
0.0066058589145541191 0.80159866809844971 0.32272440195083618
0.10722627490758896 0.82704508304595947 0.2802911102771759
0.33293798565864563 0.87657225131988525 0.2528587281703949
0.76027601957321167 0.88387215137481689 0.36157426238059998
0.94456595182418823 0.87826120853424072 0.47456991672515869
0.95582932233810425 0.90068262815475464 0.65149855613708496
0.95580857992172241 0.90244829654693604 0.67252194881439209
0.95870411396026611 0.89368420839309692 0.66327601671218872
0 0.84328651428222656 0.43250998854637146
0 0.84336185455322266 0.42529213428497314
0 0.84330612421035767 0.42002424597740173
0.00053426704835146666 0.8475462794303894 0.41567707061767578
0.0036832173354923725 0.85651445388793945 0.41987258195877075
0.013282416388392448 0.859791100025177 0.39380636811256409
0.10520985722541809 0.87657302618026733 0.36134368181228638
0.29035183787345886 0.90855497121810913 0.33055394887924194
0.70060360431671143 0.91077888011932373 0.44600597023963928
0.92839914560317993 0.9085925817489624 0.59409087896347046
0.95045375823974609 0.9330742359161377 0.82027477025985718
0.95292866230010986 0.93343240022659302 0.82159066200256348
0.9529411792755127 0.93598198890686035 0.82846605777740479
0 0.85221654176712036 0.44513413310050964
0 0.855538010597229 0.44162249565124512
4.846909359912388e-05 0.86137324571609497 0.44230172038078308
0.002133343368768692 0.86760395765304565 0.43953400850296021
0.0086583755910396576 0.8722493052482605 0.42716214060783386
0.018803555518388748 0.87330573797225952 0.40098589658737183
0.10924056172370911 0.88990503549575806 0.37598058581352234
0.27844333648681641 0.92009198665618896 0.3532436192035675
0.68673479557037354 0.91650056838989258 0.45818409323692322
0.92551910877227783 0.91292983293533325 0.60999768972396851
0.95090013742446899 0.93341737985610962 0.81320208311080933
0.95230436325073242 0.93336790800094604 0.81151336431503296
0.95244461297988892 0.93418103456497192 0.81401103734970093
0 0.85816150903701782 0.45181348919868469
0 0.86584967374801636 0.45418432354927063
0.00026658002752810717 0.87509816884994507 0.45716595649719238
0.0042053223587572575 0.88271111249923706 0.45507991313934326
0.015644043684005737 0.88267034292221069 0.43217474222183228
0.027260679751634598 0.88277536630630493 0.40627321600914001
0.11441559344530106 0.89832645654678345 0.38516026735305786
0.27265322208404541 0.92431747913360596 0.36979728937149048
0.66186857223510742 0.91856598854064941 0.46156281232833862
0.91189342737197876 0.91824942827224731 0.63315904140472412
0.9494890570640564 0.93458902835845947 0.80986398458480835
0.94927436113357544 0.93333333730697632 0.80260360240936279
0.94971740245819092 0.93333333730697632 0.80282723903656006
0.0041757621802389622 0.0039215688593685627 0.0024388930760324001
0.0076721641235053539 0.0040160831995308399 0.0039215688593685627
0.0098935291171073914 0.0059000053443014622 0.0039274026639759541
0.013674164190888405 0.0078730564564466476 0.0054587568156421185
0.039343725889921188 0.016269056126475334 0.010387958958745003
0.11075877398252487 0.03154386579990387 0.017679551616311073
0.21587610244750977 0.042958635836839676 0.017212303355336189
0.36439117789268494 0.048430349677801132 0.011016112752258778
0.56000399589538574 0.05234406515955925 0.0046179080381989479
0.75001543760299683 0.058414340019226074 0.00033793729380704463
0.79962313175201416 0.062197890132665634 0
0.8217509388923645 0.06549440324306488 0
0.83836627006530762 0.0679360032081604 0
0.0039217481389641762 0.0039215688593685627 0.0030894111841917038
0.0066811507567763329 0.0039836657233536243 0.0039215688593685627
0.0075996997766196728 0.0049277660436928272 0.0039272983558475971
0.012885867618024349 0.0076474207453429699 0.0053442711941897869
0.043825201690196991 0.019620079547166824 0.012691841460764408
0.112784743309021 0.034873500466346741 0.018966510891914368
0.22730726003646851 0.046712718904018402 0.016275892034173012
0.39033082127571106 0.055048190057277679 0.01178633701056242
0.59741663932800293 0.061896860599517822 0.0059692081995308399
0.78077638149261475 0.069461628794670105 0.00087546551367267966
0.83514618873596191 0.075192712247371674 0
0.86169970035552979 0.08007252961397171 0
0.88313871622085571 0.083981052041053772 0
0.0039001763798296452 0.0039215688593685627 0.0038801454938948154
0.0059504937380552292 0.0047726202756166458 0.0039215688593685627
0.0086791543290019035 0.0078193070366978645 0.0053902119398117065
0.017916375771164894 0.012342371046543121 0.0086885485798120499
0.052055958658456802 0.025299595668911934 0.015861796215176582
0.12328977137804031 0.040232505649328232 0.019346229732036591
0.24074065685272217 0.052992444485425949 0.016048267483711243
0.42518770694732666 0.065099559724330902 0.011657191440463066
0.63903266191482544 0.077114924788475037 0.0061168298125267029
0.81886583566665649 0.086538128554821014 0.001346094417385757
0.87836539745330811 0.093763642013072968 0
0.90332990884780884 0.1001187190413475 0
0.922629714012146 0.10521595925092697 0
0.0015103358309715986 0.0039215688593685627 0.0032848583068698645
0.0044075911864638329 0.0045135798864066601 0.0039194296114146709
0.0080792447552084923 0.0089695500209927559 0.0067281685769557953
0.020362420007586479 0.0172437634319067 0.012245836667716503
0.05941333994269371 0.033968653529882431 0.019720174372196198
0.13738527894020081 0.0503731369972229 0.020762963220477104
0.26922395825386047 0.063966311514377594 0.014387242496013641
0.48115909099578857 0.078677698969841003 0.0091654909774661064
0.69584888219833374 0.093024805188179016 0.0048579494468867779
0.87082362174987793 0.10716444998979568 0.00057971430942416191
0.92056494951248169 0.12297360599040985 0
0.93551099300384521 0.13172098994255066 0
0.94515669345855713 0.13428583741188049 0
0.0017776190070435405 0.012236247770488262 0.0094983866438269615
0.0038825389929115772 0.010219588875770569 0.0080122258514165878
0.0055551119148731232 0.011391239240765572 0.0091499332338571548
0.013398787938058376 0.020642448216676712 0.015516677871346474
0.063358113169670105 0.055339604616165161 0.026999963447451591
0.18253633379936218 0.081256181001663208 0.021475130692124367
0.35005861520767212 0.093500234186649323 0.0080058826133608818
0.56308245658874512 0.10434369742870331 0.0045929853804409504
0.76668137311935425 0.11628609150648117 0.0023332482669502497
0.91227930784225464 0.13617302477359772 0
0.95053541660308838 0.16604615747928619 0
0.96326237916946411 0.17653480172157288 0
0.96681302785873413 0.17529085278511047 0
0.0066699008457362652 0.055356703698635101 0.039809506386518478
0.0066737756133079529 0.049860682338476181 0.035538632422685623
0.0073758889921009541 0.047517366707324982 0.033310070633888245
0.0098032038658857346 0.051857952028512955 0.035822492092847824
0.037192594259977341 0.078445643186569214 0.04282340407371521
0.18979552388191223 0.12379787862300873 0.025888958945870399
0.43016231060028076 0.14278090000152588 0.0014209971996024251
0.68057215213775635 0.15096083283424377 0.00059524236712604761
0.85156166553497314 0.16137848794460297 1.4361213288793806e-05
0.94525587558746338 0.17489622533321381 0
0.97502011060714722 0.20450493693351746 0
0.98443591594696045 0.22201648354530334 0
0.98593664169311523 0.22931049764156342 0
0.003251498332247138 0.15262676775455475 0.086120441555976868
0.0043374602682888508 0.14376962184906006 0.079952701926231384
0.0031530791893601418 0.13359585404396057 0.074371308088302612
0.0037119847256690264 0.1315494030714035 0.069732189178466797
0.010798884555697441 0.13944260776042938 0.06512712687253952
0.08031800389289856 0.20279447734355927 0.044476602226495743
0.42255252599716187 0.24901989102363586 0.0044662323780357838
0.74536919593811035 0.26027637720108032 4.4624477595789358e-05
0.89967435598373413 0.26444455981254578 4.6673944780195598e-06
0.97114449739456177 0.25035572052001953 2.6837516998057254e-05
0.98943257331848145 0.26169541478157043 0
0.99438935518264771 0.27314412593841553 9.550206596031785e-05
0.99658393859863281 0.2765139639377594 0.0015196108724921942
0 0.3465021550655365 0.16303320229053497
0 0.34517228603363037 0.15328828990459442
0 0.35170155763626099 0.15128722786903381
0 0.34937068819999695 0.13717111945152283
0.001046977355144918 0.33301737904548645 0.10637266933917999
0.02263246476650238 0.36518236994743347 0.071538247168064117
0.20850849151611328 0.45219627022743225 0.042267594486474991
0.69695866107940674 0.49021455645561218 0.020898811519145966
0.92810773849487305 0.50031071901321411 0.0070673623122274876
0.98435455560684204 0.47647747397422791 0.017517045140266418
0.9986339807510376 0.4675997793674469 0.019263353198766708
0.99960094690322876 0.46365654468536377 0.018679270520806313
0.99989885091781616 0.46843823790550232 0.026918074116110802
0 0.60816270112991333 0.28495514392852783
0 0.6020740270614624 0.27413013577461243
0 0.60615265369415283 0.26712879538536072
0 0.61049127578735352 0.25302225351333618
0.00031439089798368514 0.60454726219177246 0.22129188477993011
0.0072298385202884674 0.6134570837020874 0.1802498996257782
0.10914402455091476 0.66753512620925903 0.15149709582328796
0.47847935557365417 0.73586952686309814 0.11476633697748184
0.88190120458602905 0.72681981325149536 0.091317161917686462
0.97442817687988281 0.74064570665359497 0.14738592505455017
0.98494750261306763 0.75805956125259399 0.20829775929450989
0.98635625839233398 0.75646781921386719 0.21201285719871521
0.98682689666748047 0.74982744455337524 0.21143658459186554
0 0.79758375883102417 0.41178613901138306
0 0.7929607629776001 0.40281307697296143
4.936667210131418e-06 0.79422509670257568 0.40023311972618103
0.001336460467427969 0.80293762683868408 0.3891509473323822
0.0025254194624722004 0.79431945085525513 0.36809590458869934
0.0087417755275964737 0.79857432842254639 0.32998761534690857
0.079978510737419128 0.82402056455612183 0.2937416136264801
0.30034646391868591 0.87397748231887817 0.25195261836051941
0.73504418134689331 0.88057029247283936 0.35473406314849854
0.93680179119110107 0.87911880016326904 0.48844236135482788
0.95499670505523682 0.90269064903259277 0.6636621356010437
0.95548784732818604 0.90534412860870361 0.68372094631195068
0.95652246475219727 0.90358489751815796 0.68821603059768677
0 0.85183751583099365 0.46527215838432312
3.5708559153135866e-05 0.84696382284164429 0.45247742533683777
0.0013671127380803227 0.84986889362335205 0.4509393572807312
0.0089068394154310226 0.85018545389175415 0.4349859356880188
0.01776357926428318 0.85565078258514404 0.42644336819648743
0.028410473838448524 0.85952812433242798 0.40167087316513062
0.088503099977970123 0.87391120195388794 0.3760683536529541
0.26855814456939697 0.90411162376403809 0.34656748175621033
0.67726105451583862 0.90901553630828857 0.44327232241630554
0.92125695943832397 0.90834963321685791 0.59456932544708252
0.95094329118728638 0.93321782350540161 0.82004779577255249
0.95292145013809204 0.93408071994781494 0.82124537229537964
0.95289140939712524 0.93595629930496216 0.82458037137985229
0 0.85887527465820312 0.47169411182403564
0.0012097676517441869 0.86086231470108032 0.46821197867393494
0.0049294712953269482 0.8657381534576416 0.465777188539505
0.016237325966358185 0.86823368072509766 0.45357641577720642
0.033739186823368073 0.87203323841094971 0.43591073155403137
0.057500608265399933 0.876941978931427 0.41229337453842163
0.14694386720657349 0.8946492075920105 0.38977646827697754
0.28531232476234436 0.91967999935150146 0.37068787217140198
0.67477428913116455 0.91550862789154053 0.46387353539466858
0.92148447036743164 0.91392093896865845 0.61542636156082153
0.9525216817855835 0.93353497982025146 0.81215369701385498
0.95020002126693726 0.93333297967910767 0.80093967914581299
0.94960647821426392 0.93330782651901245 0.7979133129119873
0 0.86361032724380493 0.47600948810577393
0.0022805456537753344 0.87010091543197632 0.47694039344787598
0.0073130740784108639 0.8774714469909668 0.47626140713691711
0.024439089000225067 0.88136595487594604 0.4641883373260498
0.052654534578323364 0.88521808385848999 0.44309213757514954
0.084410376846790314 0.88951319456100464 0.42016738653182983
0.17303071916103363 0.90647727251052856 0.40167257189750671
0.28076320886611938 0.92701172828674316 0.38613855838775635
0.61827933788299561 0.92130869626998901 0.45945447683334351
0.90749222040176392 0.91847258806228638 0.63031977415084839
0.95083075761795044 0.93386530876159668 0.8097272515296936
0.94914406538009644 0.93324464559555054 0.79299432039260864
0.94901961088180542 0.93111443519592285 0.78241962194442749
0.0035614012740552425 0.0016907935496419668 0.00019722733122762293
0.0042932699434459209 0.0039119943976402283 0.0031939935870468616
0.0045800902880728245 0.0039215688593685627 0.0033196692820638418
0.0074865752831101418 0.0039658341556787491 0.0028778226114809513
0.041808273643255234 0.014462579041719437 0.010203268378973007
0.11085260659456253 0.0294660534709692 0.018584949895739555
0.20005054771900177 0.03982442244887352 0.019910505041480064
0.34917482733726501 0.044161073863506317 0.013518658466637135
0.53036397695541382 0.045186720788478851 0.0042705461382865906
0.71003371477127075 0.051412679255008698 0.00051996565889567137
0.78137743473052979 0.056033998727798462 0.00055503094336017966
0.80391454696655273 0.059043794870376587 0.0011744779767468572
0.82288289070129395 0.061684150248765945 0.0029122147243469954
0.0031695347279310226 0.0024534338153898716 0.00092505657812580466
0.003939908929169178 0.0039214189164340496 0.003839156124740839
0.0040085287764668465 0.0039215688593685627 0.003834832925349474
0.0063280439935624599 0.0041345483623445034 0.0031544405501335859
0.040626198053359985 0.016716975718736649 0.01169408205896616
0.11239054054021835 0.033515661954879761 0.019849963486194611
0.2102188915014267 0.044424481689929962 0.01973489485681057
0.36856690049171448 0.050390131771564484 0.013995795510709286
0.56822085380554199 0.054959584027528763 0.0067877378314733505
0.74626046419143677 0.060285486280918121 0.0012939752778038383
0.80467575788497925 0.065312236547470093 0
0.83020800352096558 0.068630293011665344 3.593295332393609e-05
0.85853451490402222 0.074539586901664734 0.0019922442734241486
0.0022588095162063837 0.0037823247257620096 0.0028667375445365906
0.0041746399365365505 0.0039215688593685627 0.0039215688593685627
0.0074362060986459255 0.0058235917240381241 0.0043840892612934113
0.01697935163974762 0.011944295838475227 0.0092049688100814819
0.048181015998125076 0.02530936524271965 0.018316620960831642
0.12358307093381882 0.03970998153090477 0.021519739180803299
0.23205766081809998 0.05304819718003273 0.019166415557265282
0.41092884540557861 0.062719427049160004 0.013785418123006821
0.61665230989456177 0.069809496402740479 0.0072208181954920292
0.79408550262451172 0.076573297381401062 0.0013480392517521977
0.85088890790939331 0.082933209836483002 0
0.87683355808258057 0.088708274066448212 0
0.90316504240036011 0.093467026948928833 9.1403140686452389e-05
0.00052668253192678094 0.0032341002952307463 0.0023334876168519258
0.0038194244261831045 0.0039173201657831669 0.0037998573388904333
0.0067737954668700695 0.0071096830070018768 0.0054488535970449448
0.021935122087597847 0.018861060962080956 0.013545661233365536
0.063668332993984222 0.040609516203403473 0.024624200537800789
0.15326853096485138 0.055043883621692657 0.022552130743861198
0.28782856464385986 0.068557426333427429 0.014940822497010231
0.48195984959602356 0.079338610172271729 0.0098281111568212509
0.68669009208679199 0.089149385690689087 0.0054794610477983952
0.86414474248886108 0.098288774490356445 0.00073121016612276435
0.90693050622940063 0.1101723313331604 0
0.91990017890930176 0.11704105883836746 0
0.93344533443450928 0.1189899817109108 0
0.0025309843476861715 0.013692594133317471 0.012041817419230938
0.003648226847872138 0.01394811924546957 0.011969173327088356
0.0047299554571509361 0.015081891790032387 0.012767178006470203
0.01488647423684597 0.026011733338236809 0.019076971337199211
0.069544471800327301 0.062757916748523712 0.033214390277862549
0.20367473363876343 0.085878171026706696 0.021814009174704552
0.34225746989250183 0.087782628834247589 0.0078827952966094017
0.56096500158309937 0.097188703715801239 0.0045011034235358238
0.76417785882949829 0.10614080727100372 0.0018154218560084701
0.91203814744949341 0.12729084491729736 0
0.94380873441696167 0.15387071669101715 0
0.95426970720291138 0.16333156824111938 0
0.9606931209564209 0.15724863111972809 0
0.0081071890890598297 0.061235733330249786 0.048643928021192551
0.0077599920332431793 0.057885590940713882 0.045912932604551315
0.00766728725284338 0.057108111679553986 0.043867927044630051
0.012131096795201302 0.058464393019676208 0.041713878512382507
0.035778075456619263 0.088087998330593109 0.049873996526002884
0.2180362343788147 0.13712169229984283 0.024885768070816994
0.45083391666412354 0.14968638122081757 0.0017444087425246835
0.67877966165542603 0.14762255549430847 0.00039850870962254703
