assets/lut/ericellerbrock terra 4.cube
# Created by: G'MIC (https://gmic.eu)
TITLE "terra_4"
# LUT size
LUT_3D_SIZE 13
# Data domain
DOMAIN_MIN 0.0 0.0 0.0
DOMAIN_MAX 1.0 1.0 1.0
# LUT data points
0.047000482678413391 0.08235294371843338 0.086274512112140656
0.051053889095783234 0.080268010497093201 0.086056306958198547
0.055656209588050842 0.078431375324726105 0.082683771848678589
0.073460176587104797 0.08322577178478241 0.082408949732780457
0.10112542659044266 0.089117176830768585 0.08235294371843338
0.13492588698863983 0.096970111131668091 0.08235294371843338
0.19605527818202972 0.10912789404392242 0.081977024674415588
0.29024431109428406 0.12523238360881805 0.084386818110942841
0.40709695219993591 0.144850954413414 0.097367048263549805
0.54168647527694702 0.16828802227973938 0.12359782308340073
0.65965962409973145 0.19348683953285217 0.14637953042984009
0.76944261789321899 0.21854975819587708 0.16679726541042328
0.81643694639205933 0.2311648428440094 0.17254902422428131
0.045708198100328445 0.083045050501823425 0.085675336420536041
0.051575992256402969 0.083547152578830719 0.086748771369457245
0.061268646270036697 0.082892186939716339 0.085777744650840759
0.091556817293167114 0.090977534651756287 0.086260974407196045
0.14074628055095673 0.099217325448989868 0.083293542265892029
0.21137472987174988 0.11205293238162994 0.080603040754795074
0.30689415335655212 0.13029979169368744 0.080696955323219299
0.42248737812042236 0.14934456348419189 0.096927344799041748
0.56069040298461914 0.17207153141498566 0.12864407896995544
0.67287850379943848 0.19586257636547089 0.14943423867225647
0.77835887670516968 0.22167615592479706 0.1658070832490921
0.81699836254119873 0.2325163334608078 0.17179253697395325
0.82050609588623047 0.23377175629138947 0.1723741888999939
0.046500291675329208 0.10269628465175629 0.084331944584846497
0.05226815864443779 0.10598661005496979 0.088444188237190247
0.072491005063056946 0.1086275577545166 0.098798640072345734
0.10959623754024506 0.11396875977516174 0.098420403897762299
0.18000151216983795 0.12268039584159851 0.089946925640106201
0.28050214052200317 0.13135722279548645 0.077170625329017639
0.39694249629974365 0.15329399704933167 0.087272852659225464
0.5218881368637085 0.17545428872108459 0.11159591376781464
0.65082567930221558 0.19530436396598816 0.14206947386264801
0.75593966245651245 0.22059521079063416 0.15889956057071686
0.81833422183990479 0.2389913946390152 0.16630920767784119
0.82729554176330566 0.24290670454502106 0.16671267151832581
0.82705575227737427 0.24081726372241974 0.16856490075588226
0.046343933790922165 0.15351687371730804 0.078428171575069427
0.04810955747961998 0.15572676062583923 0.080866090953350067
0.072043038904666901 0.15762567520141602 0.097656711935997009
0.1260235458612442 0.15692494809627533 0.12269911170005798
0.20100380480289459 0.15952526032924652 0.1113337054848671
0.31095480918884277 0.16569902002811432 0.077489472925662994
0.442606121301651 0.18535499274730682 0.081606879830360413
0.5819476842880249 0.20923006534576416 0.10628080368041992
0.69544678926467896 0.23266689479351044 0.12793201208114624
0.79224282503128052 0.25530809164047241 0.14518855512142181
0.84717679023742676 0.27023166418075562 0.1528354287147522
0.85233789682388306 0.27198091149330139 0.15320505201816559
0.8495180606842041 0.2645719051361084 0.15780499577522278
0.050428923219442368 0.21379627287387848 0.070745505392551422
0.050424255430698395 0.21515543758869171 0.070641070604324341
0.058916516602039337 0.21631063520908356 0.073834061622619629
0.12536901235580444 0.21921481192111969 0.11020620167255402
0.2142636775970459 0.21696494519710541 0.14539164304733276
0.31353485584259033 0.21257032454013824 0.12203219532966614
0.44517755508422852 0.21979287266731262 0.082102984189987183
0.58567619323730469 0.24445012211799622 0.083556711673736572
0.70429211854934692 0.27378460764884949 0.10154581815004349
0.80008965730667114 0.30498871207237244 0.11185643821954727
0.86973845958709717 0.33376932144165039 0.11435099691152573
0.88571995496749878 0.33336997032165527 0.11968237161636353
0.88051503896713257 0.31559956073760986 0.13228327035903931
0.057176448404788971 0.27637359499931335 0.062895983457565308
0.056675076484680176 0.27575337886810303 0.062602534890174866
0.063513405621051788 0.27716997265815735 0.059450499713420868
0.11630482226610184 0.28349700570106506 0.074229896068572998
0.2375880628824234 0.28622913360595703 0.13918004930019379
0.3331315815448761 0.2908940315246582 0.17896319925785065
0.43793776631355286 0.28810527920722961 0.1582743227481842
0.57054835557937622 0.29415717720985413 0.093688726425170898
0.69250154495239258 0.31563583016395569 0.074704922735691071
0.78220021724700928 0.35159438848495483 0.080491892993450165
0.86699473857879639 0.38820651173591614 0.077885888516902924
0.91168427467346191 0.40392988920211792 0.07787284255027771
0.90635555982589722 0.39529675245285034 0.088016152381896973
0.063660100102424622 0.34092825651168823 0.054128728806972504
0.060838900506496429 0.33259874582290649 0.057125944644212723
0.067638829350471497 0.32887566089630127 0.057728562504053116
0.12156925350427628 0.34422570466995239 0.055314157158136368
0.2468111664056778 0.35738348960876465 0.10671054571866989
0.37579932808876038 0.37434846162796021 0.17716133594512939
0.46760910749435425 0.38584977388381958 0.22552938759326935
0.57213807106018066 0.37879505753517151 0.19375848770141602
0.68058574199676514 0.37670966982841492 0.11759990453720093
0.76297086477279663 0.40019664168357849 0.085621491074562073
0.84483712911605835 0.43053829669952393 0.068505458533763885
0.9115559458732605 0.45835912227630615 0.055892854928970337
0.91597598791122437 0.46126583218574524 0.062244623899459839
0.078293085098266602 0.40577954053878784 0.050511274486780167
0.075019553303718567 0.3980984091758728 0.051899496465921402
0.084617525339126587 0.39490392804145813 0.052833061665296555
0.13682495057582855 0.40396919846534729 0.054307959973812103
0.24613349139690399 0.41652533411979675 0.088595248758792877
0.40092271566390991 0.44231536984443665 0.15475761890411377
0.52232223749160767 0.4805789589881897 0.22474008798599243
0.60261565446853638 0.49301323294639587 0.27354615926742554
0.67739015817642212 0.49170336127281189 0.27235317230224609
0.74993652105331421 0.49069207906723022 0.22470968961715698
0.82455772161483765 0.49354583024978638 0.15212148427963257
0.88887232542037964 0.51679545640945435 0.11244688183069229
0.91395419836044312 0.5247492790222168 0.089512981474399567
0.11746370047330856 0.45635783672332764 0.071934327483177185
0.11123979091644287 0.45358940958976746 0.06824415922164917
0.1131901890039444 0.45196044445037842 0.064141228795051575
0.15272843837738037 0.45575371384620667 0.066608026623725891
0.24903349578380585 0.46593987941741943 0.090485788881778717
0.3977820873260498 0.49421003460884094 0.14032834768295288
0.55128628015518188 0.55017697811126709 0.2093157023191452
0.64299839735031128 0.58854669332504272 0.30136284232139587
0.70031052827835083 0.5925605297088623 0.34267076849937439
0.7591366171836853 0.58858853578567505 0.33405274152755737
0.81518149375915527 0.58689665794372559 0.30821090936660767
0.86704319715499878 0.58756369352340698 0.27041146159172058
0.90364879369735718 0.59360605478286743 0.23785704374313354
0.15749841928482056 0.52082175016403198 0.089531570672988892
0.15423858165740967 0.51200407743453979 0.09016997367143631
0.15391933917999268 0.50321739912033081 0.090872898697853088
0.17653828859329224 0.50080060958862305 0.092579752206802368
0.25956019759178162 0.51201933622360229 0.10527405142784119
0.39412093162536621 0.53981202840805054 0.13839392364025116
0.54841434955596924 0.59834438562393188 0.19406643509864807
0.6689293384552002 0.65355062484741211 0.29437071084976196
0.73405933380126953 0.67922580242156982 0.37376517057418823
0.78179872035980225 0.68312984704971313 0.39912763237953186
0.82292526960372925 0.67490303516387939 0.40276196599006653
0.86994856595993042 0.66770452260971069 0.38331505656242371
0.91197723150253296 0.66782563924789429 0.36367163062095642
0.16887529194355011 0.64796721935272217 0.064795613288879395
0.17095822095870972 0.62999582290649414 0.071520768105983734
0.17065754532814026 0.61584770679473877 0.073676452040672302
0.18743665516376495 0.60883051156997681 0.075122952461242676
0.2618865966796875 0.60684221982955933 0.087142050266265869
0.38385984301567078 0.62877124547958374 0.10103188455104828
0.53077852725982666 0.67183023691177368 0.14783325791358948
0.6690254807472229 0.71224474906921387 0.27007436752319336
0.75803893804550171 0.74349468946456909 0.38818272948265076
0.80616194009780884 0.75890946388244629 0.44344231486320496
0.84401053190231323 0.75240880250930786 0.45316123962402344
0.88386547565460205 0.74326127767562866 0.45512014627456665
0.92182296514511108 0.73664778470993042 0.44601538777351379
0.17754550278186798 0.76884716749191284 0.046919338405132294
0.17931678891181946 0.75850218534469604 0.047570053488016129
0.17757973074913025 0.74837607145309448 0.047993618994951248
0.18496868014335632 0.73627233505249023 0.050355918705463409
0.25422310829162598 0.73475480079650879 0.055811461061239243
0.37075942754745483 0.74743068218231201 0.056842025369405746
0.50656419992446899 0.76942205429077148 0.082009062170982361
0.65140628814697266 0.78905689716339111 0.20412929356098175
0.76051253080368042 0.80021685361862183 0.37271773815155029
0.82426339387893677 0.81254816055297852 0.46298578381538391
0.8651387095451355 0.81274634599685669 0.48275169730186462
0.90212023258209229 0.80631279945373535 0.48484832048416138
0.92613184452056885 0.7973213791847229 0.49200096726417542
0.18493624031543732 0.80669867992401123 0.043137256056070328
0.18955424427986145 0.81049561500549316 0.043137256056070328
0.18605543673038483 0.8072887659072876 0.043137256056070328
0.18764679133892059 0.79813438653945923 0.043212652206420898
0.24697376787662506 0.80394500494003296 0.043683517724275589
0.35240417718887329 0.81879973411560059 0.045500122010707855
0.48833709955215454 0.8397594690322876 0.056751281023025513
0.63435769081115723 0.86129677295684814 0.13991051912307739
0.75084406137466431 0.85470259189605713 0.33260238170623779
0.82959562540054321 0.85137939453125 0.46035102009773254
0.88140410184860229 0.8619115948677063 0.51856368780136108
0.91183674335479736 0.85923564434051514 0.51929783821105957
0.92310029268264771 0.84636479616165161 0.51387524604797363
0.045076347887516022 0.080496907234191895 0.086523823440074921
0.049144729971885681 0.079575002193450928 0.086356192827224731
0.055221077054738998 0.078797347843647003 0.084917612373828888
0.073450811207294464 0.082491837441921234 0.08427160233259201
0.10204214602708817 0.088958904147148132 0.083622053265571594
0.14050398766994476 0.097838506102561951 0.082626909017562866
0.208043172955513 0.11076553910970688 0.082072526216506958
0.30658766627311707 0.12834613025188446 0.083991244435310364
0.42527574300765991 0.14750370383262634 0.099619187414646149
0.55580741167068481 0.1707567572593689 0.12746678292751312
0.67225778102874756 0.19442252814769745 0.1516173779964447
0.77757549285888672 0.22035869956016541 0.16878785192966461
0.81969088315963745 0.23127686977386475 0.1751789003610611
0.045235816389322281 0.08350352942943573 0.088805288076400757
0.049851391464471817 0.084603764116764069 0.08993135392665863
0.064417503774166107 0.086521252989768982 0.089416608214378357
0.096017546951770782 0.091616898775100708 0.088562726974487305
0.14871589839458466 0.10086385905742645 0.084882281720638275
0.22243200242519379 0.11472509056329727 0.08039519190788269
0.32236757874488831 0.13323850929737091 0.081662289798259735
0.44639962911605835 0.1528647392988205 0.10418704152107239
0.5754629373550415 0.17390553653240204 0.13182687759399414
0.68545132875442505 0.19877800345420837 0.15231233835220337
0.78506022691726685 0.223422572016716 0.16814416646957397
0.81319409608840942 0.23076196014881134 0.1724638044834137
0.82029354572296143 0.23248627781867981 0.17270420491695404
0.046125538647174835 0.10473152250051498 0.08904431015253067
0.051120951771736145 0.10620953142642975 0.092048496007919312
0.074955552816390991 0.1098787933588028 0.10200877487659454
0.11830584704875946 0.11713653057813644 0.10245881974697113
0.19196265935897827 0.12323001027107239 0.089024290442466736
0.29373776912689209 0.13354337215423584 0.078370533883571625
0.41602703928947449 0.15516293048858643 0.092190712690353394
0.54546010494232178 0.17493484914302826 0.12074845284223557
0.66312843561172485 0.19709114730358124 0.14586558938026428
0.7632831335067749 0.22251757979393005 0.16144812107086182
0.81547147035598755 0.23711511492729187 0.16715416312217712
0.82468712329864502 0.23772108554840088 0.16947180032730103
0.82542824745178223 0.23615160584449768 0.17199234664440155
0.045140255242586136 0.15185578167438507 0.082323841750621796
0.048054549843072891 0.15563639998435974 0.082816407084465027
0.07446993887424469 0.15861368179321289 0.099092908203601837
0.12599632143974304 0.15817959606647491 0.12513327598571777
0.20689788460731506 0.16182594001293182 0.11099664866924286
0.31907197833061218 0.16810116171836853 0.077101327478885651
0.45581468939781189 0.18563665449619293 0.088647298514842987
0.59570211172103882 0.20633991062641144 0.11330786347389221
0.70561116933822632 0.23170436918735504 0.13211074471473694
0.79638135433197021 0.25427892804145813 0.14718081057071686
0.84353339672088623 0.26482424139976501 0.1550927460193634
0.84860008955001831 0.26354774832725525 0.15792673826217651
0.84485208988189697 0.25667345523834229 0.16198508441448212
0.048172611743211746 0.21041454374790192 0.073281668126583099
0.048946797847747803 0.21251051127910614 0.073158219456672668
0.059157457202672958 0.21599157154560089 0.075342215597629547
0.12369654327630997 0.21666157245635986 0.11039753258228302
0.21445760130882263 0.21562090516090393 0.14314858615398407
0.31401002407073975 0.21231892704963684 0.12187173962593079
0.44772958755493164 0.22083437442779541 0.087851852178573608
0.58905631303787231 0.24265849590301514 0.086762145161628723
0.71320700645446777 0.27149006724357605 0.10543479025363922
0.80692088603973389 0.30438986420631409 0.11361589282751083
0.87118929624557495 0.32830369472503662 0.11871866136789322
0.8843156099319458 0.32196074724197388 0.12716352939605713
0.87938755750656128 0.30905225872993469 0.13479441404342651
0.053036723285913467 0.2723449170589447 0.066150844097137451
0.05164051428437233 0.26870164275169373 0.0673661008477211
0.057749476283788681 0.27147895097732544 0.063102662563323975
0.11460918188095093 0.28153461217880249 0.072332583367824554
0.23364435136318207 0.28584009408950806 0.13511931896209717
0.32938355207443237 0.28761547803878784 0.17528726160526276
0.43723723292350769 0.28416067361831665 0.15325227379798889
0.57231390476226807 0.2862548828125 0.089383460581302643
0.69787991046905518 0.31225010752677917 0.07976222038269043
0.78860855102539062 0.34906047582626343 0.083926767110824585
0.87065869569778442 0.38598793745040894 0.079308949410915375
0.91008913516998291 0.39779242873191833 0.079476527869701385
0.90951675176620483 0.39182552695274353 0.086536452174186707
0.057826291769742966 0.33613449335098267 0.056240484118461609
0.055909145623445511 0.32720229029655457 0.06119995191693306
0.056146986782550812 0.32010355591773987 0.062642313539981842
0.1181037575006485 0.33831632137298584 0.060583136975765228
0.24534787237644196 0.35353690385818481 0.10851758718490601
0.37158334255218506 0.36978244781494141 0.17611695826053619
0.46490854024887085 0.383048415184021 0.22202613949775696
0.56948983669281006 0.37441405653953552 0.18899647891521454
0.67732745409011841 0.37562370300292969 0.12057849764823914
0.76557517051696777 0.39661422371864319 0.084878318011760712
0.84959638118743896 0.43039017915725708 0.069457069039344788
0.90934592485427856 0.45727896690368652 0.059219196438789368
0.91723120212554932 0.45779412984848022 0.063142888247966766
0.074306577444076538 0.40066874027252197 0.052666310220956802
0.072939611971378326 0.39485940337181091 0.05332966148853302
0.076077163219451904 0.38657411932945251 0.058023162186145782
0.1323886513710022 0.39834675192832947 0.057456761598587036
0.24223537743091583 0.41277819871902466 0.08966325968503952
0.39430117607116699 0.43772318959236145 0.15511667728424072
0.51882153749465942 0.47844195365905762 0.22381065785884857
0.59701478481292725 0.49047911167144775 0.27823320031166077
0.67278361320495605 0.48716980218887329 0.27023237943649292
0.75020736455917358 0.48586592078208923 0.21365280449390411
0.82353639602661133 0.49130034446716309 0.14930720627307892
0.88637465238571167 0.51400023698806763 0.10674284398555756
0.91291624307632446 0.52089142799377441 0.083815388381481171
0.11575779318809509 0.45441746711730957 0.07281436026096344
0.10936867445707321 0.45304128527641296 0.067183703184127808
0.10577471554279327 0.44982171058654785 0.063568145036697388
0.15248069167137146 0.45249956846237183 0.068668588995933533
0.24451106786727905 0.46446231007575989 0.087834872305393219
0.3912045955657959 0.48861169815063477 0.13899512588977814
0.54298824071884155 0.54374474287033081 0.20938815176486969
0.63882607221603394 0.58642077445983887 0.30046111345291138
0.6978340744972229 0.59299671649932861 0.34369924664497375
0.75439226627349854 0.59102386236190796 0.3460547924041748
0.81053328514099121 0.58784282207489014 0.32127058506011963
0.86585545539855957 0.58846104145050049 0.27217155694961548
0.89756780862808228 0.59107416868209839 0.23570851981639862
0.15982609987258911 0.51976752281188965 0.092519305646419525
0.15563453733921051 0.50934183597564697 0.092952638864517212
0.15112575888633728 0.50089633464813232 0.090442076325416565
0.17128069698810577 0.49669176340103149 0.093010470271110535
0.25808003544807434 0.51071023941040039 0.10462215542793274
0.39200007915496826 0.53749775886535645 0.13622431457042694
0.54239171743392944 0.59288585186004639 0.19374196231365204
0.67058849334716797 0.65326547622680664 0.29366335272789001
0.73266196250915527 0.6813805103302002 0.37773078680038452
0.7771417498588562 0.68137037754058838 0.40490010380744934
0.82010269165039062 0.67572081089019775 0.41068792343139648
0.86736023426055908 0.66879439353942871 0.3897203803062439
0.90727746486663818 0.66654938459396362 0.36600819230079651
0.16881763935089111 0.64761263132095337 0.060648869723081589
0.17161448299884796 0.63067692518234253 0.067896582186222076
0.16755831241607666 0.62419420480728149 0.066048011183738708
0.17880630493164062 0.6087493896484375 0.072418242692947388
0.25489979982376099 0.61034494638442993 0.079783931374549866
0.37521737813949585 0.62984210252761841 0.094499386847019196
0.52510738372802734 0.66298097372055054 0.15774565935134888
0.66657114028930664 0.70750713348388672 0.27122074365615845
0.75765353441238403 0.7413104772567749 0.38876211643218994
0.80263447761535645 0.75586098432540894 0.44144654273986816
0.84117692708969116 0.74759793281555176 0.45038631558418274
0.88139617443084717 0.74037104845046997 0.45309233665466309
0.9203951358795166 0.73574948310852051 0.44573968648910522
0.17825223505496979 0.75048071146011353 0.048700787127017975
0.17752853035926819 0.75656908750534058 0.047087814658880234
0.17663094401359558 0.74759006500244141 0.046767529100179672
0.19065773487091064 0.72631514072418213 0.051112815737724304
0.26070424914360046 0.72552913427352905 0.052504025399684906
0.35887762904167175 0.73979711532592773 0.051903728395700455
0.50432729721069336 0.76026719808578491 0.091211326420307159
0.64823877811431885 0.78343731164932251 0.20374049246311188
0.75921857357025146 0.79607492685317993 0.37325859069824219
0.82032036781311035 0.80749797821044922 0.46206483244895935
0.861500084400177 0.8066718578338623 0.48468789458274841
0.8985443115234375 0.80131381750106812 0.48532608151435852
0.92931061983108521 0.79557919502258301 0.48788297176361084
0.18930064141750336 0.80991661548614502 0.043258607387542725
0.18418639898300171 0.80987739562988281 0.043137256056070328
0.18511198461055756 0.81151014566421509 0.043137256056070328
0.19741685688495636 0.80459952354431152 0.043938625603914261
0.26136785745620728 0.80710625648498535 0.044322952628135681
0.34214669466018677 0.81852626800537109 0.045850761234760284
0.48131874203681946 0.83696144819259644 0.055555455386638641
0.62111610174179077 0.85217773914337158 0.1325032114982605
0.74756461381912231 0.84380722045898438 0.33465850353240967
0.82597792148590088 0.85094559192657471 0.45646962523460388
0.87813615798950195 0.85821771621704102 0.51699197292327881
0.90924876928329468 0.85361242294311523 0.51477718353271484
0.93144285678863525 0.8425670862197876 0.50587981939315796
0.04314156249165535 0.078399240970611572 0.08919835090637207
0.046198394149541855 0.078294478356838226 0.088222861289978027
0.054372690618038177 0.080206386744976044 0.088770560920238495
0.073337793350219727 0.081949107348918915 0.09128328412771225
0.10560405999422073 0.086398616433143616 0.091230355203151703
0.15007041394710541 0.093949519097805023 0.089761011302471161
0.2218828946352005 0.10893598198890686 0.08582635223865509
0.32340660691261292 0.12988549470901489 0.08498719334602356
0.44790250062942505 0.1514841616153717 0.10476481169462204
0.57727092504501343 0.17350837588310242 0.13533598184585571
0.696114182472229 0.19915498793125153 0.15847648680210114
0.7959669828414917 0.22405345737934113 0.17402470111846924
0.82307696342468262 0.2298552542924881 0.17831024527549744
0.043791212141513824 0.084717050194740295 0.094006195664405823
0.048469111323356628 0.088910855352878571 0.097314231097698212
0.065762810409069061 0.090322114527225494 0.097325250506401062
0.10501812398433685 0.093889005482196808 0.098076537251472473
0.15974743664264679 0.099713794887065887 0.093406513333320618
0.23900189995765686 0.11447548866271973 0.084969237446784973
0.33800390362739563 0.13351874053478241 0.085488244891166687
0.45963248610496521 0.15380176901817322 0.10767265409231186
0.59594690799713135 0.17681346833705902 0.1378948986530304
0.7072756290435791 0.20275570452213287 0.15910124778747559
0.79616928100585938 0.22638009488582611 0.17186072468757629
0.8193548321723938 0.2316482812166214 0.17501486837863922
0.82287180423736572 0.23141539096832275 0.17675161361694336
0.047641858458518982 0.10627260059118271 0.10517013818025589
0.051813986152410507 0.10811341553926468 0.10844363272190094
0.078362978994846344 0.11278471350669861 0.11360829323530197
0.12875156104564667 0.11940158158540726 0.11254283040761948
0.20674917101860046 0.12692059576511383 0.095443755388259888
0.31323635578155518 0.13945503532886505 0.081635251641273499
0.4320252537727356 0.1554466038942337 0.096392810344696045
0.56137716770172119 0.17467755079269409 0.12774603068828583
0.66909128427505493 0.1996212899684906 0.14731118083000183
0.76842749118804932 0.22497463226318359 0.16325607895851135
0.82051962614059448 0.2389184981584549 0.169481560587883
0.82470393180847168 0.2351938784122467 0.17305171489715576
0.82678663730621338 0.23466485738754272 0.17449094355106354
0.048741884529590607 0.15080010890960693 0.10786954313516617
0.051034562289714813 0.15289768576622009 0.10698342323303223
0.072743281722068787 0.15709391236305237 0.11345160752534866
0.12543931603431702 0.15778665244579315 0.13325458765029907
0.21383734047412872 0.16289485991001129 0.11732367426156998
0.33132806420326233 0.16961978375911713 0.079495854675769806
0.46582496166229248 0.1851610392332077 0.089646011590957642
0.60133594274520874 0.20515972375869751 0.11782750487327576
0.7099950909614563 0.23017778992652893 0.13654619455337524
0.80022537708282471 0.25450038909912109 0.14999473094940186
0.84261268377304077 0.26357027888298035 0.15657129883766174
0.84635567665100098 0.25818473100662231 0.16147904098033905
0.84303182363510132 0.25293853878974915 0.16492301225662231
0.044711858034133911 0.20790205895900726 0.095843330025672913
0.046207711100578308 0.20329336822032928 0.089582435786724091
0.058473668992519379 0.21233132481575012 0.086526893079280853
0.11574288457632065 0.21598537266254425 0.11449846625328064
