assets/lut/ericellerbrock seringe 4.cube
# Created by: G'MIC (https://gmic.eu)
TITLE "seringe_4"
# LUT size
LUT_3D_SIZE 5
# Data domain
DOMAIN_MIN 0.0 0.0 0.0
DOMAIN_MAX 1.0 1.0 1.0
# LUT data points
0.043016485869884491 0.054328650236129761 0.057061392813920975
0.17175491154193878 0.065935201942920685 0.054994441568851471
0.52646023035049438 0.078352116048336029 0.05750129371881485
0.83311623334884644 0.12261597812175751 0.085788235068321228
0.92326366901397705 0.12326034903526306 0.080844387412071228
0.039438944309949875 0.13732297718524933 0.054439753293991089
0.14914442598819733 0.1402374655008316 0.044946961104869843
0.52702885866165161 0.15623806416988373 0.055860884487628937
0.83367133140563965 0.20018059015274048 0.081462576985359192
0.9303511381149292 0.21083839237689972 0.081109113991260529
0.039215687662363052 0.3011929988861084 0.045132163912057877
0.072400905191898346 0.32325565814971924 0.048479504883289337
0.56728684902191162 0.3322717547416687 0.052572064101696014
0.86917692422866821 0.37752807140350342 0.05434500053524971
0.98708951473236084 0.43529188632965088 0.050040885806083679
0.039202895015478134 0.51352506875991821 0.052956074476242065
0.070221170783042908 0.52396273612976074 0.053571648895740509
0.51419657468795776 0.65244531631469727 0.053843211382627487
0.83986395597457886 0.64367246627807617 0.06352495402097702
0.97357809543609619 0.64809226989746094 0.067931875586509705
0.045579243451356888 0.7281915545463562 0.043186604976654053
0.094418004155158997 0.7405286431312561 0.057873506098985672
0.46461689472198486 0.82968932390213013 0.052559316158294678
0.8000149130821228 0.89186131954193115 0.072483912110328674
0.95783555507659912 0.86078411340713501 0.074929662048816681
0.04258403554558754 0.074384741485118866 0.16605232656002045
0.13048847019672394 0.078911967575550079 0.15557879209518433
0.49354618787765503 0.091711826622486115 0.14084020256996155
0.82099640369415283 0.14079484343528748 0.14561775326728821
0.9172552227973938 0.14574497938156128 0.14154155552387238
0.038343917578458786 0.13564994931221008 0.15552881360054016
0.1118142381310463 0.14402668178081512 0.15214183926582336
0.5101664662361145 0.16122902929782867 0.11846747249364853
0.82446330785751343 0.19137987494468689 0.13138251006603241
0.92563080787658691 0.20179145038127899 0.128771111369133
0.032343305647373199 0.33338886499404907 0.10852547734975815
0.069614917039871216 0.32626041769981384 0.099655047059059143
0.54947739839553833 0.33469417691230774 0.094400979578495026
0.85679686069488525 0.37980374693870544 0.092718459665775299
0.98190444707870483 0.43548142910003662 0.084200993180274963
0.040830217301845551 0.51495486497879028 0.10232741385698318
0.07588302344083786 0.51357555389404297 0.099695034325122833
0.48493796586990356 0.64165276288986206 0.092778481543064117
0.83653748035430908 0.63802450895309448 0.10000360757112503
0.97511750459671021 0.64527612924575806 0.098658271133899689
0.054314542561769485 0.73282861709594727 0.0941009521484375
0.086941301822662354 0.73112040758132935 0.099686160683631897
0.44620943069458008 0.81831854581832886 0.079660676419734955
0.79150485992431641 0.8886876106262207 0.10341014713048935
0.95354592800140381 0.85845458507537842 0.11072196066379547
0.054327782243490219 0.14828401803970337 0.4149729311466217
0.096566565334796906 0.14538602530956268 0.38534781336784363
0.33216845989227295 0.14782354235649109 0.32835066318511963
0.80591684579849243 0.17664772272109985 0.28858897089958191
0.9103584885597229 0.22618827223777771 0.31041806936264038
0.047665867954492569 0.19358357787132263 0.39819556474685669
0.099341437220573425 0.2006954699754715 0.40075430274009705
0.32025131583213806 0.21529820561408997 0.34237965941429138
0.79682004451751709 0.27300834655761719 0.32161185145378113
0.92987334728240967 0.30045449733734131 0.31164884567260742
0.049205031245946884 0.31691226363182068 0.40756267309188843
0.094374865293502808 0.32868102192878723 0.4122374951839447
0.306214839220047 0.39471006393432617 0.41459730267524719
0.80442935228347778 0.4797770082950592 0.35413885116577148
0.96459829807281494 0.4933742880821228 0.29638171195983887
0.084869310259819031 0.68294811248779297 0.60381311178207397
0.11298057436943054 0.66160732507705688 0.55593574047088623
0.25384539365768433 0.63542503118515015 0.36538499593734741
0.80108392238616943 0.69629383087158203 0.23280233144760132
0.97189962863922119 0.6866489052772522 0.21510304510593414
0.078784823417663574 0.84309196472167969 0.48517340421676636
0.10758700221776962 0.82731693983078003 0.4586201012134552
0.28085228800773621 0.80204838514328003 0.26741039752960205
0.74589121341705322 0.87826442718505859 0.23887284100055695
0.9450763463973999 0.85822635889053345 0.198094442486763
0.070445731282234192 0.24528630077838898 0.68537294864654541
0.12982733547687531 0.24787311255931854 0.66583883762359619
0.21512486040592194 0.25468820333480835 0.62612223625183105
0.7482987642288208 0.29382079839706421 0.51998144388198853
0.88442397117614746 0.3047691285610199 0.52261930704116821
0.065736584365367889 0.30384695529937744 0.68908047676086426
0.12046793103218079 0.31060653924942017 0.69223928451538086
0.20241904258728027 0.30584916472434998 0.64239007234573364
0.72548645734786987 0.35978522896766663 0.54433369636535645
0.89147621393203735 0.37159013748168945 0.53977304697036743
0.067213721573352814 0.39597484469413757 0.6877981424331665
0.1079801544547081 0.39881289005279541 0.68855708837509155
0.19166943430900574 0.42664417624473572 0.714161217212677
0.71758013963699341 0.53616493940353394 0.66034394502639771
0.91858202219009399 0.56592947244644165 0.65400421619415283
0.079341650009155273 0.53986901044845581 0.69910711050033569
0.11001662909984589 0.53452008962631226 0.69473850727081299
0.19576863944530487 0.5719296932220459 0.71503919363021851
0.6954466700553894 0.71713727712631226 0.69891345500946045
0.93128317594528198 0.73358380794525146 0.67342764139175415
0.10386988520622253 0.7793881893157959 0.81337141990661621
0.13906252384185791 0.78247499465942383 0.81111222505569458
0.207127645611763 0.81333678960800171 0.81731158494949341
0.62299180030822754 0.86675918102264404 0.63014024496078491
0.9280514121055603 0.86622941493988037 0.47886189818382263
0.071391388773918152 0.26199132204055786 0.77434128522872925
0.12660746276378632 0.25971207022666931 0.75074046850204468
0.19959935545921326 0.28214144706726074 0.73885929584503174
0.68716847896575928 0.3412880003452301 0.70827126502990723
0.87848293781280518 0.35891580581665039 0.69089305400848389
0.073854796588420868 0.33008962869644165 0.79315066337585449
0.12631109356880188 0.33542525768280029 0.79403245449066162
0.19898445904254913 0.34485149383544922 0.778728187084198
0.62964934110641479 0.41698133945465088 0.77034252882003784
0.87517708539962769 0.41513100266456604 0.72000038623809814
0.075950160622596741 0.44954246282577515 0.83389973640441895
0.12393270432949066 0.44965681433677673 0.83523130416870117
0.21276581287384033 0.47346910834312439 0.85212361812591553
0.56179261207580566 0.57465511560440063 0.85597288608551025
0.8971676230430603 0.56399309635162354 0.81706392765045166
0.080312944948673248 0.56980043649673462 0.86323243379592896
0.11798767745494843 0.55565226078033447 0.84883666038513184
0.2017071396112442 0.58542996644973755 0.87019211053848267
0.46531298756599426 0.6677430272102356 0.88201069831848145
0.89885663986206055 0.73159199953079224 0.85206115245819092
0.081689171493053436 0.70824253559112549 0.88778293132781982
0.12526215612888336 0.69117575883865356 0.86782056093215942
0.1819673627614975 0.70241630077362061 0.86809736490249634
0.38173258304595947 0.76411432027816772 0.8800312876701355
0.85832273960113525 0.86231493949890137 0.82962572574615479
