assets/lut/ericellerbrock avalanche.cube
# Created by: G'MIC (https://gmic.eu)
TITLE "avalanche"
# LUT size
LUT_3D_SIZE 7
# Data domain
DOMAIN_MIN 0.0 0.0 0.0
DOMAIN_MAX 1.0 1.0 1.0
# LUT data points
0.057230390608310699 0.073192432522773743 0.076494790613651276
0.069932974874973297 0.079104989767074585 0.080917134881019592
0.11963723599910736 0.093994155526161194 0.087263531982898712
0.34791707992553711 0.13155730068683624 0.099372133612632751
0.67856228351593018 0.18023113906383514 0.1432185173034668
0.86269849538803101 0.2143833339214325 0.16053344309329987
0.87791597843170166 0.21717165410518646 0.1596238762140274
0.058032989501953125 0.086071819067001343 0.080677270889282227
0.070951633155345917 0.095374181866645813 0.089935734868049622
0.21192370355129242 0.11720189452171326 0.099538825452327728
0.61840760707855225 0.17531599104404449 0.13064230978488922
0.8661314845085144 0.22527217864990234 0.16148154437541962
0.88421940803527832 0.2214498370885849 0.16102546453475952
0.89350020885467529 0.22731451690196991 0.15988695621490479
0.047678284347057343 0.22786249220371246 0.065201796591281891
0.060199782252311707 0.26047956943511963 0.061466395854949951
0.3140254020690918 0.2449934333562851 0.17416746914386749
0.8274071216583252 0.29129704833030701 0.19527405500411987
0.98478657007217407 0.34619882702827454 0.22692550718784332
0.99541914463043213 0.35239389538764954 0.24312520027160645
0.99928951263427734 0.36619064211845398 0.27962690591812134
0.095021359622478485 0.47691094875335693 0.033845279365777969
0.1262039840221405 0.49608287215232849 0.046193607151508331
0.35898816585540771 0.47655358910560608 0.079716339707374573
0.92031651735305786 0.54498952627182007 0.53947800397872925
0.99555796384811401 0.5675818920135498 0.56000196933746338
1 0.57945311069488525 0.57480877637863159
1 0.6073724627494812 0.60365110635757446
0.14578525722026825 0.81506407260894775 0.0046975081786513329
0.15567639470100403 0.80944103002548218 0.0024642795324325562
0.40651914477348328 0.78529602289199829 0.0073387892916798592
0.99994158744812012 0.72004055976867676 0.58676695823669434
1 0.7273905873298645 0.72909039258956909
1 0.73273700475692749 0.75031453371047974
1 0.72942823171615601 0.74578988552093506
0.14709684252738953 0.84138238430023193 0.0074065262451767921
0.19633825123310089 0.83818024396896362 0.0053127515129745007
0.53040605783462524 0.79689067602157593 0.027193300426006317
0.99747228622436523 0.76157402992248535 0.6115301251411438
1 0.78532320261001587 0.77484750747680664
1 0.7791597843170166 0.78389298915863037
1 0.7752983570098877 0.78348022699356079
0.13052314519882202 0.8478628396987915 0.014286071062088013
0.20182186365127563 0.83937132358551025 0.011495747603476048
0.5511813759803772 0.79225754737854004 0.037049222737550735
0.99819612503051758 0.76202541589736938 0.61224931478500366
1 0.78517782688140869 0.7743840217590332
1 0.78039216995239258 0.78431373834609985
1 0.7764706015586853 0.78191286325454712
0.056848056614398956 0.076893031597137451 0.083605654537677765
0.064725376665592194 0.080909952521324158 0.087203532457351685
0.10855337232351303 0.092172689735889435 0.091744124889373779
0.37016519904136658 0.13551141321659088 0.10056468099355698
0.7192872166633606 0.18736732006072998 0.14664138853549957
0.87375050783157349 0.21707902848720551 0.16471794247627258
0.89682340621948242 0.2227417528629303 0.16247366368770599
0.058823529630899429 0.095040611922740936 0.097004711627960205
0.070897318422794342 0.098486609756946564 0.10027874261140823
0.24333150684833527 0.11913278698921204 0.10185133665800095
0.66663247346878052 0.18098810315132141 0.13915352523326874
0.87583738565444946 0.2188531905412674 0.16262583434581757
0.88995277881622314 0.22310486435890198 0.16400657594203949
0.9020501971244812 0.23440776765346527 0.1697620302438736
0.047290097922086716 0.24154120683670044 0.086698733270168304
0.053303439170122147 0.2572283148765564 0.075986571609973907
0.3305182158946991 0.25200217962265015 0.18160882592201233
0.85443353652954102 0.2815781831741333 0.18500369787216187
0.99044942855834961 0.33445450663566589 0.21877416968345642
0.9949832558631897 0.35097301006317139 0.24650497734546661
0.99659746885299683 0.3687874972820282 0.28648391366004944
0.097576841711997986 0.48389098048210144 0.039081692695617676
0.11229943484067917 0.50805854797363281 0.039867956191301346
0.3738752007484436 0.48103278875350952 0.086360052227973938
0.92358744144439697 0.55216830968856812 0.54384803771972656
0.99831187725067139 0.56496375799179077 0.56112837791442871
1 0.58024793863296509 0.57259750366210938
1 0.60936230421066284 0.60444140434265137
0.13134108483791351 0.8221125602722168 0.0085252802819013596
0.12800830602645874 0.82014757394790649 0.012176573276519775
0.41733723878860474 0.78618884086608887 0.013611886650323868
0.99988168478012085 0.71342247724533081 0.57733577489852905
1 0.72608304023742676 0.72891175746917725
1 0.72067439556121826 0.73784440755844116
1 0.72944575548171997 0.74653428792953491
0.080628335475921631 0.85119199752807617 0.033555436879396439
0.1216413602232933 0.84870797395706177 0.034343406558036804
0.49478760361671448 0.80149108171463013 0.024797176942229271
0.99987530708312988 0.75489526987075806 0.5942455530166626
1 0.78376513719558716 0.77106553316116333
1 0.77334773540496826 0.77696031332015991
1 0.77448278665542603 0.7823936939239502
0.07891952246427536 0.85443884134292603 0.016676809638738632
0.14588163793087006 0.84990376234054565 0.05102914571762085
0.54372316598892212 0.79560369253158569 0.030199566856026649
0.99973160028457642 0.75339078903198242 0.58799731731414795
1 0.7805098295211792 0.76636618375778198
1 0.77937132120132446 0.78152835369110107
1 0.77491480112075806 0.78039216995239258
0.058691166341304779 0.10532023012638092 0.12208343297243118
0.06341775506734848 0.11076703667640686 0.12893968820571899
0.11901237815618515 0.11393286287784576 0.13271653652191162
0.44256699085235596 0.16216753423213959 0.15472960472106934
0.7823939323425293 0.21137179434299469 0.1818201094865799
0.90561461448669434 0.24595212936401367 0.20764543116092682
0.94107472896575928 0.25544825196266174 0.2070019543170929
0.051788840442895889 0.14601892232894897 0.17436301708221436
0.060567624866962433 0.17962707579135895 0.21890275180339813
0.25721657276153564 0.18111231923103333 0.21835100650787354
0.73819243907928467 0.21804426610469818 0.18872363865375519
0.92912083864212036 0.26380693912506104 0.22097048163414001
0.94350481033325195 0.28334337472915649 0.24405038356781006
0.93408447504043579 0.32024794816970825 0.29452657699584961
0.037537578493356705 0.26225927472114563 0.26172873377799988
0.033368997275829315 0.30008867383003235 0.30377709865570068
0.20117363333702087 0.32389232516288757 0.32993647456169128
0.85804265737533569 0.32310321927070618 0.24952706694602966
0.97577565908432007 0.33864936232566833 0.25034841895103455
0.97881501913070679 0.38196319341659546 0.30678430199623108
0.97468280792236328 0.44201350212097168 0.41148138046264648
0.03583545982837677 0.49895936250686646 0.26610371470451355
0.040805097669363022 0.52887219190597534 0.31355687975883484
0.16771875321865082 0.52680498361587524 0.23375348746776581
0.87286394834518433 0.56889790296554565 0.55097508430480957
0.9885978102684021 0.58848124742507935 0.56741416454315186
0.99354010820388794 0.60411518812179565 0.57712328433990479
0.99649155139923096 0.63660794496536255 0.61435419321060181
0.017858587205410004 0.83267611265182495 0.23272664844989777
0.030879989266395569 0.82614487409591675 0.28561735153198242
0.16765137016773224 0.83675819635391235 0.13987956941127777
0.97915685176849365 0.71674805879592896 0.52880781888961792
0.99592417478561401 0.73905819654464722 0.73735189437866211
0.9932781457901001 0.73900890350341797 0.75026899576187134
0.99127447605133057 0.74012327194213867 0.75370144844055176
0.0018845951417461038 0.89878106117248535 0.37498733401298523
0.0069250818341970444 0.88616669178009033 0.36261159181594849
0.17231884598731995 0.88409715890884399 0.15050509572029114
0.97841697931289673 0.77446550130844116 0.51796972751617432
0.99585491418838501 0.7904168963432312 0.7758062481880188
0.98571419715881348 0.78655582666397095 0.79040753841400146
0.98468554019927979 0.79612851142883301 0.80176979303359985
0.005759804043918848 0.89564770460128784 0.47173991799354553
0.0014012804022058845 0.88381743431091309 0.37467476725578308
0.15976005792617798 0.88123089075088501 0.18388888239860535
0.97849011421203613 0.77518349885940552 0.50493371486663818
0.99648565053939819 0.79426229000091553 0.7727046012878418
0.98697370290756226 0.80312418937683105 0.80334758758544922
0.98652374744415283 0.8030325174331665 0.80863398313522339
0.050076577812433243 0.16388198733329773 0.19994047284126282
0.05221310630440712 0.17211323976516724 0.20853818953037262
0.1294219046831131 0.20022124052047729 0.25300285220146179
0.50755363702774048 0.23771357536315918 0.24944776296615601
0.83374661207199097 0.28560283780097961 0.24865573644638062
0.91351830959320068 0.33647450804710388 0.34286642074584961
0.93344032764434814 0.36445266008377075 0.40467137098312378
0.036458589136600494 0.25835707783699036 0.32454189658164978
0.024385159835219383 0.3372504711151123 0.42618840932846069
0.20183470845222473 0.34907591342926025 0.4172481894493103
0.73726081848144531 0.32391524314880371 0.3254828155040741
0.92403972148895264 0.38811001181602478 0.47177165746688843
0.9424290657043457 0.41809442639350891 0.54255872964859009
0.95080220699310303 0.44092166423797607 0.6028977632522583
0.0095353517681360245 0.43122404813766479 0.55450713634490967
0.010854489170014858 0.45146036148071289 0.58266156911849976
0.12007302790880203 0.45904585719108582 0.60366660356521606
0.78683364391326904 0.42325505614280701 0.56990599632263184
0.9514538049697876 0.48775646090507507 0.64641952514648438
0.95956093072891235 0.52223140001296997 0.70029652118682861
0.96082544326782227 0.55307102203369141 0.73283785581588745
0.00028242223197594285 0.60394740104675293 0.66848289966583252
0.00021921793813817203 0.63443171977996826 0.7028268575668335
0.040511816740036011 0.63020521402359009 0.69742131233215332
0.57270628213882446 0.65428042411804199 0.71623611450195312
0.93010562658309937 0.67992383241653442 0.69133257865905762
0.95238113403320312 0.69909465312957764 0.71261489391326904
0.95686322450637817 0.71919769048690796 0.72409093379974365
0 0.83306789398193359 0.82139575481414795
0 0.81896036863327026 0.81586539745330811
0.011833759024739265 0.83377349376678467 0.80318117141723633
0.53410899639129639 0.83409088850021362 0.65178245306015015
0.92576795816421509 0.79607665538787842 0.78830951452255249
0.9489753246307373 0.79924637079238892 0.79242473840713501
0.96141839027404785 0.80331289768218994 0.79425960779190063
0 0.85694038867950439 0.87058520317077637
0 0.85246503353118896 0.85686838626861572
0.031584989279508591 0.87170267105102539 0.82745981216430664
0.56616723537445068 0.89657533168792725 0.65342175960540771
0.95011621713638306 0.84266155958175659 0.81473678350448608
0.95282971858978271 0.84530764818191528 0.84616482257843018
0.96148848533630371 0.84608477354049683 0.84915673732757568
0 0.85325115919113159 0.87305080890655518
0 0.85037219524383545 0.86007058620452881
0.014616782777011395 0.87007439136505127 0.82808536291122437
0.55840420722961426 0.9006037712097168 0.64040553569793701
0.95157027244567871 0.85094761848449707 0.80941325426101685
0.95728296041488647 0.86117303371429443 0.85929578542709351
0.95995908975601196 0.86321026086807251 0.86654394865036011
0.044484186917543411 0.20703339576721191 0.2561611533164978
0.043479304760694504 0.22163192927837372 0.27376449108123779
0.10824387520551682 0.27848044037818909 0.33915698528289795
0.52961999177932739 0.30689695477485657 0.31374067068099976
0.85246568918228149 0.35458853840827942 0.37762978672981262
0.93219262361526489 0.40674197673797607 0.52358806133270264
0.94475638866424561 0.42795661091804504 0.57999300956726074
0.019171547144651413 0.36493656039237976 0.46152538061141968
0.016957391053438187 0.39255586266517639 0.49851912260055542
0.21560031175613403 0.3979070782661438 0.4757845401763916
0.73610496520996094 0.395772784948349 0.46897241473197937
0.93530452251434326 0.43240588903427124 0.59050911664962769
0.95522373914718628 0.45187839865684509 0.64244002103805542
0.9552275538444519 0.44723939895629883 0.63597816228866577
0.0072298385202884674 0.45263668894767761 0.5862765908241272
0.008374861441552639 0.46051275730133057 0.59681046009063721
0.098875410854816437 0.46871247887611389 0.62887978553771973
0.79885011911392212 0.45379894971847534 0.72801351547241211
0.97064369916915894 0.51021933555603027 0.7889518141746521
0.97776919603347778 0.54763215780258179 0.8156282901763916
0.97475290298461914 0.57112294435501099 0.82544898986816406
9.3347889560391195e-06 0.63050204515457153 0.77194058895111084
0.00026164334849454463 0.64406687021255493 0.78791886568069458
0.040735028684139252 0.65000241994857788 0.79485791921615601
0.42763718962669373 0.64605599641799927 0.83787357807159424
0.91506040096282959 0.67145389318466187 0.84074366092681885
0.94457203149795532 0.70431411266326904 0.83978110551834106
0.94831866025924683 0.71762287616729736 0.84698760509490967
0 0.78440535068511963 0.88478654623031616
0 0.78115946054458618 0.87904810905456543
0.0097127277404069901 0.777668297290802 0.87489908933639526
0.36151835322380066 0.79488104581832886 0.85020565986633301
0.83247387409210205 0.82100999355316162 0.82913786172866821
0.91109174489974976 0.82916063070297241 0.82788544893264771
0.93103611469268799 0.83307737112045288 0.8258247971534729
0 0.8079293966293335 0.89803922176361084
0.00021706375991925597 0.80508983135223389 0.89750957489013672
0.018098868429660797 0.81681382656097412 0.89408665895462036
0.41067925095558167 0.85953038930892944 0.86038649082183838
0.85674864053726196 0.87107044458389282 0.83380329608917236
0.92025941610336304 0.86701101064682007 0.86375623941421509
0.93217748403549194 0.86778181791305542 0.86241984367370605
0 0.80392158031463623 0.90196079015731812
0 0.80784314870834351 0.89803922176361084
0.019246194511651993 0.82135999202728271 0.89685136079788208
0.47775590419769287 0.86745256185531616 0.85575199127197266
0.85362249612808228 0.88562101125717163 0.83053284883499146
0.93046790361404419 0.8807862401008606 0.87580400705337524
0.93773365020751953 0.8844340443611145 0.88720482587814331
0.043137256056070328 0.2155633270740509 0.26379910111427307
0.04215526208281517 0.23502321541309357 0.28904822468757629
0.099306024610996246 0.31497833132743835 0.37919732928276062
0.5469287633895874 0.34940111637115479 0.3651091456413269
0.8592677116394043 0.3949204683303833 0.4755074679851532
0.94536709785461426 0.43025296926498413 0.59054601192474365
0.94631081819534302 0.43137255311012268 0.59177124500274658
0.017354315146803856 0.37562870979309082 0.47736763954162598
0.016356779262423515 0.40305435657501221 0.50998884439468384
0.24156668782234192 0.40417608618736267 0.48254024982452393
0.76969164609909058 0.41293531656265259 0.50180113315582275
0.93989402055740356 0.43872573971748352 0.61123114824295044
0.95063996315002441 0.44110608100891113 0.61543530225753784
0.95473849773406982 0.44663181900978088 0.6332317590713501
0.0060989679768681526 0.45775958895683289 0.59395033121109009
0.0058423508889973164 0.47063258290290833 0.61004257202148438
0.12176933884620667 0.47566065192222595 0.64462947845458984
0.8111761212348938 0.46384698152542114 0.74781715869903564
0.97201347351074219 0.52163028717041016 0.79962420463562012
0.97525924444198608 0.55419009923934937 0.81896513700485229
0.97335201501846313 0.57835793495178223 0.82620453834533691
0 0.63730889558792114 0.78340309858322144
0.003029797226190567 0.65216857194900513 0.79950284957885742
0.027467750012874603 0.66104686260223389 0.81165695190429688
0.44732010364532471 0.655029296875 0.84579694271087646
0.88931059837341309 0.67913526296615601 0.85823076963424683
0.94753491878509521 0.70468854904174805 0.85670214891433716
0.94912457466125488 0.72230392694473267 0.85845464468002319
0 0.78834784030914307 0.89336967468261719
0.0014762429054826498 0.78848004341125488 0.89368563890457153
0.017734363675117493 0.7848283052444458 0.88772696256637573
0.28593304753303528 0.77916544675827026 0.87692356109619141
0.80343014001846313 0.80360716581344604 0.85994106531143188
0.8984413743019104 0.82441973686218262 0.85409778356552124
0.91655296087265015 0.83047676086425781 0.8527873158454895
0 0.80392158031463623 0.90185338258743286
0.00341947958804667 0.80320107936859131 0.89789605140686035
0.02501596137881279 0.81650930643081665 0.89905190467834473
0.36900082230567932 0.84067767858505249 0.88420158624649048
0.81305688619613647 0.86371105909347534 0.86043709516525269
0.89850956201553345 0.8746228814125061 0.86838746070861816
0.91870886087417603 0.87563395500183105 0.87147706747055054
0 0.80392158031463623 0.90196079015731812
0.0016368492506444454 0.80694711208343506 0.89907902479171753
0.059021521359682083 0.82056939601898193 0.89808589220046997
0.45461562275886536 0.85418140888214111 0.8789176344871521
0.81992244720458984 0.88574457168579102 0.86337465047836304
0.90512150526046753 0.8871343731880188 0.87864178419113159
0.92434066534042358 0.88654243946075439 0.88787364959716797
0.042520187795162201 0.24008208513259888 0.2969091534614563
0.042140975594520569 0.23221004009246826 0.28749427199363708
0.13335223495960236 0.31555402278900146 0.37703233957290649
0.56208395957946777 0.36548492312431335 0.38293981552124023
0.882057785987854 0.41375786066055298 0.53643721342086792
0.94127804040908813 0.43040508031845093 0.59089380502700806
0.94797664880752563 0.43137255311012268 0.59610879421234131
0.0165889672935009 0.38742375373840332 0.49427291750907898
0.022615993395447731 0.40411204099655151 0.51178944110870361
0.26927125453948975 0.408304363489151 0.50050497055053711
0.78949820995330811 0.41384002566337585 0.51506334543228149
0.94643568992614746 0.44128245115280151 0.62107956409454346
0.95077037811279297 0.43975624442100525 0.61512511968612671
0.95485585927963257 0.45526149868965149 0.64245909452438354
0.0065966290421783924 0.46063384413719177 0.5973929762840271
0.0096777668222784996 0.47952368855476379 0.62071043252944946
0.12758249044418335 0.48820853233337402 0.65675568580627441
0.81664931774139404 0.47334343194961548 0.76579415798187256
0.96951806545257568 0.53909552097320557 0.80861854553222656
0.97357970476150513 0.56552350521087646 0.81726086139678955
0.97466307878494263 0.57860147953033447 0.83931946754455566
0 0.64519089460372925 0.79142159223556519
0.0037971497513353825 0.66367620229721069 0.80544900894165039
0.016301382333040237 0.66865533590316772 0.81668084859848022
0.4653351902961731 0.66379022598266602 0.84933584928512573
0.91508334875106812 0.68120831251144409 0.87147945165634155
0.94237136840820312 0.71058279275894165 0.86547446250915527
0.94850629568099976 0.72541236877441406 0.85911774635314941
0 0.78719460964202881 0.89357233047485352
0.0017121258424594998 0.79394549131393433 0.8964463472366333
0.013351470232009888 0.79043292999267578 0.89160645008087158
0.29352918267250061 0.77938926219940186 0.87927031517028809
0.80688959360122681 0.80544304847717285 0.8651500940322876
0.89502036571502686 0.81990623474121094 0.85960096120834351
0.91856616735458374 0.8274720311164856 0.8593369722366333
0 0.80392158031463623 0.90196079015731812
0.0024680942296981812 0.80432802438735962 0.90196079015731812
0.027754645794630051 0.82075554132461548 0.90195357799530029
0.29585921764373779 0.84617155790328979 0.89066290855407715
0.80630874633789062 0.86015665531158447 0.86509513854980469
0.89136922359466553 0.87318587303161621 0.87119793891906738
0.91465288400650024 0.87692904472351074 0.87573915719985962
0 0.80392158031463623 0.90196079015731812
0 0.80392158031463623 0.90196079015731812
0.074188902974128723 0.81948351860046387 0.89906471967697144
0.29361030459403992 0.84698903560638428 0.891590416431427
0.80214458703994751 0.87903302907943726 0.86804139614105225
0.90360534191131592 0.89002102613449097 0.87982487678527832
0.92141693830490112 0.89016807079315186 0.89028006792068481
