assets/lut/ericellerbrock hydracore.cube
# Created by: G'MIC (https://gmic.eu)
TITLE "hydracore"
# LUT size
LUT_3D_SIZE 13
# Data domain
DOMAIN_MIN 0.0 0.0 0.0
DOMAIN_MAX 1.0 1.0 1.0
# LUT data points
0.0005371393053792417 0.00082729564746841788 0.021700944751501083
0.038835518062114716 3.2671759981894866e-05 0.018695173785090446
0.17576560378074646 0 0.011078150011599064
0.3417300283908844 0 0.0032167022582143545
0.52000230550765991 0 0.0036538366694003344
0.70270878076553345 0 0.012313453480601311
0.88147813081741333 0 0.021649723872542381
0.99266767501831055 0 0.020877014845609665
1 0.00014838424976915121 0.012855186127126217
1 0.0027014489751309156 0.012568186037242413
0.99991166591644287 0.0071411430835723877 0.017385654151439667
0.99997627735137939 0.0045217028819024563 0.016580035910010338
1 0.00014702291809953749 0.0098191509023308754
0.00086191215086728334 0.033952120691537857 0.013665921054780483
0.013943989761173725 0.024266486987471581 0.01080347690731287
0.12790967524051666 0.015328800305724144 0.0052258209325373173
0.29556936025619507 0.010703905485570431 1.7412970919394866e-05
0.4778144359588623 0.0029898700304329395 2.5431314497836865e-05
0.65955257415771484 0.00071586162084713578 0.0046646269038319588
0.84644901752471924 0.00046343335998244584 0.015790259465575218
0.98421883583068848 0.00014391132572200149 0.020216938108205795
1 0 0.018728757277131081
1 2.3336972390097799e-06 0.022197544574737549
0.99844592809677124 0.00012521182361524552 0.027729842811822891
0.99924683570861816 2.2783466192777269e-05 0.026124631986021996
1 0 0.018981020897626877
0.00063515460351482034 0.12444568425416946 0.0088961878791451454
0.0026504665147513151 0.11362666636705399 0.010148635134100914
0.081710085272789001 0.097755983471870422 0.0074583166278898716
0.2488873302936554 0.077115319669246674 0.0035058862995356321
0.43756958842277527 0.049559544771909714 0.0011588601628318429
0.62275058031082153 0.032303992658853531 0.0031422784086316824
0.80868291854858398 0.022955067455768585 0.012481913901865482
0.9596514105796814 0.018548643216490746 0.020143352448940277
0.99990200996398926 0.0096650663763284683 0.023692157119512558
1 0.0027612873818725348 0.027124173939228058
0.99758666753768921 0.0024058623239398003 0.02962920255959034
0.99777817726135254 0.0020413119345903397 0.027980564162135124
1 0.0019671123009175062 0.025100916624069214
0.0019813089165836573 0.23516164720058441 0.014015541411936283
0 0.22685393691062927 0.013901489786803722
0.033033378422260284 0.21331366896629333 0.010522760450839996
0.18647141754627228 0.19086635112762451 0.0076845055446028709
0.38079151511192322 0.16001199185848236 0.0019815631676465273
0.57847535610198975 0.13372701406478882 0.0013092041481286287
0.77155077457427979 0.11569911241531372 0.0077825658954679966
0.92983525991439819 0.10086730122566223 0.01917114295065403
0.99740833044052124 0.077832043170928955 0.026294663548469543
0.99970889091491699 0.056437041610479355 0.030249862000346184
0.99429702758789062 0.055489275604486465 0.032790150493383408
0.99365901947021484 0.055248171091079712 0.033196423202753067
0.99928569793701172 0.056133061647415161 0.031554084271192551
0.0010908088879659772 0.36243751645088196 0.0167058315128088
0 0.35619384050369263 0.019128598272800446
0.015423823148012161 0.3460809588432312 0.016080265864729881
0.13246574997901917 0.32875475287437439 0.01181869488209486
0.31484392285346985 0.30344516038894653 0.0059115393087267876
0.52129638195037842 0.27696335315704346 0.0025695799849927425
0.72409701347351074 0.25597098469734192 0.0070208082906901836
0.90216064453125 0.23582123219966888 0.0181606225669384
0.99512511491775513 0.21030919253826141 0.025890784338116646
0.99999535083770752 0.18903249502182007 0.029565131291747093
0.99575406312942505 0.18651846051216125 0.031732238829135895
0.99213612079620361 0.18750683963298798 0.034208051860332489
0.99887710809707642 0.19064398109912872 0.034298870712518692
0.00049941119505092502 0.5009148120880127 0.023621143773198128
0 0.49704906344413757 0.029626345261931419
0.011352898553013802 0.48917889595031738 0.027622805908322334
0.09372074156999588 0.47643792629241943 0.024956004694104195
0.24979566037654877 0.4567108154296875 0.020377200096845627
0.45412528514862061 0.43197387456893921 0.011599701829254627
0.65751343965530396 0.41123196482658386 0.0090447673574090004
0.85760974884033203 0.39231130480766296 0.014588584192097187
0.98943454027175903 0.36987188458442688 0.02157612144947052
1 0.35261723399162292 0.025704372674226761
0.99965006113052368 0.34987983107566833 0.027399683371186256
0.9984513521194458 0.34947490692138672 0.030111275613307953
0.99985527992248535 0.35008850693702698 0.031479600816965103
0.00043688007281161845 0.6430516242980957 0.038222786039113998
7.5755400757770985e-05 0.64056718349456787 0.042899306863546371
0.007376053836196661 0.63521236181259155 0.041154239326715469
0.060791883617639542 0.62678301334381104 0.039806529879570007
0.18914559483528137 0.61096477508544922 0.035982407629489899
0.3799070417881012 0.58626061677932739 0.025105390697717667
0.58624255657196045 0.5613359808921814 0.01332219410687685
0.79154288768768311 0.54017311334609985 0.011131241917610168
0.96183580160140991 0.52021080255508423 0.016618227586150169
1 0.50598317384719849 0.022254390642046928
1 0.50184255838394165 0.02513916976749897
1 0.50106066465377808 0.026568168774247169
1 0.49993446469306946 0.026055146008729935
0.00073996151331812143 0.78874880075454712 0.054790645837783813
0.0015567854279652238 0.78684788942337036 0.055257432162761688
0.00094110827194526792 0.78364205360412598 0.053589180111885071
0.022172620519995689 0.78015786409378052 0.054337922483682632
0.12162402272224426 0.76854032278060913 0.051176693290472031
0.30274006724357605 0.74137121438980103 0.038297001272439957
0.51852655410766602 0.70803028345108032 0.020390080288052559
0.72492188215255737 0.68316543102264404 0.012213628739118576
0.9088367223739624 0.66318869590759277 0.01443933229893446
0.99828851222991943 0.64862227439880371 0.018769431859254837
1 0.64359819889068604 0.02130158431828022
1 0.64334660768508911 0.021269151940941811
1 0.64202576875686646 0.019228572025895119
0.0025923934299498796 0.9311872124671936 0.066486641764640808
0.0022309694904834032 0.92893809080123901 0.065464124083518982
0 0.92771977186203003 0.064507082104682922
0.00065359973814338446 0.92902213335037231 0.06663164496421814
0.050873219966888428 0.92179447412490845 0.06340663880109787
0.22321505844593048 0.89277344942092896 0.048381101340055466
0.44544851779937744 0.85772949457168579 0.028021404519677162
0.66343683004379272 0.83058363199234009 0.016034713014960289
0.86046010255813599 0.80599957704544067 0.01362736988812685
0.98939412832260132 0.78577685356140137 0.014551738277077675
1 0.77849024534225464 0.016106624156236649
1 0.77903068065643311 0.015513700433075428
1 0.77807992696762085 0.012456392869353294
0.001714175334200263 0.99967259168624878 0.071702040731906891
0.00045577404671348631 0.99929624795913696 0.070833735167980194
0 0.99926477670669556 0.071510449051856995
0 0.99976587295532227 0.0735907182097435
0.017410367727279663 0.99899023771286011 0.069890610873699188
0.16621294617652893 0.99174922704696655 0.054799653589725494
0.38484078645706177 0.97634315490722656 0.034607697278261185
0.61136388778686523 0.95824241638183594 0.020032141357660294
0.8164559006690979 0.93266433477401733 0.014603080227971077
0.96504706144332886 0.90882521867752075 0.012827435508370399
0.99999415874481201 0.89740008115768433 0.013473570346832275
1 0.89770305156707764 0.012665542773902416
0.99987107515335083 0.898753821849823 0.0088174110278487206
0.00025165034458041191 1 0.072321377694606781
0 1 0.074355483055114746
0 1 0.074773706495761871
0 1 0.076404109597206116
0.012825580313801765 1 0.071416236460208893
0.14204709231853485 1 0.057837557047605515
0.34871843457221985 1 0.039462503045797348
0.57413655519485474 0.99993586540222168 0.025095876306295395
0.77830624580383301 0.99640029668807983 0.017961973324418068
0.93126076459884644 0.98551243543624878 0.01549956388771534
0.99806159734725952 0.97766995429992676 0.013836011290550232
1 0.98085147142410278 0.011740695685148239
0.99950450658798218 0.98491567373275757 0.0073419907130300999
0.00031816071714274585 1 0.07267279177904129
0 1 0.074514083564281464
0 1 0.076666675508022308
0 1 0.07666015625
0.016049912199378014 1 0.070765338838100433
0.13578057289123535 1 0.058111302554607391
0.32970282435417175 1 0.042011439800262451
0.55032861232757568 1 0.029547479003667831
0.75423216819763184 1 0.021832633763551712
0.91324925422668457 0.99996578693389893 0.016823308542370796
0.99501031637191772 0.99989515542984009 0.01315415371209383
1 1 0.0091988211497664452
1 1 0.003888492938131094
0.0018819322576746345 1 0.074535280466079712
2.3336972390097799e-06 1 0.075394272804260254
0 1 0.076963447034358978
0.00027051439974457026 1 0.074977368116378784
0.028553323820233345 1 0.068633317947387695
0.14220553636550903 0.99968940019607544 0.055991917848587036
0.32099863886833191 0.99665391445159912 0.041160028427839279
0.53265112638473511 0.99555224180221558 0.030043343082070351
0.73324668407440186 0.99717003107070923 0.02237720787525177
0.89766210317611694 0.99843782186508179 0.016318840906023979
0.99211359024047852 0.99994945526123047 0.010619174689054489
1 1 0.0053225201554596424
1 1 0.00057214475236833096
0.0011096729431301355 6.5343519963789731e-05 0.095254413783550262
0.044379349797964096 0 0.08698146790266037
0.17060001194477081 0 0.071354404091835022
0.33406358957290649 0 0.048798937350511551
0.51585870981216431 0 0.043734710663557053
0.70281744003295898 0 0.047952029854059219
0.87589418888092041 0 0.045899320393800735
0.98604834079742432 0 0.030312541872262955
1 1.0890586963796522e-05 0.010376694612205029
0.99995321035385132 0.0020295386202633381 0.0071034450083971024
0.99769377708435059 0.0077206781134009361 0.015252850018441677
0.99911129474639893 0.0087040774524211884 0.020107060670852661
1 0.0012053545797243714 0.015583546832203865
0.000148773193359375 0.029956892132759094 0.068843826651573181
0.014386165887117386 0.021832574158906937 0.059974238276481628
0.1236657053232193 0.013441991060972214 0.043445497751235962
0.28905689716339111 0.0083296680822968483 0.021437102928757668
0.47313022613525391 0.001119516440667212 0.019422808662056923
0.65994250774383545 0 0.02584044449031353
0.84185707569122314 0 0.028678819537162781
0.97624826431274414 0 0.022189823910593987
1 0 0.013027235865592957
0.9999995231628418 0 0.012292989529669285
0.99716693162918091 5.2478266297839582e-05 0.018904952332377434
0.99771219491958618 0.00043915392598137259 0.024710427969694138
1 0 0.019183812662959099
2.9754639399470761e-05 0.12238322198390961 0.043107334524393082
0.0022678899113088846 0.10987138748168945 0.039300538599491119
0.083305224776268005 0.094059213995933533 0.025524348020553589
0.2459518164396286 0.073690332472324371 0.015854943543672562
0.4308592677116394 0.045308835804462433 0.010452135466039181
0.61933672428131104 0.022978344932198524 0.0088595673441886902
0.80666589736938477 0.012854243628680706 0.015395654365420341
0.96054649353027344 0.012431305833160877 0.019081339240074158
1 0.0091452803462743759 0.018732646480202675
1 0.0034934547729790211 0.018269049003720284
0.99862027168273926 0.00098224717658013105 0.01950804702937603
0.9964907169342041 2.4982527975225821e-05 0.02003873884677887
0.99988692998886108 0 0.018742805346846581
0.00054433487821370363 0.23391370475292206 0.032242853194475174
5.3645115258404985e-05 0.22528690099716187 0.029981426894664764
0.044208601117134094 0.21206513047218323 0.022465500980615616
0.18785488605499268 0.18931251764297485 0.014825917780399323
0.37530174851417542 0.15769772231578827 0.0034419489093124866
0.57663553953170776 0.1290266215801239 0.00014441994426306337
0.77697092294692993 0.10966721922159195 0.0039362288080155849
0.94431424140930176 0.09923795610666275 0.018176853656768799
0.99990344047546387 0.083167850971221924 0.0245475172996521
1 0.063104145228862762 0.025625729933381081
0.99825137853622437 0.050690222531557083 0.028488174080848694
0.9942815899848938 0.043317127972841263 0.025871157646179199
0.99869817495346069 0.041142869740724564 0.024517716839909554
0.00084518734365701675 0.36091068387031555 0.019531339406967163
0 0.35665008425712585 0.0231437087059021
0.018714830279350281 0.34683495759963989 0.018664296716451645
0.12916386127471924 0.32839727401733398 0.010361585766077042
0.30750539898872375 0.30209705233573914 0.0009556041331961751
0.51898491382598877 0.27460178732872009 5.9838390598088154e-07
0.72912406921386719 0.25423738360404968 0.0024201935157179832
0.91476476192474365 0.23797757923603058 0.017694795504212379
0.99808990955352783 0.21587954461574554 0.025490719825029373
1 0.19275651872158051 0.027297869324684143
0.99722862243652344 0.18146766722202301 0.031171925365924835
0.99175173044204712 0.18053360283374786 0.028938712552189827
0.99846816062927246 0.185101717710495 0.028330409899353981
0.0020106746815145016 0.49958321452140808 0.017291693016886711
2.7226467409491306e-06 0.49845221638679504 0.0264726672321558
0.0080023966729640961 0.4906562864780426 0.021061781793832779
0.083225935697555542 0.4765765368938446 0.014147335663437843
0.23913535475730896 0.45491304993629456 0.0077038486488163471
0.44997230172157288 0.42866313457489014 0.0022251203190535307
0.65636467933654785 0.40825709700584412 0.0052656135521829128
0.85396432876586914 0.39139452576637268 0.013276702724397182
0.98478573560714722 0.37018883228302002 0.020191879943013191
1 0.35190752148628235 0.024212002754211426
0.99905788898468018 0.34498870372772217 0.02570577897131443
0.99504184722900391 0.3472343385219574 0.024547187611460686
0.99851876497268677 0.35182961821556091 0.02606220543384552
0.0037894304841756821 0.64068526029586792 0.029565818607807159
0.0012268514838069677 0.64132195711135864 0.03976127877831459
0.0034474092535674572 0.63623249530792236 0.034775692969560623
0.051127970218658447 0.62611430883407593 0.02780577726662159
0.18200956284999847 0.60748636722564697 0.024068105965852737
0.37950888276100159 0.58061373233795166 0.01699758879840374
0.58621639013290405 0.5567086935043335 0.0092058219015598297
0.78695565462112427 0.53808498382568359 0.0087913060560822487
0.95373713970184326 0.5200081467628479 0.017299741506576538
1 0.5051192045211792 0.023756274953484535
0.99999803304672241 0.4997192919254303 0.024105655029416084
0.99979871511459351 0.50053215026855469 0.020260978490114212
0.99827933311462402 0.50071334838867188 0.018632343038916588
0.0030703076627105474 0.78539532423019409 0.050580896437168121
0.0046510286629199982 0.78672045469284058 0.055920515209436417
0.00024473899975419044 0.78443676233291626 0.052462365478277206
0.017716292291879654 0.77812713384628296 0.048123214393854141
0.11850674450397491 0.76426011323928833 0.04641374945640564
0.30423703789710999 0.73512363433837891 0.037032421678304672
0.51837509870529175 0.70335590839385986 0.018085764721035957
0.72539663314819336 0.68059790134429932 0.01188583392649889
0.91002398729324341 0.66226887702941895 0.017789280042052269
0.99828505516052246 0.64783781766891479 0.021171329542994499
1 0.64285600185394287 0.018767112866044044
1 0.64312666654586792 0.013159299269318581
0.99960869550704956 0.64142721891403198 0.0095021864399313927
0.0051735076121985912 0.92953062057495117 0.067382499575614929
0.0068357880227267742 0.92929428815841675 0.066104769706726074
0.00010764926264528185 0.92910820245742798 0.063207052648067474
0.00049917184514924884 0.92876958847045898 0.065049156546592712
0.050366092473268509 0.91911613941192627 0.065055817365646362
0.22196364402770996 0.88895308971405029 0.050126273185014725
0.44526520371437073 0.85307139158248901 0.027259796857833862
0.6646919846534729 0.82782971858978271 0.018083998933434486
0.86292797327041626 0.80614578723907471 0.018731106072664261
0.98914569616317749 0.78728783130645752 0.017117399722337723
1 0.78041088581085205 0.011553131975233555
1 0.78078728914260864 0.0052265389822423458
1 0.77865123748779297 0.0018314735498279333
0.0046134949661791325 0.99945199489593506 0.072541601955890656
0.0024021822027862072 0.99939370155334473 0.068034529685974121
7.0010914896556642e-06 0.99942630529403687 0.066985048353672028
0 0.99986213445663452 0.072274558246135712
0.015064733102917671 0.99882572889328003 0.072496809065341949
0.16006633639335632 0.99135935306549072 0.057118374854326248
0.3821815550327301 0.97523534297943115 0.035490956157445908
0.61169230937957764 0.95776575803756714 0.022625133395195007
0.81551158428192139 0.93798315525054932 0.018189853057265282
0.96357715129852295 0.91687685251235962 0.014028167352080345
1 0.9029725193977356 0.0078813293948769569
1 0.9009777307510376 0.0022172217722982168
1 0.8991248607635498 0.00026047651772387326
0.0035689708311110735 1 0.069060035049915314
5.8641621762944851e-06 1 0.06781354546546936
0 1 0.069116316735744476
0 1 0.072743915021419525
0.0063810013234615326 1 0.071653984487056732
0.12686160206794739 1 0.059166207909584045
0.34311696887016296 1 0.040462896227836609
0.5761568546295166 1 0.026858774945139885
0.77834862470626831 0.99887913465499878 0.019483199343085289
0.92961341142654419 0.9934924840927124 0.014122547581791878
0.99800407886505127 0.98488306999206543 0.0081489710137248039
1 0.98379921913146973 0.0022671269252896309
1 0.98447352647781372 0.00015034395619295537
0.0058278250508010387 1 0.069591104984283447
9.0236288087908179e-05 1 0.070014670491218567
0 1 0.07208685576915741
0 1 0.073927275836467743
0.0039117252454161644 1 0.071520052850246429
0.1094847172498703 1 0.05995609238743782
0.31991115212440491 0.99999904632568359 0.043406631797552109
0.55429649353027344 0.9999924898147583 0.030493717640638351
0.75565695762634277 1 0.022705631330609322
0.90943843126296997 1 0.016312766820192337
0.99348384141921997 1 0.0092272292822599411
1 1 0.0023215350229293108
1 1 1.5976849681464955e-05
0.010929033160209656 1 0.075148880481719971
0.0014306162483990192 1 0.07507653534412384
0 1 0.076223976910114288
0 1 0.075456760823726654
0.0061323130503296852 0.99983686208724976 0.071842730045318604
0.10662592202425003 0.99746447801589966 0.060029406100511551
0.30374068021774292 0.99112552404403687 0.042787201702594757
0.52895307540893555 0.98971086740493774 0.030251283198595047
0.72893542051315308 0.99612563848495483 0.02294444665312767
0.88783645629882812 0.9998137354850769 0.015920272096991539
0.98588252067565918 1 0.008561273105442524
1 1 0.0017389933345839381
1 1 0
4.6673944780195598e-06 0 0.21652433276176453
0.033681981265544891 0.00043008840293623507 0.2025286853313446
0.16042186319828033 7.5934913184028119e-05 0.18242049217224121
0.32649356126785278 0 0.15635254979133606
0.51092791557312012 0 0.13914941251277924
0.6985175609588623 0 0.12852492928504944
0.87370681762695312 0 0.11286941170692444
0.98517036437988281 0 0.083858221769332886
1 0.00012154672731412575 0.049572620540857315
0.9987139105796814 0.0019809198565781116 0.038123439997434616
0.99466407299041748 0.0058351554907858372 0.039696265012025833
0.99625641107559204 0.0066730724647641182 0.037277162075042725
0.99962431192398071 0.0010182698024436831 0.033107023686170578
0 0.027470113709568977 0.18320269882678986
0.015433786436915398 0.025071477517485619 0.1696745753288269
0.11999042332172394 0.016165236011147499 0.14866821467876434
0.28451770544052124 0.0058816648088395596 0.12325757741928101
0.47031411528587341 0.00042742560617625713 0.10605223476886749
0.65700829029083252 0 0.094378829002380371
0.84009826183319092 0 0.081883236765861511
0.9761427640914917 0 0.063635282218456268
1 0 0.044926602393388748
0.99996858835220337 0 0.033426817506551743
0.99656873941421509 4.1438083826506045e-06 0.028991250321269035
0.99588710069656372 2.8916902010678314e-05 0.027894951403141022
0.99947100877761841 0 0.026484426110982895
0 0.11756838858127594 0.14421197772026062
0.0037857803981751204 0.10722937434911728 0.13425645232200623
0.083025313913822174 0.090152934193611145 0.1190480962395668
0.23944759368896484 0.068288631737232208 0.099972821772098541
0.42697787284851074 0.042993746697902679 0.079037956893444061
0.61940425634384155 0.02634136751294136 0.061039719730615616
0.81259322166442871 0.017964128404855728 0.055495481938123703
0.96675920486450195 0.01690978929400444 0.051597833633422852
1 0.01388365775346756 0.043285831809043884
1 0.0064418120309710503 0.030160387977957726
0.99963319301605225 0.0012483784230425954 0.017791748046875
0.99636602401733398 0.00021242628281470388 0.013780721463263035
0.99996483325958252 0.00053136487258598208 0.014891785569489002
0 0.2304779589176178 0.10445960611104965
0.00039328780258074403 0.22175584733486176 0.099793091416358948
0.048545777797698975 0.20770515501499176 0.089500531554222107
0.18580524623394012 0.18557325005531311 0.074949301779270172
0.37353187799453735 0.1572907567024231 0.050113916397094727
0.57786554098129272 0.13200373947620392 0.025546249002218246
0.78345531225204468 0.11360880732536316 0.030593527480959892
0.95363610982894897 0.10502501577138901 0.043110296130180359
1 0.092507138848304749 0.041057571768760681
1 0.0720696821808815 0.029062367975711823
0.9994579553604126 0.053493574261665344 0.021729802712798119
0.99590742588043213 0.046315990388393402 0.016589295119047165
0.99923509359359741 0.048892196267843246 0.018650459125638008
7.1372240199707448e-05 0.35746252536773682 0.057269945740699768
0 0.35372912883758545 0.062497455626726151
0.020119985565543175 0.34456548094749451 0.055576503276824951
0.12939812242984772 0.326446533203125 0.042259171605110168
0.30926793813705444 0.30083316564559937 0.020907802507281303
0.52038013935089111 0.27479755878448486 0.0071341120637953281
0.73365169763565063 0.25520443916320801 0.012336461804807186
0.92115646600723267 0.24213139712810516 0.028103413060307503
0.99871826171875 0.22321338951587677 0.030691154301166534
1 0.19948196411132812 0.022301243618130684
0.99652314186096191 0.18259881436824799 0.020918512716889381
0.99227005243301392 0.17936813831329346 0.018159694969654083
0.99830871820449829 0.18311445415019989 0.023306170478463173
0.00071566714905202389 0.49490955471992493 0.024952592328190804
0 0.49486562609672546 0.035632625222206116
0.0047818501479923725 0.48899498581886292 0.027538076043128967
0.080506086349487305 0.47494933009147644 0.015037686564028263
0.24239987134933472 0.45193582773208618 0.003344307653605938
0.45015999674797058 0.42634662985801697 0.00020666683849412948
0.65945202112197876 0.40724167227745056 0.00077514647273346782
0.85507762432098389 0.39220842719078064 0.0060033611953258514
0.98430317640304565 0.37312829494476318 0.015888543799519539
1 0.35356053709983826 0.017769278958439827
0.99599111080169678 0.34272715449333191 0.016134403645992279
0.99078905582427979 0.34463143348693848 0.0099775874987244606
0.996207594871521 0.3482036292552948 0.015677014365792274
0.0017714855493977666 0.63696569204330444 0.017209850251674652
0.00011472515325294808 0.63799756765365601 0.032651159912347794
0.0011482388945296407 0.63508754968643188 0.02685730904340744
0.048191264271736145 0.62514191865921021 0.013843042775988579
0.18329238891601562 0.60453635454177856 0.0066152536310255527
0.38087376952171326 0.57705974578857422 0.0022688023746013641
0.58922803401947021 0.5543287992477417 0.00018760831153485924
0.79249405860900879 0.537212073802948 0.00056517357006669044
0.96084171533584595 0.51980900764465332 0.012614231556653976
1 0.50409185886383057 0.020535772666335106
0.99949818849563599 0.49731454253196716 0.018781490623950958
0.99758672714233398 0.49980592727661133 0.0076585807837545872
0.99588501453399658 0.50075602531433105 0.0071093840524554253
0.0024261474609375 0.78377348184585571 0.035205766558647156
0.0021013147197663784 0.78347831964492798 0.048188526183366776
6.2680708651896566e-05 0.78402650356292725 0.042467407882213593
0.019261064007878304 0.77986478805541992 0.030880901962518692
0.1208210363984108 0.76272517442703247 0.030207375064492226
0.30482116341590881 0.73117882013320923 0.021497000008821487
0.51798176765441895 0.70130056142807007 0.0050035365857183933
