assets/lut/ericellerbrock yellowstone.cube
# Created by: G'MIC (https://gmic.eu)
TITLE "yellowstone"
# LUT size
LUT_3D_SIZE 7
# Data domain
DOMAIN_MIN 0.0 0.0 0.0
DOMAIN_MAX 1.0 1.0 1.0
# LUT data points
2.8004365958622657e-05 0.00013786765339318663 0.00040236828499473631
0.07585626095533371 0.015772232785820961 0.001403120462782681
0.32540702819824219 0.050716925412416458 0.0042347176931798458
0.64368593692779541 0.10239113867282867 0.033284131437540054
0.90146595239639282 0.17584136128425598 0.054457660764455795
0.91368061304092407 0.18039216101169586 0.054901961237192154
0.91372549533843994 0.18039216101169586 0.054901961237192154
0 0.041660487651824951 0.0074566411785781384
0.046246189624071121 0.049437534064054489 0.0068557891063392162
0.30589330196380615 0.07437916100025177 0.0045226151123642921
0.61066257953643799 0.10515910387039185 0.023964392021298409
0.90041571855545044 0.17883975803852081 0.053333058953285217
0.91474413871765137 0.1843281090259552 0.053833562880754471
0.91597175598144531 0.18623162806034088 0.0531807541847229
0 0.15401722490787506 0.01687074638903141
0.0045485254377126694 0.15410497784614563 0.012374773621559143
0.27540433406829834 0.15233272314071655 0.00019244026043452322
0.66015684604644775 0.20277638733386993 0.021198974922299385
0.95088320970535278 0.32077884674072266 0.01778157614171505
0.96876239776611328 0.32956123352050781 0.020580993965268135
0.97179722785949707 0.33518403768539429 0.019203200936317444
0.0021020479034632444 0.29840889573097229 0.021848162636160851
0.0062095490284264088 0.31012675166130066 0.023881815373897552
0.16611969470977783 0.35357087850570679 0.015286030247807503
0.66935479640960693 0.33760088682174683 0.022236304357647896
0.93294495344161987 0.42414161562919617 0.026428312063217163
0.99628883600234985 0.47854170203208923 0.033197470009326935
0.99694979190826416 0.48235294222831726 0.03332049772143364
0.03787091001868248 0.51743710041046143 0.056249998509883881
0.037895023822784424 0.51639777421951294 0.056199435144662857
0.12037802487611771 0.52090221643447876 0.048198040574789047
0.5990833044052124 0.62970608472824097 0.054611776024103165
0.89925682544708252 0.58704251050949097 0.051603682339191437
0.99424982070922852 0.62326347827911377 0.065124839544296265
1 0.63931834697723389 0.072323277592658997
0.078211463987827301 0.6528172492980957 0.086274512112140656
0.08222382515668869 0.65379434823989868 0.086210183799266815
0.18962179124355316 0.68032187223434448 0.075188547372817993
0.63824725151062012 0.78070837259292603 0.068422205746173859
0.87422728538513184 0.82335966825485229 0.098483622074127197
0.98848789930343628 0.76619118452072144 0.097179576754570007
1 0.77245855331420898 0.11436628550291061
0.08046519011259079 0.65490198135375977 0.086656458675861359
0.14262957870960236 0.67466771602630615 0.08302721381187439
0.46824154257774353 0.77006232738494873 0.086014389991760254
0.77056205272674561 0.87823009490966797 0.15268786251544952
0.91711121797561646 0.92290526628494263 0.21806485950946808
0.98451393842697144 0.92093449831008911 0.25518655776977539
0.99978762865066528 0.91905820369720459 0.33224344253540039
0 0.0073490515351295471 0.060913819819688797
0.030984722077846527 0.021989142522215843 0.051406800746917725
0.30124461650848389 0.059827812016010284 0.044123467057943344
0.63006937503814697 0.11480098217725754 0.051732365041971207
0.89647758007049561 0.18007384240627289 0.059223487973213196
0.91345560550689697 0.18539425730705261 0.057880252599716187
0.91538530588150024 0.18639117479324341 0.058834780007600784
0 0.044809348881244659 0.053596794605255127
0.021603858098387718 0.0452614426612854 0.045060370117425919
0.28627318143844604 0.071642450988292694 0.03077412024140358
0.61764812469482422 0.11229192465543747 0.03295585885643959
0.90269094705581665 0.18410342931747437 0.054269079118967056
0.91594105958938599 0.18920177221298218 0.056800588965415955
0.9175611138343811 0.19181448221206665 0.055249817669391632
0 0.16511525213718414 0.04709312692284584
0.0085439197719097137 0.16444095969200134 0.028028735890984535
0.28113934397697449 0.15801440179347992 0.0035707810893654823
0.67369204759597778 0.21347753703594208 0.021222507581114769
0.95683944225311279 0.32877597212791443 0.020612200722098351
0.97009783983230591 0.333966463804245 0.02182769775390625
0.970794677734375 0.34399509429931641 0.024255445227026939
0.0075446334667503834 0.31294038891792297 0.03224804624915123
0.007094155065715313 0.31952157616615295 0.034641221165657043
0.17238575220108032 0.35973882675170898 0.018055740743875504
0.67916840314865112 0.33717736601829529 0.021314134821295738
0.9345782995223999 0.42525732517242432 0.026877444237470627
0.99577146768569946 0.4802229106426239 0.034921266138553619
0.99436271190643311 0.48338860273361206 0.03713684156537056
0.037458814680576324 0.52200055122375488 0.058554030954837799
0.037749167531728745 0.51596516370773315 0.058642968535423279
0.11881548166275024 0.52200973033905029 0.049652323126792908
0.59943753480911255 0.63178426027297974 0.053825497627258301
0.90204501152038574 0.59068208932876587 0.052791401743888855
0.9940076470375061 0.62515884637832642 0.066555917263031006
1 0.64096182584762573 0.074713431298732758
0.078231364488601685 0.65316343307495117 0.088145188987255096
0.078958712518215179 0.64889985322952271 0.090092107653617859
0.21603849530220032 0.68177789449691772 0.076600365340709686
0.63872671127319336 0.78115200996398926 0.069395847618579865
0.87503421306610107 0.82652640342712402 0.10265423357486725
0.98992621898651123 0.76945596933364868 0.10593873262405396
1 0.80155324935913086 0.1503472775220871
0.078511498868465424 0.65480083227157593 0.095455482602119446
0.11364214867353439 0.67760783433914185 0.13596063852310181
0.46838223934173584 0.80675983428955078 0.21111714839935303
0.77399545907974243 0.89731287956237793 0.30640780925750732
0.91814285516738892 0.93177098035812378 0.32951834797859192
0.98163741827011108 0.92878210544586182 0.34702208638191223
1 0.93027669191360474 0.48498305678367615
0 0.068286940455436707 0.20052750408649445
0.013925604522228241 0.075766213238239288 0.18816360831260681
0.17370800673961639 0.092950232326984406 0.15340577065944672
0.55143988132476807 0.15284700691699982 0.14874832332134247
0.9134412407875061 0.25218644738197327 0.13796454668045044
0.92409694194793701 0.24816705286502838 0.12347611039876938
0.92625325918197632 0.25712978839874268 0.13704691827297211
0 0.085107423365116119 0.19587038457393646
0.0060757952742278576 0.08401942253112793 0.18656279146671295
0.16217730939388275 0.099571853876113892 0.15235643088817596
0.53735125064849854 0.15218663215637207 0.14027287065982819
0.92240208387374878 0.25426420569419861 0.12878412008285522
0.92970085144042969 0.25718718767166138 0.12461130321025848
0.92301374673843384 0.27142351865768433 0.14371103048324585
0 0.16082149744033813 0.18683880567550659
0.00071276497328653932 0.17296656966209412 0.19976609945297241
0.16783860325813293 0.213973268866539 0.1910141259431839
0.64000016450881958 0.27497908473014832 0.14919492602348328
0.96201616525650024 0.39409664273262024 0.12122476845979691
0.97527557611465454 0.39325028657913208 0.11362665146589279
0.97518599033355713 0.40630009770393372 0.1272902637720108
0.00572942104190588 0.36944591999053955 0.19091905653476715
0.0078011606819927692 0.3901570737361908 0.21598662436008453
0.11336818337440491 0.40265893936157227 0.16317929327487946
0.64919388294219971 0.37143248319625854 0.058036100119352341
0.93571418523788452 0.46049049496650696 0.063314773142337799
0.99708592891693115 0.50252938270568848 0.063891813158988953
0.99809789657592773 0.51369994878768921 0.071106091141700745
0.038238897919654846 0.54597270488739014 0.15080764889717102
0.036055754870176315 0.54778963327407837 0.14623558521270752
0.088132612407207489 0.53303706645965576 0.10792616009712219
0.57185763120651245 0.6342155933380127 0.05993010476231575
0.89502322673797607 0.5842321515083313 0.056220125406980515
0.99729949235916138 0.63387525081634521 0.082022756338119507
1 0.66329455375671387 0.10276773571968079
0.079042129218578339 0.65311193466186523 0.15443965792655945
0.079139471054077148 0.65491867065429688 0.16631682217121124
0.16701246798038483 0.68664848804473877 0.17665986716747284
0.6203036904335022 0.78863692283630371 0.13151635229587555
0.86990708112716675 0.84233999252319336 0.14904153347015381
0.98519712686538696 0.80994069576263428 0.16414588689804077
1 0.8388437032699585 0.23319786787033081
0.079480685293674469 0.69585943222045898 0.32459279894828796
0.10621128231287003 0.73794025182723999 0.42305481433868408
0.38311755657196045 0.83958512544631958 0.41727599501609802
0.74348336458206177 0.90479570627212524 0.44669443368911743
0.91398990154266357 0.94070512056350708 0.49726766347885132
0.98321026563644409 0.94308662414550781 0.52538716793060303
0.99990808963775635 0.94328582286834717 0.63384169340133667
0.0024190566036850214 0.1554124504327774 0.38848793506622314
0.01396623533219099 0.15620535612106323 0.37067067623138428
0.059783667325973511 0.1689436286687851 0.33436015248298645
0.41005918383598328 0.20287303626537323 0.26550784707069397
0.85679274797439575 0.33426925539970398 0.30285736918449402
0.87593454122543335 0.33898076415061951 0.30082851648330688
0.87647056579589844 0.34140527248382568 0.30479037761688232
0.0017094032373279333 0.16954246163368225 0.38801786303520203
0.0053568221628665924 0.16708081960678101 0.373841792345047
0.057583842426538467 0.17247334122657776 0.33590909838676453
0.39251983165740967 0.20067860186100006 0.26617223024368286
0.8509717583656311 0.33470979332923889 0.30427810549736023
0.87519323825836182 0.34264993667602539 0.30511114001274109
0.87618422508239746 0.35004028677940369 0.31486707925796509
0.0051197577267885208 0.20856779813766479 0.38892087340354919
0.0032083699479699135 0.20829835534095764 0.38763263821601868
0.070243403315544128 0.25981399416923523 0.43775197863578796
0.47436574101448059 0.34757229685783386 0.38015523552894592
0.9060482382774353 0.48629745841026306 0.42863386869430542
0.93156003952026367 0.48875603079795837 0.41990381479263306
0.93448764085769653 0.49600237607955933 0.42622631788253784
0.01929900236427784 0.32900005578994751 0.42875900864601135
0.021286608651280403 0.33717331290245056 0.44097891449928284
0.05476481094956398 0.38048437237739563 0.47413495182991028
0.4290626049041748 0.49940735101699829 0.45507892966270447
0.88954430818557739 0.60331964492797852 0.43775701522827148
0.98800182342529297 0.63606917858123779 0.42523473501205444
0.98931318521499634 0.63850700855255127 0.42672368884086609
0.080935247242450714 0.68710869550704956 0.66902714967727661
0.079882919788360596 0.67980563640594482 0.66381639242172241
0.082540743052959442 0.66742891073226929 0.62782484292984009
0.34841370582580566 0.67402952909469604 0.41927310824394226
0.85462659597396851 0.71247333288192749 0.28298279643058777
0.98652881383895874 0.75449913740158081 0.33840125799179077
0.99759680032730103 0.77144801616668701 0.40008160471916199
0.10529483109712601 0.80027765035629272 0.69172602891921997
0.10559871792793274 0.81151723861694336 0.70749872922897339
0.12460614740848541 0.79994392395019531 0.6753806471824646
0.48582658171653748 0.81614238023757935 0.48915946483612061
0.83479350805282593 0.86765021085739136 0.4293830394744873
0.97385787963867188 0.86630731821060181 0.38303980231285095
0.99858015775680542 0.88074380159378052 0.5190926194190979
0.11602660268545151 0.82744878530502319 0.79619652032852173
0.12734559178352356 0.8307681679725647 0.81909811496734619
0.24101167917251587 0.88174986839294434 0.81157416105270386
0.72889399528503418 0.92751693725585938 0.67471921443939209
0.90656834840774536 0.94762730598449707 0.69517785310745239
0.97574174404144287 0.95251810550689697 0.71605414152145386
0.99712967872619629 0.95324033498764038 0.78235656023025513
0.024631889536976814 0.28533601760864258 0.64430052042007446
0.035736609250307083 0.29246640205383301 0.64531791210174561
0.063931256532669067 0.28775802254676819 0.59697180986404419
0.19872504472732544 0.32127514481544495 0.54622220993041992
0.8012276291847229 0.39685219526290894 0.43987521529197693
0.8305477499961853 0.39321240782737732 0.42617091536521912
0.83173125982284546 0.39211246371269226 0.42346599698066711
0.025188401341438293 0.29874724149703979 0.65012931823730469
0.028176162391901016 0.29658776521682739 0.64672660827636719
0.060723967850208282 0.29042527079582214 0.59833616018295288
0.18889516592025757 0.31737151741981506 0.54129892587661743
0.80159372091293335 0.40334951877593994 0.44937342405319214
0.82798010110855103 0.40655535459518433 0.45020994544029236
0.82436031103134155 0.41887292265892029 0.47045066952705383
0.030959364026784897 0.32800701260566711 0.63694310188293457
0.036767367273569107 0.33336460590362549 0.64527285099029541
0.076546564698219299 0.37398320436477661 0.69432735443115234
0.24782778322696686 0.42835593223571777 0.66301047801971436
0.85001355409622192 0.54009217023849487 0.59887027740478516
0.87969160079956055 0.54359382390975952 0.58947604894638062
0.88667923212051392 0.54638493061065674 0.58915430307388306
0.041699443012475967 0.37636181712150574 0.63724946975708008
0.044689372181892395 0.38372039794921875 0.65058040618896484
0.068496778607368469 0.40576949715614319 0.67099004983901978
0.23914036154747009 0.49938100576400757 0.7124907374382019
0.82420521974563599 0.64763063192367554 0.66492593288421631
0.94720053672790527 0.68530946969985962 0.67100191116333008
0.95275777578353882 0.68777227401733398 0.6751982569694519
0.075064867734909058 0.54615223407745361 0.71105766296386719
0.074948333203792572 0.54766672849655151 0.71373552083969116
0.080377213656902313 0.53699856996536255 0.69124007225036621
0.20045401155948639 0.62835776805877686 0.73918724060058594
0.7974165678024292 0.77590829133987427 0.68486922979354858
0.96188241243362427 0.80500370264053345 0.68713396787643433
0.9906502366065979 0.82352328300476074 0.70067662000656128
0.11583375930786133 0.74103307723999023 0.83639580011367798
0.11590688675642014 0.73849397897720337 0.83278101682662964
0.13250407576560974 0.74064600467681885 0.8210521936416626
0.28070184588432312 0.81215548515319824 0.83172082901000977
0.81094986200332642 0.88188672065734863 0.71052557229995728
0.95303118228912354 0.8951917290687561 0.70958989858627319
0.99419891834259033 0.90746772289276123 0.75579965114593506
0.11822632700204849 0.73987913131713867 0.84574395418167114
0.12473059445619583 0.74179738759994507 0.84613525867462158
0.21115723252296448 0.81657606363296509 0.89244014024734497
0.57806235551834106 0.9226759672164917 0.87018066644668579
0.88125026226043701 0.95128053426742554 0.81685537099838257
0.96203303337097168 0.95589631795883179 0.8317331075668335
0.99135702848434448 0.96024942398071289 0.85419350862503052
0.031176129356026649 0.30980393290519714 0.69404762983322144
0.037941966205835342 0.31176358461380005 0.68686532974243164
0.070512138307094574 0.32351410388946533 0.66589486598968506
0.17157123982906342 0.36478638648986816 0.65243387222290039
0.76431465148925781 0.46441733837127686 0.58236455917358398
0.79296696186065674 0.46947118639945984 0.58161276578903198
0.79612934589385986 0.47005173563957214 0.58273738622665405
0.031862746924161911 0.32673051953315735 0.70515161752700806
0.032600641250610352 0.31959155201911926 0.69881546497344971
0.069421686232089996 0.32920247316360474 0.67651009559631348
0.16093002259731293 0.36518201231956482 0.6561475396156311
0.76884138584136963 0.46759334206581116 0.58542877435684204
0.79643392562866211 0.47206422686576843 0.58431649208068848
0.79739665985107422 0.47232586145401001 0.5849679708480835
0.045663151890039444 0.38225910067558289 0.73928546905517578
0.048527572304010391 0.38373365998268127 0.74229860305786133
0.088947668671607971 0.42223435640335083 0.78159439563751221
0.22272957861423492 0.47739836573600769 0.77977883815765381
0.81697458028793335 0.5661996603012085 0.7073860764503479
0.85064107179641724 0.56725960969924927 0.69221562147140503
0.85640162229537964 0.56842917203903198 0.68524366617202759
0.064354002475738525 0.45565170049667358 0.77888780832290649
0.063843913376331329 0.44956734776496887 0.77596700191497803
0.088134020566940308 0.47306329011917114 0.80051583051681519
0.21964356303215027 0.54730647802352905 0.83814579248428345
0.75706952810287476 0.67099404335021973 0.80949616432189941
0.91401183605194092 0.69869357347488403 0.77903783321380615
0.92581349611282349 0.70191013813018799 0.77886021137237549
0.083588890731334686 0.54557710886001587 0.80538570880889893
0.086083672940731049 0.54517942667007446 0.81324541568756104
0.090065747499465942 0.53528964519500732 0.7945019006729126
0.21594767272472382 0.61189156770706177 0.83070319890975952
0.72915935516357422 0.7801627516746521 0.84105247259140015
0.93743795156478882 0.82092201709747314 0.8175545334815979
0.9787975549697876 0.83756071329116821 0.82581889629364014
0.10953956842422485 0.66233116388320923 0.84935218095779419
0.10923212021589279 0.66062557697296143 0.84432756900787354
0.13087527453899384 0.66007322072982788 0.83739995956420898
0.26940006017684937 0.73719555139541626 0.86630761623382568
0.75499719381332397 0.87662369012832642 0.85089278221130371
0.93374037742614746 0.90748763084411621 0.82994312047958374
0.98649805784225464 0.92021340131759644 0.84772002696990967
0.11372549086809158 0.67390364408493042 0.84863090515136719
0.12071581184864044 0.68166118860244751 0.85316038131713867
0.19924730062484741 0.75388151407241821 0.89646053314208984
0.53094744682312012 0.88597118854522705 0.93027973175048828
0.88076174259185791 0.95923173427581787 0.88705521821975708
0.95563989877700806 0.95617413520812988 0.87293869256973267
0.9840855598449707 0.9630732536315918 0.89038461446762085
0.029540792107582092 0.30980393290519714 0.69411766529083252
0.039043277502059937 0.31251311302185059 0.68929612636566162
0.073262892663478851 0.32503730058670044 0.6668817400932312
0.19231654703617096 0.37426099181175232 0.65835845470428467
0.75803893804550171 0.46458932757377625 0.58288383483886719
0.78499680757522583 0.46973142027854919 0.58249759674072266
0.79534316062927246 0.47070959210395813 0.58431375026702881
0.030975162982940674 0.32271170616149902 0.70258587598800659
0.040254943072795868 0.32101938128471375 0.69402420520782471
0.069792263209819794 0.32919436693191528 0.67810767889022827
0.16778810322284698 0.36755365133285522 0.65784668922424316
0.77489006519317627 0.47011050581932068 0.58847188949584961
0.79082798957824707 0.47449365258216858 0.58917152881622314
0.79680126905441284 0.47542920708656311 0.58931434154510498
0.045564480125904083 0.38169705867767334 0.74087643623352051
0.056900922209024429 0.39438831806182861 0.75534665584564209
0.093428172171115875 0.42758667469024658 0.78467279672622681
0.2287551611661911 0.48157492280006409 0.78143191337585449
0.81253969669342041 0.56805074214935303 0.715492844581604
0.84695297479629517 0.56789040565490723 0.69574278593063354
0.85558360815048218 0.56919533014297485 0.69818192720413208
0.064705885946750641 0.45627161860466003 0.7861449122428894
0.068918175995349884 0.46035480499267578 0.7918505072593689
0.094606347382068634 0.48363068699836731 0.81294184923171997
0.20830526947975159 0.5516853928565979 0.85587888956069946
0.73207640647888184 0.68795335292816162 0.85546761751174927
0.91147005558013916 0.69476354122161865 0.81587392091751099
0.916861891746521 0.69735896587371826 0.81645947694778442
0.087869979441165924 0.55738919973373413 0.83492296934127808
0.088521279394626617 0.55513983964920044 0.83412176370620728
0.097045421600341797 0.54841583967208862 0.83454477787017822
0.19291743636131287 0.61865520477294922 0.88388925790786743
0.67622256278991699 0.784942626953125 0.90339505672454834
0.91600525379180908 0.82421028614044189 0.87009447813034058
0.96604686975479126 0.83827453851699829 0.87658876180648804
0.10839460790157318 0.64531296491622925 0.86266505718231201
0.11228162050247192 0.64527255296707153 0.8687131404876709
0.13286484777927399 0.64996516704559326 0.87712579965591431
0.29694214463233948 0.72578400373458862 0.9001346230506897
0.75563472509384155 0.87050706148147583 0.90768438577651978
0.92651283740997314 0.91567641496658325 0.88544875383377075
0.97833049297332764 0.92682552337646484 0.88866633176803589
0.11093712598085403 0.65211009979248047 0.86666667461395264
0.11861860752105713 0.65703123807907104 0.87185066938400269
0.22041735053062439 0.74789309501647949 0.91681587696075439
0.594432532787323 0.87825846672058105 0.94023048877716064
0.88384342193603516 0.95736873149871826 0.91777884960174561
0.94819110631942749 0.95631235837936401 0.89950072765350342
0.9716838002204895 0.94964504241943359 0.89426702260971069
