assets/lut/films colorslide polaroid polachrome.cube
# Created by: G'MIC (https://gmic.eu)
TITLE "polaroid_polachrome"
# LUT size
LUT_3D_SIZE 13
# Data domain
DOMAIN_MIN 0.0 0.0 0.0
DOMAIN_MAX 1.0 1.0 1.0
# LUT data points
0.0080241039395332336 0.0061272117309272289 0.0067559336312115192
0.037905074656009674 0.010383620858192444 0.013561517931520939
0.082464195787906647 0.020173570141196251 0.02573140524327755
0.14223736524581909 0.035273801535367966 0.040630191564559937
0.21796269714832306 0.051898866891860962 0.055655192583799362
0.31073763966560364 0.072369426488876343 0.07397625595331192
0.42320024967193604 0.097084075212478638 0.099781140685081482
0.53471463918685913 0.1212911382317543 0.12477953732013702
0.62574297189712524 0.14010374248027802 0.14169546961784363
0.70024138689041138 0.15494745969772339 0.15337921679019928
0.76436543464660645 0.16827429831027985 0.16344375908374786
0.8204919695854187 0.18071675300598145 0.17275942862033844
0.86980694532394409 0.19162222743034363 0.18139171600341797
0.03389701247215271 0.050180606544017792 0.022122208029031754
0.058463241904973984 0.054249212145805359 0.029560808092355728
0.098906360566616058 0.06338220089673996 0.03964640200138092
0.15805189311504364 0.077409707009792328 0.054054662585258484
0.23235912621021271 0.094607695937156677 0.06932956725358963
0.32344347238540649 0.11546992510557175 0.087562143802642822
0.43126016855239868 0.13929428160190582 0.1106128916144371
0.53869867324829102 0.16183729469776154 0.13404695689678192
0.6301538348197937 0.17935214936733246 0.15155991911888123
0.70556777715682983 0.19211119413375854 0.16346061229705811
0.76930743455886841 0.20183824002742767 0.17309781908988953
0.8245241641998291 0.20994208753108978 0.18138295412063599
0.87280744314193726 0.21851533651351929 0.18837310373783112
0.069623284041881561 0.11025484651327133 0.043226849287748337
0.086722217500209808 0.11247358471155167 0.04975375160574913
0.12092810124158859 0.11971122771501541 0.058291088789701462
0.17956182360649109 0.13214306533336639 0.072603695094585419
0.25621864199638367 0.14828646183013916 0.088130280375480652
0.34743508696556091 0.16927109658718109 0.10510189831256866
0.44942983984947205 0.1912989616394043 0.12601713836193085
0.54955780506134033 0.21103407442569733 0.14624197781085968
0.63704425096511841 0.22648517787456512 0.16203345358371735
0.71107083559036255 0.23671592772006989 0.17348030209541321
0.77456581592559814 0.24229341745376587 0.18228605389595032
0.82901817560195923 0.24531006813049316 0.18987804651260376
0.87622255086898804 0.25121825933456421 0.19609855115413666
0.099678546190261841 0.18465839326381683 0.06532694399356842
0.11224816739559174 0.18790403008460999 0.071950115263462067
0.14345683157444 0.19514113664627075 0.081223733723163605
0.20146551728248596 0.20646071434020996 0.093501009047031403
0.28107976913452148 0.22129638493061066 0.1078699454665184
0.37460237741470337 0.23989459872245789 0.12461356073617935
0.47413527965545654 0.25906318426132202 0.14398816227912903
0.56753051280975342 0.27576369047164917 0.16118928790092468
0.64906930923461914 0.28855153918266296 0.17431658506393433
0.72008401155471802 0.29678535461425781 0.18409581482410431
0.78352099657058716 0.29993680119514465 0.19226104021072388
0.83872807025909424 0.29889401793479919 0.19980157911777496
0.88412350416183472 0.30205753445625305 0.20492641627788544
0.10176945477724075 0.27422341704368591 0.087146446108818054
0.12073364108800888 0.27801400423049927 0.094911567866802216
0.15723375976085663 0.2854883074760437 0.10458271950483322
0.22055746614933014 0.2970585823059082 0.11400644481182098
0.3050442636013031 0.31176197528839111 0.12686015665531158
0.40192082524299622 0.32847917079925537 0.14384405314922333
0.49977961182594299 0.34522584080696106 0.16182984411716461
0.58717554807662964 0.35973009467124939 0.17554754018783569
0.66296178102493286 0.36888498067855835 0.18733212351799011
0.73156839609146118 0.37649178504943848 0.19573639333248138
0.79677838087081909 0.37957644462585449 0.20321054756641388
0.85365164279937744 0.37856209278106689 0.20966002345085144
0.89657139778137207 0.38204550743103027 0.21182228624820709
0.093475043773651123 0.37117007374763489 0.11123371869325638
0.12375011295080185 0.37511321902275085 0.11858013272285461
0.17163926362991333 0.38231489062309265 0.12704342603683472
0.24226449429988861 0.39435979723930359 0.13429687917232513
0.33036306500434875 0.40973025560379028 0.14584438502788544
0.42692115902900696 0.42657655477523804 0.16210202872753143
0.52055263519287109 0.44392651319503784 0.17657263576984406
0.60301268100738525 0.45832851529121399 0.18779265880584717
0.67430227994918823 0.46585473418235779 0.19885146617889404
0.74077916145324707 0.47355961799621582 0.20689468085765839
0.80683666467666626 0.47616475820541382 0.21308805048465729
0.86411595344543457 0.47662946581840515 0.21645358204841614
0.90517383813858032 0.48087620735168457 0.21548543870449066
0.10234478116035461 0.46471834182739258 0.14108957350254059
0.14385679364204407 0.46830281615257263 0.1459183394908905
0.20176860690116882 0.47480258345603943 0.15206338465213776
0.27505141496658325 0.4864804744720459 0.15901325643062592
0.36092433333396912 0.50171375274658203 0.170034259557724
0.4521712064743042 0.51885783672332764 0.18443618714809418
0.53849518299102783 0.53555607795715332 0.19590167701244354
0.61535555124282837 0.55057686567306519 0.20464238524436951
0.68313395977020264 0.5611075758934021 0.2134132981300354
0.74747520685195923 0.57012671232223511 0.21981866657733917
0.81174546480178833 0.57300251722335815 0.22353693842887878
0.86672788858413696 0.57581871747970581 0.22313804924488068
0.90799462795257568 0.58076494932174683 0.2206929475069046
0.14797405898571014 0.54646438360214233 0.17645052075386047
0.19248178601264954 0.54990988969802856 0.17890281975269318
0.25080305337905884 0.55544686317443848 0.18377937376499176
0.31977710127830505 0.56542980670928955 0.19109150767326355
0.39743822813034058 0.57899957895278931 0.20176571607589722
0.47826549410820007 0.59424227476119995 0.21368516981601715
0.55595600605010986 0.60880547761917114 0.2233431488275528
0.62710577249526978 0.62242287397384644 0.23079317808151245
0.69288933277130127 0.63475912809371948 0.23722569644451141
0.75680553913116455 0.64475512504577637 0.24111208319664001
0.81925868988037109 0.6512189507484436 0.2416951060295105
0.87350976467132568 0.65755963325500488 0.23918281495571136
0.91655969619750977 0.66368979215621948 0.23586086928844452
0.22818230092525482 0.61518913507461548 0.21574994921684265
0.26543962955474854 0.61901402473449707 0.21696040034294128
0.31430250406265259 0.62370079755783081 0.22116944193840027
0.37219938635826111 0.63196372985839844 0.22867631912231445
0.43712151050567627 0.64317613840103149 0.23894572257995605
0.50575405359268188 0.65575432777404785 0.24934735894203186
0.57389956712722778 0.66812390089035034 0.25831907987594604
0.63954430818557739 0.68034559488296509 0.26496216654777527
0.70305275917053223 0.69209212064743042 0.26947799324989319
0.76606231927871704 0.70236855745315552 0.2706637978553772
0.82820332050323486 0.71138370037078857 0.26858940720558167
0.88474768400192261 0.71971726417541504 0.26462167501449585
0.93010681867599487 0.72659927606582642 0.2607654333114624
0.31690165400505066 0.67607647180557251 0.25902825593948364
0.34418734908103943 0.67986243963241577 0.26039445400238037
0.38077029585838318 0.68364417552947998 0.26404526829719543
0.42574474215507507 0.69048100709915161 0.27074769139289856
0.47754114866256714 0.69972372055053711 0.2804470956325531
0.53409361839294434 0.70997816324234009 0.29044950008392334
0.59290784597396851 0.72049921751022339 0.29913774132728577
0.65257525444030762 0.73121088743209839 0.30556437373161316
0.71249103546142578 0.74170351028442383 0.30857831239700317
0.77346020936965942 0.75230389833450317 0.30685549974441528
0.8341715931892395 0.76243078708648682 0.30156314373016357
0.89033693075180054 0.77194952964782715 0.29477012157440186
0.93626552820205688 0.78034013509750366 0.28865715861320496
0.39197087287902832 0.73289549350738525 0.3099370002746582
0.41336220502853394 0.73639893531799316 0.31016698479652405
0.4402194619178772 0.74029964208602905 0.3120434582233429
0.47431600093841553 0.74570655822753906 0.31724411249160767
0.51549112796783447 0.75303089618682861 0.32529804110527039
0.56214255094528198 0.76124823093414307 0.33452582359313965
0.61267757415771484 0.7699657678604126 0.34333178400993347
0.66638636589050293 0.77932906150817871 0.35006088018417358
0.72205358743667603 0.78911119699478149 0.35258567333221436
0.78015631437301636 0.79938626289367676 0.34891927242279053
0.83814370632171631 0.81042742729187012 0.33978527784347534
0.89215761423110962 0.82154721021652222 0.32852137088775635
0.93857532739639282 0.83132088184356689 0.31938084959983826
0.45088416337966919 0.78794586658477783 0.36482566595077515
0.46940964460372925 0.79151636362075806 0.36270886659622192
0.49020394682884216 0.7949557900428772 0.36225271224975586
0.51689666509628296 0.79956275224685669 0.36494386196136475
0.55049294233322144 0.80525898933410645 0.3711303174495697
0.58983665704727173 0.81179416179656982 0.37931272387504578
0.6341865062713623 0.81912410259246826 0.38802778720855713
0.68182092905044556 0.82735538482666016 0.39553689956665039
0.73311680555343628 0.83654242753982544 0.39857333898544312
0.78836220502853394 0.84687823057174683 0.39370164275169373
0.84528851509094238 0.85879033803939819 0.38105827569961548
0.8993954062461853 0.870807945728302 0.36629363894462585
0.9474174976348877 0.88168656826019287 0.3550775945186615
0.49897664785385132 0.84261316061019897 0.41642042994499207
0.51509356498718262 0.84584516286849976 0.41277521848678589
0.53257185220718384 0.84934115409851074 0.41039386391639709
0.55497878789901733 0.85323637723922729 0.41106107831001282
0.58383339643478394 0.85798543691635132 0.41547423601150513
0.61781758069992065 0.8632691502571106 0.42225202918052673
0.65720200538635254 0.86969530582427979 0.43033754825592041
0.70050668716430664 0.87702929973602295 0.43776500225067139
0.74798375368118286 0.88560968637466431 0.44197255373001099
0.80079400539398193 0.89617913961410522 0.43566465377807617
0.85724008083343506 0.90849471092224121 0.42126926779747009
0.91182559728622437 0.92121249437332153 0.40477755665779114
0.96111947298049927 0.93286705017089844 0.39246371388435364
0.01745331659913063 0.014399105682969093 0.046129129827022552
0.054075382649898529 0.020182531327009201 0.056057784706354141
0.10520678013563156 0.03076476976275444 0.069809332489967346
0.16768378019332886 0.044877458363771439 0.085179917514324188
0.24397449195384979 0.061661992222070694 0.10120222717523575
0.33664822578430176 0.082117177546024323 0.11962629109621048
0.44249531626701355 0.1056644394993782 0.14170584082603455
0.54647976160049438 0.12846899032592773 0.16260595619678497
0.63467609882354736 0.14670400321483612 0.17713877558708191
0.7084808349609375 0.16108135879039764 0.18645568192005157
0.7725256085395813 0.17291034758090973 0.19335150718688965
0.82879328727722168 0.18331253528594971 0.19969935715198517
0.87746328115463257 0.19148355722427368 0.20672981441020966
0.042118534445762634 0.061957325786352158 0.064595781266689301
0.072455674409866333 0.0669211745262146 0.071737416088581085
0.12178404629230499 0.076883278787136078 0.083876483142375946
0.18256393074989319 0.090568870306015015 0.0984816774725914
0.25650706887245178 0.10698780417442322 0.11348096281290054
0.347004234790802 0.126827672123909 0.13113369047641754
0.44989421963691711 0.14887671172618866 0.15252770483493805
0.55111485719680786 0.16978064179420471 0.17319287359714508
0.63870948553085327 0.18663834035396576 0.18806681036949158
0.71198803186416626 0.19858166575431824 0.197543665766716
0.77461624145507812 0.20682883262634277 0.20367780327796936
0.82959163188934326 0.21322306990623474 0.20875431597232819
0.87710380554199219 0.22014926373958588 0.2146013081073761
0.075493216514587402 0.12257453799247742 0.084748148918151855
0.099369540810585022 0.12560689449310303 0.091512508690357208
0.14112271368503571 0.13470354676246643 0.1025136336684227
0.20042070746421814 0.14722369611263275 0.11594709753990173
0.27453050017356873 0.16217619180679321 0.13002367317676544
0.36375018954277039 0.1811937689781189 0.14614446461200714
0.46372196078300476 0.20120424032211304 0.16616994142532349
0.56020992994308472 0.21975249052047729 0.18562664091587067
0.64434897899627686 0.23452004790306091 0.19970613718032837
0.71556073427200317 0.24430449306964874 0.20838086307048798
0.77733415365219116 0.2487383633852005 0.21400667726993561
0.83134573698043823 0.25050941109657288 0.21848291158676147
0.87782120704650879 0.25543531775474548 0.22332997620105743
0.10591429471969604 0.197244793176651 0.10728859901428223
0.12587539851665497 0.20051126182079315 0.11480572074651718
0.16068889200687408 0.20889383554458618 0.12489467114210129
0.21794582903385162 0.21985407173633575 0.13632263243198395
0.29485771059989929 0.23354931175708771 0.14923493564128876
0.38560959696769714 0.25113785266876221 0.16351808607578278
0.48383685946464539 0.26893270015716553 0.1825973242521286
0.57589608430862427 0.28470045328140259 0.20032911002635956
0.65460997819900513 0.29779991507530212 0.21267639100551605
0.7221418023109436 0.30618220567703247 0.2198958545923233
0.78389304876327515 0.30827510356903076 0.22495582699775696
0.83935290575027466 0.30691942572593689 0.23026913404464722
0.88517755270004272 0.31015682220458984 0.23448486626148224
0.11096806079149246 0.28707242012023926 0.12962345778942108
0.13492187857627869 0.29067999124526978 0.13737247884273529
0.17394812405109406 0.2983018159866333 0.1467517763376236
0.23513254523277283 0.3087979257106781 0.15620967745780945
0.3168613612651825 0.32221129536628723 0.16845217347145081
0.41061347723007202 0.3382994532585144 0.18364602327346802
0.50683283805847168 0.35422667860984802 0.20134572684764862
0.59401553869247437 0.36795675754547119 0.2160370796918869
0.66734236478805542 0.37982192635536194 0.22663967311382294
0.73249208927154541 0.387860506772995 0.23303103446960449
0.79579275846481323 0.38947209715843201 0.23800961673259735
0.85343146324157715 0.38724777102470398 0.24263332784175873
0.89744246006011963 0.39029982686042786 0.24514667689800262
0.10827740281820297 0.38324955105781555 0.15449118614196777
0.14047744870185852 0.38707718253135681 0.16173624992370605
0.18865196406841278 0.39443260431289673 0.16919904947280884
0.25563091039657593 0.40581774711608887 0.17560273408889771
0.34031924605369568 0.41950935125350952 0.18750730156898499
0.43454465270042419 0.43456259369850159 0.20451977849006653
0.5265125036239624 0.45031663775444031 0.21994891762733459
0.60803234577178955 0.46423801779747009 0.23188160359859467
0.677437424659729 0.47540819644927979 0.24154728651046753
0.74207258224487305 0.48340496420860291 0.2478632926940918
0.80646872520446777 0.48515242338180542 0.2518259584903717
0.86344426870346069 0.48460930585861206 0.25271886587142944
0.90523958206176758 0.48785042762756348 0.25167340040206909
0.12703216075897217 0.47328954935073853 0.18808376789093018
0.16469871997833252 0.47758269309997559 0.19246296584606171
0.21900306642055511 0.48458459973335266 0.19753797352313995
0.28772205114364624 0.49555832147598267 0.20313626527786255
0.36990657448768616 0.50898748636245728 0.21413606405258179
0.45839372277259827 0.52357989549636841 0.22991973161697388
0.54298222064971924 0.53868645429611206 0.24244706332683563
0.61848658323287964 0.55296701192855835 0.25209289789199829
0.68495577573776245 0.56536388397216797 0.26030215620994568
0.74889504909515381 0.57447177171707153 0.26591295003890991
0.81213712692260742 0.57844835519790649 0.26763558387756348
0.86681622266769409 0.58142763376235962 0.26352715492248535
0.90744394063949585 0.58574855327606201 0.25891348719596863
0.17774577438831329 0.55149292945861816 0.22796858847141266
0.21584403514862061 0.55576163530349731 0.22945372760295868
0.26867660880088806 0.56157374382019043 0.2330486923456192
0.33294796943664551 0.57092726230621338 0.23951740562915802
0.40660640597343445 0.58287930488586426 0.24988880753517151
0.48432096838951111 0.59577751159667969 0.26187425851821899
0.55976122617721558 0.60841089487075806 0.27151256799697876
0.62925547361373901 0.62189173698425293 0.27949798107147217
0.69340318441390991 0.63533937931060791 0.28670328855514526
0.75634700059890747 0.64610594511032104 0.29067689180374146
0.81854593753814697 0.65314626693725586 0.28962269425392151
0.87320250272750854 0.65951406955718994 0.28365021944046021
0.91521549224853516 0.66498953104019165 0.27804261445999146
0.25361490249633789 0.61850404739379883 0.26896458864212036
0.28665730357170105 0.62230950593948364 0.26905661821365356
0.33099964261054993 0.62675487995147705 0.27235475182533264
0.38472864031791687 0.63424378633499146 0.27888584136962891
0.4459974467754364 0.64425915479660034 0.28866690397262573
0.51142340898513794 0.65505802631378174 0.29893913865089417
0.57740533351898193 0.66582608222961426 0.30737066268920898
0.64070844650268555 0.677745521068573 0.31442117691040039
0.70205134153366089 0.69042587280273438 0.31980317831039429
0.76359850168228149 0.70128351449966431 0.32104060053825378
0.82464385032653809 0.71048581600189209 0.3181205689907074
0.87986868619918823 0.71877050399780273 0.3117372989654541
0.92339837551116943 0.72578948736190796 0.30607432126998901
0.33586347103118896 0.67813348770141602 0.31237918138504028
0.36091256141662598 0.6815192699432373 0.31204310059547424
0.39477676153182983 0.68473470211029053 0.31401288509368896
0.43618485331535339 0.69097024202346802 0.3202056884765625
0.48478668928146362 0.69925332069396973 0.32954174280166626
0.53865092992782593 0.70830953121185303 0.33929347991943359
0.5952644944190979 0.7178155779838562 0.34790989756584167
0.65254682302474976 0.72828024625778198 0.35451778769493103
0.71045506000518799 0.7392238974571228 0.35798400640487671
0.76930379867553711 0.7493889331817627 0.35657542943954468
0.82780462503433228 0.75958967208862305 0.35105022788047791
0.88048064708709717 0.76968789100646973 0.34269583225250244
0.92382609844207764 0.77845573425292969 0.33498823642730713
0.40624594688415527 0.73453986644744873 0.35980036854743958
0.42581486701965332 0.73702132701873779 0.35857406258583069
0.45013344287872314 0.74020570516586304 0.35958018898963928
0.48141548037528992 0.74494767189025879 0.36403653025627136
0.52013504505157471 0.75144445896148682 0.37194627523422241
0.56502139568328857 0.75895965099334717 0.38108125329017639
0.61397099494934082 0.76730906963348389 0.38973963260650635
0.665627121925354 0.77658021450042725 0.39681357145309448
0.71967262029647827 0.78643310070037842 0.39976683259010315
0.77572906017303467 0.79649537801742554 0.39667007327079773
0.83135789632797241 0.80722475051879883 0.38830223679542542
0.88154131174087524 0.81830453872680664 0.37688314914703369
0.9244503378868103 0.82860332727432251 0.36716368794441223
0.46204087138175964 0.78897219896316528 0.4096100926399231
0.47768884897232056 0.79161244630813599 0.40703848004341125
0.49594780802726746 0.79443925619125366 0.40620064735412598
0.52064758539199829 0.79823535680770874 0.40850308537483215
0.55257892608642578 0.80327165126800537 0.41459557414054871
0.59090471267700195 0.80923646688461304 0.42272871732711792
0.63394010066986084 0.81625807285308838 0.43140533566474915
0.68073403835296631 0.82431650161743164 0.43872290849685669
0.73129105567932129 0.83351379632949829 0.44223526120185852
0.7851070761680603 0.84414452314376831 0.43817108869552612
0.83989208936691284 0.8553931713104248 0.42759495973587036
0.89148628711700439 0.86724543571472168 0.41421917080879211
0.93714076280593872 0.87804561853408813 0.40429502725601196
0.50753360986709595 0.84334444999694824 0.45661979913711548
0.5206139087677002 0.84590452909469604 0.45336508750915527
0.53579610586166382 0.84847718477249146 0.45092442631721497
0.55625349283218384 0.85179466009140015 0.45184871554374695
0.58379083871841431 0.85583984851837158 0.45613047480583191
0.61728733777999878 0.86062300205230713 0.46305420994758606
0.65622419118881226 0.86673462390899658 0.47085508704185486
0.69947773218154907 0.87409698963165283 0.47791749238967896
0.746803879737854 0.88306319713592529 0.48158401250839233
0.7988322377204895 0.89359480142593384 0.47673943638801575
0.85369175672531128 0.90546661615371704 0.46505960822105408
0.90743482112884521 0.91789340972900391 0.45050269365310669
0.95520299673080444 0.92944109439849854 0.43997856974601746
0.032213188707828522 0.027102841064333916 0.0986146479845047
0.071414172649383545 0.032585699111223221 0.10884640365839005
0.12589728832244873 0.042072668671607971 0.12307770550251007
0.1915469616651535 0.055606286972761154 0.13902930915355682
0.27020826935768127 0.072343043982982635 0.15551762282848358
0.3617473840713501 0.092273637652397156 0.17324969172477722
0.45994934439659119 0.1141417995095253 0.19169676303863525
0.55457538366317749 0.13508446514606476 0.20831024646759033
0.63821625709533691 0.15265116095542908 0.22034652531147003
0.7110828161239624 0.16617502272129059 0.22820441424846649
0.77633398771286011 0.17696687579154968 0.2323661744594574
0.83413511514663696 0.18576115369796753 0.23466362059116364
0.88289040327072144 0.19236235320568085 0.23971934616565704
0.056747719645500183 0.073711246252059937 0.11846000701189041
0.089017219841480255 0.080793477594852448 0.12482305616140366
0.13972140848636627 0.091977901756763458 0.13724596798419952
0.20441426336765289 0.10565721243619919 0.15237894654273987
0.28151354193687439 0.1213579848408699 0.16814564168453217
0.37127047777175903 0.13983133435249329 0.18596559762954712
0.46784794330596924 0.15989157557487488 0.20505918562412262
0.56076985597610474 0.17885905504226685 0.22243750095367432
0.64286428689956665 0.19443105161190033 0.23512427508831024
0.71405225992202759 0.20569875836372375 0.24266810715198517
0.77759414911270142 0.2128598541021347 0.24598720669746399
0.8318711519241333 0.21795819699764252 0.24712884426116943
0.87910729646682739 0.22341419756412506 0.25088030099868774
0.091793522238731384 0.13408438861370087 0.13978517055511475
0.11658742278814316 0.13985089957714081 0.14624607563018799
0.15891978144645691 0.1517682820558548 0.15736430883407593
0.21974402666091919 0.16467355191707611 0.17058040201663971
0.29653528332710266 0.17831224203109741 0.1851385235786438
0.38523730635643005 0.19540807604789734 0.20137119293212891
0.47974857687950134 0.21350724995136261 0.22027745842933655
0.56989032030105591 0.23030659556388855 0.23794430494308472
0.64884656667709351 0.24414508044719696 0.25060346722602844
0.71752089262008667 0.25349923968315125 0.25744590163230896
0.77877873182296753 0.25724601745605469 0.26015263795852661
0.83177810907363892 0.25828301906585693 0.26088142395019531
0.87683606147766113 0.26166650652885437 0.26280710101127625
0.12166266143321991 0.21008801460266113 0.16379369795322418
0.14474838972091675 0.21448242664337158 0.17228415608406067
0.18191070854663849 0.22449442744255066 0.18258723616600037
0.23853819072246552 0.23554076254367828 0.19381609559059143
0.3154720664024353 0.2474924623966217 0.20700560510158539
0.40401285886764526 0.26440781354904175 0.22108151018619537
0.49721968173980713 0.28118544816970825 0.23836278915405273
0.58399659395217896 0.29579636454582214 0.25480395555496216
0.65851908922195435 0.30902636051177979 0.26616033911705017
0.72395104169845581 0.31762608885765076 0.27211481332778931
0.7849961519241333 0.31936731934547424 0.27515274286270142
0.83971536159515381 0.31743481755256653 0.27667996287345886
0.88398319482803345 0.31990191340446472 0.27899989485740662
0.12672564387321472 0.3007645308971405 0.18838980793952942
0.15463709831237793 0.30467355251312256 0.1961478590965271
0.19617399573326111 0.31258666515350342 0.205410435795784
0.25668364763259888 0.32193407416343689 0.21595008671283722
0.33629119396209717 0.33326268196105957 0.22930410504341125
0.42643269896507263 0.34944227337837219 0.24301652610301971
0.51763761043548584 0.36484470963478088 0.25881204009056091
