assets/lut/films print fuji 3513 constlclip.cube
# Created by: G'MIC (https://gmic.eu)
TITLE "fuji_3513_constlclip"
# LUT size
LUT_3D_SIZE 13
# Data domain
DOMAIN_MIN 0.0 0.0 0.0
DOMAIN_MAX 1.0 1.0 1.0
# LUT data points
0.010951966047286987 0.020266873762011528 0.024316795170307159
0.034046635031700134 0.027167750522494316 0.026378033682703972
0.06214388832449913 0.033714532852172852 0.026134984567761421
0.094094760715961456 0.03846760094165802 0.022364342585206032
0.14897297322750092 0.042590361088514328 0.013064620085060596
0.24476954340934753 0.044737271964550018 0.0070405099540948868
0.32772982120513916 0.058250576257705688 0.0097163179889321327
0.37837237119674683 0.074981540441513062 0.01047993078827858
0.42143180966377258 0.083160176873207092 0.0060358834452927113
0.46497455239295959 0.091392114758491516 0.010175951756536961
0.49901098012924194 0.096917919814586639 0.017796549946069717
0.52063184976577759 0.10014980286359787 0.021149445325136185
0.53745299577713013 0.10770242661237717 0.023272136226296425
0.013513946905732155 0.045907966792583466 0.03579113632440567
0.033183977007865906 0.049355227500200272 0.038551256060600281
0.062351688742637634 0.055279765278100967 0.038409169763326645
0.10220824927091599 0.062382925301790237 0.03023974783718586
0.16237835586071014 0.07014688104391098 0.01539688091725111
0.25159841775894165 0.075006283819675446 0.0066937762312591076
0.34156116843223572 0.087120860815048218 0.010303228162229061
0.40979626774787903 0.09970390796661377 0.010700615122914314
0.46038690209388733 0.10988239943981171 0.0058420370332896709
0.50474452972412109 0.11904717236757278 0.010106240399181843
0.54049593210220337 0.12574146687984467 0.017609361559152603
0.5592389702796936 0.13144661486148834 0.020973833277821541
0.56690263748168945 0.13338565826416016 0.024046534672379494
0.011271174065768719 0.073445186018943787 0.047142524272203445
0.025344176217913628 0.075424909591674805 0.049262356013059616
0.054549258202314377 0.082215763628482819 0.048454269766807556
0.10581303387880325 0.091481946408748627 0.035869672894477844
0.17251266539096832 0.10038042068481445 0.017286323010921478
0.26364120841026306 0.11204411834478378 0.0054223900660872459
0.35357785224914551 0.12883400917053223 0.008238205686211586
0.43068519234657288 0.14077982306480408 0.0095056872814893723
0.4949544370174408 0.14814159274101257 0.0089529147371649742
0.54474174976348877 0.15672795474529266 0.0091837113723158836
0.57776671648025513 0.16302253305912018 0.01573924720287323
0.59609353542327881 0.16865839064121246 0.023221079260110855
0.60460811853408813 0.17147085070610046 0.026476796716451645
0.005800329614430666 0.10203231871128082 0.058805026113986969
0.011303531005978584 0.10276864469051361 0.057324845343828201
0.030825132504105568 0.11304521560668945 0.051554091274738312
0.090452782809734344 0.1292867511510849 0.036008842289447784
0.1765035092830658 0.14537189900875092 0.013595191761851311
0.28027597069740295 0.16571174561977386 0.0039633954875171185
0.38062959909439087 0.18252392113208771 0.0051037208177149296
0.46574977040290833 0.19527344405651093 0.0079918652772903442
0.5303417444229126 0.20422352850437164 0.010145703330636024
0.57970529794692993 0.20924282073974609 0.010978040285408497
0.61288303136825562 0.21122397482395172 0.01683388464152813
0.63092136383056641 0.21457907557487488 0.026305269449949265
0.64275515079498291 0.21970956027507782 0.030574049800634384
0.0041426117531955242 0.14367549121379852 0.076432019472122192
0.0051680020987987518 0.14437879621982574 0.071950875222682953
0.01122334785759449 0.15944759547710419 0.055407833307981491
0.080208703875541687 0.17843136191368103 0.028872456401586533
0.18766717612743378 0.19889141619205475 0.0066556292586028576
0.30245217680931091 0.23291929066181183 0.0039215688593685627
0.40756601095199585 0.2504134476184845 0.0039344937540590763
0.50226390361785889 0.25725039839744568 0.0055680666118860245
0.56950420141220093 0.26607879996299744 0.0092802755534648895
0.61486512422561646 0.27144786715507507 0.013716529123485088
0.65023642778396606 0.27071097493171692 0.019025286659598351
0.67212927341461182 0.27498230338096619 0.024587832391262054
0.68518030643463135 0.28474259376525879 0.025531977415084839
0.0061635635793209076 0.20122756063938141 0.10111287236213684
0.01429322175681591 0.20656353235244751 0.09702097624540329
0.01058541052043438 0.22624717652797699 0.073645435273647308
0.047054469585418701 0.25087732076644897 0.033125288784503937
0.19439631700515747 0.27730995416641235 0.0054268930107355118
0.33476284146308899 0.31513968110084534 0.003137057414278388
0.45248374342918396 0.33988472819328308 0.004515928216278553
0.55298858880996704 0.35436376929283142 0.0086293686181306839
0.6300433874130249 0.36511015892028809 0.010357441380620003
0.67483437061309814 0.36638686060905457 0.013353505171835423
0.70541280508041382 0.36227002739906311 0.017935330048203468
0.72034615278244019 0.3644404411315918 0.021471105515956879
0.72941255569458008 0.37043696641921997 0.022782629355788231
0.0065223542042076588 0.26169052720069885 0.12616772949695587
0.01882883720099926 0.27212968468666077 0.12337610870599747
0.014888269826769829 0.29580557346343994 0.10965841263532639
0.041017539799213409 0.32853925228118896 0.066741436719894409
0.18906059861183167 0.36663925647735596 0.0078020580112934113
0.35506430268287659 0.40628170967102051 0.0039557511918246746
0.49698475003242493 0.44052669405937195 0.0079217497259378433
0.60914874076843262 0.46283450722694397 0.014096084050834179
0.69353783130645752 0.47623151540756226 0.014524901285767555
0.74565184116363525 0.4799748957157135 0.011406917124986649
0.76630926132202148 0.47668361663818359 0.013954237103462219
0.77409732341766357 0.47440102696418762 0.019214870408177376
0.78684723377227783 0.48695525527000427 0.019415298476815224
0.010631711222231388 0.32212328910827637 0.14872293174266815
0.019129540771245956 0.33706113696098328 0.1473182737827301
0.021285591647028923 0.35772743821144104 0.13670039176940918
0.039646629244089127 0.39382001757621765 0.084709048271179199
0.19963715970516205 0.44127240777015686 0.010495354421436787
0.37401798367500305 0.48967605829238892 0.0091395657509565353
0.53069001436233521 0.53172606229782104 0.013463697396218777
0.65211045742034912 0.56110602617263794 0.016688298434019089
0.7412111759185791 0.57986891269683838 0.016960099339485168
0.79506558179855347 0.58766782283782959 0.011359196156263351
0.8169291615486145 0.58547514677047729 0.01218815241008997
0.82638418674468994 0.58309662342071533 0.019235692918300629
0.84349453449249268 0.60201328992843628 0.016749437898397446
0.019968952983617783 0.37273260951042175 0.1684369295835495
0.020338799804449081 0.3898632824420929 0.16653764247894287
0.024869522079825401 0.41314676403999329 0.15632247924804688
0.039921719580888748 0.45859086513519287 0.095482967793941498
0.20753742754459381 0.51429736614227295 0.012653306126594543
0.39611265063285828 0.56792306900024414 0.014323978684842587
0.56447297334671021 0.61387050151824951 0.0184452123939991
0.68778705596923828 0.64607149362564087 0.013045785948634148
0.77427548170089722 0.6660495400428772 0.013068434782326221
0.82320010662078857 0.67349123954772949 0.013579574413597584
0.85428154468536377 0.67506861686706543 0.011935649439692497
0.86856895685195923 0.67125755548477173 0.028675798326730728
0.88549518585205078 0.68751108646392822 0.02920888178050518
0.018016021698713303 0.41334640979766846 0.18315567076206207
0.016038438305258751 0.43136540055274963 0.18071521818637848
0.016020681709051132 0.4602908194065094 0.1617169976234436
0.044969178736209869 0.50565129518508911 0.10344133526086807
0.23890076577663422 0.57175749540328979 0.019983090460300446
0.42243987321853638 0.62266945838928223 0.014622018672525883
0.5861891508102417 0.66410773992538452 0.015694532543420792
0.708518385887146 0.69726067781448364 0.012927589938044548
0.79712438583374023 0.71941542625427246 0.025205006822943687
0.84525024890899658 0.72860747575759888 0.034332994371652603
0.87859678268432617 0.73415839672088623 0.038301683962345123
0.89741164445877075 0.73670816421508789 0.049376498907804489
0.9121742844581604 0.73981332778930664 0.056306306272745132
0.029588228091597557 0.43840193748474121 0.19817261397838593
0.015514164231717587 0.45740273594856262 0.18847726285457611
0.018149057403206825 0.48958912491798401 0.16743192076683044
0.060346461832523346 0.53453689813613892 0.10361050069332123
0.25411558151245117 0.60001504421234131 0.014998252503573895
0.43259623646736145 0.65112000703811646 0.0070884255692362785
0.59688735008239746 0.69247180223464966 0.0079368287697434425
0.71819579601287842 0.72483640909194946 0.018611069768667221
0.81199496984481812 0.74935853481292725 0.038766957819461823
0.86923718452453613 0.76299154758453369 0.052133254706859589
0.90467697381973267 0.77166265249252319 0.057510584592819214
0.92178207635879517 0.77729141712188721 0.067086823284626007
0.93400657176971436 0.78081536293029785 0.077659487724304199
0.024806736037135124 0.45905998349189758 0.20797877013683319
0.011175058782100677 0.48945632576942444 0.19716507196426392
0.014524317346513271 0.52561444044113159 0.16451646387577057
0.054177302867174149 0.57028990983963013 0.079011552035808563
0.26711559295654297 0.62647229433059692 0.011587000451982021
0.45087489485740662 0.68128597736358643 0.0077569400891661644
0.61280232667922974 0.71968352794647217 0.0093940738588571548
0.7263108491897583 0.74965965747833252 0.023118965327739716
0.82082921266555786 0.77168220281600952 0.04600830003619194
0.891426682472229 0.78840756416320801 0.067160509526729584
0.92882972955703735 0.79931598901748657 0.067594818770885468
0.94652974605560303 0.80539232492446899 0.076245158910751343
0.95461738109588623 0.80806392431259155 0.095391906797885895
0.020540902391076088 0.50250953435897827 0.23730303347110748
0.015876904129981995 0.54928839206695557 0.21519136428833008
0.0109913544729352 0.578072190284729 0.16883395612239838
0.088260278105735779 0.62674742937088013 0.055170245468616486
0.30676412582397461 0.674213707447052 0.0096137849614024162
0.49330037832260132 0.71931439638137817 0.021225947886705399
0.64216464757919312 0.75222188234329224 0.015643520280718803
0.76107335090637207 0.78709286451339722 0.020145131275057793
0.84895622730255127 0.80088913440704346 0.036167025566101074
0.91201531887054443 0.81010228395462036 0.057313762605190277
0.95013147592544556 0.81991285085678101 0.06206677109003067
0.96810358762741089 0.82672953605651855 0.071316376328468323
0.97678995132446289 0.83108770847320557 0.10992316156625748
0.011242317035794258 0.026352901011705399 0.039648678153753281
0.027776502072811127 0.029452499002218246 0.038004647940397263
0.052169531583786011 0.033371675759553909 0.036979883909225464
0.087493643164634705 0.038681719452142715 0.03572121262550354
0.15077908337116241 0.04138457402586937 0.026468792930245399
0.25264957547187805 0.035221625119447708 0.009599633514881134
0.3335108757019043 0.047962233424186707 0.0089693255722522736
0.39226612448692322 0.06775374710559845 0.013814200647175312
0.45326834917068481 0.072092466056346893 0.0083662746474146843
0.49965938925743103 0.082949213683605194 0.01144148875027895
0.53659725189208984 0.09136548638343811 0.019413966685533524
0.55195116996765137 0.086518742144107819 0.017640251666307449
0.56463778018951416 0.093108534812927246 0.016966322436928749
0.018715891987085342 0.050858128815889359 0.049470894038677216
0.033805068582296371 0.05175718292593956 0.047448206692934036
0.058412723243236542 0.055255051702260971 0.045761168003082275
0.095989108085632324 0.06178264319896698 0.04349822923541069
0.16621547937393188 0.067672684788703918 0.031255610287189484
0.26973208785057068 0.068562358617782593 0.012518011033535004
0.35603731870651245 0.079746991395950317 0.011383715085685253
0.4270051121711731 0.091621145606040955 0.014406555332243443
0.49350860714912415 0.097039647400379181 0.0062255412340164185
0.53625273704528809 0.10760790109634399 0.010137476027011871
0.56676477193832397 0.1130203977227211 0.016593124717473984
0.58910149335861206 0.11624464392662048 0.016828889027237892
0.60015398263931274 0.12164414674043655 0.017276570200920105
0.019819475710391998 0.078092433512210846 0.059575624763965607
0.03206196054816246 0.07796371728181839 0.057346045970916748
0.054688576608896255 0.081369794905185699 0.053736355155706406
0.10012368857860565 0.090320289134979248 0.049171850085258484
0.180667445063591 0.10031793266534805 0.03471698984503746
0.2903999388217926 0.10927607119083405 0.014433722011744976
0.38509723544120789 0.12327761203050613 0.0097468206658959389
0.46502721309661865 0.13442528247833252 0.01359119825065136
0.52817052602767944 0.1426067054271698 0.01764545775949955
0.57977473735809326 0.15245352685451508 0.0094378301873803139
0.60985809564590454 0.15311868488788605 0.012059035710990429
0.62769651412963867 0.15937365591526031 0.01865781843662262
0.63641035556793213 0.16458480060100555 0.022018821910023689
0.0099398894235491753 0.10663275420665741 0.070943750441074371
0.016032155603170395 0.11044763028621674 0.068065181374549866
0.03034699335694313 0.11748546361923218 0.062127117067575455
0.096587508916854858 0.13420805335044861 0.050086032599210739
0.19074203073978424 0.14710018038749695 0.028484165668487549
0.3026125431060791 0.15923213958740234 0.010926025919616222
0.41533204913139343 0.17663387954235077 0.0073824715800583363
0.50582426786422729 0.19164794683456421 0.010173289105296135
0.56918823719024658 0.20522302389144897 0.017276478931307793
0.62050026655197144 0.21147401630878448 0.010047269053757191
0.64702123403549194 0.21036343276500702 0.015684807673096657
0.66269350051879883 0.21355222165584564 0.027044961228966713
0.67665672302246094 0.21999575197696686 0.030524952337145805
0.0055742599070072174 0.14815106987953186 0.087812446057796478
0.0066687939688563347 0.15169478952884674 0.081978082656860352
0.013181543909013271 0.15998841822147369 0.07087235152721405
0.088976122438907623 0.18503659963607788 0.046535804867744446
0.20244590938091278 0.20544992387294769 0.019110661000013351
0.32369810342788696 0.22914281487464905 0.0067557389847934246
0.44676369428634644 0.25313019752502441 0.0051922667771577835
0.54487794637680054 0.26789867877960205 0.0097200283780694008
0.61363852024078369 0.27629059553146362 0.01392783410847187
0.66160368919372559 0.27388173341751099 0.014227982610464096
0.69244563579559326 0.26897308230400085 0.017378654330968857
0.71315211057662964 0.27800124883651733 0.022897608578205109
0.73333096504211426 0.29029810428619385 0.024034284055233002
0.0094748856499791145 0.2090887576341629 0.11508229374885559
0.012850443832576275 0.21236225962638855 0.10955598205327988
0.0082670170813798904 0.22458378970623016 0.091485597193241119
0.059499043971300125 0.25678160786628723 0.052773434668779373
0.21204768121242523 0.29111868143081665 0.019591806456446648
0.3569481372833252 0.32624170184135437 0.012032677419483662
0.48309224843978882 0.34924289584159851 0.0090447217226028442
0.59107440710067749 0.36361819505691528 0.012374429032206535
0.67018181085586548 0.37210196256637573 0.014042798429727554
0.71839672327041626 0.36562290787696838 0.014169505797326565
0.74740660190582275 0.36336567997932434 0.01455713901668787
0.76539677381515503 0.37327313423156738 0.017130669206380844
0.78001135587692261 0.38604485988616943 0.020633114501833916
0.0098243262618780136 0.27496623992919922 0.14503316581249237
0.015474087558686733 0.28200587630271912 0.13872504234313965
0.011273163370788097 0.30313774943351746 0.12352939695119858
0.038216084241867065 0.33531177043914795 0.079071268439292908
0.20678795874118805 0.38204017281532288 0.012389179319143295
0.37702420353889465 0.42404785752296448 0.0062019499018788338
0.52037495374679565 0.45325365662574768 0.0084241684526205063
0.64124792814254761 0.47481966018676758 0.015381098724901676
0.72962051630020142 0.48711991310119629 0.016176844015717506
0.78222298622131348 0.48683610558509827 0.01112391147762537
0.80403596162796021 0.48910340666770935 0.0094871371984481812
0.81340932846069336 0.4939778745174408 0.014868373051285744
0.82224482297897339 0.50089681148529053 0.024082932621240616
0.0070046219043433666 0.33759927749633789 0.16628289222717285
0.010370142757892609 0.34702801704406738 0.16102896630764008
0.011290097609162331 0.37209343910217285 0.14986257255077362
0.023209201171994209 0.41252040863037109 0.099700376391410828
0.20775929093360901 0.46804541349411011 0.012019003741443157
0.39452981948852539 0.51006203889846802 0.0080188829451799393
0.55617356300354004 0.54849177598953247 0.012392574921250343
0.68262916803359985 0.58267629146575928 0.016884343698620796
0.77217483520507812 0.59808695316314697 0.021973149850964546
0.82491767406463623 0.60396414995193481 0.015791140496730804
0.8499218225479126 0.60803663730621338 0.0076740640215575695
0.86300897598266602 0.61067664623260498 0.010795563459396362
0.87359285354614258 0.62096667289733887 0.027696212753653526
0.0063003990799188614 0.38986685872077942 0.18465231359004974
0.0078005772083997726 0.40384528040885925 0.1828228086233139
0.017632652074098587 0.43015694618225098 0.17217037081718445
0.024822907522320747 0.47873732447624207 0.11195454001426697
0.19640210270881653 0.54068142175674438 0.016483591869473457
0.40647858381271362 0.58764636516571045 0.0097390720620751381
0.58012950420379639 0.63277935981750488 0.018368814140558243
0.70889461040496826 0.66681772470474243 0.021379671990871429
0.80377388000488281 0.68789708614349365 0.029068171977996826
0.85454821586608887 0.69603466987609863 0.029520012438297272
0.88407498598098755 0.69991081953048706 0.024541996419429779
0.90281713008880615 0.7024310827255249 0.02894173376262188
0.91528820991516113 0.71205562353134155 0.044645018875598907
0.0115445451810956 0.42590498924255371 0.20453163981437683
0.018219728022813797 0.44616407155990601 0.20477749407291412
0.019736256450414658 0.47959473729133606 0.18903176486492157
0.017836926504969597 0.52961868047714233 0.11958522349596024
0.18720795214176178 0.59267204999923706 0.022929755970835686
0.41189053654670715 0.6400991678237915 0.0089589739218354225
0.58924961090087891 0.68793255090713501 0.014771539717912674
0.72372579574584961 0.72252845764160156 0.015803946182131767
0.82327240705490112 0.74276995658874512 0.033981863409280777
0.87905901670455933 0.75131714344024658 0.048825178295373917
0.91181814670562744 0.75870060920715332 0.05424213781952858
0.9290580153465271 0.76287257671356201 0.06229095533490181
0.94300252199172974 0.76844507455825806 0.071576185524463654
0.026089178398251534 0.45091438293457031 0.22681187093257904
0.015969280153512955 0.4699501097202301 0.22011701762676239
0.017948135733604431 0.50567746162414551 0.20679141581058502
0.021472496911883354 0.55757987499237061 0.1375001072883606
0.20076429843902588 0.62677717208862305 0.019539462402462959
0.42706859111785889 0.6762050986289978 0.0049358145333826542
0.60436773300170898 0.72290492057800293 0.009511132724583149
0.73687440156936646 0.75520646572113037 0.015160653740167618
0.83686846494674683 0.77498996257781982 0.040113724768161774
0.90368062257766724 0.7887650728225708 0.062481943517923355
0.93839830160140991 0.79877573251724243 0.0672188401222229
0.95144414901733398 0.80094844102859497 0.076762422919273376
0.9625745415687561 0.80536895990371704 0.089533768594264984
0.016890626400709152 0.47939124703407288 0.25603106617927551
0.011670175939798355 0.50276726484298706 0.24613732099533081
0.021029632538557053 0.53973519802093506 0.22994036972522736
0.016637615859508514 0.59538519382476807 0.14688308537006378
0.19484353065490723 0.66092360019683838 0.033636040985584259
0.45510473847389221 0.71355724334716797 0.012132158502936363
0.62779086828231812 0.75118505954742432 0.015215331688523293
0.75011897087097168 0.77977603673934937 0.016868231818079948
0.86212450265884399 0.80271643400192261 0.03230724111199379
0.9284818172454834 0.8148808479309082 0.050058357417583466
0.9603809118270874 0.82360506057739258 0.063757158815860748
0.97281503677368164 0.82620412111282349 0.088377691805362701
0.97869783639907837 0.82779109477996826 0.11587525904178619
0.020799420773983002 0.5215718150138855 0.30447638034820557
0.021060764789581299 0.56443250179290771 0.29873710870742798
0.021400243043899536 0.60059887170791626 0.25802090764045715
0.034225299954414368 0.65590447187423706 0.1865907609462738
0.23420806229114532 0.70524102449417114 0.10517381876707077
0.48120403289794922 0.7481723427772522 0.093378491699695587
0.65083432197570801 0.78469884395599365 0.075681053102016449
0.77710425853729248 0.80907976627349854 0.04145362600684166
0.88570308685302734 0.82772976160049438 0.027324527502059937
0.95544904470443726 0.84003126621246338 0.028175383806228638
0.98359280824661255 0.84733736515045166 0.04595019668340683
0.98874896764755249 0.84838289022445679 0.13800519704818726
0.99196702241897583 0.85090601444244385 0.20253908634185791
0.0081042125821113586 0.03058076836168766 0.058969490230083466
0.02127450704574585 0.031919144093990326 0.058148164302110672
0.042781934142112732 0.032292235642671585 0.055253434926271439
0.086805276572704315 0.037889622151851654 0.060208879411220551
0.15535372495651245 0.041589640080928802 0.058514837175607681
0.25788533687591553 0.034350793808698654 0.039214398711919785
0.34952875971794128 0.0228462815284729 0.022993693128228188
0.42316693067550659 0.017931889742612839 0.020440898835659027
0.48451262712478638 0.022037265822291374 0.021705253049731255
0.53733116388320923 0.026242902502417564 0.025682561099529266
0.57436823844909668 0.035437505692243576 0.042625561356544495
0.5804368257522583 0.023372620344161987 0.039261985570192337
0.59245294332504272 0.027635686099529266 0.031912066042423248
0.013528636656701565 0.055745143443346024 0.072930067777633667
0.025982081890106201 0.055690091103315353 0.071837529540061951
0.050357025116682053 0.056808054447174072 0.069630987942218781
0.094490945339202881 0.06221211701631546 0.069682881236076355
0.17573045194149017 0.066628538072109222 0.062651723623275757
0.28747570514678955 0.066403485834598541 0.03753192350268364
0.38513725996017456 0.053434200584888458 0.018063653260469437
0.46642324328422546 0.031134512275457382 0.024318097159266472
0.52866077423095703 0.02813822403550148 0.01766306534409523
0.57532936334609985 0.038520768284797668 0.017373267561197281
0.61317461729049683 0.043138794600963593 0.028066433966159821
0.63134527206420898 0.039616886526346207 0.028491644188761711
0.6400068998336792 0.033281244337558746 0.020362613722681999
0.014420093968510628 0.083178050816059113 0.083593703806400299
0.025241971015930176 0.082927003502845764 0.082462310791015625
0.044507239013910294 0.08416728675365448 0.080007486045360565
0.096416428685188293 0.091402120888233185 0.076535031199455261
0.19740600883960724 0.10131159424781799 0.070025786757469177
0.31437128782272339 0.10802872478961945 0.045566707849502563
0.42394530773162842 0.10812097042798996 0.019056925550103188
0.5155671238899231 0.094446398317813873 0.020988672971725464
0.57941925525665283 0.088250145316123962 0.021484285593032837
0.62544214725494385 0.094163753092288971 0.019006736576557159
0.65629744529724121 0.09042695164680481 0.02028229646384716
0.67876821756362915 0.098368160426616669 0.018844813108444214
0.69031345844268799 0.097968906164169312 0.020864794030785561
0.0092229954898357391 0.11170116066932678 0.091392800211906433
0.013424981385469437 0.11566217243671417 0.092708602547645569
0.025592084974050522 0.12257327139377594 0.091529175639152527
0.095344811677932739 0.1401723176240921 0.089288242161273956
0.21067637205123901 0.15407164394855499 0.083021275699138641
0.3361375629901886 0.16340696811676025 0.057762354612350464
0.45300781726837158 0.16945277154445648 0.019239956513047218
0.55250394344329834 0.17982305586338043 0.022029682993888855
0.62167400121688843 0.183028444647789 0.022070640698075294
0.67002338171005249 0.17921002209186554 0.017517838627099991
0.69586068391799927 0.17005276679992676 0.024040685966610909
0.71431201696395874 0.17667753994464874 0.02801189012825489
