assets/lut/films colorslide kodak kodachrome 64 generic.cube
# Created by: G'MIC (https://gmic.eu)
TITLE "kodak_kodachrome_64_generic"
# LUT size
LUT_3D_SIZE 5
# Data domain
DOMAIN_MIN 0.0 0.0 0.0
DOMAIN_MAX 1.0 1.0 1.0
# LUT data points
0.026062969118356705 0.01272475253790617 0.0073401657864451408
0.19418151676654816 0.018571965396404266 0.019977420568466187
0.54480266571044922 0.024650005623698235 0.023666456341743469
0.90424197912216187 0.035136774182319641 0.024955226108431816
1 0.036287419497966766 0.027105532586574554
0.048889562487602234 0.1856086403131485 0.036247417330741882
0.19891561567783356 0.19004595279693604 0.038697980344295502
0.549366295337677 0.21202583611011505 0.047735296189785004
0.88958251476287842 0.22074165940284729 0.05246460810303688
1 0.22532621026039124 0.054008781909942627
0 0.50783365964889526 0.067455023527145386
0.1240055188536644 0.51336866617202759 0.076935708522796631
0.52408778667449951 0.5180172324180603 0.079060226678848267
0.85421425104141235 0.53040921688079834 0.081758908927440643
1 0.53333336114883423 0.081001400947570801
0.00090664136223495007 0.79311490058898926 0.062145773321390152
0.11096230149269104 0.78837984800338745 0.037953246384859085
0.49864950776100159 0.79092663526535034 0.048588518053293228
0.80992263555526733 0.80384922027587891 0.051743093878030777
0.99687963724136353 0.81479364633560181 0.062757425010204315
0.060712102800607681 0.99122989177703857 0.056621089577674866
0.24629406630992889 0.98622614145278931 0.011209091171622276
0.54869085550308228 0.98357903957366943 0.02256794273853302
0.78749042749404907 0.98775118589401245 0.040421400219202042
0.98858195543289185 0.99533969163894653 0.063269548118114471
0.017969198524951935 0.013936211355030537 0.18189360201358795
0.20016951858997345 0.018221911042928696 0.19098372757434845
0.55030715465545654 0.023588009178638458 0.19683361053466797
0.90576928853988647 0.030185848474502563 0.19626918435096741
1 0.036698929965496063 0.20343017578125
0.057864710688591003 0.18520158529281616 0.19725331664085388
0.19654543697834015 0.18738557398319244 0.19665001332759857
0.54915088415145874 0.2000807523727417 0.20881690084934235
0.88388347625732422 0.21494364738464355 0.21459320187568665
0.99290210008621216 0.22309698164463043 0.220417320728302
0.005022101104259491 0.5050889253616333 0.21852947771549225
0.1273716539144516 0.50749528408050537 0.22563014924526215
0.53291928768157959 0.51705676317214966 0.22698357701301575
0.85462731122970581 0.52902305126190186 0.22837647795677185
1 0.53351670503616333 0.24206934869289398
0 0.78044509887695312 0.23382498323917389
0.039791196584701538 0.78420066833496094 0.24011781811714172
0.51036751270294189 0.79352933168411255 0.24169111251831055
0.80781847238540649 0.80326747894287109 0.25690194964408875
0.99601554870605469 0.80549639463424683 0.2543795108795166
0.019174672663211823 0.97751182317733765 0.28952690958976746
0.19114534556865692 0.9821019172668457 0.26599887013435364
0.5552559494972229 0.97918951511383057 0.2846781313419342
0.79446941614151001 0.98503595590591431 0.29388359189033508
0.99500668048858643 0.98878377676010132 0.29597532749176025
0.021474441513419151 0.011461864225566387 0.48311257362365723
0.20358249545097351 0.012879256159067154 0.48727095127105713
0.54356175661087036 0.020125130191445351 0.49310353398323059
0.89930248260498047 0.027768513187766075 0.49947422742843628
1 0.038200557231903076 0.50257253646850586
0.047364357858896255 0.18343037366867065 0.50023508071899414
0.20509417355060577 0.18102779984474182 0.50026774406433105
0.55264616012573242 0.1990848034620285 0.50882530212402344
0.8876768946647644 0.21286597847938538 0.51701140403747559
1 0.22987981140613556 0.51672518253326416
0.0010034898295998573 0.49808147549629211 0.52669680118560791
0.14183129370212555 0.49987441301345825 0.52637356519699097
0.53081470727920532 0.51396411657333374 0.52995413541793823
0.85754537582397461 0.52069568634033203 0.537162184715271
1 0.52645540237426758 0.53654736280441284
0 0.78448212146759033 0.55213731527328491
0.07934831827878952 0.78476810455322266 0.55673480033874512
0.51603096723556519 0.79304260015487671 0.5572669506072998
0.81332337856292725 0.79542827606201172 0.56433475017547607
0.99362426996231079 0.8063238263130188 0.56254559755325317
0.0015969220548868179 0.97954398393630981 0.58160436153411865
0.17722797393798828 0.98154199123382568 0.58055692911148071
0.54489469528198242 0.98023098707199097 0.58204907178878784
0.79172664880752563 0.98517787456512451 0.57988977432250977
0.99359697103500366 0.9887092113494873 0.58525097370147705
0.049887053668498993 0.00033048741170205176 0.73078370094299316
0.20163948833942413 0.0089988857507705688 0.74902331829071045
0.53835195302963257 0.015705153346061707 0.7519802451133728
0.90183800458908081 0.019383344799280167 0.75472086668014526
1 0.022494686767458916 0.75035691261291504
0.054989341646432877 0.16931262612342834 0.75943845510482788
0.20880933105945587 0.17621354758739471 0.76227319240570068
0.54970473051071167 0.18806946277618408 0.76847118139266968
0.89243334531784058 0.19703331589698792 0.77412086725234985
1 0.21741819381713867 0.77250111103057861
7.4678311648312956e-05 0.49193039536476135 0.78077775239944458
0.14703555405139923 0.4961373507976532 0.78451037406921387
0.53652894496917725 0.50499159097671509 0.78260260820388794
0.86321002244949341 0.51266610622406006 0.7949327826499939
1 0.51908242702484131 0.79448509216308594
0.00034752639476209879 0.77735203504562378 0.80269497632980347
0.085076197981834412 0.77793896198272705 0.80321091413497925
0.51813387870788574 0.78390830755233765 0.80936712026596069
0.81348788738250732 0.79255014657974243 0.81524759531021118
0.99514400959014893 0.79629433155059814 0.81530237197875977
0.00027376064099371433 0.97272360324859619 0.82020747661590576
0.22289334237575531 0.97045141458511353 0.82108741998672485
0.55577921867370605 0.97620505094528198 0.81937998533248901
0.79196035861968994 0.98384106159210205 0.82357370853424072
0.99493032693862915 0.98442518711090088 0.82969158887863159
0.074488773941993713 0 0.90407764911651611
0.22228725254535675 0.0044194241054356098 0.91079509258270264
0.54207396507263184 0.015372242778539658 0.92099606990814209
0.90072917938232422 0.02324230782687664 0.92180275917053223
1 0.014392179436981678 0.92853635549545288
0.064191274344921112 0.16731427609920502 0.9199950098991394
0.20030693709850311 0.1716163158416748 0.9231107234954834
0.55108124017715454 0.18638381361961365 0.94116222858428955
0.88753241300582886 0.19875554740428925 0.93994987010955811
0.99978673458099365 0.20056809484958649 0.95341765880584717
5.9509278798941523e-05 0.48856636881828308 0.94379979372024536
0.11330075562000275 0.4925631582736969 0.95228654146194458
0.53309649229049683 0.49978908896446228 0.95877248048782349
0.85726982355117798 0.51045888662338257 0.96614557504653931
1 0.51192289590835571 0.96444171667098999
0.00014235552225727588 0.76920247077941895 0.97553479671478271
0.077835440635681152 0.7739330530166626 0.973899245262146
0.52423906326293945 0.78221803903579712 0.97888380289077759
0.81823283433914185 0.78977882862091064 0.98733752965927124
0.99691826105117798 0.7888801097869873 0.9852256178855896
0.0059396182186901569 0.97436803579330444 0.9955751895904541
0.24027669429779053 0.97042089700698853 0.99662470817565918
0.55550152063369751 0.97763758897781372 0.9942057728767395
0.79570573568344116 0.98056507110595703 0.99533045291900635
0.99706542491912842 0.98614305257797241 0.99890261888504028
