assets/lut/films colorslide kodak kodachrome 64.cube
# Created by: G'MIC (https://gmic.eu)
TITLE "kodak_kodachrome_64"
# LUT size
LUT_3D_SIZE 13
# Data domain
DOMAIN_MIN 0.0 0.0 0.0
DOMAIN_MAX 1.0 1.0 1.0
# LUT data points
0.018864694982767105 0.018112482503056526 0.016627084463834763
0.061734516173601151 0.019406681880354881 0.014996606856584549
0.12185028940439224 0.02367980033159256 0.01515121478587389
0.21449968218803406 0.034844417124986649 0.012313499115407467
0.33785897493362427 0.047799892723560333 0.011518635787069798
0.46667385101318359 0.059377469122409821 0.011896784417331219
0.5729479193687439 0.070968568325042725 0.0074981837533414364
0.65761452913284302 0.080585092306137085 0.0032039417419582605
0.73048663139343262 0.085361599922180176 0.0014722637133672833
0.79921674728393555 0.087968729436397552 0.00078409234993159771
0.87009537220001221 0.095965005457401276 0.00029278924921527505
0.93571072816848755 0.1087559387087822 0
0.98515087366104126 0.12125341594219208 0.00030629776301793754
0.045447405427694321 0.067992672324180603 0.04002176970243454
0.080166518688201904 0.069644510746002197 0.03593941405415535
0.14170967042446136 0.073543265461921692 0.035870540887117386
0.2336343377828598 0.086672656238079071 0.033824533224105835
0.3559722900390625 0.10115519165992737 0.03190886601805687
0.48235121369361877 0.11208196729421616 0.030981790274381638
0.58509820699691772 0.121553935110569 0.026482226327061653
0.66788178682327271 0.12842705845832825 0.020220303907990456
0.74005758762359619 0.12811325490474701 0.01521561574190855
0.80830562114715576 0.12381358444690704 0.010680359788239002
0.87515813112258911 0.12029539793729782 0.0056338589638471603
0.93379247188568115 0.12082360684871674 0.0016486074309796095
0.97754478454589844 0.12659846246242523 0.00074655871139839292
0.083773970603942871 0.14253146946430206 0.074326790869235992
0.11022821813821793 0.14552721381187439 0.071369349956512451
0.1700720489025116 0.14923559129238129 0.070547334849834442
0.26786300539970398 0.1619008481502533 0.068569391965866089
0.38960886001586914 0.17305265367031097 0.065370313823223114
0.50631529092788696 0.18025921285152435 0.061688411980867386
0.60145807266235352 0.18665701150894165 0.056221291422843933
0.68104875087738037 0.18818658590316772 0.049443323165178299
0.75369179248809814 0.18464754521846771 0.042451895773410797
0.8240046501159668 0.17764900624752045 0.033825654536485672
0.88967716693878174 0.16638286411762238 0.023301577195525169
0.94384229183197021 0.15523110330104828 0.012945601716637611
0.98273956775665283 0.15564262866973877 0.0084086544811725616
0.10720407962799072 0.25246816873550415 0.11822140216827393
0.13630005717277527 0.25522696971893311 0.11735618114471436
0.20363920927047729 0.25456848740577698 0.11619282513856888
0.31044238805770874 0.26764720678329468 0.11350025981664658
0.43153369426727295 0.28019466996192932 0.1092955470085144
0.53686928749084473 0.28288313746452332 0.10429731011390686
0.62340593338012695 0.2832292914390564 0.097541451454162598
0.7002335786819458 0.27799499034881592 0.090144500136375427
0.77285283803939819 0.27026361227035522 0.081534922122955322
0.84491646289825439 0.26350376009941101 0.069628126919269562
0.91145223379135132 0.24710017442703247 0.055329117923974991
0.9634743332862854 0.22486467659473419 0.041589595377445221
0.99499070644378662 0.21912248432636261 0.033787552267313004
0.10986307263374329 0.38266301155090332 0.16662013530731201
0.15208630263805389 0.38396409153938293 0.16720473766326904
0.23796124756336212 0.38063991069793701 0.16616411507129669
0.35475051403045654 0.39359948039054871 0.16276118159294128
0.47219985723495483 0.41077166795730591 0.15875911712646484
0.56677019596099854 0.41295769810676575 0.15381935238838196
0.65025991201400757 0.41211134195327759 0.14645685255527496
0.72868919372558594 0.41160035133361816 0.13919207453727722
0.79997360706329346 0.40193203091621399 0.13048583269119263
0.87103849649429321 0.39214622974395752 0.1173572912812233
0.93629199266433716 0.37113091349601746 0.10128696262836456
0.98305052518844604 0.3414205014705658 0.087371274828910828
0.99970591068267822 0.32967707514762878 0.07930532842874527
0.14588178694248199 0.48679295182228088 0.22092849016189575
0.19319714605808258 0.48776981234550476 0.22128516435623169
0.2849041223526001 0.49021002650260925 0.21935558319091797
0.3992672860622406 0.50190967321395874 0.21484790742397308
0.50654035806655884 0.51570266485214233 0.21056404709815979
0.59436196088790894 0.52297115325927734 0.20676903426647186
0.67503607273101807 0.52746254205703735 0.20035772025585175
0.75297141075134277 0.53399765491485596 0.19321918487548828
0.82412171363830566 0.53218317031860352 0.18525832891464233
0.89379668235778809 0.52490484714508057 0.17264138162136078
0.95672005414962769 0.51237529516220093 0.15655727684497833
0.9949260950088501 0.49865627288818359 0.14232166111469269
1 0.48685565590858459 0.13394494354724884
0.22887469828128815 0.56945854425430298 0.27917325496673584
0.27390345931053162 0.57138806581497192 0.27787941694259644
0.3536132276058197 0.5766599178314209 0.27549856901168823
0.4465181827545166 0.58570468425750732 0.27315863966941833
0.53597819805145264 0.59594434499740601 0.27069666981697083
0.61584293842315674 0.60441392660140991 0.26777100563049316
0.6912497878074646 0.61128443479537964 0.26192581653594971
0.76448643207550049 0.61783885955810547 0.25479587912559509
0.83462250232696533 0.62140011787414551 0.2462259978055954
0.90462416410446167 0.62232202291488647 0.23362749814987183
0.96948361396789551 0.62105327844619751 0.21902705729007721
0.99932658672332764 0.62143546342849731 0.20627681910991669
1 0.61951196193695068 0.19847223162651062
0.32915720343589783 0.64391374588012695 0.34036213159561157
0.36496466398239136 0.64615440368652344 0.33899882435798645
0.42204403877258301 0.65062248706817627 0.33856430649757385
0.48844310641288757 0.65730565786361694 0.3396335244178772
0.55905723571777344 0.66471588611602783 0.33947786688804626
0.6303829550743103 0.67216521501541138 0.33682370185852051
0.70004856586456299 0.67883181571960449 0.33191797137260437
0.76867705583572388 0.68538028001785278 0.32565063238143921
0.8369983434677124 0.69205880165100098 0.31631192564964294
0.90633606910705566 0.69817924499511719 0.30228149890899658
0.97124028205871582 0.69885432720184326 0.28889700770378113
0.99974697828292847 0.70093059539794922 0.27915200591087341
1 0.70398873090744019 0.27296251058578491
0.40830785036087036 0.71210664510726929 0.40489855408668518
0.43297326564788818 0.71357965469360352 0.40621057152748108
0.47000151872634888 0.7166559100151062 0.4084516167640686
0.51964986324310303 0.72153925895690918 0.41050499677658081
0.5787588357925415 0.72746396064758301 0.41024225950241089
0.64244943857192993 0.73380452394485474 0.40750929713249207
0.7074158787727356 0.74016684293746948 0.40342220664024353
0.77225124835968018 0.74666810035705566 0.39851409196853638
0.83912599086761475 0.75395411252975464 0.39000925421714783
0.90803605318069458 0.76143920421600342 0.37621003389358521
0.96805679798126221 0.7651703953742981 0.36377310752868652
0.99830305576324463 0.76847434043884277 0.35524824261665344
1 0.77129107713699341 0.34923338890075684
0.46285772323608398 0.77570950984954834 0.46953770518302917
0.48035627603530884 0.77630019187927246 0.47294700145721436
0.50631463527679443 0.77856111526489258 0.47664082050323486
0.54751360416412354 0.7826848030090332 0.47786056995391846
0.59957927465438843 0.78793847560882568 0.47674429416656494
0.65754944086074829 0.79366016387939453 0.47412049770355225
0.71800655126571655 0.80019611120223999 0.46987944841384888
0.78043675422668457 0.80696201324462891 0.46499377489089966
0.84622156620025635 0.81388449668884277 0.45755791664123535
0.91361290216445923 0.82042866945266724 0.44654026627540588
0.9706413745880127 0.82588285207748413 0.43642896413803101
0.99833065271377563 0.8313257098197937 0.42889153957366943
1 0.83493214845657349 0.4227449893951416
0.5086250901222229 0.83769124746322632 0.5312570333480835
0.52270132303237915 0.83816069364547729 0.53446608781814575
0.54414397478103638 0.84009748697280884 0.53797274827957153
0.57941848039627075 0.84398603439331055 0.53889793157577515
0.62554931640625 0.84897607564926147 0.53617000579833984
0.6774669885635376 0.85462301969528198 0.53399574756622314
0.73339235782623291 0.86127632856369019 0.52972233295440674
0.7922934889793396 0.8682829737663269 0.52480530738830566
0.8550756573677063 0.87463915348052979 0.51813715696334839
0.91950243711471558 0.87999552488327026 0.5105939507484436
0.97319698333740234 0.8851589560508728 0.50336092710494995
0.9980999231338501 0.89226007461547852 0.49739602208137512
1 0.89601296186447144 0.49123141169548035
0.55253905057907104 0.9002038836479187 0.5895465612411499
0.56619995832443237 0.90095198154449463 0.5914497971534729
0.58624505996704102 0.9032207727432251 0.59259331226348877
0.61656272411346436 0.9068523645401001 0.59255599975585938
0.65613806247711182 0.91161942481994629 0.59129339456558228
0.70219159126281738 0.91722363233566284 0.588623046875
0.75222903490066528 0.923572838306427 0.58511674404144287
0.8061143159866333 0.93023014068603516 0.58061403036117554
0.8636811375617981 0.93600237369537354 0.57552826404571533
0.92287874221801758 0.93925726413726807 0.57071596384048462
0.97087538242340088 0.94313675165176392 0.56558167934417725
0.99366891384124756 0.94830065965652466 0.56034797430038452
0.99941712617874146 0.95138102769851685 0.55505156517028809
0.59604018926620483 0.96454280614852905 0.64615792036056519
0.60963290929794312 0.96538883447647095 0.64589530229568481
0.62861180305480957 0.96780526638031006 0.64571762084960938
0.65524643659591675 0.97128945589065552 0.6449815034866333
0.68947947025299072 0.97543603181838989 0.64366072416305542
0.7298312783241272 0.97957867383956909 0.64152944087982178
0.77483892440795898 0.98404133319854736 0.63879454135894775
0.82334023714065552 0.98776227235794067 0.63554763793945312
0.87527096271514893 0.99052923917770386 0.63192403316497803
0.92865270376205444 0.99101942777633667 0.62856125831604004
0.97122573852539062 0.99300068616867065 0.62559801340103149
0.99169445037841797 0.99403047561645508 0.62107402086257935
0.99903231859207153 0.99465882778167725 0.61717230081558228
0.010511121712625027 0.012753983959555626 0.040144842118024826
0.049476280808448792 0.014850002713501453 0.038941625505685806
0.11391502618789673 0.01855875737965107 0.039955619722604752
0.20688149333000183 0.029079660773277283 0.039182640612125397
0.33067923784255981 0.043160218745470047 0.036339133977890015
0.458933025598526 0.055162437260150909 0.032368108630180359
0.56525176763534546 0.064566127955913544 0.027214992791414261
0.65037208795547485 0.072676636278629303 0.021765571087598801
0.72288376092910767 0.078208491206169128 0.017590511590242386
0.79169416427612305 0.080942802131175995 0.014411133714020252
0.86546558141708374 0.08948516845703125 0.0097054122015833855
0.9358375072479248 0.10368838161230087 0.0052222157828509808
0.98313993215560913 0.11333251744508743 0.0054123373702168465
0.033533837646245956 0.058133967220783234 0.069431722164154053
0.068275704979896545 0.061816900968551636 0.06683717668056488
0.13173212110996246 0.066497236490249634 0.065985783934593201
0.22658264636993408 0.078962959349155426 0.065203301608562469
0.35180094838142395 0.095316104590892792 0.061538755893707275
0.47717931866645813 0.10753097385168076 0.056648552417755127
0.57743912935256958 0.11342300474643707 0.051534585654735565
0.65929055213928223 0.1189478412270546 0.04511299729347229
0.73136526346206665 0.12197418510913849 0.039105016738176346
0.80008482933044434 0.11862344294786453 0.032938115298748016
0.86926287412643433 0.11383755505084991 0.024244824424386024
0.93001264333724976 0.11309646815061569 0.015327887609601021
0.97212648391723633 0.11629422008991241 0.012581439688801765
0.072577022016048431 0.13543540239334106 0.10584475845098495
0.10280157625675201 0.13893970847129822 0.10420909523963928
0.1618739515542984 0.14462102949619293 0.10220878571271896
0.25884225964546204 0.15481030941009521 0.10072793066501617
0.3831574022769928 0.16509349644184113 0.096833564341068268
0.49889922142028809 0.1741303950548172 0.092293381690979004
0.59110540151596069 0.17836681008338928 0.086470842361450195
0.67019551992416382 0.17993319034576416 0.078531466424465179
0.74347752332687378 0.17939296364784241 0.070360191166400909
0.81467187404632568 0.1726737767457962 0.060685191303491592
0.8828425407409668 0.15999101102352142 0.048048686236143112
0.93908077478408813 0.14835663139820099 0.035432390868663788
0.97722047567367554 0.14681379497051239 0.030504623427987099
0.098519206047058105 0.24695894122123718 0.15355588495731354
0.13279053568840027 0.24848803877830505 0.15323188900947571
0.19599449634552002 0.25297629833221436 0.15085628628730774
0.29878401756286621 0.26100510358810425 0.14750324189662933
0.42139396071434021 0.26827540993690491 0.14338396489620209
0.52560734748840332 0.27563363313674927 0.13854882121086121
0.61019051074981689 0.27577903866767883 0.13162019848823547
0.68736869096755981 0.27069941163063049 0.12299825996160507
0.76091510057449341 0.26453056931495667 0.11365761607885361
0.83359867334365845 0.255401611328125 0.10165994614362717
0.90327191352844238 0.24094724655151367 0.086369305849075317
0.95853942632675171 0.22146277129650116 0.071562312543392181
0.99165791273117065 0.21596240997314453 0.064904950559139252
0.093605756759643555 0.37564733624458313 0.20392414927482605
0.13809433579444885 0.37995809316635132 0.20374299585819244
0.22338509559631348 0.38064837455749512 0.20322546362876892
0.34099748730659485 0.3884066641330719 0.2005201131105423
0.4591062068939209 0.40025472640991211 0.19676192104816437
0.55228912830352783 0.4081062376499176 0.19257542490959167
0.63517969846725464 0.40642076730728149 0.18460291624069214
0.71384686231613159 0.40199324488639832 0.17602609097957611
0.78629499673843384 0.39361625909805298 0.16712519526481628
0.85796952247619629 0.38254448771476746 0.1545252650976181
0.9274786114692688 0.36633068323135376 0.13835030794143677
0.97999304533004761 0.34080460667610168 0.12275323271751404
0.99939072132110596 0.33056125044822693 0.11436456441879272
0.12237943708896637 0.47629162669181824 0.25698632001876831
0.17446985840797424 0.48032161593437195 0.25657358765602112
0.2693333625793457 0.48631012439727783 0.25768172740936279
0.38578727841377258 0.49527102708816528 0.25574198365211487
0.49386519193649292 0.50783371925354004 0.25266757607460022
0.58008736371994019 0.51833486557006836 0.24945089221000671
0.66044741868972778 0.52205222845077515 0.24218255281448364
0.73792397975921631 0.52374202013015747 0.2336297333240509
0.80876630544662476 0.52085411548614502 0.22657543420791626
0.87920677661895752 0.51541364192962646 0.21561132371425629
0.94769018888473511 0.50791841745376587 0.2000412791967392
0.99319601058959961 0.49479156732559204 0.18434435129165649
1 0.48122590780258179 0.17466743290424347
0.20483316481113434 0.55957174301147461 0.31469413638114929
0.25683984160423279 0.56265407800674438 0.31258711218833923
0.34035253524780273 0.5694580078125 0.31335285305976868
0.43310666084289551 0.57757538557052612 0.31485554575920105
0.52279353141784668 0.58740627765655518 0.31346428394317627
0.602439284324646 0.5971071720123291 0.31043857336044312
0.67714327573776245 0.6032181978225708 0.30350688099861145
0.74985826015472412 0.60708558559417725 0.29523268342018127
0.81857812404632568 0.6105075478553772 0.2895805835723877
0.8890002965927124 0.61386579275131226 0.28027254343032837
0.95760548114776611 0.61603009700775146 0.26730281114578247
0.99740636348724365 0.6151878833770752 0.25372973084449768
1 0.60850304365158081 0.24390268325805664
0.30691879987716675 0.63614153861999512 0.37504661083221436
0.34912091493606567 0.6385611891746521 0.37350043654441833
0.40928760170936584 0.64348769187927246 0.37492012977600098
0.47330480813980103 0.64975231885910034 0.37989592552185059
0.5441623330116272 0.65696120262145996 0.38001662492752075
0.61614573001861572 0.66429722309112549 0.37601181864738464
0.68635362386703491 0.6704065203666687 0.36967790126800537
0.75464069843292236 0.67599356174468994 0.36304137110710144
0.82196617126464844 0.68277490139007568 0.35622283816337585
0.89173895120620728 0.68983340263366699 0.34619194269180298
0.95890516042709351 0.6928480863571167 0.33556607365608215
0.99731379747390747 0.69410610198974609 0.32625517249107361
1 0.69341576099395752 0.31783837080001831
0.39153245091438293 0.70584380626678467 0.43577921390533447
0.41978198289871216 0.70766228437423706 0.43748593330383301
0.45813509821891785 0.71085762977600098 0.44126227498054504
0.50588911771774292 0.71575039625167847 0.44541206955909729
0.56491005420684814 0.72133433818817139 0.44497835636138916
0.62977105379104614 0.72741973400115967 0.4404805600643158
0.69539505243301392 0.73342728614807129 0.43512764573097229
0.76045966148376465 0.73978221416473389 0.42966005206108093
0.82732909917831421 0.74698930978775024 0.42253771424293518
0.89666604995727539 0.7539292573928833 0.41257724165916443
0.96037840843200684 0.75747323036193848 0.40354800224304199
0.99585229158401489 0.75936436653137207 0.39626249670982361
1 0.76036930084228516 0.38948765397071838
0.45186901092529297 0.77104032039642334 0.49585756659507751
0.47126349806785583 0.77203738689422607 0.49880814552307129
0.49840143322944641 0.7742883563041687 0.50302118062973022
0.53774672746658325 0.77835297584533691 0.50543016195297241
0.58921432495117188 0.78340715169906616 0.50413894653320312
0.64760029315948486 0.78898841142654419 0.50008821487426758
0.70848876237869263 0.7953495979309082 0.49542644619941711
0.77109915018081665 0.80192261934280396 0.49064451456069946
0.83758389949798584 0.8086974024772644 0.48432007431983948
0.90750598907470703 0.81417691707611084 0.4758313000202179
0.96967422962188721 0.81797635555267334 0.4676288366317749
0.9986082911491394 0.82216435670852661 0.46110475063323975
1 0.82588475942611694 0.45521914958953857
0.49952346086502075 0.83421099185943604 0.55208498239517212
0.51500922441482544 0.83493077754974365 0.55481225252151489
0.53770887851715088 0.83703857660293579 0.5581241250038147
0.57225161790847778 0.84067273139953613 0.55973666906356812
0.61754089593887329 0.84550297260284424 0.55800962448120117
0.66981345415115356 0.8511345386505127 0.55466377735137939
0.72563368082046509 0.85768276453018188 0.55070453882217407
0.78503274917602539 0.86466318368911743 0.54637253284454346
0.84946334362030029 0.87091326713562012 0.54098129272460938
0.91827547550201416 0.87534970045089722 0.53463149070739746
0.97828596830368042 0.87913733720779419 0.52786862850189209
0.99999326467514038 0.88587844371795654 0.52108985185623169
1 0.89187395572662354 0.51540547609329224
0.54361462593078613 0.89737755060195923 0.60680460929870605
0.5578078031539917 0.8982396125793457 0.60759985446929932
0.57886034250259399 0.90055286884307861 0.6095576286315918
0.60951131582260132 0.90411657094955444 0.60996967554092407
0.64920288324356079 0.90878301858901978 0.60910254716873169
0.69535964727401733 0.91446661949157715 0.60663753747940063
0.74576711654663086 0.92099255323410034 0.60334336757659912
0.80002695322036743 0.92790257930755615 0.59970486164093018
0.85946792364120483 0.93410611152648926 0.59533476829528809
0.92467027902603149 0.93727189302444458 0.59098851680755615
0.97975200414657593 0.94036328792572021 0.5857887864112854
0.99934518337249756 0.94923430681228638 0.5782850980758667
0.99999499320983887 0.95580267906188965 0.5720139741897583
0.58692622184753418 0.96219551563262939 0.6609610915184021
0.60114133358001709 0.96314626932144165 0.66036725044250488
0.62098151445388794 0.96550160646438599 0.66054302453994751
0.648368239402771 0.96900886297225952 0.66029125452041626
0.6828734278678894 0.97336006164550781 0.65957063436508179
0.72344827651977539 0.97770482301712036 0.65784966945648193
0.76879507303237915 0.98247462511062622 0.65578973293304443
0.81808573007583618 0.98696637153625488 0.65280461311340332
0.87207156419754028 0.99016755819320679 0.64980441331863403
0.93260061740875244 0.99087011814117432 0.64710694551467896
0.98374134302139282 0.99205940961837769 0.64400976896286011
0.99908840656280518 0.99612891674041748 0.63624286651611328
0.99993252754211426 0.99831897020339966 0.63038867712020874
0.0073558581061661243 0.0089049991220235825 0.077673546969890594
0.038836251944303513 0.0091484514996409416 0.079330563545227051
0.1005147323012352 0.013830806128680706 0.076714970171451569
0.19293420016765594 0.02299530990421772 0.077106446027755737
0.31742396950721741 0.035030215978622437 0.073341190814971924
0.44566231966018677 0.045621968805789948 0.065387904644012451
0.55194354057312012 0.054014857858419418 0.059616629034280777
0.63712567090988159 0.061987288296222687 0.054935574531555176
0.71134626865386963 0.068717285990715027 0.049907159060239792
0.78213542699813843 0.073171310126781464 0.044491801410913467
0.85564565658569336 0.081692084670066833 0.03709055483341217
0.92577075958251953 0.095891647040843964 0.027093520388007164
0.97234511375427246 0.10508198291063309 0.024619473144412041
0.020972367376089096 0.049721453338861465 0.11263938993215561
0.053340703248977661 0.052656840533018112 0.11193295568227768
0.1170927882194519 0.058644883334636688 0.10947871208190918
0.21198801696300507 0.069599494338035583 0.10973628610372543
0.3377058207988739 0.084286332130432129 0.10520344227552414
0.46184945106506348 0.09528706967830658 0.097411587834358215
0.56124049425125122 0.10127081722021103 0.090979360044002533
0.64395046234130859 0.10743547230958939 0.083633437752723694
0.71723830699920654 0.11181019991636276 0.076958045363426208
0.78738343715667725 0.1102524995803833 0.069799579679965973
0.85797309875488281 0.10623734444379807 0.058716390281915665
0.92172980308532715 0.10752898454666138 0.046260204166173935
0.96488898992538452 0.11098962277173996 0.042249672114849091
0.056746449321508408 0.1268349289894104 0.15144863724708557
0.088994897902011871 0.12992236018180847 0.14966559410095215
0.14943253993988037 0.13406625390052795 0.1473550945520401
0.24373854696750641 0.14202228188514709 0.146004319190979
0.36891156435012817 0.15397413074970245 0.14219993352890015
0.48180493712425232 0.16403181850910187 0.13886438310146332
0.57248187065124512 0.16866509616374969 0.13277813792228699
0.65319901704788208 0.17157131433486938 0.12296179682016373
0.72699862718582153 0.17151901125907898 0.11468894779682159
0.79856812953948975 0.16540847718715668 0.10514242202043533
0.86904227733612061 0.1544957160949707 0.090883828699588776
0.92998826503753662 0.14592406153678894 0.075544022023677826
0.9689217209815979 0.14371638000011444 0.070418335497379303
0.082974575459957123 0.23864543437957764 0.2028297483921051
0.11868594586849213 0.24051453173160553 0.2013993114233017
0.17935919761657715 0.24431173503398895 0.19880719482898712
0.27851641178131104 0.24779728055000305 0.19564849138259888
0.40478581190109253 0.25847649574279785 0.1926695853471756
0.50774765014648438 0.26894578337669373 0.18930099904537201
0.59169888496398926 0.27152559161186218 0.18353471159934998
0.66947561502456665 0.26781189441680908 0.17441937327384949
0.74202048778533936 0.26002365350723267 0.165193110704422
0.81377983093261719 0.25010028481483459 0.15384043753147125
0.88445502519607544 0.23740455508232117 0.13828131556510925
0.94325214624404907 0.22226542234420776 0.12205210328102112
0.9790465235710144 0.21523232758045197 0.11462870240211487
0.067308850586414337 0.36757770180702209 0.25778511166572571
0.11383144557476044 0.37120512127876282 0.2579214870929718
0.19687341153621674 0.37550830841064453 0.25848105549812317
0.31895530223846436 0.38180124759674072 0.2566591203212738
0.44153168797492981 0.39410102367401123 0.25289204716682434
0.53403002023696899 0.40067207813262939 0.24797788262367249
0.61618673801422119 0.40168538689613342 0.24174609780311584
0.6943967342376709 0.39930638670921326 0.23365673422813416
0.76485741138458252 0.39066994190216064 0.22544249892234802
0.83449840545654297 0.37822204828262329 0.21334084868431091
