assets/lut/films colorslide fuji velvia 100 generic.cube
# Created by: G'MIC (https://gmic.eu)
TITLE "fuji_velvia_100_generic"
# LUT size
LUT_3D_SIZE 5
# Data domain
DOMAIN_MIN 0.0 0.0 0.0
DOMAIN_MAX 1.0 1.0 1.0
# LUT data points
0.025558860972523689 0.020527634769678116 0.020998068153858185
0.22594091296195984 0.017323289066553116 0.020475665107369423
0.57257091999053955 0.016176965087652206 0.018924204632639885
0.92723309993743896 0.014316977933049202 0.016603492200374603
1 0.013784835115075111 0.0071454965509474277
0.043831184506416321 0.2351820319890976 0.021005278453230858
0.20607425272464752 0.22896318137645721 0.018913120031356812
0.55998778343200684 0.22589460015296936 0.019894888624548912
0.90946012735366821 0.20878046751022339 0.017116187140345573
1 0.2149520069360733 0.013052457943558693
0 0.58598774671554565 0.016244282945990562
0.035810433328151703 0.58649003505706787 0.019804142415523529
0.51143068075180054 0.57677006721496582 0.01225591916590929
0.85082834959030151 0.57026934623718262 0.013183443807065487
0.99985063076019287 0.56396454572677612 0.017290346324443817
0 0.89606779813766479 0.00010851692059077322
0.048964288085699081 0.89404314756393433 0.0045965458266437054
0.39759352803230286 0.89026957750320435 0
0.77429497241973877 0.87336999177932739 0
0.98709231615066528 0.85649824142456055 0
0.027844822034239769 1 0
0.19449789822101593 1 0
0.50325417518615723 1 0
0.77752864360809326 1 0
0.96295350790023804 1 0
0.029061576351523399 0.010016228072345257 0.22799918055534363
0.22565078735351562 0.010356513783335686 0.23235739767551422
0.57061600685119629 0.0096256928518414497 0.22032901644706726
0.90925389528274536 0.0085984775796532631 0.21593014895915985
0.99872541427612305 0.0025428172666579485 0.21164317429065704
0.050426259636878967 0.21929630637168884 0.22103497385978699
0.2184731513261795 0.21848776936531067 0.21613776683807373
0.56915533542633057 0.20703785121440887 0.2129761278629303
0.91263532638549805 0.19828291237354279 0.20954614877700806
0.99981600046157837 0.18353326618671417 0.20764158666133881
0 0.57776272296905518 0.18563291430473328
0.097230233252048492 0.5683441162109375 0.1874050498008728
0.52701973915100098 0.56153494119644165 0.18176501989364624
0.85797560214996338 0.55680692195892334 0.17890913784503937
1 0.54443240165710449 0.18062254786491394
0 0.88962042331695557 0.11720751225948334
0.019190948456525803 0.88379311561584473 0.098593078553676605
0.44095924496650696 0.87652510404586792 0.10572877526283264
0.78758257627487183 0.87025147676467896 0.09088599681854248
0.99406474828720093 0.85890144109725952 0.12603521347045898
0.012302353978157043 1 0.14145965874195099
0.16258905827999115 1 0.13357868790626526
0.53768324851989746 1 0.12269072979688644
0.8022315502166748 1 0.12102252990007401
0.96943265199661255 1 0.09568583220243454
0.041419174522161484 0.0036519069690257311 0.57913702726364136
0.23920422792434692 0.00013661103730555624 0.57041364908218384
0.57583653926849365 0 0.56470590829849243
0.91685914993286133 0.00057884666603058577 0.5605587363243103
1 0.0031313877552747726 0.55575060844421387
0.057533923536539078 0.18930763006210327 0.56192642450332642
0.23761619627475739 0.18901687860488892 0.55931359529495239
0.57740384340286255 0.17509150505065918 0.55456960201263428
0.91232210397720337 0.1671595573425293 0.55108988285064697
1 0.17396092414855957 0.55186730623245239
0 0.55012816190719604 0.53437334299087524
0.10999419540166855 0.54300343990325928 0.54239428043365479
0.54020321369171143 0.53844434022903442 0.53805536031723022
0.86845725774765015 0.52658331394195557 0.53335767984390259
1 0.51711243391036987 0.5319938063621521
5.2508185035549104e-05 0.86316925287246704 0.51970767974853516
0.039351176470518112 0.85793757438659668 0.52142822742462158
0.45542195439338684 0.85437500476837158 0.5122222900390625
0.80340921878814697 0.84344547986984253 0.50847935676574707
0.99445825815200806 0.83753412961959839 0.51679444313049316
0.018431002274155617 0.99753618240356445 0.51792973279953003
0.15775647759437561 0.9999687671661377 0.52038311958312988
0.52527093887329102 1 0.51260948181152344
0.80684220790863037 0.99980270862579346 0.51262271404266357
0.97413283586502075 1 0.49898549914360046
0.040928035974502563 0.0017402948578819633 0.87568038702011108
0.2518031895160675 0 0.86293691396713257
0.58862030506134033 0 0.87294512987136841
0.9243813157081604 0.0052880682051181793 0.87723326683044434
1 0.0076032150536775589 0.87314623594284058
0.076259255409240723 0.16279458999633789 0.87026363611221313
0.24352698028087616 0.1596248596906662 0.87225502729415894
0.58328425884246826 0.14378583431243896 0.86979091167449951
0.923481285572052 0.14140306413173676 0.86255103349685669
1 0.13992862403392792 0.86574757099151611
0.0029567494057118893 0.52345269918441772 0.85222852230072021
0.11589381098747253 0.52185273170471191 0.84725254774093628
0.55687046051025391 0.51300466060638428 0.84360939264297485
0.88802140951156616 0.50577843189239502 0.83777189254760742
1 0.50036025047302246 0.84154444932937622
0 0.83440095186233521 0.82489693164825439
0.06660144031047821 0.83180028200149536 0.8277355432510376
0.49658849835395813 0.82744038105010986 0.82306259870529175
0.82195323705673218 0.82073760032653809 0.82167690992355347
0.99827349185943604 0.81147366762161255 0.81591057777404785
0.00010443294740980491 0.9995151162147522 0.80276942253112793
0.12614481151103973 0.99901551008224487 0.81297439336776733
0.57383400201797485 0.99715757369995117 0.81194251775741577
0.81696015596389771 0.99877029657363892 0.80987721681594849
0.98664778470993042 0.99688267707824707 0.79893052577972412
0.066498763859272003 0 0.99705356359481812
0.2763817310333252 0 0.99877285957336426
0.61419999599456787 0 1
0.94197726249694824 0.0068108951672911644 0.99937266111373901
1 0.0017358518671244383 1
0.075312986969947815 0.14474219083786011 0.99973207712173462
0.25413855910301208 0.14666830003261566 0.99879401922225952
0.59542202949523926 0.14130866527557373 1
0.92151117324829102 0.14470234513282776 0.99997413158416748
1 0.1380293071269989 1
0.038111340254545212 0.50680249929428101 1
0.21438100934028625 0.5027310848236084 0.99951708316802979
0.56254994869232178 0.49146410822868347 0.99999356269836426
0.89102637767791748 0.48636278510093689 0.99718660116195679
1 0.48273047804832458 0.99901843070983887
0.002290134783834219 0.81678396463394165 0.99390751123428345
0.14353902637958527 0.81941336393356323 0.99582463502883911
0.51166588068008423 0.80854332447052002 0.99644583463668823
0.83528429269790649 0.80509692430496216 0.99482232332229614
0.99585098028182983 0.79227370023727417 0.99291086196899414
0.029525114223361015 0.99411779642105103 0.99318504333496094
0.19770413637161255 0.99678283929824829 0.99483019113540649
0.56160855293273926 0.99200010299682617 0.99388951063156128
0.82535427808761597 0.99373096227645874 0.9924083948135376
0.99126142263412476 0.98934036493301392 0.98945337533950806
