assets/lut/films negative color fuji superia reala 100.cube
# Created by: G'MIC (https://gmic.eu)
TITLE "fuji_superia_reala_100"
# LUT size
LUT_3D_SIZE 13
# Data domain
DOMAIN_MIN 0.0 0.0 0.0
DOMAIN_MAX 1.0 1.0 1.0
# LUT data points
0.058325555175542831 0.055410571396350861 0.051956325769424438
0.13770796358585358 0.047383103519678116 0.043009769171476364
0.22444711625576019 0.040515869855880737 0.035190969705581665
0.30727949738502502 0.034175332635641098 0.029045375064015388
0.39024311304092407 0.026620663702487946 0.027592483907938004
0.47416707873344421 0.019265433773398399 0.027286214753985405
0.55759584903717041 0.013580322265625 0.026346933096647263
0.63947802782058716 0.0078819124028086662 0.024927370250225067
0.71849411725997925 0.0031141242943704128 0.028073254972696304
0.79285567998886108 0.0005103616276755929 0.040256276726722717
0.86051273345947266 4.9546186346560717e-05 0.066211983561515808
0.92097985744476318 0 0.095339171588420868
0.97546690702438354 0 0.11952893435955048
0.09026743471622467 0.14705473184585571 0.076324194669723511
0.15180081129074097 0.14033626019954681 0.067246168851852417
0.23056957125663757 0.13174355030059814 0.06135394424200058
0.31304231286048889 0.12216164171695709 0.056747481226921082
0.39676648378372192 0.11042770743370056 0.05468934029340744
0.48173677921295166 0.097781956195831299 0.052365861833095551
0.56632304191589355 0.083931341767311096 0.048679620027542114
0.64922463893890381 0.067363113164901733 0.044754102826118469
0.72882020473480225 0.046529822051525116 0.043152529746294022
0.80297237634658813 0.024075496941804886 0.047533582895994186
0.86974364519119263 0.0063443803228437901 0.067682333290576935
0.92911547422409058 0.00011831545270979404 0.09607098251581192
0.98187524080276489 0 0.12294429540634155
0.11200238764286041 0.2340276837348938 0.10681179165840149
0.1656966507434845 0.22863826155662537 0.098740957677364349
0.23784531652927399 0.22019354999065399 0.094103716313838959
0.31916356086730957 0.21067324280738831 0.091436333954334259
0.40316185355186462 0.19990967214107513 0.086893476545810699
0.4889170229434967 0.18639463186264038 0.08200518786907196
0.57475292682647705 0.16929042339324951 0.077457398176193237
0.65845119953155518 0.14784948527812958 0.073645755648612976
0.73760735988616943 0.11948225647211075 0.072169691324234009
0.81081140041351318 0.084649853408336639 0.07672678679227829
0.87683039903640747 0.047557096928358078 0.08964182436466217
0.93522822856903076 0.013820408843457699 0.10856679081916809
0.98559165000915527 0.001589606748893857 0.13168634474277496
0.10382792353630066 0.31851056218147278 0.13226747512817383
0.16596272587776184 0.31440317630767822 0.12485765665769577
0.24250279366970062 0.3079189658164978 0.1198495626449585
0.32540339231491089 0.30029615759849548 0.1174851655960083
0.41050118207931519 0.29125761985778809 0.11367135494947433
0.49710920453071594 0.27928638458251953 0.10917975008487701
0.584148108959198 0.26342630386352539 0.10691367089748383
0.66870909929275513 0.24257804453372955 0.10593417286872864
0.74770724773406982 0.21388567984104156 0.10728660970926285
0.82000732421875 0.17664226889610291 0.11411987245082855
0.88550251722335815 0.13381423056125641 0.12444005906581879
0.94287097454071045 0.089030608534812927 0.13754367828369141
0.98966491222381592 0.058179054409265518 0.15623511373996735
0.1053473949432373 0.4008842408657074 0.14446975290775299
0.17175295948982239 0.3980412483215332 0.13755972683429718
0.25194722414016724 0.39329120516777039 0.13202674686908722
0.3363807201385498 0.38786548376083374 0.12970133125782013
0.42179200053215027 0.38110506534576416 0.1278785914182663
0.5090445876121521 0.37184855341911316 0.12707820534706116
0.59647876024246216 0.35953912138938904 0.12990066409111023
0.68054407835006714 0.34297880530357361 0.1332421600818634
0.75925451517105103 0.31985533237457275 0.13798679411411285
0.83163756132125854 0.28969219326972961 0.14813557267189026
0.89703106880187988 0.25407955050468445 0.16152562201023102
0.95266848802566528 0.2120269238948822 0.17684547603130341
0.99376469850540161 0.17419855296611786 0.19337648153305054
0.12988321483135223 0.48038855195045471 0.14068987965583801
0.19265343248844147 0.47943916916847229 0.13530629873275757
0.2693665623664856 0.47655525803565979 0.12991528213024139
0.35241931676864624 0.47268602252006531 0.12782347202301025
0.43830585479736328 0.46763011813163757 0.12817037105560303
0.52525520324707031 0.46065297722816467 0.13064290583133698
0.61146944761276245 0.45127478241920471 0.13661418855190277
0.69395738840103149 0.43943354487419128 0.14490820467472076
0.77124261856079102 0.42332485318183899 0.15515519678592682
0.84337562322616577 0.40334561467170715 0.17118969559669495
0.90871131420135498 0.37907728552818298 0.19226190447807312
0.96219676733016968 0.34634426236152649 0.21402823925018311
0.99661469459533691 0.30577138066291809 0.23104661703109741
0.16776439547538757 0.55763161182403564 0.12479819357395172
0.22547993063926697 0.55811214447021484 0.12077980488538742
0.2957974374294281 0.55677253007888794 0.11600109934806824
0.37532812356948853 0.55397331714630127 0.11495654284954071
0.45990991592407227 0.54952418804168701 0.11598446220159531
0.54609370231628418 0.54371064901351929 0.1181684285402298
0.63048768043518066 0.53655797243118286 0.12315294146537781
0.710060715675354 0.52851277589797974 0.13461834192276001
0.78484612703323364 0.51855909824371338 0.1518048495054245
0.85571467876434326 0.50625592470169067 0.17479598522186279
0.91933339834213257 0.48997029662132263 0.20323364436626434
0.96865743398666382 0.46517682075500488 0.23255172371864319
0.99763250350952148 0.42973116040229797 0.25628310441970825
0.21346093714237213 0.63141024112701416 0.099655553698539734
0.26717853546142578 0.63297349214553833 0.098723813891410828
0.33203160762786865 0.6327054500579834 0.096055574715137482
0.40730473399162292 0.62991535663604736 0.094406589865684509
0.48955872654914856 0.62562012672424316 0.094451650977134705
0.57353276014328003 0.62049418687820435 0.094216108322143555
0.65495043992996216 0.6151047945022583 0.097767852246761322
0.73104381561279297 0.6100577712059021 0.109920933842659
0.8024672269821167 0.60436832904815674 0.12961350381374359
0.87149339914321899 0.59634792804718018 0.15544141829013824
0.93267649412155151 0.58377784490585327 0.1891220360994339
0.97545051574707031 0.5640069842338562 0.22838553786277771
0.99824565649032593 0.53548914194107056 0.26559606194496155
0.26297366619110107 0.70043593645095825 0.067181497812271118
0.31434768438339233 0.7026665210723877 0.070979207754135132
0.37518012523651123 0.70277613401412964 0.072175838053226471
0.44621044397354126 0.69973623752593994 0.06925404816865921
0.52568799257278442 0.69532191753387451 0.065368518233299255
0.60704022645950317 0.69083905220031738 0.06338336318731308
0.68599259853363037 0.68687629699707031 0.066700056195259094
0.75955420732498169 0.68367010354995728 0.077401630580425262
0.82877546548843384 0.68043744564056396 0.094063088297843933
0.89727878570556641 0.67470479011535645 0.1159394383430481
0.95448571443557739 0.66486310958862305 0.15082827210426331
0.98680520057678223 0.64947628974914551 0.20338529348373413
0.99949038028717041 0.62755578756332397 0.25820204615592957
0.30927741527557373 0.76521366834640503 0.031184477731585503
0.35905641317367554 0.7664528489112854 0.038007326424121857
0.41731268167495728 0.76557224988937378 0.041817951947450638
0.48573166131973267 0.7626989483833313 0.038761556148529053
0.56213539838790894 0.75896477699279785 0.033262036740779877
0.64138913154602051 0.75548362731933594 0.03031412698328495
0.72016650438308716 0.75278651714324951 0.034086532890796661
0.79577946662902832 0.75035363435745239 0.043592385947704315
0.86821246147155762 0.74753731489181519 0.054210871458053589
0.93698185682296753 0.74337887763977051 0.065603695809841156
0.98458391427993774 0.73691028356552124 0.093016438186168671
0.99812209606170654 0.72683292627334595 0.15149155259132385
1 0.7101472020149231 0.22342376410961151
0.34259584546089172 0.82667791843414307 0.0033992393873631954
0.3913673460483551 0.82574337720870972 0.009297957643866539
0.44805735349655151 0.82334566116333008 0.014095949940383434
0.51419484615325928 0.82160681486129761 0.012292271479964256
0.58877944946289062 0.81895053386688232 0.0075646792538464069
0.6679113507270813 0.81742513179779053 0.0057212677784264088
0.74797528982162476 0.81566464900970459 0.0096772434189915657
0.82820510864257812 0.81336438655853271 0.018315961584448814
0.90704846382141113 0.8100583553314209 0.02438679151237011
0.97383618354797363 0.80649614334106445 0.024846170097589493
0.99950814247131348 0.80383265018463135 0.03297756239771843
1 0.79904639720916748 0.073884569108486176
1 0.78817319869995117 0.14281474053859711
0.35757440328598022 0.88872909545898438 0
0.40407338738441467 0.88530290126800537 7.0594338467344642e-05
0.46000897884368896 0.88193613290786743 0.0013167886063456535
0.52570188045501709 0.88032007217407227 0.0010048510739579797
0.59968066215515137 0.88049411773681641 8.2846250734291971e-05
0.67881160974502563 0.88027060031890869 0
0.76048821210861206 0.87925839424133301 0.00035820755874738097
0.84399420022964478 0.87717753648757935 0.0031737084500491619
0.92636418342590332 0.87352269887924194 0.0039598052389919758
0.98890507221221924 0.87045961618423462 0.0016777636483311653
1 0.86951172351837158 0.00043306537554599345
1 0.8680310845375061 0.0086091132834553719
1 0.86069536209106445 0.049704756587743759
0.35893458127975464 0.95318806171417236 0
0.40345883369445801 0.94935321807861328 0
0.45850825309753418 0.94592142105102539 0
0.52434378862380981 0.94496840238571167 0
0.59808081388473511 0.94524145126342773 0
0.67699712514877319 0.94592523574829102 0
0.75863468647003174 0.94589507579803467 0
0.84200352430343628 0.94457161426544189 0
0.92205965518951416 0.94183284044265747 0
0.98363345861434937 0.93948078155517578 0
0.99997472763061523 0.9390873908996582 0
1 0.93710947036743164 0
1 0.93165338039398193 0.0015336279757320881
0.052760660648345947 0.055204235017299652 0.12627114355564117
0.13008072972297668 0.047607917338609695 0.11599385738372803
0.21493236720561981 0.039200533181428909 0.10572104156017303
0.29959291219711304 0.030598778277635574 0.097526714205741882
0.3838094174861908 0.022223034873604774 0.092454947531223297
0.46755498647689819 0.016296416521072388 0.088675148785114288
0.55090570449829102 0.012111080810427666 0.08530011773109436
0.63252890110015869 0.0081753749400377274 0.084726519882678986
0.711029052734375 0.0049843131564557552 0.089173443615436554
0.78568899631500244 0.0035854564048349857 0.10427513718605042
0.85438555479049683 0.0048380382359027863 0.12895315885543823
0.91713303327560425 0.0030372170731425285 0.15217404067516327
0.97349274158477783 0.00036188762169331312 0.17140780389308929
0.078899919986724854 0.14804226160049438 0.14946042001247406
0.14474715292453766 0.14109218120574951 0.14052371680736542
0.2231273353099823 0.13063378632068634 0.13148811459541321
0.30596834421157837 0.119002565741539 0.1240624338388443
0.39017882943153381 0.10636734217405319 0.11821543425321579
0.47466784715652466 0.09398544579744339 0.11273600161075592
0.55880564451217651 0.081497147679328918 0.10724177956581116
0.64115601778030396 0.06734110414981842 0.10309922695159912
0.71986979246139526 0.04966774582862854 0.10332459211349487
0.79377752542495728 0.032260071486234665 0.11120026558637619
0.86172038316726685 0.016640981659293175 0.12786614894866943
0.92339712381362915 0.0037799312267452478 0.14871323108673096
0.97890985012054443 0.00021434111113194376 0.17068913578987122
0.09373638778924942 0.23540592193603516 0.1716771274805069
0.15277358889579773 0.22931329905986786 0.16399076581001282
0.22843736410140991 0.22074207663536072 0.15703822672367096
0.31146302819252014 0.2106863409280777 0.15135322511196136
0.39626264572143555 0.19854843616485596 0.14540846645832062
0.48125424981117249 0.18489381670951843 0.13891761004924774
0.56654447317123413 0.16853600740432739 0.13325175642967224
0.64948797225952148 0.14832501113414764 0.12900443375110626
0.72788769006729126 0.12132004648447037 0.12877486646175385
0.80053818225860596 0.087763033807277679 0.1344933807849884
0.86753290891647339 0.052802186459302902 0.14314804971218109
0.92812824249267578 0.020448947325348854 0.15467901527881622
0.98158031702041626 0.0037097707390785217 0.17279718816280365
0.088708795607089996 0.32013735175132751 0.1905292272567749
0.14980608224868774 0.31568318605422974 0.18324737250804901
0.23122242093086243 0.30900514125823975 0.17764878273010254
0.31765344738960266 0.30129659175872803 0.17324841022491455
0.40292549133300781 0.29197996854782104 0.16771189868450165
0.48840397596359253 0.28017941117286682 0.16200031340122223
0.57522028684616089 0.26428526639938354 0.15889967978000641
0.65922403335571289 0.24490493535995483 0.15715594589710236
0.73770689964294434 0.21679034829139709 0.15907007455825806
0.80932319164276123 0.17864224314689636 0.16623735427856445
0.87558108568191528 0.13638928532600403 0.17179316282272339
0.93468666076660156 0.091878749430179596 0.17841255664825439
0.98513352870941162 0.059616733342409134 0.19307206571102142
0.09504292905330658 0.40280085802078247 0.20034618675708771
0.15760460495948792 0.39979583024978638 0.19334864616394043
0.24083903431892395 0.39455440640449524 0.18765600025653839
0.32763636112213135 0.38922891020774841 0.18398639559745789
0.41251945495605469 0.38324424624443054 0.18051153421401978
0.49873524904251099 0.37437847256660461 0.17810603976249695
0.58624374866485596 0.36208382248878479 0.17896376550197601
0.67035079002380371 0.34675276279449463 0.18073996901512146
0.748573899269104 0.32422322034835815 0.18572472035884857
0.82047539949417114 0.29263392090797424 0.19544282555580139
0.88664430379867554 0.25738286972045898 0.20394821465015411
0.94380605220794678 0.21256393194198608 0.21433117985725403
0.9894598126411438 0.17152786254882812 0.22932663559913635
0.12205707281827927 0.48343032598495483 0.19671626389026642
0.18095768988132477 0.48176604509353638 0.18959718942642212
0.25773093104362488 0.47843658924102783 0.18330240249633789
0.34130963683128357 0.47507628798484802 0.18087500333786011
0.42655843496322632 0.47068542242050171 0.18126966059207916
0.51353800296783447 0.46388086676597595 0.18228472769260406
0.5999906063079834 0.45464649796485901 0.185505211353302
0.68249136209487915 0.44303432106971741 0.19172392785549164
0.75945484638214111 0.42565822601318359 0.20271341502666473
0.83131903409957886 0.40476086735725403 0.21797634661197662
0.89745205640792847 0.38032025098800659 0.23370516300201416
0.95243269205093384 0.34406894445419312 0.25091782212257385
0.99265444278717041 0.30264544486999512 0.26824823021888733
0.16208483278751373 0.56054341793060303 0.1784941554069519
0.21559727191925049 0.56078320741653442 0.17146104574203491
0.28355085849761963 0.5598064661026001 0.16434964537620544
0.36266756057739258 0.55695837736129761 0.16424542665481567
0.44734922051429749 0.55336040258407593 0.16798001527786255
0.53382879495620728 0.54759079217910767 0.16967150568962097
0.61834526062011719 0.54020780324935913 0.17225213348865509
0.69767230749130249 0.53189647197723389 0.18213620781898499
0.77210134267807007 0.52121353149414062 0.1995621919631958
0.84351950883865356 0.50746208429336548 0.22198343276977539
0.90859711170196533 0.48988544940948486 0.24771365523338318
0.96005827188491821 0.4630010724067688 0.27407854795455933
0.99436736106872559 0.42753225564956665 0.29831188917160034
0.2120877206325531 0.63367378711700439 0.14688456058502197
0.26155418157577515 0.63535648584365845 0.14160412549972534
0.32303130626678467 0.63508462905883789 0.13562746345996857
0.39683797955513 0.63300997018814087 0.13661357760429382
0.47824406623840332 0.62962079048156738 0.14090874791145325
0.56221610307693481 0.62439227104187012 0.14160862565040588
0.64351791143417358 0.61867624521255493 0.14326879382133484
0.71846276521682739 0.61315417289733887 0.15464559197425842
0.78934353590011597 0.60702162981033325 0.17452999949455261
0.85954880714416504 0.5979686975479126 0.20189599692821503
0.92358696460723877 0.58465480804443359 0.23775802552700043
0.97008281946182251 0.56423890590667725 0.2779020369052887
0.99658310413360596 0.53610968589782715 0.31528005003929138
0.27010408043861389 0.70262104272842407 0.10195240378379822
0.31744247674942017 0.70390468835830688 0.099787674844264984
0.37511372566223145 0.70380914211273193 0.097610905766487122
0.44341716170310974 0.70194405317306519 0.09835757315158844
0.52020919322967529 0.69835001230239868 0.099256090819835663
0.60014957189559937 0.6940428614616394 0.099032022058963776
0.67722219228744507 0.68998605012893677 0.10255531221628189
0.74830621480941772 0.68649262189865112 0.11386372894048691
0.81521123647689819 0.68273574113845825 0.1307036429643631
0.88379395008087158 0.67644619941711426 0.1578284353017807
0.94570964574813843 0.66576182842254639 0.20203806459903717
0.98425102233886719 0.65042811632156372 0.2604948878288269
0.99927151203155518 0.62902200222015381 0.31790778040885925
0.32822954654693604 0.76674103736877441 0.048603776842355728
0.37414675951004028 0.76739025115966797 0.047808147966861725
0.42856404185295105 0.76673018932342529 0.047608766704797745
0.49256172776222229 0.76381218433380127 0.048125248402357101
0.56518793106079102 0.76079052686691284 0.046747919172048569
0.64214622974395752 0.7577478289604187 0.04534931480884552
0.71746134757995605 0.75492984056472778 0.051441837102174759
0.7879442572593689 0.75269436836242676 0.06458842009305954
0.85590267181396484 0.74973636865615845 0.077515110373497009
0.92233282327651978 0.74506080150604248 0.096348285675048828
0.97407335042953491 0.73788738250732422 0.1394617110490799
0.99650329351425171 0.72726523876190186 0.21316218376159668
1 0.71127474308013916 0.2940153181552887
0.37062188982963562 0.82809871435165405 0.0061499052681028843
0.41459360718727112 0.82606297731399536 0.0064942003227770329
0.46686366200447083 0.82528674602508545 0.0069495853967964649
0.52853214740753174 0.82193869352340698 0.0066908444277942181
0.59950530529022217 0.82097262144088745 0.0049855997785925865
0.67573481798171997 0.81857454776763916 0.0041565392166376114
0.75150787830352783 0.81711500883102417 0.0093319462612271309
0.82633179426193237 0.81521415710449219 0.022196631878614426
0.90090590715408325 0.81204503774642944 0.029570950195193291
0.96551936864852905 0.8083721399307251 0.032466992735862732
0.99696296453475952 0.80464452505111694 0.058563936501741409
1 0.79885298013687134 0.13026933372020721
1 0.78814244270324707 0.22053198516368866
0.3839898407459259 0.889778733253479 0
0.42511159181594849 0.88701313734054565 0
0.47634202241897583 0.88422435522079468 0
0.53991419076919556 0.88234257698059082 0
0.61167812347412109 0.88164955377578735 0
0.68770575523376465 0.88144528865814209 0
0.76490336656570435 0.88085132837295532 2.9964072382426821e-05
0.84486991167068481 0.87900364398956299 0.0022594525944441557
0.92621785402297974 0.87559813261032104 0.0021388034801930189
0.98882573843002319 0.87221777439117432 0.00023761823831591755
1 0.87083083391189575 0.0025703280698508024
1 0.86779052019119263 0.034540422260761261
1 0.86069244146347046 0.11281295120716095
0.37622034549713135 0.95479756593704224 0
0.414711594581604 0.95126360654830933 0
0.46715342998504639 0.94849485158920288 0
0.53254061937332153 0.94745904207229614 0
0.60574066638946533 0.94757688045501709 0
0.68256032466888428 0.94812703132629395 0
0.76091355085372925 0.94828557968139648 0
0.84207010269165039 0.94716566801071167 0
0.92523068189620972 0.94420701265335083 0
0.98916423320770264 0.94106251001358032 0
1 0.93955624103546143 0
1 0.93798673152923584 0.00014431522868108004
1 0.93245476484298706 0.015312733128666878
0.0588352270424366 0.054250679910182953 0.19329272210597992
0.12714873254299164 0.048945661634206772 0.18437185883522034
0.20822511613368988 0.039782699197530746 0.17324623465538025
0.29289191961288452 0.02944527380168438 0.16356764733791351
0.37735578417778015 0.019428836181759834 0.15689738094806671
0.46099638938903809 0.013728991150856018 0.15057921409606934
0.543387770652771 0.0099279666319489479 0.14484462141990662
0.62403678894042969 0.0064454469829797745 0.14225830137729645
0.70172631740570068 0.0038203818257898092 0.14499957859516144
0.77577918767929077 0.002437337301671505 0.15650324523448944
0.84554725885391235 0.0032522163819521666 0.17512394487857819
0.90987354516983032 0.0034137051552534103 0.19336928427219391
0.96828216314315796 0.00036719828494824469 0.20977595448493958
0.080707848072052002 0.14844545722007751 0.21677558124065399
0.14123043417930603 0.14247649908065796 0.20922921597957611
0.21738818287849426 0.1312427818775177 0.19800911843776703
0.29938146471977234 0.11821673810482025 0.18848751485347748
0.38377770781517029 0.10344742238521576 0.18159370124340057
0.46744221448898315 0.090192638337612152 0.17442981898784637
0.5504576563835144 0.077528499066829681 0.16686034202575684
0.63149088621139526 0.063010528683662415 0.16078150272369385
0.70918047428131104 0.046347793191671371 0.15907786786556244
0.78250998258590698 0.029729312285780907 0.16438855230808258
0.85117030143737793 0.014642288908362389 0.17487871646881104
0.91453129053115845 0.0024694704916328192 0.18851454555988312
0.97194558382034302 5.2672741730930284e-05 0.20482215285301208
0.0906500443816185 0.23481510579586029 0.23510909080505371
0.14786408841609955 0.22890615463256836 0.2283477783203125
0.22210048139095306 0.22123122215270996 0.22017741203308105
0.30513504147529602 0.21098573505878448 0.2131497710943222
0.3901265561580658 0.1970367431640625 0.20700104534626007
0.47390660643577576 0.18209384381771088 0.19930277764797211
0.55756890773773193 0.16521503031253815 0.19182990491390228
0.63933801651000977 0.14440006017684937 0.18574374914169312
0.71678167581558228 0.11760242283344269 0.18291828036308289
0.78899043798446655 0.08542962372303009 0.18465280532836914
0.85645967721939087 0.050564292818307877 0.18708546459674835
0.91811269521713257 0.016101209446787834 0.19112831354141235
0.97390520572662354 0.0013154123444110155 0.20377089083194733
0.081518597900867462 0.32036644220352173 0.25117331743240356
0.13859832286834717 0.31631165742874146 0.24496875703334808
0.22119703888893127 0.30984801054000854 0.24000626802444458
0.31018352508544922 0.30175879597663879 0.23559862375259399
0.39585790038108826 0.29136452078819275 0.22876156866550446
0.48035436868667603 0.27827391028404236 0.22180788218975067
0.56553244590759277 0.26197981834411621 0.21691355109214783
0.64826321601867676 0.24110542237758636 0.2129095047712326
0.72574913501739502 0.21266648173332214 0.2118743509054184
0.79739296436309814 0.17546771466732025 0.21384286880493164
0.86399465799331665 0.13230200111865997 0.21374073624610901
0.92431372404098511 0.0856199711561203 0.21397864818572998
0.97775310277938843 0.051480580121278763 0.22346474230289459
0.089580580592155457 0.40365678071975708 0.26267868280410767
0.14585722982883453 0.4011986255645752 0.25637403130531311
0.22762705385684967 0.3962731659412384 0.25145325064659119
0.31613472104072571 0.39069104194641113 0.24770234525203705
0.40250486135482788 0.38365179300308228 0.24304328858852386
0.48873165249824524 0.37368211150169373 0.23937879502773285
0.57518118619918823 0.36053735017776489 0.23777547478675842
0.6581575870513916 0.34367272257804871 0.23693004250526428
0.73552489280700684 0.32002225518226624 0.23915190994739532
0.80743563175201416 0.28827282786369324 0.24385370314121246
0.87410587072372437 0.25101178884506226 0.24674427509307861
0.93298614025115967 0.20550543069839478 0.25125870108604431
0.98297631740570068 0.16395840048789978 0.26175016164779663
0.11659879237413406 0.48370090126991272 0.26269418001174927
0.16909866034984589 0.48323994874954224 0.2562662661075592
0.24280244112014771 0.48064002394676208 0.25051316618919373
0.32659181952476501 0.4771077036857605 0.24834515154361725
0.41290640830993652 0.47234833240509033 0.24824000895023346
0.50045877695083618 0.4648018479347229 0.24798159301280975
