assets/lut/films negative color kodak portra 160 nc.cube
# Created by: G'MIC (https://gmic.eu)
TITLE "kodak_portra_160_nc"
# LUT size
LUT_3D_SIZE 5
# Data domain
DOMAIN_MIN 0.0 0.0 0.0
DOMAIN_MAX 1.0 1.0 1.0
# LUT data points
0.022088712081313133 0.028114857152104378 0.029729386791586876
0.19280406832695007 0.057151045650243759 0.029904788359999657
0.51349401473999023 0.074244074523448944 0.010784583166241646
0.79787659645080566 0.11265888810157776 0.0013707778416574001
0.99014180898666382 0.22061486542224884 0.015370821580290794
0.0018599566537886858 0.22432494163513184 0.087243996560573578
0.18082299828529358 0.27677851915359497 0.02395559661090374
0.58724641799926758 0.28617742657661438 0.00027286304975859821
0.82492673397064209 0.28753966093063354 0
0.99378269910812378 0.34183570742607117 0.0050645414739847183
0 0.50847154855728149 0.19830383360385895
0.0075281630270183086 0.51799440383911133 0.20359370112419128
0.49275627732276917 0.58330506086349487 0.07033209502696991
0.84884941577911377 0.58077913522720337 0
0.99326622486114502 0.53387588262557983 0.0067671979777514935
0.07242477685213089 0.73068952560424805 0.39549508690834045
0.16892178356647491 0.7281343936920166 0.40446376800537109
0.40366455912590027 0.74301779270172119 0.37246274948120117
0.71614831686019897 0.78552955389022827 0.26447761058807373
0.98940098285675049 0.80080163478851318 0.18043279647827148
0.5803600549697876 0.91437137126922607 0.70229893922805786
0.60235452651977539 0.91409313678741455 0.70555573701858521
0.65160119533538818 0.91804301738739014 0.71320813894271851
0.74790483713150024 0.94087034463882446 0.68871170282363892
0.89985918998718262 0.96231549978256226 0.63764572143554688
0.013884720392525196 0.051240764558315277 0.23023496568202972
0.22797274589538574 0.057755444198846817 0.2286236435174942
0.54306548833847046 0.0177293810993433 0.20924361050128937
0.79541349411010742 0.092100076377391815 0.2244461327791214
0.98071497678756714 0.27857512235641479 0.26085284352302551
0.0036246057134121656 0.26910901069641113 0.26142427325248718
0.26383766531944275 0.2932191789150238 0.28344827890396118
0.57708221673965454 0.29923391342163086 0.26697367429733276
0.80287092924118042 0.32694622874259949 0.26275196671485901
0.98546296358108521 0.38125738501548767 0.27498516440391541
0.19333426654338837 0.54335629940032959 0.37971147894859314
0.25803026556968689 0.54266726970672607 0.37322831153869629
0.54081434011459351 0.59213858842849731 0.32079020142555237
0.83725148439407349 0.56884825229644775 0.26513141393661499
0.99224638938903809 0.54853290319442749 0.27298447489738464
0.31439432501792908 0.73998218774795532 0.50377893447875977
0.35065877437591553 0.73627465963363647 0.49483031034469604
0.46933379769325256 0.74502676725387573 0.48211562633514404
0.73937195539474487 0.78838992118835449 0.41343563795089722
0.98897475004196167 0.79917716979980469 0.36039301753044128
0.61060667037963867 0.91659891605377197 0.72525006532669067
0.62067151069641113 0.91409313678741455 0.72192692756652832
0.67419689893722534 0.91694897413253784 0.73699253797531128
0.75629252195358276 0.93743830919265747 0.72325342893600464
0.9094167947769165 0.96301752328872681 0.67817580699920654
0.0062760896980762482 0.097310148179531097 0.5555533766746521
0.2978397011756897 0.11700081825256348 0.56072789430618286
0.60042929649353027 0.17297780513763428 0.56262600421905518
0.81948572397232056 0.22797857224941254 0.51368874311447144
0.99192714691162109 0.28603577613830566 0.48046353459358215
6.5702552092261612e-05 0.31869247555732727 0.57358890771865845
0.3266347348690033 0.33947476744651794 0.58438313007354736
0.61663287878036499 0.38369196653366089 0.58335858583450317
0.81453067064285278 0.3827570378780365 0.53224515914916992
0.98119199275970459 0.41614276170730591 0.51239347457885742
0.19531425833702087 0.57552993297576904 0.57903444766998291
0.38529506325721741 0.58383351564407349 0.58891135454177856
0.60612291097640991 0.59619361162185669 0.60244309902191162
0.80190682411193848 0.58370935916900635 0.56907576322555542
0.96709209680557251 0.58307528495788574 0.54535293579101562
0.51533061265945435 0.7568817138671875 0.66191035509109497
0.56618088483810425 0.75771915912628174 0.67243319749832153
0.60201847553253174 0.7531735897064209 0.65194207429885864
0.76451390981674194 0.78571051359176636 0.62789952754974365
0.97795647382736206 0.78415143489837646 0.59198606014251709
0.69235455989837646 0.9180719256401062 0.79694956541061401
0.69979226589202881 0.91700488328933716 0.793742835521698
0.71450108289718628 0.92158645391464233 0.78649783134460449
0.77808815240859985 0.93085700273513794 0.78333455324172974
0.92338186502456665 0.96443778276443481 0.75633996725082397
0.20198547840118408 0.22327667474746704 0.80472201108932495
0.39626067876815796 0.25181111693382263 0.80184453725814819
0.65220469236373901 0.32250875234603882 0.8043714165687561
0.84342724084854126 0.39774942398071289 0.79026609659194946
0.96864777803421021 0.46447932720184326 0.75668907165527344
0.27234834432601929 0.3922361433506012 0.80306261777877808
0.42269375920295715 0.4076005220413208 0.80305349826812744
0.65680420398712158 0.45996662974357605 0.80601316690444946
0.83474552631378174 0.51515454053878784 0.79447788000106812
0.96211999654769897 0.55419921875 0.76969921588897705
0.23397479951381683 0.58486002683639526 0.78464406728744507
0.40947631001472473 0.59554934501647949 0.78980576992034912
0.63625836372375488 0.61873143911361694 0.79642289876937866
0.82496482133865356 0.66508787870407104 0.80491560697555542
0.94961929321289062 0.6749996542930603 0.78133565187454224
0.49297037720680237 0.77446192502975464 0.78582668304443359
0.54725927114486694 0.77619194984436035 0.79042911529541016
0.6685289740562439 0.78077024221420288 0.79538542032241821
0.804587721824646 0.79358118772506714 0.8072049617767334
0.95612853765487671 0.78685277700424194 0.79127287864685059
0.72585785388946533 0.92801713943481445 0.86016172170639038
0.73873335123062134 0.92834967374801636 0.86265504360198975
0.78853118419647217 0.93200474977493286 0.86692637205123901
0.82677149772644043 0.93820756673812866 0.86398786306381226
0.94106340408325195 0.96554994583129883 0.85286629199981689
0.53264153003692627 0.4731997549533844 0.95902442932128906
0.59888148307800293 0.4895135760307312 0.95748543739318848
0.73734307289123535 0.54089152812957764 0.95186054706573486
0.87922763824462891 0.62571996450424194 0.94766455888748169
0.99505305290222168 0.66361361742019653 0.94722384214401245
0.557056725025177 0.55516958236694336 0.95577234029769897
0.61843091249465942 0.56752198934555054 0.95447355508804321
0.7437666654586792 0.60668933391571045 0.94971990585327148
0.87597799301147461 0.66465222835540771 0.94583737850189209
0.9822809100151062 0.70382159948348999 0.94105643033981323
0.54873210191726685 0.67129242420196533 0.95132541656494141
0.6147916316986084 0.68129396438598633 0.95042437314987183
0.72991663217544556 0.7001461386680603 0.94822770357131958
0.8695569634437561 0.74259907007217407 0.94648104906082153
0.97667932510375977 0.76807159185409546 0.9468846321105957
0.55147683620452881 0.80843061208724976 0.94651699066162109
0.59137827157974243 0.81144207715988159 0.94675874710083008
0.67930465936660767 0.80614864826202393 0.94985049962997437
0.84385102987289429 0.82409536838531494 0.95507669448852539
0.97096902132034302 0.86232948303222656 0.95810514688491821
0.71169155836105347 0.95308417081832886 0.95432054996490479
0.72401481866836548 0.94992148876190186 0.95329868793487549
0.77956134080886841 0.95532804727554321 0.95848262310028076
0.8637116551399231 0.95759707689285278 0.96319568157196045
0.9796634316444397 0.97233778238296509 0.97543179988861084
