assets/lut/films colorslide fuji fp 100c.cube
# Created by: G'MIC (https://gmic.eu)
TITLE "fuji_fp_100c"
# LUT size
LUT_3D_SIZE 5
# Data domain
DOMAIN_MIN 0.0 0.0 0.0
DOMAIN_MAX 1.0 1.0 1.0
# LUT data points
0.021125059574842453 0.023468675091862679 0.016998514533042908
0.12644475698471069 0.021908434107899666 0.013165268115699291
0.29627889394760132 0.0051152249798178673 0.0029768850654363632
0.58003842830657959 0.014600731432437897 0.0038393058348447084
0.7875831127166748 0.0043908213265240192 0
0.11735525727272034 0.19352301955223083 0.075091511011123657
0.2004445493221283 0.1795104444026947 0.059180524200201035
0.39056697487831116 0.15505708754062653 0.03195483610033989
0.63603907823562622 0.084664382040500641 0.010025458410382271
0.82294714450836182 0.023297194391489029 0.0010426988592371345
0.19630484282970428 0.48313096165657043 0.13618342578411102
0.30882120132446289 0.47103360295295715 0.12499473243951797
0.51164060831069946 0.45158997178077698 0.089287072420120239
0.73520117998123169 0.38514536619186401 0.044190350919961929
0.89941102266311646 0.33227068185806274 0.018688995391130447
0.47594884037971497 0.73280000686645508 0.10077176243066788
0.54463052749633789 0.72185921669006348 0.092715196311473846
0.69235849380493164 0.71158033609390259 0.076493054628372192
0.84564852714538574 0.68949443101882935 0.062661580741405487
0.95831209421157837 0.65126097202301025 0.057610440999269485
0.80538344383239746 0.85600113868713379 0.01508783083409071
0.82768386602401733 0.84918838739395142 0.013404143042862415
0.88977056741714478 0.8483547568321228 0.012309369631111622
0.95100748538970947 0.83285653591156006 0.012948309071362019
0.996837317943573 0.82919853925704956 0.011811334639787674
0.026967216283082962 0.033586077392101288 0.15180504322052002
0.12824934720993042 0.024251122027635574 0.13901574909687042
0.31554886698722839 0.011136448010802269 0.095084324479103088
0.5757635235786438 0.0028886683285236359 0.030883818864822388
0.79433190822601318 2.0464729459490627e-05 0.0096461279317736626
0.11524882912635803 0.21243134140968323 0.21205547451972961
0.19584400951862335 0.20133650302886963 0.19341489672660828
0.39135974645614624 0.16152440011501312 0.15307223796844482
0.63735651969909668 0.10033223778009415 0.095276117324829102
0.82573956251144409 0.027544567361474037 0.048077855259180069
0.18978013098239899 0.50781106948852539 0.27613651752471924
0.2993532121181488 0.49294564127922058 0.25969904661178589
0.51152652502059937 0.4604707658290863 0.22734981775283813
0.73534178733825684 0.41021820902824402 0.17983788251876831
0.89588266611099243 0.33684861660003662 0.15530261397361755
0.46346825361251831 0.74636781215667725 0.25974535942077637
0.53925234079360962 0.74110990762710571 0.25423154234886169
0.68426710367202759 0.72836935520172119 0.23013712465763092
0.83018392324447632 0.70871645212173462 0.22060930728912354
0.9564284086227417 0.68002206087112427 0.22075799107551575
0.80106782913208008 0.87146246433258057 0.056985143572092056
0.8228415846824646 0.86829537153244019 0.05509929358959198
0.87579518556594849 0.86300742626190186 0.050936948508024216
0.9490591287612915 0.85895687341690063 0.05937773734331131
0.99514752626419067 0.85074645280838013 0.086266852915287018
0.022447189316153526 0.049960475414991379 0.35213512182235718
0.11856678873300552 0.03506222739815712 0.33718386292457581
0.31115931272506714 0.018539354205131531 0.3021799623966217
0.57564681768417358 0.007093511987477541 0.24064187705516815
0.78307956457138062 8.4013096056878567e-05 0.20934675633907318
0.09323042631149292 0.24556498229503632 0.43895035982131958
0.1929234117269516 0.22078403830528259 0.42042851448059082
0.39563125371932983 0.18501414358615875 0.38879254460334778
0.63707453012466431 0.12392833828926086 0.33303529024124146
0.81130397319793701 0.039593968540430069 0.29027187824249268
0.14024505019187927 0.53425818681716919 0.53740018606185913
0.2839978039264679 0.52308577299118042 0.52319467067718506
0.50801932811737061 0.50490421056747437 0.499794602394104
0.71657633781433105 0.44959694147109985 0.45556730031967163
0.87499195337295532 0.37132880091667175 0.43071159720420837
0.43051549792289734 0.77624821662902832 0.57599705457687378
0.51122474670410156 0.77101355791091919 0.57475149631500244
0.65427464246749878 0.76462787389755249 0.55640065670013428
0.7981497049331665 0.74395561218261719 0.54160153865814209
0.9245980978012085 0.70882856845855713 0.53354001045227051
0.75324732065200806 0.90719026327133179 0.47400566935539246
0.78256863355636597 0.90762770175933838 0.47659268975257874
0.82982057332992554 0.90265697240829468 0.48377430438995361
0.90336662530899048 0.89916205406188965 0.49255329370498657
0.9831048846244812 0.89309573173522949 0.50399339199066162
0.021376755088567734 0.07185797393321991 0.60462868213653564
0.12281658500432968 0.0554366335272789 0.58742392063140869
0.31358009576797485 0.029110254719853401 0.54989010095596313
0.57663577795028687 0.010018502362072468 0.49067449569702148
0.76289921998977661 0.0038078008219599724 0.45345979928970337
0.092091098427772522 0.26661926507949829 0.68274116516113281
0.18467602133750916 0.2492510974407196 0.67112046480178833
0.40398511290550232 0.21834540367126465 0.63094156980514526
0.63847535848617554 0.15383432805538177 0.56960844993591309
0.79985648393630981 0.069293603301048279 0.52033090591430664
0.14177969098091125 0.56246942281723022 0.77480286359786987
0.29746633768081665 0.54918533563613892 0.75760895013809204
0.50954395532608032 0.52742898464202881 0.72350192070007324
0.71148443222045898 0.48591530323028564 0.68548798561096191
0.86330389976501465 0.40261361002922058 0.6397627592086792
0.44281181693077087 0.80874443054199219 0.8199954628944397
0.51539450883865356 0.80395239591598511 0.81312209367752075
0.64704304933547974 0.79387921094894409 0.79445946216583252
0.78381717205047607 0.77504473924636841 0.77137833833694458
0.89716458320617676 0.74853891134262085 0.75552034378051758
0.72586429119110107 0.94847041368484497 0.79885458946228027
0.75060170888900757 0.94769942760467529 0.79697877168655396
0.79997414350509644 0.9449877142906189 0.79779869318008423
0.86946314573287964 0.94047319889068604 0.79537159204483032
0.96277284622192383 0.92917311191558838 0.78224897384643555
0.033564772456884384 0.093410864472389221 0.77786946296691895
0.15334270894527435 0.069679334759712219 0.74894702434539795
0.3517778217792511 0.042042870074510574 0.70067483186721802
0.59335726499557495 0.0068169538863003254 0.63699817657470703
0.7734600305557251 0.0053334254771471024 0.58874654769897461
0.12362920492887497 0.27228739857673645 0.82950907945632935
0.23516018688678741 0.26014843583106995 0.81080335378646851
0.439759761095047 0.21691077947616577 0.75880593061447144
0.64621931314468384 0.15664610266685486 0.70155417919158936
0.79861545562744141 0.069139458239078522 0.65059983730316162
0.2535860538482666 0.58226317167282104 0.90169548988342285
0.35988861322402954 0.56347751617431641 0.88786929845809937
0.54383271932601929 0.52535051107406616 0.84918004274368286
0.72873455286026001 0.48704984784126282 0.80665630102157593
0.86280149221420288 0.40865308046340942 0.76084023714065552
0.5049903392791748 0.82228630781173706 0.95228284597396851
0.54977792501449585 0.81239098310470581 0.93235403299331665
0.66919374465942383 0.80263954401016235 0.92134636640548706
0.78447788953781128 0.7895238995552063 0.90106755495071411
0.90274333953857422 0.75220096111297607 0.86501932144165039
0.73892402648925781 0.97217470407485962 0.96814405918121338
0.75210058689117432 0.96819490194320679 0.96519654989242554
0.8010791540145874 0.96881133317947388 0.96192890405654907
0.86427503824234009 0.96157586574554443 0.95802599191665649
0.94312179088592529 0.95205152034759521 0.93755829334259033
