assets/lut/films colorslide fuji fp 100c.cube
# Created by: G'MIC (https://gmic.eu)
TITLE "fuji_fp_100c"
# LUT size
LUT_3D_SIZE 13
# Data domain
DOMAIN_MIN 0.0 0.0 0.0
DOMAIN_MAX 1.0 1.0 1.0
# LUT data points
0.021125059574842453 0.023468675091862679 0.016998514533042908
0.044487297534942627 0.020407836884260178 0.015517036430537701
0.084241874516010284 0.02327798493206501 0.012566540390253067
0.12644475698471069 0.021908434107899666 0.013165268115699291
0.16882197558879852 0.015541675500571728 0.011697836220264435
0.23018501698970795 0.010591768659651279 0.0067993314005434513
0.29627889394760132 0.0051152249798178673 0.0029768850654363632
0.37658259272575378 0.004416491836309433 0.0011990267084911466
0.47797864675521851 0.01040909718722105 0.0038406671956181526
0.58003842830657959 0.014600731432437897 0.0038393058348447084
0.65857410430908203 0.012367936782538891 0.0010995154734700918
0.72562140226364136 0.0074662449769675732 0
0.7875831127166748 0.0043908213265240192 0
0.048625301569700241 0.066177472472190857 0.030735868960618973
0.071559563279151917 0.064112402498722076 0.027869788929820061
0.10398357361555099 0.057489536702632904 0.022363385185599327
0.14802241325378418 0.056932486593723297 0.020949015393853188
0.19696894288063049 0.048718620091676712 0.016360817477107048
0.2548002302646637 0.037385422736406326 0.0094738826155662537
0.32432112097740173 0.029834417626261711 0.0079213613644242287
0.4034447968006134 0.019801853224635124 0.0051977867260575294
0.4994928240776062 0.017074450850486755 0.0040826387703418732
0.59367960691452026 0.016614951193332672 0.0026008007116615772
0.66575825214385986 0.013577793724834919 2.9021617592661642e-05
0.73228543996810913 0.012244430370628834 0
0.79315882921218872 0.01054063718765974 0
0.083570621907711029 0.12442228943109512 0.049687672406435013
0.10066983103752136 0.12098643183708191 0.048208467662334442
0.13160800933837891 0.11801639944314957 0.047393620014190674
0.17080563306808472 0.11072788387537003 0.037007678300142288
0.22365577518939972 0.10297264903783798 0.030107416212558746
0.28579378128051758 0.093609437346458435 0.02273927628993988
0.35672977566719055 0.084299154579639435 0.018872488290071487
0.4352630078792572 0.068190045654773712 0.01549880113452673
0.52546477317810059 0.043000493198633194 0.0084203537553548813
0.60956847667694092 0.025480518117547035 0.0024073133245110512
0.67750203609466553 0.02356293611228466 0.0015016891993582249
0.74324822425842285 0.020335746929049492 0.0015141356270760298
0.80373466014862061 0.016410259529948235 0.00037859746953472495
0.11735525727272034 0.19352301955223083 0.075091511011123657
0.13415132462978363 0.1902201920747757 0.07215302437543869
0.16093669831752777 0.18604430556297302 0.067391403019428253
0.2004445493221283 0.1795104444026947 0.059180524200201035
0.25206220149993896 0.17245732247829437 0.051185712218284607
0.3202146589756012 0.16621020436286926 0.041884701699018478
0.39056697487831116 0.15505708754062653 0.03195483610033989
0.4705522358417511 0.13439285755157471 0.027014086022973061
0.55668407678604126 0.10876709967851639 0.021151375025510788
0.63603907823562622 0.084664382040500641 0.010025458410382271
0.70330905914306641 0.071376025676727295 0.0048406114801764488
0.76414817571640015 0.047487866133451462 0.0038363288622349501
0.82294714450836182 0.023297194391489029 0.0010426988592371345
0.14319807291030884 0.27608755230903625 0.09743499755859375
0.1595609039068222 0.27185657620429993 0.094434283673763275
0.18791750073432922 0.26936933398246765 0.090336896479129791
0.23066206276416779 0.26301631331443787 0.083691209554672241
0.28213196992874146 0.25562676787376404 0.074150487780570984
0.35101702809333801 0.24684834480285645 0.061389490962028503
0.421866774559021 0.23106491565704346 0.045989092439413071
0.50520783662796021 0.21357016265392303 0.041695971041917801
0.58789688348770142 0.19482184946537018 0.033165488392114639
0.66663813591003418 0.1689012348651886 0.017916779965162277
0.73782145977020264 0.14373461902141571 0.0074985278770327568
0.79591178894042969 0.11359430849552155 0.0064797196537256241
0.84990042448043823 0.079457223415374756 0.0043469150550663471
0.16482828557491302 0.37600696086883545 0.11922904849052429
0.18375581502914429 0.36795151233673096 0.1168321818113327
0.21432651579380035 0.36680382490158081 0.11370041966438293
0.26261651515960693 0.36528703570365906 0.11041268706321716
0.32047030329704285 0.36158835887908936 0.10208563506603241
0.38832712173461914 0.35236972570419312 0.086244158446788788
0.46391803026199341 0.33590283989906311 0.068233728408813477
0.54527395963668823 0.31476417183876038 0.056918319314718246
0.62532353401184082 0.29282268881797791 0.042234130203723907
0.70131027698516846 0.26784512400627136 0.027592454105615616
0.77001577615737915 0.24487994611263275 0.018533101305365562
0.82841229438781738 0.22382290661334991 0.011982741765677929
0.8733106255531311 0.20324186980724335 0.0092575373128056526
0.19630484282970428 0.48313096165657043 0.13618342578411102
0.22751857340335846 0.47545602917671204 0.1306459903717041
0.26152235269546509 0.47259989380836487 0.12667804956436157
0.30882120132446289 0.47103360295295715 0.12499473243951797
0.36703029274940491 0.46754413843154907 0.11729610711336136
0.4324764609336853 0.45961496233940125 0.10450397431850433
0.51164060831069946 0.45158997178077698 0.089287072420120239
0.59106677770614624 0.43216493725776672 0.073084436357021332
0.66657304763793945 0.40643548965454102 0.057111896574497223
0.73520117998123169 0.38514536619186401 0.044190350919961929
0.80071425437927246 0.37083294987678528 0.035975735634565353
0.85921162366867065 0.34949707984924316 0.025200728327035904
0.89941102266311646 0.33227068185806274 0.018688995391130447
0.2687174379825592 0.58160305023193359 0.1379135400056839
0.29134207963943481 0.58315378427505493 0.13529515266418457
0.32462620735168457 0.58036822080612183 0.13138239085674286
0.37073042988777161 0.57733714580535889 0.12761172652244568
0.4262358546257019 0.57093513011932373 0.11789516359567642
0.49379429221153259 0.56376683712005615 0.10771189630031586
0.56824088096618652 0.55549168586730957 0.095755331218242645
0.63819229602813721 0.54350203275680542 0.084570012986660004
0.70758485794067383 0.52137225866317749 0.072175584733486176
0.77297854423522949 0.50418812036514282 0.060932040214538574
0.83250129222869873 0.49644792079925537 0.05199534073472023
0.88384652137756348 0.47565972805023193 0.047007076442241669
0.92890208959579468 0.45935636758804321 0.041870042681694031
0.36265978217124939 0.67002826929092407 0.12498483061790466
0.38113424181938171 0.66928154230117798 0.12487911432981491
0.41088539361953735 0.66376954317092896 0.12006253749132156
0.45497909188270569 0.65984350442886353 0.11389565467834473
0.50005608797073364 0.65531355142593384 0.10747786611318588
0.56153923273086548 0.64953398704528809 0.10068797320127487
0.63088458776473999 0.63902574777603149 0.089363589882850647
0.69401532411575317 0.63068753480911255 0.080777980387210846
0.75409936904907227 0.62345808744430542 0.076225116848945618
0.81138771772384644 0.61083072423934937 0.069295354187488556
0.86079990863800049 0.59825891256332397 0.062921173870563507
0.90764355659484863 0.5844351053237915 0.060492139309644699
0.9532470703125 0.57236981391906738 0.058549288660287857
0.47594884037971497 0.73280000686645508 0.10077176243066788
0.49173471331596375 0.73014205694198608 0.099984325468540192
0.51135194301605225 0.72699093818664551 0.096625231206417084
0.54463052749633789 0.72185921669006348 0.092715196311473846
0.58838003873825073 0.71621197462081909 0.085829682648181915
0.64012724161148071 0.71590179204940796 0.08144938200712204
0.69235849380493164 0.71158033609390259 0.076493054628372192
0.7474445104598999 0.70405006408691406 0.070949256420135498
0.79992854595184326 0.69656252861022949 0.065800957381725311
0.84564852714538574 0.68949443101882935 0.062661580741405487
0.88906729221343994 0.68268400430679321 0.061038073152303696
0.92537236213684082 0.67189282178878784 0.061250530183315277
0.95831209421157837 0.65126097202301025 0.057610440999269485
0.59290057420730591 0.77918374538421631 0.077408552169799805
0.60180580615997314 0.77789080142974854 0.074881322681903839
0.61235892772674561 0.77511966228485107 0.069205008447170258
0.63962173461914062 0.77253556251525879 0.065246790647506714
0.67665368318557739 0.769866943359375 0.058451663702726364
0.71779388189315796 0.76756703853607178 0.057900656014680862
0.7574772834777832 0.76350581645965576 0.057322453707456589
0.79913598299026489 0.75862324237823486 0.053235568106174469
0.84071779251098633 0.75357133150100708 0.047843288630247116
0.87893176078796387 0.74750727415084839 0.046671759337186813
0.91530632972717285 0.74249827861785889 0.045644693076610565
0.94305688142776489 0.73111915588378906 0.047358062118291855
0.96645009517669678 0.71588426828384399 0.047205425798892975
0.70291256904602051 0.81937879323959351 0.047169838100671768
0.70887935161590576 0.81811046600341797 0.045752041041851044
0.71724677085876465 0.81451064348220825 0.041528530418872833
0.73985689878463745 0.81307446956634521 0.037459548562765121
0.76153278350830078 0.81240350008010864 0.033430509269237518
0.78987520933151245 0.81060081720352173 0.035361960530281067
0.82429474592208862 0.806449294090271 0.035587430000305176
0.85749179124832153 0.80258452892303467 0.031775381416082382
0.88703685998916626 0.79961609840393066 0.027431247755885124
0.91348570585250854 0.79524874687194824 0.028662258759140968
0.94328123331069946 0.79319190979003906 0.029881181195378304
0.96307724714279175 0.7863306999206543 0.031430862843990326
0.98318588733673096 0.77876412868499756 0.03039652481675148
0.80538344383239746 0.85600113868713379 0.01508783083409071
0.81103163957595825 0.85485899448394775 0.015187207609415054
0.81719273328781128 0.85218274593353271 0.01405385322868824
0.82768386602401733 0.84918838739395142 0.013404143042862415
0.84011924266815186 0.84716367721557617 0.014640494249761105
0.86351943016052246 0.84906584024429321 0.013081359677016735
0.88977056741714478 0.8483547568321228 0.012309369631111622
0.91360002756118774 0.84400534629821777 0.010049034841358662
0.93201196193695068 0.83717876672744751 0.011308766901493073
0.95100748538970947 0.83285653591156006 0.012948309071362019
0.97204220294952393 0.83358514308929443 0.012686321511864662
0.98862463235855103 0.83193272352218628 0.013795755803585052
0.996837317943573 0.82919853925704956 0.011811334639787674
0.02315654419362545 0.025226503610610962 0.054250411689281464
0.044310655444860458 0.023066861554980278 0.047573599964380264
0.079457268118858337 0.021035183221101761 0.041418321430683136
0.12388896197080612 0.018271936103701591 0.03839130699634552
0.17507593333721161 0.016106624156236649 0.035431791096925735
0.23517012596130371 0.014989441260695457 0.026681069284677505
0.29822927713394165 0.010792466811835766 0.014012998901307583
0.37543734908103943 0.0062827165238559246 0.0064417971298098564
0.47477835416793823 0.0080093536525964737 0.0060295402072370052
0.5760958194732666 0.010588358156383038 0.0060702902264893055
0.65530538558959961 0.0087947472929954529 0.0043172650039196014
0.72481012344360352 0.0057976217940449715 0.002517640357837081
0.79246228933334351 0.0028340807184576988 0.00043364879093132913
0.048772908747196198 0.073122076690196991 0.072915367782115936
0.072027139365673065 0.070683814585208893 0.067244507372379303
0.10374528169631958 0.066392384469509125 0.059626322239637375
0.14797224104404449 0.060829564929008484 0.05270037055015564
0.20064155757427216 0.051187373697757721 0.04304853081703186
0.2558535635471344 0.039093781262636185 0.031294997781515121
0.32627987861633301 0.035518750548362732 0.023947382345795631
0.40422892570495605 0.028134409338235855 0.016880948096513748
0.49561360478401184 0.017041943967342377 0.0082604503259062767
0.59024268388748169 0.01277236919850111 0.0038133659400045872
0.66407263278961182 0.0099805491045117378 0.0020604003220796585
0.73269510269165039 0.0096998177468776703 0.0032698088325560093
0.79634219408035278 0.0084805954247713089 0.0023950613103806973
0.08250928670167923 0.13233743607997894 0.092491433024406433
0.10209989547729492 0.12658560276031494 0.086791530251502991
0.12813632190227509 0.12115661054849625 0.079105034470558167
0.17105603218078613 0.11518073081970215 0.071810029447078705
0.22496712207794189 0.10866815596818924 0.062453281134366989
0.28699573874473572 0.10054485499858856 0.051379334181547165
0.35539537668228149 0.082815878093242645 0.03412913903594017
0.43383273482322693 0.06720307469367981 0.022419678047299385
0.52338218688964844 0.049244467169046402 0.015039616264402866
0.60900509357452393 0.02944202721118927 0.0059283087030053139
0.6767999529838562 0.021963829174637794 0.0051787584088742733
0.74420666694641113 0.01854420080780983 0.0076900259591639042
0.80447053909301758 0.013809099793434143 0.0048557356931269169
0.11613280326128006 0.20018771290779114 0.11153100430965424
0.1317165344953537 0.19861273467540741 0.10752545297145844
0.15797215700149536 0.19589303433895111 0.10240881145000458
0.20023053884506226 0.18908849358558655 0.095173776149749756
0.25169020891189575 0.18075647950172424 0.086455777287483215
0.31630471348762512 0.17143209278583527 0.07480747252702713
0.38740792870521545 0.15426231920719147 0.055278763175010681
0.46657738089561462 0.13372550904750824 0.040046259760856628
0.55355167388916016 0.11232226341962814 0.031955823302268982
0.63419228792190552 0.091126807034015656 0.021222403272986412
0.70182126760482788 0.07355046272277832 0.01470528356730938
0.76447969675064087 0.047980528324842453 0.014013851061463356
0.82170206308364868 0.024938590824604034 0.010049109347164631
0.13947463035583496 0.28306758403778076 0.13098393380641937
0.15263253450393677 0.27968457341194153 0.12672506272792816
0.18441261351108551 0.27718865871429443 0.12335369735956192
0.23155792057514191 0.2739047110080719 0.11937403678894043
0.28236842155456543 0.26404097676277161 0.11012492328882217
0.34894672036170959 0.25299018621444702 0.09703381359577179
0.42474010586738586 0.2350010871887207 0.077386073768138885
0.50466954708099365 0.21436437964439392 0.059825599193572998
0.58610051870346069 0.19402006268501282 0.046807635575532913
0.66533476114273071 0.17210684716701508 0.032941840589046478
0.73537462949752808 0.14701630175113678 0.024174245074391365
0.79500949382781982 0.11749199032783508 0.021343979984521866
0.84586387872695923 0.085619322955608368 0.018704088404774666
0.15949994325637817 0.38275402784347534 0.14997033774852753
0.17574568092823029 0.37227010726928711 0.14561480283737183
0.21389554440975189 0.37122282385826111 0.1430094838142395
0.26408696174621582 0.37261191010475159 0.13994579017162323
0.31970292329788208 0.36601030826568604 0.13196513056755066
0.38853418827056885 0.35571205615997314 0.12022030353546143
0.46380534768104553 0.33683204650878906 0.10054849088191986
0.54428005218505859 0.31321164965629578 0.078321211040019989
0.62475830316543579 0.29288747906684875 0.060806244611740112
0.7005317211151123 0.27276545763015747 0.046567834913730621
0.76676863431930542 0.24971690773963928 0.039099346846342087
0.82562386989593506 0.22979284822940826 0.03471100702881813
0.87257230281829834 0.20316039025783539 0.030280379578471184
0.1960761547088623 0.48750501871109009 0.16531994938850403
0.22756589949131012 0.48230478167533875 0.16005705296993256
0.26066529750823975 0.47942158579826355 0.15435077250003815
0.30734533071517944 0.47754892706871033 0.15106587111949921
0.36782291531562805 0.46748316287994385 0.14460740983486176
0.43471387028694153 0.46006378531455994 0.13623945415019989
0.50912785530090332 0.45046126842498779 0.12100037187337875
0.58780211210250854 0.42971345782279968 0.10021217167377472
0.66630041599273682 0.4067997932434082 0.08118215948343277
0.73409432172775269 0.38891246914863586 0.072135061025619507
0.7966989278793335 0.37576460838317871 0.063845254480838776
0.85770350694656372 0.36021184921264648 0.052674014121294022
0.90469735860824585 0.3338986337184906 0.045711234211921692
0.26719650626182556 0.58700686693191528 0.17132656276226044
0.29380637407302856 0.58841192722320557 0.16924314200878143
0.32252836227416992 0.58686733245849609 0.16004545986652374
0.36495381593704224 0.58139920234680176 0.15065495669841766
0.42786592245101929 0.56896167993545532 0.14573295414447784
0.49345743656158447 0.56240057945251465 0.13530139625072479
0.56394124031066895 0.55416190624237061 0.12480147182941437
0.63627386093139648 0.54315412044525146 0.11370083689689636
0.70758825540542603 0.52540689706802368 0.10017148405313492
0.77056533098220825 0.50586217641830444 0.092121526598930359
0.82982426881790161 0.49168094992637634 0.082017280161380768
0.88331896066665649 0.4787689745426178 0.072981767356395721
0.92918813228607178 0.45909523963928223 0.068616844713687897
0.358502596616745 0.67402404546737671 0.16079390048980713
0.38128596544265747 0.67350786924362183 0.16171747446060181
0.41084936261177063 0.668662428855896 0.154671311378479
0.44913852214813232 0.6633945107460022 0.13929767906665802
0.50159770250320435 0.65632343292236328 0.13346996903419495
0.56157803535461426 0.65211343765258789 0.12563104927539825
0.62302869558334351 0.64253312349319458 0.11772210896015167
0.68872058391571045 0.63073945045471191 0.10846468061208725
0.75241053104400635 0.62304198741912842 0.10270553082227707
0.80715370178222656 0.61154270172119141 0.096850663423538208
0.85942023992538452 0.59742307662963867 0.087772771716117859
0.90628528594970703 0.58467423915863037 0.086963891983032227
0.9489179253578186 0.57441669702529907 0.089137181639671326
0.4761887788772583 0.73533660173416138 0.12619712948799133
0.4917958676815033 0.73452705144882202 0.12827908992767334
0.51117771863937378 0.73240751028060913 0.13003063201904297
0.54195684194564819 0.72894060611724854 0.11657705903053284
0.58549362421035767 0.72325241565704346 0.10859120637178421
0.63836455345153809 0.71747928857803345 0.10352174192667007
0.68858593702316284 0.71093851327896118 0.10084907710552216
0.74220412969589233 0.70552027225494385 0.093745380640029907
0.79629433155059814 0.69867289066314697 0.088532589375972748
0.84446769952774048 0.69195103645324707 0.086616680026054382
0.88666236400604248 0.68587476015090942 0.084803260862827301
0.92444753646850586 0.67417424917221069 0.088759705424308777
0.96056592464447021 0.66013050079345703 0.091061882674694061
0.59403449296951294 0.78523111343383789 0.091745980083942413
0.6012997031211853 0.78369683027267456 0.09046599268913269
0.61729902029037476 0.78096836805343628 0.090864025056362152
0.64160549640655518 0.77761423587799072 0.086897969245910645
0.67639076709747314 0.77458477020263672 0.079057313501834869
0.71334934234619141 0.77102208137512207 0.078288748860359192
0.75501465797424316 0.76569890975952148 0.079200625419616699
0.79888546466827393 0.76070511341094971 0.07256210595369339
0.83695334196090698 0.75773352384567261 0.069135762751102448
0.87637543678283691 0.75149697065353394 0.06808064877986908
0.91396975517272949 0.7461891770362854 0.066599920392036438
0.943398118019104 0.73526698350906372 0.071137808263301849
0.97020787000656128 0.7238503098487854 0.079008288681507111
0.70429486036300659 0.82456666231155396 0.055058453232049942
0.70916223526000977 0.8233182430267334 0.054747175425291061
0.72044503688812256 0.82074117660522461 0.053952369838953018
0.73948878049850464 0.81847840547561646 0.052187871187925339
0.76212090253829956 0.81591111421585083 0.04579303041100502
0.78710442781448364 0.81288057565689087 0.049947969615459442
0.81929141283035278 0.80978792905807495 0.053046461194753647
0.85435599088668823 0.80489891767501831 0.046244483441114426
0.88536810874938965 0.80400043725967407 0.042449906468391418
0.91487199068069458 0.80131644010543823 0.042817629873752594
0.94401174783706665 0.79703348875045776 0.042893517762422562
0.96233361959457397 0.79103833436965942 0.049430489540100098
0.98374092578887939 0.78514355421066284 0.057230766862630844
0.80838662385940552 0.85973465442657471 0.017740018665790558
0.80950939655303955 0.85829108953475952 0.019478233531117439
0.81831651926040649 0.85655194520950317 0.018310472369194031
0.83263105154037476 0.85436403751373291 0.016092441976070404
0.84607404470443726 0.85123747587203979 0.015773877501487732
0.8624882698059082 0.84988433122634888 0.017068810760974884
0.88729435205459595 0.84959971904754639 0.016609147191047668
0.91207170486450195 0.84657591581344604 0.015218113549053669
0.93705368041992188 0.84402298927307129 0.012927754782140255
0.96030116081237793 0.84089154005050659 0.014783836901187897
0.97296208143234253 0.83433771133422852 0.024158911779522896
0.98370158672332764 0.83277785778045654 0.030914470553398132
0.99280345439910889 0.83328747749328613 0.027683407068252563
0.024065129458904266 0.02623482421040535 0.097115971148014069
0.044619511812925339 0.024332951754331589 0.092906922101974487
0.079464301466941833 0.023214332759380341 0.086002975702285767
0.12419889867305756 0.019363822415471077 0.080658882856369019
0.17367854714393616 0.017234906554222107 0.072531111538410187
0.23153397440910339 0.01331742201000452 0.059279393404722214
0.30664375424385071 0.010207755491137505 0.046333327889442444
0.38744679093360901 0.0057386509142816067 0.033143270760774612
0.48033395409584045 0.0049801245331764221 0.021161291748285294
0.57535558938980103 0.0059616388753056526 0.012182198464870453
0.65350610017776489 0.0046110115945339203 0.0090394262224435806
0.7263340950012207 0.0035486258566379547 0.0070205838419497013
0.79301053285598755 0.00072751514380797744 0.0042299604974687099
0.049073956906795502 0.078051626682281494 0.11767413467168808
0.073931418359279633 0.074939802289009094 0.11292269825935364
0.10535004734992981 0.070361822843551636 0.10636355727910995
0.14727118611335754 0.062105424702167511 0.098074890673160553
0.19929143786430359 0.05430641770362854 0.088014386594295502
0.25833147764205933 0.045862458646297455 0.074148528277873993
0.33349385857582092 0.035628329962491989 0.057976681739091873
0.41094076633453369 0.025001659989356995 0.045253902673721313
0.49976474046707153 0.013111832551658154 0.029263844713568687
0.59049892425537109 0.0085136713460087776 0.013470414094626904
0.66527062654495239 0.0077547859400510788 0.010150161571800709
0.73523873090744019 0.0072302576154470444 0.010209775529801846
0.79736828804016113 0.0046750833280384541 0.0053518558852374554
0.084358841180801392 0.13675196468830109 0.13734607398509979
0.10436318814754486 0.1316085159778595 0.1320597231388092
0.13303858041763306 0.12564131617546082 0.12498585134744644
0.17088936269283295 0.11756036430597305 0.11592170596122742
0.22313317656517029 0.11034276336431503 0.10599192976951599
0.28480494022369385 0.10292217880487442 0.094991438090801239
0.3579554557800293 0.08757394552230835 0.078352876007556915
0.43953356146812439 0.072195149958133698 0.059566661715507507
0.52642905712127686 0.051624760031700134 0.040110807865858078
0.61129558086395264 0.028818691149353981 0.020749708637595177
0.68118488788604736 0.021137073636054993 0.019942265003919601
0.74883782863616943 0.016819838434457779 0.02040945366024971
0.80631941556930542 0.0090222824364900589 0.0080078877508640289
0.11660481244325638 0.2051694244146347 0.15674480795860291
0.13189055025577545 0.20404931902885437 0.15233619511127472
0.15958313643932343 0.20128193497657776 0.14667941629886627
0.19839529693126678 0.1945146918296814 0.13857142627239227
0.24921081960201263 0.18420839309692383 0.12890881299972534
0.31301572918891907 0.1734781414270401 0.1171313151717186
0.38917958736419678 0.15686847269535065 0.099954254925251007
0.47057312726974487 0.13790220022201538 0.079494178295135498
0.5565192699432373 0.11560245603322983 0.056897871196269989
0.6359977126121521 0.094008520245552063 0.040834836661815643
0.7050132155418396 0.074261635541915894 0.034406878054141998
0.768993079662323 0.049765449017286301 0.030874378979206085
0.8226780891418457 0.028036424890160561 0.022160055115818977
0.13412673771381378 0.29003757238388062 0.17851367592811584
0.15171471238136292 0.28805139660835266 0.1738225519657135
