assets/lut/films colorslide fuji astia 100 generic.cube
# Created by: G'MIC (https://gmic.eu)
TITLE "fuji_astia_100_generic"
# LUT size
LUT_3D_SIZE 13
# Data domain
DOMAIN_MIN 0.0 0.0 0.0
DOMAIN_MAX 1.0 1.0 1.0
# LUT data points
0.038739703595638275 0.034614711999893188 0.032933298498392105
0.096015408635139465 0.03324311226606369 0.027990946546196938
0.16552524268627167 0.030534496530890465 0.023871807381510735
0.24747613072395325 0.028616556897759438 0.019317882135510445
0.33703839778900146 0.027228396385908127 0.015011611394584179
0.42736038565635681 0.024890316650271416 0.012052902951836586
0.5153234601020813 0.022083103656768799 0.010124326683580875
0.60055840015411377 0.019131006672978401 0.0085110682994127274
0.68322443962097168 0.017069857567548752 0.0068608899600803852
0.76320445537567139 0.016556639224290848 0.0048587573692202568
0.84010958671569824 0.016718471422791481 0.0026241077575832605
0.9139411449432373 0.016973383724689484 0.00089703727280721068
0.98287475109100342 0.016409017145633698 2.5850184101727791e-05
0.065145723521709442 0.0990738645195961 0.038454212248325348
0.10286372900009155 0.098479330539703369 0.035216566175222397
0.16308474540710449 0.095480196177959442 0.0330161452293396
0.2458149641752243 0.093521028757095337 0.029229886829853058
0.33756726980209351 0.092887043952941895 0.024666221812367439
0.42972579598426819 0.091857403516769409 0.02070324495434761
0.51862889528274536 0.089710965752601624 0.017295688390731812
0.60437488555908203 0.086850814521312714 0.014547714963555336
0.68747055530548096 0.085447005927562714 0.012069837190210819
0.76787370443344116 0.085274502635002136 0.0094668669626116753
0.84491837024688721 0.086388289928436279 0.0065172081813216209
0.91859954595565796 0.088188692927360535 0.0036419588141143322
0.9853023886680603 0.088419146835803986 0.0014364803209900856
0.091020338237285614 0.16895323991775513 0.046283107250928879
0.11429845541715622 0.16964946687221527 0.044840496033430099
0.16608160734176636 0.16771979629993439 0.04311516135931015
0.24711346626281738 0.16662649810314178 0.040282290428876877
0.33991712331771851 0.16695697605609894 0.036879148334264755
0.43275392055511475 0.16664192080497742 0.032352462410926819
0.52145302295684814 0.16543188691139221 0.027172043919563293
0.60688322782516479 0.1629781574010849 0.0228284802287817
0.690193772315979 0.16153347492218018 0.019429480656981468
0.77143305540084839 0.16177009046077728 0.016278630122542381
0.84894818067550659 0.16259753704071045 0.012857130728662014
0.92219012975692749 0.16527146100997925 0.0089290542528033257
0.98724275827407837 0.16568627953529358 0.005201422143727541
0.08383014053106308 0.2510530948638916 0.05357138067483902
0.10490132123231888 0.25333049893379211 0.052914053201675415
0.16068220138549805 0.25315353274345398 0.0518009252846241
0.24671897292137146 0.25242474675178528 0.049978084862232208
0.34302341938018799 0.25307288765907288 0.047975845634937286
0.43595999479293823 0.25310280919075012 0.043718945235013962
0.52343350648880005 0.25124424695968628 0.037841618061065674
0.60838598012924194 0.24834147095680237 0.033177781850099564
0.69169974327087402 0.24599017202854156 0.029855256900191307
0.77298253774642944 0.24540603160858154 0.026769645512104034
0.85083448886871338 0.24562479555606842 0.022727323696017265
0.92447739839553833 0.24699155986309052 0.017299218103289604
0.98780637979507446 0.24794760346412659 0.011506338603794575
0.054532337933778763 0.3427586555480957 0.059831071645021439
0.08285725861787796 0.34544491767883301 0.061059180647134781
0.15025506913661957 0.34557858109474182 0.06061776727437973
0.24587640166282654 0.34495154023170471 0.059519540518522263
0.34410494565963745 0.34567111730575562 0.058236666023731232
0.43672353029251099 0.34566295146942139 0.054039541631937027
0.52387875318527222 0.34320530295372009 0.048241797834634781
0.60859191417694092 0.34005168080329895 0.044429630041122437
0.69175523519515991 0.33794292807579041 0.04256795346736908
0.77274882793426514 0.33625835180282593 0.040663253515958786
0.85017228126525879 0.33557111024856567 0.036749761551618576
0.92371946573257446 0.33532464504241943 0.029494566842913628
0.98770678043365479 0.33443659543991089 0.020174497738480568
0.033594079315662384 0.43485400080680847 0.066421568393707275
0.073091186583042145 0.43754118680953979 0.070305421948432922
0.14674334228038788 0.43753954768180847 0.071059569716453552
0.24290089309215546 0.43681254982948303 0.069519445300102234
0.34083044528961182 0.43662041425704956 0.067493215203285217
0.43381854891777039 0.4363284707069397 0.062931984663009644
0.52200663089752197 0.43484032154083252 0.057913206517696381
0.60728085041046143 0.43291839957237244 0.056131459772586823
0.69028550386428833 0.43097102642059326 0.056878648698329926
0.77110981941223145 0.4296821653842926 0.057022497057914734
0.84819084405899048 0.4281691312789917 0.05274365097284317
0.92117255926132202 0.4261498749256134 0.043297890573740005
0.98638176918029785 0.42350119352340698 0.029856080189347267
0.025397282093763351 0.52395844459533691 0.071704521775245667
0.071358039975166321 0.52629834413528442 0.079840533435344696
0.1437552273273468 0.52658456563949585 0.082117192447185516
0.23645719885826111 0.52572309970855713 0.077875994145870209
0.33442363142967224 0.52500247955322266 0.072133146226406097
0.42892700433731079 0.52407681941986084 0.067137546837329865
0.51884728670120239 0.52338331937789917 0.064010098576545715
0.60497838258743286 0.52254772186279297 0.06579957902431488
0.68801242113113403 0.52170759439468384 0.070866569876670837
0.76840484142303467 0.52082556486129761 0.07308979332447052
0.84526866674423218 0.5193524956703186 0.06806684285402298
0.91781324148178101 0.51668566465377808 0.054860867559909821
0.98436039686203003 0.51256942749023438 0.036449283361434937
0.025459857657551765 0.60946232080459595 0.072567611932754517
0.071953117847442627 0.61159878969192505 0.086361750960350037
0.1401350349187851 0.61194205284118652 0.091785579919815063
0.23026828467845917 0.61060923337936401 0.083351060748100281
0.32889249920845032 0.6092638373374939 0.072320632636547089
0.42520862817764282 0.60838776826858521 0.066236235201358795
0.51640194654464722 0.60746294260025024 0.064571112394332886
0.60312134027481079 0.60722953081130981 0.069799758493900299
0.68584972620010376 0.60776489973068237 0.079715386033058167
0.76528048515319824 0.60744392871856689 0.082604549825191498
0.84167599678039551 0.60607582330703735 0.075552009046077728
0.91387557983398438 0.60353535413742065 0.05879993736743927
0.98094367980957031 0.59900200366973877 0.036880061030387878
0.035168293863534927 0.69064176082611084 0.064946837723255157
0.080693051218986511 0.69164490699768066 0.082693509757518768
0.14434435963630676 0.69166666269302368 0.093010097742080688
0.23242077231407166 0.69128316640853882 0.0829802006483078
0.32992440462112427 0.68838983774185181 0.069904088973999023
0.42575618624687195 0.68774509429931641 0.062330238521099091
0.51711392402648926 0.68747943639755249 0.059266574680805206
0.60353052616119385 0.68720847368240356 0.06301773339509964
0.68525463342666626 0.68763434886932373 0.07370159775018692
0.76311373710632324 0.68774509429931641 0.076225146651268005
0.8376309871673584 0.68739330768585205 0.068025104701519012
0.90903174877166748 0.68474966287612915 0.052090603858232498
0.97737312316894531 0.68090337514877319 0.033013675361871719
0.054291203618049622 0.76676464080810547 0.050475627183914185
0.10429714620113373 0.76671236753463745 0.062894590198993683
0.16834826767444611 0.76609963178634644 0.071565769612789154
0.25031563639640808 0.76523476839065552 0.069677062332630157
0.34102579951286316 0.7645612359046936 0.06390400230884552
0.43271219730377197 0.76319992542266846 0.056725088506937027
0.52210289239883423 0.76129233837127686 0.049171000719070435
0.60737967491149902 0.76009440422058105 0.045470893383026123
0.6873394250869751 0.76037079095840454 0.049016587436199188
0.76233327388763428 0.76172244548797607 0.053945489227771759
0.83455300331115723 0.76214796304702759 0.052486181259155273
0.90524673461914062 0.76120102405548096 0.043929439038038254
0.97494810819625854 0.75829821825027466 0.031727809458971024
0.077998638153076172 0.83987700939178467 0.039323650300502777
0.1361662894487381 0.83793157339096069 0.040154624730348587
0.20364494621753693 0.83638894557952881 0.043410476297140121
0.27821272611618042 0.83694767951965332 0.053993597626686096
0.35953962802886963 0.83790022134780884 0.059502322226762772
0.44466865062713623 0.83666664361953735 0.05370432510972023
0.53037422895431519 0.83406543731689453 0.03981514647603035
0.61336624622344971 0.83171796798706055 0.025148205459117889
0.69083845615386963 0.83119279146194458 0.022336188703775406
0.76216983795166016 0.83324867486953735 0.03184979036450386
0.83165663480758667 0.83544790744781494 0.04090455174446106
0.90217775106430054 0.83520221710205078 0.041949223726987839
0.97331124544143677 0.83313572406768799 0.03704008087515831
0.10212339460849762 0.91227817535400391 0.039118029177188873
0.16503158211708069 0.91027379035949707 0.036071281880140305
0.23354506492614746 0.90879708528518677 0.039392046630382538
0.30394700169563293 0.91091054677963257 0.05591215193271637
0.37867474555969238 0.91151958703994751 0.066879168152809143
0.45785894989967346 0.9108349084854126 0.05968228355050087
0.53877747058868408 0.90742850303649902 0.040024850517511368
0.61815863847732544 0.90398538112640381 0.018736641854047775
0.69276183843612671 0.90355616807937622 0.01283893920481205
0.75994402170181274 0.90634030103683472 0.025698000565171242
0.82751268148422241 0.90879088640213013 0.041342835873365402
0.8985971212387085 0.90904200077056885 0.047783780843019485
0.97157418727874756 0.90739750862121582 0.047259312123060226
0.1234065368771553 0.98241221904754639 0.050038866698741913
0.18737013638019562 0.98161995410919189 0.05056203156709671
0.25460144877433777 0.98161762952804565 0.05829886719584465
0.32339537143707275 0.98260080814361572 0.07436816394329071
0.39481052756309509 0.98378735780715942 0.084027834236621857
0.46942344307899475 0.98229116201400757 0.073684722185134888
0.54553496837615967 0.98008549213409424 0.052872557193040848
0.62008607387542725 0.97846931219100952 0.032628841698169708
0.69048476219177246 0.97836428880691528 0.026719950139522552
0.75598496198654175 0.97962039709091187 0.038011305034160614
0.82279378175735474 0.98161762952804565 0.052734777331352234
0.89512854814529419 0.98161530494689941 0.059337854385375977
0.96930390596389771 0.97983956336975098 0.05981915071606636
0.03690217062830925 0.034329641610383987 0.096706926822662354
0.096573486924171448 0.033485203981399536 0.092936225235462189
0.16594891250133514 0.031806465238332748 0.088458120822906494
0.24820739030838013 0.030645990744233131 0.08220876008272171
0.33933717012405396 0.030278343707323074 0.075880341231822968
0.43077456951141357 0.027481887489557266 0.071994766592979431
0.51861691474914551 0.023508019745349884 0.070042446255683899
0.60395699739456177 0.020521260797977448 0.068372391164302826
0.68675333261489868 0.0188446044921875 0.065732531249523163
0.76687777042388916 0.01881815679371357 0.061619851738214493
0.84339684247970581 0.019432472065091133 0.055266108363866806
0.91646009683609009 0.019784515723586082 0.046775009483098984
0.98389518260955811 0.01883411779999733 0.037559106945991516
0.060417849570512772 0.098191894590854645 0.098445892333984375
0.10087211430072784 0.097450777888298035 0.096731431782245636
0.16231375932693481 0.094965510070323944 0.094794690608978271
0.24559536576271057 0.093279987573623657 0.089852273464202881
0.33839523792266846 0.092456862330436707 0.085071384906768799
0.43245995044708252 0.091358959674835205 0.081185810267925262
0.52136009931564331 0.089007750153541565 0.078026972711086273
0.60715615749359131 0.086751483380794525 0.075370386242866516
0.69016814231872559 0.085754498839378357 0.072643771767616272
0.77070754766464233 0.086752720177173615 0.06901252269744873
0.84730583429336548 0.088954493403434753 0.063762664794921875
0.9201507568359375 0.090377509593963623 0.056749980896711349
0.98585325479507446 0.090034261345863342 0.048675253987312317
0.088353358209133148 0.16642418503761292 0.10344682633876801
0.11283987015485764 0.16720034182071686 0.10246998071670532
0.16556091606616974 0.16597253084182739 0.10058750957250595
0.2476520836353302 0.1645616888999939 0.096989378333091736
0.34182953834533691 0.16274549067020416 0.094046361744403839
0.43480715155601501 0.16216699779033661 0.090128429234027863
0.52333110570907593 0.16248480975627899 0.085038580000400543
0.60873407125473022 0.16146571934223175 0.081395842134952545
0.69199591875076294 0.16020576655864716 0.078527994453907013
0.7727547287940979 0.16248638927936554 0.075427517294883728
0.84988069534301758 0.16503271460533142 0.071672357618808746
0.92267036437988281 0.16597050428390503 0.066572181880474091
0.98724901676177979 0.16607163846492767 0.060523506253957748
0.079825729131698608 0.25080195069313049 0.10956916213035583
0.097622722387313843 0.25363433361053467 0.10781756788492203
0.15770328044891357 0.25222191214561462 0.10535699874162674
0.24900250136852264 0.25046080350875854 0.10253027826547623
0.34586966037750244 0.24936087429523468 0.10061477869749069
0.4378090500831604 0.2479252964258194 0.096312656998634338
0.52487105131149292 0.24826553463935852 0.090314380824565887
0.60960525274276733 0.24693018198013306 0.086591847240924835
0.69321906566619873 0.24554026126861572 0.084024585783481598
0.77324604988098145 0.24680902063846588 0.081808261573314667
0.85078626871109009 0.2480606883764267 0.07927810400724411
0.92395210266113281 0.24874188005924225 0.076044745743274689
0.98766946792602539 0.24817989766597748 0.071133166551589966
0.04535510390996933 0.34555661678314209 0.11481174826622009
0.066422618925571442 0.34893098473548889 0.11425638943910599
0.14367957413196564 0.34696590900421143 0.11148513853549957
0.24947449564933777 0.34533900022506714 0.10873564332723618
0.34883725643157959 0.34439495205879211 0.10702177882194519
0.43974137306213379 0.34285944700241089 0.10213582962751389
0.52563971281051636 0.34227144718170166 0.095935240387916565
0.60962009429931641 0.34034016728401184 0.092148587107658386
0.69314157962799072 0.33851635456085205 0.090847030282020569
0.77287346124649048 0.33862024545669556 0.089767307043075562
0.85006332397460938 0.3382505476474762 0.088373042643070221
0.92286181449890137 0.33694469928741455 0.085740044713020325
0.98730826377868652 0.33491331338882446 0.080374456942081451
0.025959419086575508 0.43851685523986816 0.12106715142726898
0.064158856868743896 0.44090178608894348 0.12181071937084198
0.14571517705917358 0.43972527980804443 0.11932987719774246
0.25049570202827454 0.43751901388168335 0.11580340564250946
0.34846562147140503 0.43697747588157654 0.11399307101964951
0.43924972414970398 0.43679022789001465 0.1089966744184494
0.52553325891494751 0.43576222658157349 0.10245200991630554
0.60937273502349854 0.43426400423049927 0.098837293684482574
0.69173896312713623 0.43312832713127136 0.09955240786075592
0.77196788787841797 0.43211966753005981 0.10117810964584351
0.84801679849624634 0.43074652552604675 0.10029724985361099
0.92042380571365356 0.4281620979309082 0.095897108316421509
0.9857291579246521 0.42453595995903015 0.087842710316181183
0.021585201844573021 0.52734577655792236 0.12545984983444214
0.070046819746494293 0.5290827751159668 0.12876750528812408
0.14798083901405334 0.52860540151596069 0.12656351923942566
0.24550852179527283 0.52718919515609741 0.11998500674962997
0.34363308548927307 0.52589744329452515 0.11460333317518234
0.43602132797241211 0.52548700571060181 0.11050330102443695
0.52368330955505371 0.52503132820129395 0.1058836430311203
0.60825002193450928 0.52416276931762695 0.10436519235372543
0.69018179178237915 0.52341526746749878 0.10822583734989166
0.76888775825500488 0.52284008264541626 0.11273539066314697
0.84490817785263062 0.52123570442199707 0.11184321343898773
0.91665071249008179 0.51842361688613892 0.10364045947790146
0.98320561647415161 0.5139344334602356 0.090846940875053406
0.025139946490526199 0.61223393678665161 0.12502127885818481
0.075870275497436523 0.61339265108108521 0.13177825510501862
0.14929527044296265 0.61318200826644897 0.13019120693206787
0.24190652370452881 0.61223435401916504 0.11897569894790649
0.33929169178009033 0.61078602075576782 0.1101849302649498
0.43274334073066711 0.60973560810089111 0.10778241604566574
0.5216977596282959 0.60909920930862427 0.10532048344612122
0.60694581270217896 0.6086307168006897 0.10407408326864243
0.68806397914886475 0.60851716995239258 0.11058351397514343
0.76638221740722656 0.60848629474639893 0.11734433472156525
0.84117609262466431 0.60752451419830322 0.11592645198106766
0.91199833154678345 0.60493308305740356 0.10349684953689575
0.97917377948760986 0.6007501482963562 0.086669549345970154
0.036558713763952255 0.69206976890563965 0.11733613908290863
0.086981937289237976 0.69231784343719482 0.1268472820520401
0.15634499490261078 0.69166666269302368 0.128042072057724
0.24467304348945618 0.69166666269302368 0.11766020953655243
0.33983686566352844 0.69123369455337524 0.10910556465387344
0.43263706564903259 0.6888432502746582 0.10637360811233521
0.5218772292137146 0.68774509429931641 0.10311058163642883
0.60710781812667847 0.68770748376846313 0.099111862480640411
0.68773949146270752 0.68773764371871948 0.10483283549547195
0.76461517810821533 0.68774509429931641 0.11229110509157181
0.83740246295928955 0.68774509429931641 0.11002388596534729
0.90739840269088745 0.68687379360198975 0.096644140779972076
0.97534036636352539 0.68278294801712036 0.080161511898040771
0.055006664246320724 0.76860314607620239 0.10686184465885162
0.10795514285564423 0.76758491992950439 0.11325517296791077
0.17632685601711273 0.7664797306060791 0.1152798980474472
0.25882071256637573 0.76595050096511841 0.11276852339506149
0.34822911024093628 0.76536625623703003 0.10978612303733826
0.43802425265312195 0.76447677612304688 0.10704511404037476
0.52548295259475708 0.76302522420883179 0.10041970759630203
0.609577476978302 0.76141154766082764 0.093281224370002747
0.68822258710861206 0.76121222972869873 0.094183735549449921
0.76338291168212891 0.76228368282318115 0.10007331520318985
0.83501970767974854 0.76313632726669312 0.10123270004987717
0.90512686967849731 0.76205617189407349 0.093749582767486572
0.97422671318054199 0.7594490647315979 0.083207406103610992
0.075952731072902679 0.84069359302520752 0.10363797843456268
0.13558907806873322 0.83869659900665283 0.10058052092790604
0.20564334094524384 0.83672606945037842 0.09888063371181488
0.28200873732566833 0.83712995052337646 0.10601739585399628
0.36374446749687195 0.83820265531539917 0.11169487237930298
0.4480854868888855 0.83731156587600708 0.10911175608634949
0.53239917755126953 0.8354257345199585 0.098285883665084839
0.6140139102935791 0.83304721117019653 0.085222192108631134
0.69106084108352661 0.83247721195220947 0.08186715841293335
0.76275622844696045 0.83403050899505615 0.089845530688762665
0.83273255825042725 0.83563715219497681 0.098027020692825317
0.90374410152435303 0.83515024185180664 0.099447242915630341
0.97463333606719971 0.83260136842727661 0.09614069014787674
0.098886840045452118 0.91261774301528931 0.10902274399995804
0.16262912750244141 0.90997028350830078 0.10252803564071655
0.2330516129732132 0.90857833623886108 0.10128335654735565
0.30584439635276794 0.90990573167800903 0.11248376965522766
0.3810097873210907 0.91142195463180542 0.12164340913295746
0.45991647243499756 0.91061902046203613 0.11758819222450256
0.53961586952209473 0.90807557106018066 0.10248905420303345
0.6181560754776001 0.9053957462310791 0.085403412580490112
0.69178038835525513 0.90479040145874023 0.080193944275379181
0.76045686006546021 0.90696710348129272 0.091130457818508148
0.82921427488327026 0.90837717056274414 0.10473490506410599
0.90122932195663452 0.90805423259735107 0.11188885569572449
0.97396433353424072 0.90595763921737671 0.11254939436912537
0.12188751995563507 0.98210114240646362 0.12164445966482162
0.18597325682640076 0.98161762952804565 0.1196310892701149
0.2544766366481781 0.98161762952804565 0.12231487035751343
0.32436865568161011 0.98161923885345459 0.13250473141670227
0.39665743708610535 0.9818718433380127 0.1393386572599411
0.47117602825164795 0.98163348436355591 0.13287132978439331
0.54638606309890747 0.98012417554855347 0.11704693734645844
0.62011468410491943 0.9784926176071167 0.10119108110666275
0.69025015830993652 0.9784926176071167 0.096580326557159424
0.75682097673416138 0.97944891452789307 0.10627894848585129
0.82514631748199463 0.98161762952804565 0.11955246329307556
0.89755755662918091 0.98081731796264648 0.12720414996147156
0.97165608406066895 0.97862100601196289 0.12885715067386627
0.031768441200256348 0.033737257122993469 0.16766388714313507
0.089724943041801453 0.033669386059045792 0.16415312886238098
0.16060921549797058 0.032646253705024719 0.16031749546527863
0.24484416842460632 0.032100632786750793 0.15447947382926941
0.33757922053337097 0.031819704920053482 0.14854714274406433
0.43011239171028137 0.029608229175209999 0.14504720270633698
0.51917040348052979 0.025393212214112282 0.14393085241317749
0.60546594858169556 0.022587046027183533 0.14316694438457489
0.68915587663650513 0.021346103399991989 0.14136897027492523
0.76978886127471924 0.021625563502311707 0.13848066329956055
0.84627199172973633 0.022443719208240509 0.13271263241767883
0.91863518953323364 0.022532399743795395 0.12366437911987305
0.98474341630935669 0.021023664623498917 0.11352052539587021
0.05520179495215416 0.097590595483779907 0.16654376685619354
0.098206989467144012 0.096608676016330719 0.16432064771652222
0.15948265790939331 0.094664238393306732 0.16269102692604065
0.24293601512908936 0.09413687139749527 0.15926395356655121
0.33803924918174744 0.093817844986915588 0.15502123534679413
0.43201190233230591 0.092597037553787231 0.15161235630512238
0.52181434631347656 0.09086926281452179 0.14902625977993011
0.60824096202850342 0.089020445942878723 0.14731678366661072
0.69195914268493652 0.088644914329051971 0.14568024873733521
0.77265077829360962 0.09021344780921936 0.14296366274356842
0.84913545846939087 0.092166632413864136 0.13847224414348602
0.921092689037323 0.092979252338409424 0.13184419274330139
0.98586148023605347 0.091396212577819824 0.12419003993272781
0.088405027985572815 0.16580882668495178 0.1698421835899353
0.11762219667434692 0.16574777662754059 0.16804289817810059
0.1675388365983963 0.1654433012008667 0.16591286659240723
0.2468414306640625 0.16464972496032715 0.16299107670783997
0.34152209758758545 0.16380895674228668 0.16040568053722382
0.43461152911186218 0.16380789875984192 0.15652726590633392
0.52348506450653076 0.16406166553497314 0.15286032855510712
0.60955196619033813 0.16328346729278564 0.15032431483268738
0.69326013326644897 0.16351200640201569 0.14788433909416199
0.77279412746429443 0.16568572819232941 0.1455269455909729
0.84988772869110107 0.16775137186050415 0.14234118163585663
0.92178523540496826 0.16789162158966064 0.13909964263439178
0.98688089847564697 0.1658368855714798 0.13453072309494019
0.085705578327178955 0.25058960914611816 0.17484454810619354
0.11010704934597015 0.25132808089256287 0.17346315085887909
0.16582827270030975 0.25076285004615784 0.17015686631202698
0.25051754713058472 0.2507883608341217 0.16651974618434906
0.34696334600448608 0.25028043985366821 0.16322217881679535
0.4373137354850769 0.24972052872180939 0.15855564177036285
0.52371490001678467 0.2496493011713028 0.15468549728393555
0.60962009429931641 0.24848423898220062 0.1522071361541748
0.69338256120681763 0.24852070212364197 0.14963370561599731
0.77279412746429443 0.25033894181251526 0.14668318629264832
0.84978395700454712 0.25115421414375305 0.14448073506355286
0.92195004224777222 0.24983620643615723 0.14453516900539398
0.98664069175720215 0.24741056561470032 0.14292898774147034
0.052028685808181763 0.34722548723220825 0.17990770936012268
0.080697737634181976 0.34884852170944214 0.17931333184242249
0.15269869565963745 0.3466438353061676 0.17633832991123199
