assets/lut/films negative color fuji superia x-tra 800.cube
# Created by: G'MIC (https://gmic.eu)
TITLE "fuji_superia_x-tra_800"
# LUT size
LUT_3D_SIZE 13
# Data domain
DOMAIN_MIN 0.0 0.0 0.0
DOMAIN_MAX 1.0 1.0 1.0
# LUT data points
0.059269744902849197 0.051630791276693344 0.05104248970746994
0.12709341943264008 0.042331263422966003 0.044105049222707748
0.2045782059431076 0.035289973020553589 0.034896191209554672
0.27874720096588135 0.029681053012609482 0.025674423202872276
0.34855729341506958 0.023641848936676979 0.022506535053253174
0.41634407639503479 0.016922116279602051 0.024867353960871696
0.48595595359802246 0.010964471846818924 0.026289861649274826
0.55634427070617676 0.0047288481146097183 0.027826720848679543
0.62516278028488159 0.00048253676504828036 0.035381108522415161
0.69048339128494263 0 0.051224652677774429
0.75125741958618164 0 0.077801480889320374
0.80905264616012573 0.00035279217991046607 0.10948239266872406
0.8658592700958252 0.0014939401298761368 0.14025448262691498
0.091567814350128174 0.13307580351829529 0.079865187406539917
0.14526091516017914 0.12608560919761658 0.075761578977108002
0.21569629013538361 0.11836980283260345 0.066957645118236542
0.28888404369354248 0.10953079164028168 0.055246017873287201
0.35840040445327759 0.098845340311527252 0.051385018974542618
0.42599579691886902 0.08595382422208786 0.054372839629650116
0.496297687292099 0.070454150438308716 0.055547557771205902
0.56743097305297852 0.049834951758384705 0.053883183747529984
0.63652938604354858 0.025820294395089149 0.051719307899475098
0.70102381706237793 0.0063402662053704262 0.053004663437604904
0.75921452045440674 0.00028336470131762326 0.070046685636043549
0.81416481733322144 5.0413841563567985e-06 0.1008664146065712
0.87084579467773438 0.00072948978049680591 0.13499344885349274
0.12386187165975571 0.2099120020866394 0.10776340216398239
0.16353286802768707 0.20725725591182709 0.10567769408226013
0.22636778652667999 0.20019936561584473 0.097933299839496613
0.29731398820877075 0.19036826491355896 0.088815681636333466
0.36669951677322388 0.17936769127845764 0.086002647876739502
0.43565621972084045 0.16590644419193268 0.089355900883674622
0.50705480575561523 0.14770710468292236 0.091877862811088562
0.57944184541702271 0.12164387106895447 0.090113110840320587
0.64904814958572388 0.089388720691204071 0.085860371589660645
0.7120746374130249 0.055341847240924835 0.082075439393520355
0.76703161001205444 0.024158313870429993 0.087909460067749023
0.81819933652877808 0.0035067240241914988 0.10118566453456879
0.87261801958084106 0.0001497455668868497 0.12507712841033936
0.13982170820236206 0.28391513228416443 0.12807175517082214
0.17928588390350342 0.28289943933486938 0.12643645703792572
0.24160751700401306 0.27730235457420349 0.11974912136793137
0.31013262271881104 0.26991114020347595 0.11511664092540741
0.37806260585784912 0.26020729541778564 0.11617071181535721
0.44716498255729675 0.24916258454322815 0.12239953130483627
0.51971864700317383 0.23337489366531372 0.12870708107948303
0.59391766786575317 0.20950056612491608 0.13010983169078827
0.66393572092056274 0.18026609718799591 0.1284654438495636
0.72626179456710815 0.14471633732318878 0.12968334555625916
0.78007769584655762 0.10175411403179169 0.13291266560554504
0.82904016971588135 0.0558304563164711 0.13178041577339172
0.88089197874069214 0.030486730858683586 0.14090178906917572
0.17134600877761841 0.35565087199211121 0.13927555084228516
0.21347364783287048 0.35579773783683777 0.13535808026790619
0.27016913890838623 0.35310310125350952 0.13035118579864502
0.33195638656616211 0.34785830974578857 0.1299908459186554
0.39594617486000061 0.33972477912902832 0.13546355068683624
0.46393340826034546 0.32960256934165955 0.14491455256938934
0.53671503067016602 0.31725114583969116 0.15575103461742401
0.61159580945968628 0.29930034279823303 0.16268287599086761
0.68132299184799194 0.2787536084651947 0.16736708581447601
0.74277883768081665 0.24987463653087616 0.17487449944019318
0.79687613248825073 0.20826813578605652 0.18245351314544678
0.84610658884048462 0.15965235233306885 0.18280978500843048
0.89661484956741333 0.12258776277303696 0.18814665079116821
0.21926933526992798 0.4281957745552063 0.1418871134519577
0.25872534513473511 0.43022599816322327 0.13504259288311005
0.30791425704956055 0.43083706498146057 0.13002429902553558
0.36230573058128357 0.42729252576828003 0.13222666084766388
0.42104199528694153 0.42036336660385132 0.14172802865505219
0.48694717884063721 0.41085702180862427 0.15427929162979126
0.55919784307479858 0.40044417977333069 0.16801789402961731
0.6324647068977356 0.38746961951255798 0.18090558052062988
0.7001071572303772 0.3729684054851532 0.19294774532318115
0.76007145643234253 0.3517015278339386 0.20734423398971558
0.81386715173721313 0.31903660297393799 0.2211696058511734
0.86455750465393066 0.27784872055053711 0.23120035231113434
0.91497468948364258 0.23851872980594635 0.24320007860660553
0.26854223012924194 0.5038720965385437 0.13232406973838806
0.30518022179603577 0.50705051422119141 0.12501946091651917
0.34992960095405579 0.50978845357894897 0.11832410097122192
0.40050482749938965 0.50699728727340698 0.11960112303495407
0.4564458429813385 0.50247663259506226 0.13052037358283997
0.51986753940582275 0.49622043967247009 0.14632397890090942
0.58982563018798828 0.48814466595649719 0.16151660680770874
0.65918982028961182 0.47833806276321411 0.17958122491836548
0.72274726629257202 0.46576064825057983 0.20114628970623016
0.77969944477081299 0.44929072260856628 0.22606934607028961
0.83199477195739746 0.4259357750415802 0.25025808811187744
0.88304078578948975 0.39356794953346252 0.27209711074829102
0.93413454294204712 0.3567425012588501 0.29387563467025757
0.31169021129608154 0.57793474197387695 0.11805424094200134
0.34437227249145508 0.58104199171066284 0.11401555687189102
0.38705983757972717 0.58308380842208862 0.1063058003783226
0.44150188565254211 0.58163905143737793 0.098095312714576721
0.50469070672988892 0.57881361246109009 0.098124347627162933
0.56990468502044678 0.57595092058181763 0.11133687943220139
0.63436329364776611 0.57200127840042114 0.13250946998596191
0.6971278190612793 0.56517237424850464 0.15789195895195007
0.75493794679641724 0.55389165878295898 0.19016002118587494
0.80577141046524048 0.53995776176452637 0.22922740876674652
0.85343074798583984 0.52242010831832886 0.26880067586898804
0.90304738283157349 0.49783527851104736 0.30355244874954224
0.95413339138031006 0.46681344509124756 0.33548897504806519
0.34330090880393982 0.64759016036987305 0.11119090020656586
0.3709750771522522 0.64958065748214722 0.11302091181278229
0.4119013249874115 0.65081483125686646 0.10670547187328339
0.47453480958938599 0.64976155757904053 0.087703406810760498
0.54839789867401123 0.64804708957672119 0.073074504733085632
0.62026292085647583 0.64684855937957764 0.075934357941150665
0.68566501140594482 0.64553290605545044 0.092740453779697418
0.74701833724975586 0.64116376638412476 0.11814270168542862
0.80054807662963867 0.63257282972335815 0.15649408102035522
0.8433912992477417 0.62142437696456909 0.2088925838470459
0.88237136602401733 0.60765552520751953 0.26795598864555359
0.92802566289901733 0.58965945243835449 0.31848576664924622
0.97597420215606689 0.56544387340545654 0.36288505792617798
0.36088117957115173 0.71434122323989868 0.1201997771859169
0.38723465800285339 0.71503227949142456 0.12261448055505753
0.42984411120414734 0.71565592288970947 0.11454018950462341
0.49501898884773254 0.71488094329833984 0.092428483068943024
0.5734371542930603 0.71424663066864014 0.071070820093154907
0.65319693088531494 0.71390801668167114 0.059015970677137375
0.73004353046417236 0.71292668581008911 0.053797148168087006
0.80027097463607788 0.7107928991317749 0.06618790328502655
0.85871154069900513 0.70525169372558594 0.09790164977312088
0.89880400896072388 0.69699966907501221 0.15064689517021179
0.92648190259933472 0.68568170070648193 0.22370575368404388
0.96114057302474976 0.67164629697799683 0.30112704634666443
0.99414366483688354 0.65273964405059814 0.37450867891311646
0.36742112040519714 0.7815442681312561 0.14205515384674072
0.39407548308372498 0.78196465969085693 0.14195224642753601
0.43896323442459106 0.78213971853256226 0.12872402369976044
0.50586789846420288 0.78099900484085083 0.1000528559088707
0.58877933025360107 0.77991127967834473 0.064214803278446198
0.67357015609741211 0.78034305572509766 0.038472536951303482
0.75779998302459717 0.78079438209533691 0.020826376974582672
0.84138709306716919 0.78056102991104126 0.017458163201808929
0.91654592752456665 0.77782183885574341 0.032161340117454529
0.96585386991500854 0.77233844995498657 0.059927802532911301
0.98214268684387207 0.76303088665008545 0.11447746306657791
0.99245500564575195 0.74999386072158813 0.22411677241325378
0.99960076808929443 0.73279750347137451 0.35507920384407043
0.36288160085678101 0.85311365127563477 0.1702868640422821
0.3900206983089447 0.85285651683807373 0.16825640201568604
0.43515929579734802 0.85287153720855713 0.15123622119426727
0.50200349092483521 0.85269606113433838 0.11854404956102371
0.58420628309249878 0.85269749164581299 0.077800080180168152
0.66728430986404419 0.85303270816802979 0.048776842653751373
0.75624352693557739 0.8541560173034668 0.016328625380992889
0.85134398937225342 0.85469901561737061 0.00020319620671216398
0.94203805923461914 0.85419178009033203 0.0018180996412411332
0.99673402309417725 0.85168159008026123 0.003786812536418438
1 0.84516811370849609 0.012904597446322441
1 0.83491510152816772 0.084368698298931122
1 0.8215944766998291 0.22811853885650635
0.34455129504203796 0.93275916576385498 0.20021919906139374
0.37339088320732117 0.93206435441970825 0.19817280769348145
0.41738018393516541 0.93274480104446411 0.1828925758600235
0.47962459921836853 0.93327862024307251 0.15682981908321381
0.55357599258422852 0.93453603982925415 0.12909974157810211
0.63341653347015381 0.9367668628692627 0.10081462562084198
0.72693204879760742 0.93700981140136719 0.048591822385787964
0.82717990875244141 0.93739616870880127 0.011296650394797325
0.92364585399627686 0.93830561637878418 0.0057208491489291191
0.99075919389724731 0.9371182918548584 0.00092077814042568207
1 0.93466925621032715 0
1 0.93002074956893921 0.0017289405222982168
1 0.922507643699646 0.041721194982528687
0.050813652575016022 0.054216273128986359 0.11064700037240982
0.11802809685468674 0.044511128216981888 0.10382021963596344
0.1927349716424942 0.036169644445180893 0.092224761843681335
0.26592168211936951 0.02832711860537529 0.08261871337890625
0.33493751287460327 0.020429274067282677 0.079158872365951538
0.40400692820549011 0.014325340278446674 0.076876863837242126
0.47641840577125549 0.010250944644212723 0.071102321147918701
0.5489698052406311 0.0052692489698529243 0.066365502774715424
0.61913621425628662 0.00086997536709532142 0.071839064359664917
0.68500453233718872 0 0.088993236422538757
0.74677789211273193 0.00077984377276152372 0.11398126929998398
0.80638182163238525 0.0052176080644130707 0.14025390148162842
0.86506062746047974 0.0076513700187206268 0.16529253125190735
0.082412451505661011 0.13691097497940063 0.137669637799263
0.13655239343643188 0.13034187257289886 0.13294033706188202
0.2024417519569397 0.12130430340766907 0.12286680936813354
0.2741800844669342 0.10903078317642212 0.11323017627000809
0.34343314170837402 0.095621384680271149 0.10918845236301422
0.41297751665115356 0.082889243960380554 0.10712365806102753
0.48612070083618164 0.069010764360427856 0.10079586505889893
0.55958747863769531 0.049828384071588516 0.094061970710754395
0.62937873601913452 0.025188984349370003 0.090792760252952576
0.69382750988006592 0.0064379074610769749 0.091885238885879517
0.75361537933349609 0.00032944025588221848 0.1056177020072937
0.81132572889328003 0.00038112566107884049 0.13012906908988953
0.86980599164962769 0.0022944582160562277 0.156105637550354
0.11317898333072662 0.21208187937736511 0.1607367992401123
0.15665332973003387 0.20964133739471436 0.15703526139259338
0.21457298099994659 0.20275481045246124 0.14955252408981323
0.28393536806106567 0.19088752567768097 0.14243258535861969
0.35320135951042175 0.17813238501548767 0.13908956944942474
0.42359241843223572 0.16453501582145691 0.13805596530437469
0.49762073159217834 0.14719946682453156 0.13507080078125
0.57228529453277588 0.12210663408041 0.12983658909797668
0.64202398061752319 0.088698834180831909 0.12419034540653229
0.7047305703163147 0.054333318024873734 0.11834023892879486
0.76102089881896973 0.02412993460893631 0.12084809690713882
0.81532174348831177 0.0039890212938189507 0.13014422357082367
0.87161040306091309 0 0.14498533308506012
0.12706539034843445 0.28429591655731201 0.17576581239700317
0.1727321445941925 0.2827417254447937 0.17337128520011902
0.23250897228717804 0.27759891748428345 0.16818064451217651
0.29828888177871704 0.26960018277168274 0.16479489207267761
0.36545652151107788 0.25957193970680237 0.16486938297748566
0.43575724959373474 0.24848414957523346 0.16686667501926422
0.51075887680053711 0.23349209129810333 0.16827522218227386
0.58704572916030884 0.21213199198246002 0.16644556820392609
0.65762603282928467 0.18450218439102173 0.16262891888618469
0.71931678056716919 0.14697393774986267 0.16027037799358368
0.77323794364929199 0.099971592426300049 0.16014048457145691
0.82480156421661377 0.053104192018508911 0.1562497615814209
0.87882989645004272 0.022223617881536484 0.15792456269264221
0.15371645987033844 0.35633406043052673 0.18467120826244354
0.2005399763584137 0.35490390658378601 0.18155673146247864
0.25881791114807129 0.3516116738319397 0.17750577628612518
0.31912451982498169 0.34642225503921509 0.17795170843601227
0.38248848915100098 0.3388315737247467 0.18191675841808319
0.45174318552017212 0.32886940240859985 0.18733629584312439
0.52712631225585938 0.3172052800655365 0.1934128999710083
0.6035773754119873 0.30286979675292969 0.19696444272994995
0.674468994140625 0.2858615517616272 0.1985209733247757
0.7360302209854126 0.25572645664215088 0.20259314775466919
0.78976553678512573 0.20862074196338654 0.20674155652523041
0.84077930450439453 0.15642097592353821 0.20454521477222443
0.89345741271972656 0.11431916058063507 0.20528611540794373
0.20123541355133057 0.43030020594596863 0.18575634062290192
0.24169282615184784 0.42893478274345398 0.18097460269927979
0.29146984219551086 0.42890238761901855 0.17757430672645569
0.34619560837745667 0.42620766162872314 0.17992871999740601
0.40629243850708008 0.41964909434318542 0.18715745210647583
0.47368255257606506 0.41041618585586548 0.19635182619094849
0.54734355211257935 0.40043842792510986 0.20651182532310486
0.62220215797424316 0.38891011476516724 0.21568959951400757
0.69179481267929077 0.37646365165710449 0.22480453550815582
0.75250542163848877 0.35665839910507202 0.23669621348381042
0.80698102712631226 0.32336011528968811 0.24827541410923004
0.85906678438186646 0.27978813648223877 0.25556138157844543
0.91173261404037476 0.23588031530380249 0.26344028115272522
0.2570323646068573 0.50709760189056396 0.17037816345691681
0.29097902774810791 0.5083504319190979 0.16559836268424988
0.33292436599731445 0.50938373804092407 0.16240519285202026
0.3834761381149292 0.50639146566390991 0.16465389728546143
0.44148984551429749 0.50253546237945557 0.17335842549800873
0.50600177049636841 0.49641382694244385 0.18789869546890259
0.57635366916656494 0.48807621002197266 0.20262305438518524
0.64712321758270264 0.47786098718643188 0.21765294671058655
0.71260428428649902 0.46641117334365845 0.23583289980888367
0.77067852020263672 0.45245862007141113 0.25794538855552673
0.82448804378509521 0.43129375576972961 0.27923625707626343
0.87751120328903198 0.39860695600509644 0.29793229699134827
0.93089616298675537 0.35822767019271851 0.31593742966651917
0.31369143724441528 0.58125299215316772 0.13965938985347748
0.34164661169052124 0.58212697505950928 0.13866284489631653
0.3794998824596405 0.58300507068634033 0.13563764095306396
0.43119391798973083 0.58193612098693848 0.13095350563526154
0.49220570921897888 0.58013850450515747 0.1347070187330246
0.55536812543869019 0.57786399126052856 0.15230956673622131
0.62042719125747681 0.57269465923309326 0.1740543395280838
0.68442463874816895 0.56426012516021729 0.19790832698345184
0.74256610870361328 0.55398893356323242 0.22801545262336731
0.79427719116210938 0.54245603084564209 0.26345580816268921
0.84411478042602539 0.52711570262908936 0.29824548959732056
0.89626306295394897 0.50298279523849487 0.32834383845329285
0.95028829574584961 0.46954149007797241 0.3566993772983551
0.3599153459072113 0.65028560161590576 0.11265426129102707
0.38309177756309509 0.65103310346603394 0.11606431752443314
0.42026618123054504 0.65155094861984253 0.11301568895578384
0.47777029871940613 0.65070545673370361 0.099330008029937744
0.54690092802047729 0.64943933486938477 0.090173684060573578
0.61478334665298462 0.64845782518386841 0.10033051669597626
0.67723488807678223 0.64600026607513428 0.12310937792062759
0.73518967628479004 0.64047998189926147 0.15414761006832123
0.78567934036254883 0.63229489326477051 0.19525675475597382
0.8281562328338623 0.62268990278244019 0.24556976556777954
0.8709484338760376 0.61079651117324829 0.2973848283290863
0.91956347227096558 0.59370464086532593 0.34094536304473877
0.97052866220474243 0.56716704368591309 0.38115060329437256
0.38328155875205994 0.71556729078292847 0.11284607648849487
0.40603476762771606 0.7158818244934082 0.11494745314121246
0.44663223624229431 0.71612191200256348 0.10815116763114929
0.50831574201583862 0.715809166431427 0.089636936783790588
0.58669519424438477 0.7149585485458374 0.064773395657539368
0.66398316621780396 0.71388983726501465 0.054846566170454025
0.73199295997619629 0.71289891004562378 0.065961860120296478
0.79363894462585449 0.70996212959289551 0.092153452336788177
0.84415513277053833 0.70435363054275513 0.13330709934234619
0.87946552038192749 0.69647866487503052 0.19054856896400452
0.91485249996185303 0.6873399019241333 0.25841453671455383
0.95532321929931641 0.67406678199768066 0.32717177271842957
0.99083608388900757 0.65246051549911499 0.38930982351303101
0.38839498162269592 0.78177487850189209 0.13747580349445343
0.41204553842544556 0.78207641839981079 0.13594435155391693
0.45613494515419006 0.78262114524841309 0.12156844884157181
0.52080386877059937 0.78247356414794922 0.095302343368530273
0.60455483198165894 0.78173011541366577 0.05631275475025177
0.68866360187530518 0.78123307228088379 0.029230678454041481
0.76700091361999512 0.78099805116653442 0.021494382992386818
0.84286940097808838 0.78022259473800659 0.029535301029682159
0.90876328945159912 0.77662813663482666 0.053964726626873016
0.94977849721908569 0.77111148834228516 0.094334006309509277
0.97286981344223022 0.76399081945419312 0.15810208022594452
0.99139130115509033 0.75144881010055542 0.26250824332237244
0.99956142902374268 0.73311972618103027 0.37817102670669556
0.38318103551864624 0.8527413010597229 0.17151589691638947
0.40465173125267029 0.85312819480895996 0.16796426475048065
0.44832941889762878 0.85441440343856812 0.14805737137794495
0.51522338390350342 0.85457581281661987 0.11500672250986099
0.59661060571670532 0.85445147752761841 0.074235104024410248
0.68131953477859497 0.85526055097579956 0.040185891091823578
0.76768457889556885 0.85634851455688477 0.014030875638127327
0.85693979263305664 0.85647457838058472 0.0015880210557952523
0.94152140617370605 0.85437601804733276 0.0039684968069195747
0.99377012252807617 0.85120189189910889 0.010393135249614716
0.99974405765533447 0.84530055522918701 0.026003548875451088
0.99987083673477173 0.83497965335845947 0.10405933111906052
0.99986326694488525 0.81989943981170654 0.27304333448410034
0.35733729600906372 0.93190032243728638 0.20974980294704437
0.38132694363594055 0.93258273601531982 0.20581535995006561
0.42465880513191223 0.93419283628463745 0.18666628003120422
0.48836591839790344 0.93501389026641846 0.15659196674823761
0.56450867652893066 0.93611681461334229 0.12214385718107224
0.64731377363204956 0.9374205470085144 0.085547655820846558
0.73711246252059937 0.93852990865707397 0.044694997370243073
0.82992839813232422 0.93982172012329102 0.014389427378773689
0.92106640338897705 0.94023656845092773 0.0016194062773138285
0.98921549320220947 0.93874245882034302 3.365909378771903e-06
1 0.93531167507171631 0
0.99999803304672241 0.92884904146194458 0.0037436091806739569
0.99995064735412598 0.91832280158996582 0.082201987504959106
0.044043373316526413 0.058606915175914764 0.16763761639595032
0.11117172241210938 0.050032611936330795 0.15746907889842987
0.18570101261138916 0.039368484169244766 0.14603225886821747
0.25718411803245544 0.029354289174079895 0.13670839369297028
0.32515367865562439 0.0204328503459692 0.13199859857559204
0.39442330598831177 0.0146013293415308 0.12639091908931732
0.46815243363380432 0.011631744913756847 0.11643784493207932
0.54217612743377686 0.0080998586490750313 0.10782726854085922
0.61317139863967896 0.0028055827133357525 0.10851811617612839
0.67891967296600342 3.7159639759920537e-05 0.11892435699701309
0.74077147245407104 0.00056533812312409282 0.13842746615409851
0.80145531892776489 0.0052933935075998306 0.16192923486232758
0.86162501573562622 0.0064927493222057819 0.18259739875793457
0.075442507863044739 0.1424366682767868 0.19518806040287018
0.12890854477882385 0.136135533452034 0.18737229704856873
0.19455590844154358 0.12472707778215408 0.17759300768375397
0.26418668031692505 0.11080814152956009 0.16916705667972565
0.33246961236000061 0.096476972103118896 0.16375644505023956
0.40284916758537292 0.084247276186943054 0.15747629106044769
0.47750794887542725 0.072455130517482758 0.14613623917102814
0.55230891704559326 0.055310223251581192 0.13428136706352234
0.6225661039352417 0.030764814466238022 0.12580174207687378
0.68642735481262207 0.0069635580293834209 0.12142476439476013
0.7467074990272522 0.00025868136435747147 0.13212339580059052
0.80643010139465332 0.0003702949034050107 0.15329831838607788
0.86648619174957275 0.0014966628514230251 0.17300492525100708
0.10722440481185913 0.21488815546035767 0.21756699681282043
0.14927740395069122 0.21277745068073273 0.21165502071380615
0.20608216524124146 0.20513202250003815 0.20470091700553894
0.27368715405464172 0.19281481206417084 0.1978876143693924
0.34222131967544556 0.17973805963993073 0.19273513555526733
0.41326183080673218 0.16715091466903687 0.18720453977584839
0.4892524778842926 0.15163053572177887 0.17896951735019684
0.56537932157516479 0.12821407616138458 0.16940630972385406
0.63523834943771362 0.094437554478645325 0.15904277563095093
0.69701683521270752 0.056997485458850861 0.14994986355304718
0.75424456596374512 0.025487577542662621 0.15097662806510925
0.81087344884872437 0.0050846175290644169 0.15701907873153687
0.86961859464645386 0 0.1650116890668869
0.12174845486879349 0.28567332029342651 0.23174698650836945
0.16455978155136108 0.28410261869430542 0.22839593887329102
0.22156895697116852 0.27912545204162598 0.22382564842700958
0.28672823309898376 0.27065396308898926 0.22022558748722076
0.35369959473609924 0.26159283518791199 0.21760322153568268
0.42437365651130676 0.25206619501113892 0.21488954126834869
0.50208383798599243 0.23835469782352448 0.21092909574508667
0.58046507835388184 0.21826446056365967 0.20519973337650299
0.65065938234329224 0.18905171751976013 0.19833989441394806
0.71145749092102051 0.14990797638893127 0.19361281394958496
0.76608806848526001 0.10225915163755417 0.19127820432186127
0.81985563039779663 0.05423310399055481 0.18440929055213928
0.87628728151321411 0.01945577934384346 0.17961785197257996
0.14238888025283813 0.3570837676525116 0.24131828546524048
0.18576370179653168 0.35493013262748718 0.2385757714509964
0.24206484854221344 0.35194689035415649 0.23540809750556946
0.30359441041946411 0.34683525562286377 0.23483505845069885
0.36830675601959229 0.34062215685844421 0.2357107549905777
0.43842244148254395 0.33268940448760986 0.23668877780437469
0.51623082160949707 0.32140100002288818 0.23675958812236786
0.59486716985702515 0.30719953775405884 0.23598180711269379
0.66584771871566772 0.28863918781280518 0.23510822653770447
