assets/lut/films colorslide fuji superia 200 xpro.cube
# Created by: G'MIC (https://gmic.eu)
TITLE "fuji_superia_200_xpro"
# LUT size
LUT_3D_SIZE 13
# Data domain
DOMAIN_MIN 0.0 0.0 0.0
DOMAIN_MAX 1.0 1.0 1.0
# LUT data points
0.00039984012255445123 0.033237967640161514 0.21420636773109436
0.00047315709525719285 0.043146170675754547 0.21987663209438324
0.00062795903068035841 0.052863791584968567 0.24103406071662903
0.001438140869140625 0.063556253910064697 0.24852088093757629
0.0033779519144445658 0.072819970548152924 0.26799267530441284
0.0067677218466997147 0.075891651213169098 0.269216388463974
0.018859399482607841 0.076221615076065063 0.26503109931945801
0.046029035001993179 0.067453630268573761 0.26694750785827637
0.086996279656887054 0.05748334527015686 0.26755622029304504
0.13991124927997589 0.056045591831207275 0.2726266086101532
0.20083469152450562 0.061476882547140121 0.28140074014663696
0.27033016085624695 0.071002617478370667 0.28738889098167419
0.35056072473526001 0.084970064461231232 0.28338813781738281
0.00011085061123594642 0.12856872379779816 0.29212582111358643
0.0012504128972068429 0.13864481449127197 0.29626220464706421
0.0051420773379504681 0.14933378994464874 0.30892848968505859
0.0076734353788197041 0.16084840893745422 0.31641504168510437
0.01257114764302969 0.16926400363445282 0.32391142845153809
0.021492123603820801 0.16358554363250732 0.3263741135597229
0.041671872138977051 0.15380872786045074 0.3250654935836792
0.075187325477600098 0.14036364853382111 0.32323983311653137
0.11864950507879257 0.12819600105285645 0.31950196623802185
0.17199727892875671 0.12433461099863052 0.31901776790618896
0.23286229372024536 0.12715324759483337 0.323447585105896
0.30090990662574768 0.13373050093650818 0.32629957795143127
0.3768559992313385 0.14217750728130341 0.32204309105873108
0.0025827744975686073 0.22544664144515991 0.35772848129272461
0.0050149355083703995 0.23077771067619324 0.35963931679725647
0.010324127040803432 0.2350517064332962 0.36520302295684814
0.0143534941598773 0.23790463805198669 0.37266242504119873
0.021707393229007721 0.2400127649307251 0.37800228595733643
0.032449550926685333 0.23552174866199493 0.37805438041687012
0.058201044797897339 0.22521084547042847 0.37543320655822754
0.09931405633687973 0.21088816225528717 0.37158304452896118
0.14737346768379211 0.19706982374191284 0.36452212929725647
0.20241761207580566 0.18942803144454956 0.35937732458114624
0.26316511631011963 0.1883598268032074 0.35885769128799438
0.32921251654624939 0.18983212113380432 0.35922449827194214
0.40169182419776917 0.19298739731311798 0.35401454567909241
0.0065053603611886501 0.31307855248451233 0.41752350330352783
0.004995263647288084 0.31315439939498901 0.41996303200721741
0.0072443047538399696 0.31390643119812012 0.42284807562828064
0.012838161550462246 0.31420883536338806 0.42626979947090149
0.020933607593178749 0.31419366598129272 0.42844521999359131
0.030718710273504257 0.31208577752113342 0.42493519186973572
0.058396074920892715 0.30394315719604492 0.4196641743183136
0.10637875646352768 0.28987091779708862 0.41382795572280884
0.16611205041408539 0.27280014753341675 0.40544840693473816
0.23048330843448639 0.25910776853561401 0.39728787541389465
0.29415246844291687 0.25117233395576477 0.39245277643203735
0.35900795459747314 0.24685581028461456 0.38934439420700073
0.42916595935821533 0.24437299370765686 0.38323870301246643
0.0017373028676956892 0.39935877919197083 0.47633731365203857
0.00097340601496398449 0.40134710073471069 0.47683647274971008
0.00086294434731826186 0.40224489569664001 0.47901025414466858
0.0043289633467793465 0.40477433800697327 0.47950208187103271
0.0083123296499252319 0.40544098615646362 0.47793769836425781
0.016034772619605064 0.40236535668373108 0.47343873977661133
0.047195032238960266 0.39333543181419373 0.46651625633239746
0.11253674328327179 0.37679538130760193 0.45879402756690979
0.19117087125778198 0.35487467050552368 0.44789215922355652
0.26456215977668762 0.33430719375610352 0.43609344959259033
0.32965946197509766 0.32000786066055298 0.42649626731872559
0.39418467879295349 0.30890712141990662 0.41993102431297302
0.46264368295669556 0.30048093199729919 0.41266551613807678
0 0.51031410694122314 0.53055524826049805
0 0.51177752017974854 0.5319402813911438
0.00025060315965674818 0.51359200477600098 0.53407728672027588
0.00034974041045643389 0.51508605480194092 0.5333361029624939
0.00085510552162304521 0.5134163498878479 0.53140878677368164
0.0048624821938574314 0.50866186618804932 0.5269852876663208
0.041000232100486755 0.49603775143623352 0.51925539970397949
0.13446158170700073 0.47313341498374939 0.51014846563339233
0.23292335867881775 0.44540965557098389 0.49556943774223328
0.30746918916702271 0.4195038378238678 0.47874686121940613
0.37015840411186218 0.3973906934261322 0.46522188186645508
0.43361195921897888 0.37820437550544739 0.45547658205032349
0.5012546181678772 0.36394864320755005 0.44575077295303345
0 0.64507323503494263 0.59305071830749512
0 0.64451879262924194 0.59370934963226318
4.8110065108630806e-05 0.64404314756393433 0.59396892786026001
6.8574794568121433e-05 0.64139866828918457 0.59212851524353027
0.00040800805436447263 0.63737612962722778 0.59078633785247803
0.0063493764027953148 0.63078171014785767 0.58656656742095947
0.059588070958852768 0.61473953723907471 0.57841295003890991
0.16818313300609589 0.58750903606414795 0.56502151489257812
0.27594843506813049 0.55356895923614502 0.5459323525428772
0.35312998294830322 0.51898801326751709 0.52602255344390869
0.41554751992225647 0.48654893040657043 0.50928020477294922
0.47807484865188599 0.45873677730560303 0.49575063586235046
0.5449213981628418 0.43695792555809021 0.48336347937583923
3.7922578485449776e-05 0.78980368375778198 0.66119611263275146
0 0.79131770133972168 0.66027992963790894
0 0.78584867715835571 0.65880733728408813
0 0.77933460474014282 0.65704727172851562
0.00031427122303284705 0.77486211061477661 0.65488201379776001
0.009436379186809063 0.76971101760864258 0.64910131692886353
0.088512375950813293 0.74694526195526123 0.63987427949905396
0.21215011179447174 0.71146899461746216 0.62300240993499756
0.31975570321083069 0.67363446950912476 0.59979254007339478
0.39892339706420898 0.6329149603843689 0.57695949077606201
0.46437042951583862 0.59129506349563599 0.55680841207504272
0.52729648351669312 0.55356037616729736 0.53971248865127563
0.59426403045654297 0.52201908826828003 0.52442574501037598
0.023132368922233582 0.91888308525085449 0.72514605522155762
0.0029715443961322308 0.93037873506546021 0.72408109903335571
0.0052897436544299126 0.92237198352813721 0.72264671325683594
0.0082128932699561119 0.91648811101913452 0.72090613842010498
0.0023952110204845667 0.92052608728408813 0.71763902902603149
0.028785675764083862 0.91318464279174805 0.71243852376937866
0.13427424430847168 0.88781428337097168 0.70243877172470093
0.25799056887626648 0.85048443078994751 0.68334329128265381
0.35883083939552307 0.81188249588012695 0.65878546237945557
0.44163370132446289 0.76382815837860107 0.63348734378814697
0.51403123140335083 0.71117782592773438 0.60902506113052368
0.57995349168777466 0.66294336318969727 0.58784127235412598
0.6492077112197876 0.61983001232147217 0.56966221332550049
0.19744554162025452 0.98709630966186523 0.78340160846710205
0.15548601746559143 0.99706792831420898 0.78346097469329834
0.15598534047603607 0.99540829658508301 0.78507214784622192
0.17172852158546448 0.99365377426147461 0.78684878349304199
0.16861118376255035 0.99711960554122925 0.7877194881439209
0.20469753444194794 0.99470251798629761 0.78701889514923096
0.26872545480728149 0.98921716213226318 0.77725684642791748
0.33576324582099915 0.97888457775115967 0.75614559650421143
0.41368550062179565 0.95322167873382568 0.73022884130477905
0.4904380738735199 0.90631121397018433 0.70063287019729614
0.56618404388427734 0.84562987089157104 0.67033684253692627
0.637165367603302 0.78422558307647705 0.64375042915344238
0.71017152070999146 0.73188287019729614 0.61932629346847534
0.47882792353630066 0.99927693605422974 0.84631192684173584
0.46814051270484924 1 0.84645479917526245
0.45587319135665894 1 0.85098832845687866
0.47796899080276489 1 0.85776257514953613
0.50533878803253174 1 0.86604040861129761
0.51757651567459106 1 0.87387555837631226
0.52785837650299072 1 0.87128394842147827
0.55079537630081177 1 0.85356026887893677
0.57486379146575928 0.99990338087081909 0.82607376575469971
0.60126727819442749 0.99494755268096924 0.78990441560745239
0.64851170778274536 0.96750098466873169 0.74687403440475464
0.70790684223175049 0.91534358263015747 0.70712649822235107
0.77531778812408447 0.86277109384536743 0.67232340574264526
0.73011106252670288 1 0.92003035545349121
0.72891104221343994 1 0.91894525289535522
0.72892558574676514 1 0.92109417915344238
0.74355709552764893 1 0.92678600549697876
0.75332838296890259 1 0.93593865633010864
0.7628319263458252 1 0.95030796527862549
0.78044307231903076 1 0.96163260936737061
0.79387450218200684 0.99987751245498657 0.95717799663543701
0.8016897439956665 0.99918049573898315 0.93851649761199951
0.80894780158996582 0.99981170892715454 0.91240149736404419
0.81241589784622192 0.99968665838241577 0.85830962657928467
0.83296751976013184 0.99528950452804565 0.79525113105773926
0.87113034725189209 0.97784358263015747 0.73900485038757324
0.95037466287612915 1 0.98767411708831787
0.95154458284378052 1 0.9864693284034729
0.95421898365020752 1 0.9857182502746582
0.95799291133880615 1 0.98542773723602295
0.95950913429260254 1 0.98999863862991333
0.96436941623687744 1 0.99724400043487549
0.97232019901275635 0.99919813871383667 0.99985295534133911
0.97615104913711548 0.99833869934082031 0.9999229907989502
0.9759412407875061 0.99763113260269165 0.99837112426757812
0.98232567310333252 0.99781769514083862 0.99758505821228027
0.97713971138000488 0.99953615665435791 0.98352158069610596
0.98177635669708252 1 0.93161177635192871
0.99171727895736694 0.99978744983673096 0.84935295581817627
0 0.04325949028134346 0.31759488582611084
0 0.051360365003347397 0.31901729106903076
0 0.061325687915086746 0.32780036330223083
0 0.0736236572265625 0.33951961994171143
1.4361213516167481e-06 0.083520881831645966 0.34575265645980835
0.00072890636511147022 0.085250675678253174 0.34091198444366455
0.0060192779637873173 0.081713765859603882 0.33602097630500793
0.025216329842805862 0.071358881890773773 0.33084613084793091
0.063810370862483978 0.060752585530281067 0.32268819212913513
0.12138387560844421 0.061343442648649216 0.32215267419815063
0.18771818280220032 0.070684380829334259 0.32837456464767456
0.26194396615028381 0.084519326686859131 0.33439961075782776
0.34782877564430237 0.1046130582690239 0.33070647716522217
0 0.14315702021121979 0.37224084138870239
6.0885558923473582e-06 0.15193246304988861 0.36963427066802979
8.3654063928406686e-05 0.15837839245796204 0.37671491503715515
0.00018742879910860211 0.16627667844295502 0.38518801331520081
0.0025478885509073734 0.17269627749919891 0.38747736811637878
0.010773363523185253 0.16781185567378998 0.38459950685501099
0.028424521908164024 0.15697459876537323 0.3802914023399353
0.057380527257919312 0.14199024438858032 0.37314322590827942
0.099908299744129181 0.12911982834339142 0.36310568451881409
0.15705978870391846 0.12757360935211182 0.35888147354125977
0.22211083769798279 0.1344340443611145 0.36175805330276489
0.29417023062705994 0.14443853497505188 0.36435139179229736
0.37303873896598816 0.15609607100486755 0.36067450046539307
0.0024382798001170158 0.23310388624668121 0.41963762044906616
0.0023586796596646309 0.23628063499927521 0.41844445466995239
0.0018439498962834477 0.23720875382423401 0.4221343994140625
0.0034326142631471157 0.2392829954624176 0.42694500088691711
0.010289674624800682 0.2410571277141571 0.42835554480552673
0.022323548793792725 0.23616184294223785 0.42495906352996826
0.047906853258609772 0.22493141889572144 0.41863846778869629
0.086296200752258301 0.20888613164424896 0.41016742587089539
0.1335894763469696 0.19463217258453369 0.39882269501686096
0.19017747044563293 0.1898176372051239 0.3915410041809082
0.25354477763175964 0.19191518425941467 0.38954955339431763
0.32203966379165649 0.19605444371700287 0.38901180028915405
0.39555662870407104 0.20050019025802612 0.38489553332328796
0.0040176389738917351 0.31461507081985474 0.46598294377326965
0.0039215688593685627 0.31418958306312561 0.4659515917301178
0.0039736730977892876 0.31499859690666199 0.46482926607131958
0.0060449936427175999 0.31565234065055847 0.46571347117424011
0.011613045819103718 0.31439363956451416 0.46750888228416443
0.022572236135601997 0.31087958812713623 0.46263191103935242
0.050766799598932266 0.30110886693000793 0.45474854111671448
0.095571763813495636 0.28595238924026489 0.44631245732307434
0.15116718411445618 0.26956433057785034 0.43412870168685913
0.21725520491600037 0.25770890712738037 0.42347314953804016
0.28417745232582092 0.25268581509590149 0.41683915257453918
0.35122379660606384 0.2498692125082016 0.41313493251800537
0.42156285047531128 0.24769341945648193 0.40909391641616821
0.0028954450972378254 0.40175199508666992 0.50961154699325562
0.0041629266925156116 0.4020131528377533 0.50963324308395386
0.0039832470938563347 0.40466269850730896 0.50974541902542114
0.0036300958599895239 0.40560674667358398 0.50958538055419922
0.0032230750657618046 0.40459734201431274 0.50959956645965576
0.0096808634698390961 0.39987054467201233 0.50436997413635254
0.041574113070964813 0.38906538486480713 0.49607539176940918
0.10207425057888031 0.37205803394317627 0.48625868558883667
0.17482373118400574 0.3507952094078064 0.47205600142478943
0.25129824876785278 0.33126923441886902 0.4579128623008728
0.31945177912712097 0.31971320509910583 0.44699111580848694
0.38529694080352783 0.30992156267166138 0.44056624174118042
0.45352640748023987 0.30168503522872925 0.43567559123039246
0.0018360213143751025 0.51027399301528931 0.5551636815071106
0.0063594444654881954 0.51053643226623535 0.55734926462173462
0.0054440069943666458 0.51366770267486572 0.56025582551956177
0.0017207276541739702 0.51554387807846069 0.55998224020004272
0 0.51254421472549438 0.55802607536315918
0.0011375277535989881 0.50580912828445435 0.55253612995147705
0.036973513662815094 0.49097529053688049 0.5433695912361145
0.12937608361244202 0.46741706132888794 0.53199881315231323
0.22170644998550415 0.44005307555198669 0.51513099670410156
0.2969670295715332 0.41511738300323486 0.49758478999137878
0.35991665720939636 0.39643615484237671 0.48383215069770813
0.42385450005531311 0.37823218107223511 0.47464799880981445
0.49131879210472107 0.36356496810913086 0.4668985903263092
0.0028548147529363632 0.6411205530166626 0.61524540185928345
0.0088994493708014488 0.63892257213592529 0.61597448587417603
0.0056907804682850838 0.64151102304458618 0.61718416213989258
0.00062730076024308801 0.64251387119293213 0.61464202404022217
0 0.63886547088623047 0.61206519603729248
0.00090553431073203683 0.62867778539657593 0.60720479488372803
0.049072057008743286 0.60975843667984009 0.59693604707717896
0.16037668287754059 0.58240014314651489 0.58129960298538208
0.26843598484992981 0.54824137687683105 0.56189101934432983
0.3453432023525238 0.51414471864700317 0.54266619682312012
0.40640884637832642 0.48438584804534912 0.52640610933303833
0.46823763847351074 0.45743381977081299 0.51385766267776489
0.53484940528869629 0.43542507290840149 0.50266706943511963
0.00066981598502025008 0.78582847118377686 0.68145608901977539
0.0039840699173510075 0.78108048439025879 0.68054854869842529
0.0027711605653166771 0.77829229831695557 0.67922985553741455
0 0.78099203109741211 0.67603415250778198
0 0.77990597486495972 0.67226320505142212
0.0016414866549894214 0.76800185441970825 0.66607260704040527
0.067815877497196198 0.74304491281509399 0.65429723262786865
0.19555515050888062 0.70687329769134521 0.63599711656570435
0.31143930554389954 0.66613233089447021 0.61463677883148193
0.39373800158500671 0.62428289651870728 0.59308576583862305
0.45729568600654602 0.58484363555908203 0.57318240404129028
0.51838487386703491 0.54985076189041138 0.55663728713989258
0.58482694625854492 0.51963353157043457 0.54199153184890747
0.011716730892658234 0.92319357395172119 0.74476760625839233
0.01500600203871727 0.91867715120315552 0.74330776929855347
0.017946295440196991 0.91345322132110596 0.74145233631134033
0.0046343784779310226 0.92014622688293457 0.73865377902984619
0.0018108891090378165 0.92366451025009155 0.7343670129776001
0.022274855524301529 0.91019850969314575 0.72747701406478882
0.10830739140510559 0.8865622878074646 0.71511805057525635
0.23563225567340851 0.84591907262802124 0.69685202836990356
0.34939923882484436 0.8011549711227417 0.67411476373672485
0.43740168213844299 0.75080889463424683 0.64929544925689697
0.50889617204666138 0.70020657777786255 0.62465202808380127
0.57233637571334839 0.65657967329025269 0.60304969549179077
0.64068186283111572 0.61711281538009644 0.58458220958709717
0.1685345470905304 0.99431240558624268 0.80504488945007324
0.16870635747909546 0.99377751350402832 0.80557185411453247
0.1695517897605896 0.99243718385696411 0.80544710159301758
0.14968988299369812 0.99625927209854126 0.80566883087158203
0.14974962174892426 0.99763494729995728 0.80438768863677979
0.19559994339942932 0.99363553524017334 0.79981547594070435
0.24503880739212036 0.98949712514877319 0.7889026403427124
0.3206210732460022 0.97327929735183716 0.77111536264419556
0.40040820837020874 0.945872962474823 0.74687880277633667
0.48466074466705322 0.8932613730430603 0.71552735567092896
0.56016498804092407 0.83468377590179443 0.68372839689254761
0.6293100118637085 0.77866268157958984 0.65687835216522217
0.7020755410194397 0.72982686758041382 0.63182336091995239
0.46223360300064087 0.9999164342880249 0.86947417259216309
0.45451313257217407 1 0.87197154760360718
0.45491582155227661 1 0.87403851747512817
0.45545300841331482 1 0.87927722930908203
0.46825364232063293 1 0.88516342639923096
0.49385365843772888 1 0.887073814868927
0.50478792190551758 1 0.88409429788589478
0.52193677425384521 1 0.8694770336151123
0.54857993125915527 0.99962937831878662 0.84074670076370239
0.58992934226989746 0.99031740427017212 0.80129045248031616
0.63548767566680908 0.96756112575531006 0.75786745548248291
0.69582784175872803 0.91928309202194214 0.7195504903793335
0.76798033714294434 0.86251825094223022 0.68203014135360718
0.72750484943389893 0.99893796443939209 0.93920159339904785
0.72246289253234863 0.99999785423278809 0.94022488594055176
0.72365099191665649 1 0.94245648384094238
0.7300107479095459 1 0.94773930311203003
0.7345234751701355 1 0.95705324411392212
0.74979293346405029 0.9998854398727417 0.9661903977394104
0.76053088903427124 0.99991774559020996 0.97340840101242065
0.76479721069335938 0.99993813037872314 0.96756696701049805
0.77511131763458252 0.99959450960159302 0.94491446018218994
0.79065632820129395 0.99988198280334473 0.91816890239715576
0.80079042911529541 1 0.87047237157821655
0.82684499025344849 0.99674761295318604 0.8046802282333374
0.86627602577209473 0.97408145666122437 0.7457352876663208
0.94845682382583618 1 0.99291163682937622
0.94848155975341797 1 0.99207496643066406
0.9491811990737915 1 0.9922671914100647
0.95149308443069458 1 0.99329072237014771
0.95248425006866455 1 0.99642795324325562
0.95744991302490234 0.99836868047714233 0.99951761960983276
0.96294450759887695 0.99633634090423584 1
0.96529042720794678 0.99626457691192627 1
0.97035151720046997 0.996418297290802 0.99932467937469482
0.97771042585372925 0.99723142385482788 0.99820846319198608
0.97518628835678101 0.99816882610321045 0.98784095048904419
0.97882258892059326 0.99992507696151733 0.93860375881195068
0.987021803855896 0.99990665912628174 0.85579019784927368
0 0.063638009130954742 0.37511160969734192
0 0.068059660494327545 0.37910369038581848
0 0.074611961841583252 0.38629701733589172
0 0.087593913078308105 0.39233475923538208
0 0.092327088117599487 0.39349678158760071
2.3516486180596985e-05 0.088769517838954926 0.38807240128517151
0.0017589494818821549 0.078734487295150757 0.38283684849739075
0.014780844561755657 0.066080562770366669 0.3750421404838562
0.051193986088037491 0.058858368545770645 0.36512738466262817
0.10772862285375595 0.061607886105775833 0.36183682084083557
0.17576242983341217 0.073546960949897766 0.36449834704399109
0.25611200928688049 0.09454643726348877 0.36822101473808289
0.34231552481651306 0.11624713987112045 0.36545956134796143
0 0.15754388272762299 0.42590290307998657
0 0.16301023960113525 0.42461609840393066
0 0.16811923682689667 0.42857027053833008
0 0.17440231144428253 0.43262243270874023
0.0006574742728844285 0.17425467073917389 0.43260115385055542
0.0066349999979138374 0.16765366494655609 0.42704936861991882
0.022004310041666031 0.15475717186927795 0.42019179463386536
0.048496454954147339 0.13919201493263245 0.41040346026420593
0.08965861052274704 0.128996342420578 0.39878112077713013
0.14642351865768433 0.12995520234107971 0.39308330416679382
0.21285445988178253 0.13858689367771149 0.39320066571235657
0.28685489296913147 0.15056626498699188 0.39386492967605591
0.36600217223167419 0.16261431574821472 0.39035573601722717
0.00054092408390715718 0.2389882504940033 0.46765920519828796
0.00051369762513786554 0.24130819737911224 0.46562504768371582
5.9838390598088154e-07 0.24197854101657867 0.46723920106887817
0.00091851927572861314 0.24299585819244385 0.46945193409919739
0.005784651730209589 0.24159421026706696 0.46861940622329712
0.018525740131735802 0.23539276421070099 0.46308660507202148
0.044374324381351471 0.22276033461093903 0.45462682843208313
0.081453166902065277 0.20679840445518494 0.44343969225883484
0.12572643160820007 0.1950632631778717 0.43012601137161255
0.18047124147415161 0.19227394461631775 0.42150494456291199
0.24401724338531494 0.19493082165718079 0.41790705919265747
0.3132750391960144 0.19869349896907806 0.41537779569625854
0.38700330257415771 0.20286421477794647 0.41085302829742432
0.0021540473680943251 0.31763017177581787 0.50699317455291748
0.0038418937474489212 0.3174319863319397 0.50612229108810425
0.0034244311973452568 0.31780847907066345 0.50438219308853149
0.0038872812874615192 0.31725406646728516 0.50513499975204468
0.0075552994385361671 0.31458050012588501 0.50391590595245361
0.021096114069223404 0.30961483716964722 0.49787929654121399
0.050865054130554199 0.29749396443367004 0.48929166793823242
0.092294059693813324 0.2820855975151062 0.47838813066482544
0.14021725952625275 0.26847252249717712 0.46332749724388123
0.20474906265735626 0.25846183300018311 0.45124664902687073
0.27276611328125 0.25313287973403931 0.44320201873779297
0.34108337759971619 0.25031000375747681 0.4382433295249939
0.41203674674034119 0.24793963134288788 0.43392834067344666
0.0022833133116364479 0.40550735592842102 0.54604232311248779
0.0052261501550674438 0.40588223934173584 0.54499441385269165
0.0042869416065514088 0.40684100985527039 0.5453382134437561
0.0028981526847928762 0.40574926137924194 0.54583632946014404
0.0024578617885708809 0.40403357148170471 0.54361104965209961
0.012429988943040371 0.3981349766254425 0.53667360544204712
0.043810676783323288 0.38541969656944275 0.52722436189651489
0.088872291147708893 0.36957657337188721 0.51493185758590698
0.15400835871696472 0.34960916638374329 0.49915921688079834
0.23430345952510834 0.33058777451515198 0.48498627543449402
0.30650275945663452 0.3183739185333252 0.47336649894714355
0.37410038709640503 0.30892303586006165 0.46564206480979919
0.44324791431427002 0.30119198560714722 0.46034157276153564
0.0045769782736897469 0.51347655057907104 0.59043508768081665
0.0093088187277317047 0.51362252235412598 0.59041821956634521
0.0059823128394782543 0.51607197523117065 0.59295964241027832
0.00071879365714266896 0.51478976011276245 0.59358376264572144
0 0.51114732027053833 0.58937150239944458
0.0038974536582827568 0.50264936685562134 0.58139866590499878
0.043431300669908524 0.48572739958763123 0.57092273235321045
0.117310531437397 0.46285527944564819 0.55726045370101929
0.2003694623708725 0.43688830733299255 0.54019933938980103
0.27941793203353882 0.41189980506896973 0.52427250146865845
