assets/lut/films print kodak 2383 cuspclip.cube
# Created by: G'MIC (https://gmic.eu)
TITLE "kodak_2383_cuspclip"
# LUT size
LUT_3D_SIZE 5
# Data domain
DOMAIN_MIN 0.0 0.0 0.0
DOMAIN_MAX 1.0 1.0 1.0
# LUT data points
0.015678869560360909 0.024605005979537964 0.029940018430352211
0.094432264566421509 0.045078173279762268 0.025413887575268745
0.36706140637397766 0.071784138679504395 0.0042320401407778263
0.60667818784713745 0.12254399061203003 0.00081022671656683087
0.66363108158111572 0.14283847808837891 0.0038672951050102711
0.0053241653367877007 0.094763211905956268 0.053425479680299759
0.10375934839248657 0.12961836159229279 0.039547190070152283
0.42874431610107422 0.17191103100776672 0.004086214117705822
0.68822586536407471 0.2206788957118988 0.0085645783692598343
0.75059306621551514 0.23591126501560211 0.016122825443744659
0.027626905590295792 0.36462634801864624 0.18786084651947021
0.027079308405518532 0.36386010050773621 0.038625799119472504
0.6016920804977417 0.50090348720550537 0.0079354085028171539
0.84171700477600098 0.53827375173568726 0.018536586314439774
0.88231861591339111 0.55902540683746338 0.0074958950281143188
0.019841855391860008 0.54377263784408569 0.26411724090576172
0.015501059591770172 0.59236019849777222 0.12482660263776779
0.69658112525939941 0.76648408174514771 0.017096171155571938
0.93120878934860229 0.79502731561660767 0.078710250556468964
0.96718621253967285 0.79464578628540039 0.09308084100484848
0.018479246646165848 0.60429495573043823 0.27365425229072571
0.080057345330715179 0.65550154447555542 0.025433139875531197
0.71929579973220825 0.80648940801620483 0.020285962149500847
0.94799476861953735 0.85166579484939575 0.084754019975662231
0.99391549825668335 0.85520768165588379 0.11182273179292679
0.009112892672419548 0.02513592317700386 0.10522405803203583
0.09995579719543457 0.04723002016544342 0.10420660674571991
0.37743046879768372 0.020484371110796928 0.094108656048774719
0.6259351372718811 0.0025730805937200785 0.072399720549583435
0.69562691450119019 0.0028768053743988276 0.066264644265174866
0.0035213844384998083 0.11579633504152298 0.1436755359172821
0.090087279677391052 0.12788787484169006 0.14623495936393738
0.46232888102531433 0.15950840711593628 0.10618113726377487
0.72664159536361694 0.088061191141605377 0.041662748903036118
0.78559952974319458 0.1212940439581871 0.05443306639790535
0.018715683370828629 0.40691614151000977 0.29093244671821594
0.019933393225073814 0.41216310858726501 0.19823767244815826
0.60669034719467163 0.50355851650238037 0.071723848581314087
0.88392561674118042 0.53000706434249878 0.042568925768136978
0.93838822841644287 0.56926602125167847 0.047398660331964493
0.009486733004450798 0.57775896787643433 0.36465808749198914
0.016141479834914207 0.6289709210395813 0.28749147057533264
0.66381716728210449 0.76740330457687378 0.057863198220729828
0.9684644341468811 0.82884526252746582 0.04238421842455864
0.99778455495834351 0.83407682180404663 0.086679406464099884
0.014143072068691254 0.64993572235107422 0.45763927698135376
0.025873655453324318 0.70195102691650391 0.37590423226356506
0.67319071292877197 0.83135402202606201 0.25289914011955261
0.98663461208343506 0.89070940017700195 0.19311520457267761
1 0.88832598924636841 0.34441840648651123
0.0037965213414281607 0.14273180067539215 0.35018515586853027
0.09169190376996994 0.012208916246891022 0.34389418363571167
0.38933566212654114 0.0058665405958890915 0.37191164493560791
0.65200263261795044 0.0037712994962930679 0.40391260385513306
0.70394384860992432 0.00018678553169593215 0.40300664305686951
9.5457187853753567e-05 0.25256383419036865 0.43067318201065063
0.025873985141515732 0.16039815545082092 0.42048460245132446
0.46905219554901123 0.15351498126983643 0.4500865638256073
0.73669636249542236 0.080472208559513092 0.46228200197219849
0.80140382051467896 0.12957096099853516 0.47885599732398987
0.0099752387031912804 0.49570688605308533 0.55674940347671509
0.0086458837613463402 0.51584470272064209 0.56794005632400513
0.56525367498397827 0.55478346347808838 0.56363904476165771
0.88432449102401733 0.58929109573364258 0.56703883409500122
0.94012439250946045 0.60764843225479126 0.56786942481994629
0.0074562523514032364 0.66258883476257324 0.65520387887954712
0.0090486714616417885 0.72141802310943604 0.66300094127655029
0.58237087726593018 0.83807313442230225 0.6140437126159668
0.95167797803878784 0.89498555660247803 0.6154363751411438
0.99608659744262695 0.88331502676010132 0.62016981840133667
0.0060586370527744293 0.73140686750411987 0.72822272777557373
0.010120781138539314 0.78841948509216309 0.7306094765663147
0.61284154653549194 0.89601284265518188 0.70924800634384155
0.95072430372238159 0.95152181386947632 0.72090810537338257
0.99942976236343384 0.95997291803359985 0.72580260038375854
0.0051072211936116219 0.24785982072353363 0.51440662145614624
0.086042501032352448 0.029252100735902786 0.52701181173324585
0.41268488764762878 0.00019145292753819376 0.57686930894851685
0.67148923873901367 0.002203773008659482 0.62037414312362671
0.71873980760574341 0.00012139713362557814 0.61013877391815186
0.00038335463614203036 0.34285259246826172 0.60046881437301636
0.019538775086402893 0.2627885639667511 0.61883580684661865
0.48121547698974609 0.12830914556980133 0.69167298078536987
0.75036424398422241 0.055862873792648315 0.70776641368865967
0.81305408477783203 0.10142578184604645 0.72783732414245605
0.0090185580775141716 0.54174220561981201 0.72148281335830688
0.011542585678398609 0.55997353792190552 0.75939100980758667
0.53511297702789307 0.588889479637146 0.82366335391998291
0.87469929456710815 0.62609803676605225 0.8436620831489563
0.93615806102752686 0.65529090166091919 0.85974550247192383
0.01552237756550312 0.69697916507720947 0.7998344898223877
0.038452673703432083 0.76006203889846802 0.84076398611068726
0.51325684785842896 0.88126081228256226 0.90482413768768311
0.92765164375305176 0.93014919757843018 0.91511702537536621
0.99181115627288818 0.93867307901382446 0.91309469938278198
0.015096252784132957 0.73997390270233154 0.83095240592956543
0.027238493785262108 0.80850648880004883 0.87504023313522339
0.54749667644500732 0.92258149385452271 0.9278978705406189
0.92363971471786499 0.9793592095375061 0.9368281364440918
0.99345493316650391 0.99052971601486206 0.94221901893615723
0.0030405831057578325 0.29319199919700623 0.58745920658111572
0.063316866755485535 0.10226033627986908 0.59596079587936401
0.42857414484024048 0.0034388673957437277 0.65783852338790894
0.68508672714233398 2.2170122974785045e-05 0.70141071081161499
0.76109105348587036 0.0087452754378318787 0.72159922122955322
0.00048253676504828036 0.38186848163604736 0.65348601341247559
0.010134064592421055 0.31336763501167297 0.67393803596496582
0.48718670010566711 0.19134204089641571 0.77030223608016968
0.76711583137512207 0.14710509777069092 0.79313421249389648
0.83324164152145386 0.18952667713165283 0.81153339147567749
0.013574622571468353 0.55913078784942627 0.75735855102539062
0.013181933201849461 0.55968111753463745 0.79354357719421387
0.50258278846740723 0.60317438840866089 0.89777147769927979
0.85910928249359131 0.62638950347900391 0.91613376140594482
0.93418675661087036 0.66729575395584106 0.92984306812286377
0.011353392153978348 0.69510704278945923 0.82142806053161621
0.030209634453058243 0.75013750791549683 0.86746561527252197
0.47995305061340332 0.88068854808807373 0.96329766511917114
0.92313778400421143 0.93510282039642334 0.98288649320602417
0.9832533597946167 0.94272434711456299 0.98015308380126953
0.011765064671635628 0.75297850370407104 0.85761553049087524
0.012963912449777126 0.80532383918762207 0.89305543899536133
0.52455323934555054 0.92602717876434326 0.97378528118133545
0.91937512159347534 0.98363983631134033 0.98828208446502686
0.99331784248352051 0.99360352754592896 0.99099689722061157
