assets/lut/films print kodak 2393 constlmap.cube
# Created by: G'MIC (https://gmic.eu)
TITLE "kodak_2393_constlmap"
# LUT size
LUT_3D_SIZE 13
# Data domain
DOMAIN_MIN 0.0 0.0 0.0
DOMAIN_MAX 1.0 1.0 1.0
# LUT data points
0.010492436587810516 0.021156026050448418 0.020513482391834259
0.016516592353582382 0.022625284269452095 0.022718243300914764
0.036909185349941254 0.029254255816340446 0.024885619059205055
0.066302850842475891 0.04000956192612648 0.026305373758077621
0.11915557086467743 0.052758384495973587 0.022009726613759995
0.20519569516181946 0.068804375827312469 0.01390680018812418
0.29357686638832092 0.083391033113002777 0.0091607039794325829
0.37631070613861084 0.09371744841337204 0.0049424413591623306
0.44133251905441284 0.10266099870204926 0.0066197565756738186
0.47623404860496521 0.10904277861118317 0.012257549911737442
0.5029253363609314 0.1126331090927124 0.016011375933885574
0.52424925565719604 0.11550746113061905 0.012212192639708519
0.53866267204284668 0.1166219636797905 0.0095961475744843483
0.0190303735435009 0.029998121783137321 0.027395689859986305
0.026276666671037674 0.033619437366724014 0.028840053826570511
0.044369671493768692 0.038966339081525803 0.030325975269079208
0.082624129951000214 0.050497077405452728 0.026466205716133118
0.13844782114028931 0.063739821314811707 0.018600389361381531
0.22874857485294342 0.081190995872020721 0.012457948178052902
0.32387807965278625 0.099738024175167084 0.007157045416533947
0.40924569964408875 0.11381934583187103 0.0057889004237949848
0.4724661111831665 0.12557286024093628 0.015961097553372383
0.50905942916870117 0.13209155201911926 0.01701863668859005
0.53933346271514893 0.13676205277442932 0.011907241307199001
0.55902767181396484 0.13879948854446411 0.0088265808299183846
0.57194381952285767 0.14056898653507233 0.0051208348013460636
0.025995874777436256 0.043594494462013245 0.034957002848386765
0.033794060349464417 0.04884319007396698 0.033923458307981491
0.048542484641075134 0.056442052125930786 0.032405972480773926
0.088730365037918091 0.067980915307998657 0.027935221791267395
0.15329268574714661 0.083564609289169312 0.019120564684271812
0.25891923904418945 0.1077486053109169 0.0092913759872317314
0.36095705628395081 0.12865421175956726 0.0044251088984310627
0.44743946194648743 0.14815820753574371 0.011471453122794628
0.51041418313980103 0.1576913446187973 0.017584603279829025
0.54810386896133423 0.16111201047897339 0.012332198210060596
0.57708042860031128 0.16310228407382965 0.0078058131039142609
0.59738749265670776 0.16961696743965149 0.012572837993502617
0.61452662944793701 0.18370792269706726 0.013985906727612019
0.028798870742321014 0.065464437007904053 0.046129651367664337
0.034189965575933456 0.071384727954864502 0.042587444186210632
0.046887297183275223 0.085842028260231018 0.035688601434230804
0.091492459177970886 0.10351421684026718 0.028103502467274666
0.17335647344589233 0.12696437537670135 0.020466014742851257
0.29351228475570679 0.15732660889625549 0.013946742750704288
0.40418875217437744 0.18124639987945557 0.0082489466294646263
0.49134945869445801 0.19247615337371826 0.008932165801525116
0.55406671762466431 0.20182682573795319 0.0082086147740483284
0.59427934885025024 0.20538961887359619 0.0050701363943517208
0.61876064538955688 0.20835483074188232 0.0073857028037309647
0.64024859666824341 0.22417114675045013 0.013321910053491592
0.65898275375366211 0.24306283891201019 0.016852973029017448
0.02406526543200016 0.10418292880058289 0.063019737601280212
0.024591289460659027 0.11522668600082397 0.059426490217447281
0.036580029875040054 0.14001663029193878 0.051753383129835129
0.090298011898994446 0.16217529773712158 0.031517688184976578
0.19544738531112671 0.1905670166015625 0.019066425040364265
0.32943898439407349 0.22467699646949768 0.019785128533840179
0.450002521276474 0.25045406818389893 0.016152909025549889
0.54339861869812012 0.26358607411384583 0.0072805215604603291
0.6148715615272522 0.2795644998550415 0.0044985455460846424
0.65515661239624023 0.29149350523948669 0.0094956345856189728
0.67723441123962402 0.29649755358695984 0.016305722296237946
0.69541269540786743 0.30765950679779053 0.016320306807756424
0.71083313226699829 0.32385528087615967 0.015487132593989372
0.014982664957642555 0.1626863032579422 0.087994247674942017
0.012662326917052269 0.17334745824337006 0.083857260644435883
0.019189108163118362 0.20133568346500397 0.074120648205280304
0.08059876412153244 0.23714825510978699 0.036936245858669281
0.22025550901889801 0.28171679377555847 0.022314019501209259
0.37193441390991211 0.31969156861305237 0.025763612240552902
0.50097483396530151 0.34892123937606812 0.024001387879252434
0.60391122102737427 0.37053090333938599 0.010674361139535904
0.67344886064529419 0.38875174522399902 0.0099489400163292885
0.71710759401321411 0.39882740378379822 0.01969991996884346
0.74114841222763062 0.40666928887367249 0.02167491614818573
0.76114249229431152 0.42450091242790222 0.015375563874840736
0.77488416433334351 0.4392758309841156 0.011275870725512505
0.010880997404456139 0.22026883065700531 0.11340080946683884
0.013448079116642475 0.23927797377109528 0.11079565435647964
0.0094426469877362251 0.26894292235374451 0.098165549337863922
0.062081102281808853 0.31485608220100403 0.05418689176440239
0.23588638007640839 0.37091901898384094 0.027579229325056076
0.40943232178688049 0.42174652218818665 0.023001473397016525
0.5516391396522522 0.46162086725234985 0.024327058345079422
0.65710359811782837 0.48316669464111328 0.018273551017045975
0.72791910171508789 0.50366771221160889 0.0171381626278162
0.77493810653686523 0.51307445764541626 0.018379854038357735
0.80315464735031128 0.52340072393417358 0.017594760283827782
0.82175642251968384 0.54211735725402832 0.012057061307132244
0.83373022079467773 0.55329513549804688 0.0064052804373204708
0.0083921840414404869 0.27426266670227051 0.13569550216197968
0.016118861734867096 0.29862794280052185 0.13581104576587677
0.012687204405665398 0.33674183487892151 0.12195349484682083
0.074395135045051575 0.39032521843910217 0.068783178925514221
0.25509461760520935 0.4582679271697998 0.023068970069289207
0.44661211967468262 0.52183115482330322 0.017435815185308456
0.59446144104003906 0.56541210412979126 0.015954095870256424
0.70501881837844849 0.59173566102981567 0.027643704786896706
0.78093743324279785 0.61039000749588013 0.026265611872076988
0.83138686418533325 0.62567639350891113 0.016429422423243523
0.85843396186828613 0.63772153854370117 0.017032608389854431
0.87366718053817749 0.64825522899627686 0.019674981012940407
0.88301986455917358 0.65309816598892212 0.015883516520261765
0.011987543664872646 0.31399345397949219 0.15282914042472839
0.017113510519266129 0.344309002161026 0.15326888859272003
0.012311763130128384 0.38933038711547852 0.13942408561706543
0.071494787931442261 0.44995254278182983 0.089049682021141052
0.27720588445663452 0.52398312091827393 0.024248713627457619
0.47509956359863281 0.59283018112182617 0.0070110992528498173
0.63021492958068848 0.64648288488388062 0.010939340107142925
0.74560701847076416 0.67702460289001465 0.03147723525762558
0.8221089243888855 0.69545787572860718 0.043079961091279984
0.86716955900192261 0.70788830518722534 0.046720199286937714
0.89741075038909912 0.71813905239105225 0.053644217550754547
0.90933245420455933 0.72275972366333008 0.054184857755899429
0.91693681478500366 0.72374641895294189 0.05012347549200058
0.0099660838022828102 0.33999300003051758 0.16362956166267395
0.014730610884726048 0.37893012166023254 0.16389796137809753
0.019299810752272606 0.42696002125740051 0.15088771283626556
0.084304258227348328 0.48704025149345398 0.091362744569778442
0.28956574201583862 0.56326615810394287 0.031695406883955002
0.49061053991317749 0.63412189483642578 0.0081635415554046631
0.64945334196090698 0.68999409675598145 0.017184119671583176
0.76701474189758301 0.72404348850250244 0.042322508990764618
0.84388589859008789 0.74391555786132812 0.067092567682266235
0.89093303680419922 0.75583964586257935 0.07775413990020752
0.91896259784698486 0.76422327756881714 0.08492201566696167
0.93016636371612549 0.76809090375900269 0.079439349472522736
0.93760585784912109 0.77002787590026855 0.072321809828281403
0.0043339896947145462 0.36564579606056213 0.17333443462848663
0.0071627297438681126 0.40829241275787354 0.17109671235084534
0.020023152232170105 0.45901572704315186 0.14883287250995636
0.095419548451900482 0.5190284252166748 0.074412509799003601
0.29189702868461609 0.58789420127868652 0.019449256360530853
0.49736908078193665 0.65697425603866577 0.0096893310546875
0.66236740350723267 0.7126915454864502 0.015763016417622566
0.78116726875305176 0.74866122007369995 0.043616365641355515
0.85999369621276855 0.77196991443634033 0.068258665502071381
0.90960407257080078 0.78682827949523926 0.084617525339126587
0.93317455053329468 0.79202234745025635 0.094877772033214569
0.94418030977249146 0.79495340585708618 0.093515641987323761
0.95130914449691772 0.79964351654052734 0.085280366241931915
0.0085477493703365326 0.40887856483459473 0.18793351948261261
0.0075417011976242065 0.44980373978614807 0.17477473616600037
0.027768677100539207 0.49826139211654663 0.1321970671415329
0.12071187794208527 0.55688196420669556 0.050484392791986465
0.33551427721977234 0.62226974964141846 0.013129185885190964
0.51968353986740112 0.68091750144958496 0.0054709641262888908
0.67133969068527222 0.72878569364547729 0.013018379919230938
0.79098230600357056 0.7644573450088501 0.043871503323316574
0.87068784236907959 0.78764325380325317 0.06856314092874527
0.92016041278839111 0.8032570481300354 0.084525555372238159
0.94624984264373779 0.8105241060256958 0.093233458697795868
0.95758432149887085 0.81258809566497803 0.094085067510604858
0.9625849723815918 0.8153616189956665 0.092264510691165924
0.012840330600738525 0.45220321416854858 0.19828861951828003
0.016630090773105621 0.50540822744369507 0.16910789906978607
0.058113876730203629 0.55202710628509521 0.097072362899780273
0.19432507455348969 0.59888678789138794 0.020528187975287437
0.38309288024902344 0.65131664276123047 0.0030289145652204752
0.54541701078414917 0.70202970504760742 0.0098445964977145195
0.68171811103820801 0.74323201179504395 0.025886161252856255
0.7995452880859375 0.77689158916473389 0.050061572343111038
0.87874197959899902 0.79851269721984863 0.072610057890415192
0.92771303653717041 0.8154367208480835 0.086607992649078369
0.9614982008934021 0.82703191041946411 0.095719955861568451
0.96881335973739624 0.82537007331848145 0.096900567412376404
0.97226840257644653 0.8268895149230957 0.10139156877994537
0.013377245515584946 0.023755930364131927 0.026503993198275566
0.024417877197265625 0.025946687906980515 0.030540900304913521
0.040904056280851364 0.029110793024301529 0.031199930235743523
0.070655480027198792 0.038743533194065094 0.033217575401067734
0.12444809824228287 0.04953911155462265 0.029442731291055679
0.2101510614156723 0.060414798557758331 0.016883371397852898
0.30080130696296692 0.070122390985488892 0.011711135506629944
0.38350364565849304 0.079848989844322205 0.011264665983617306
0.44656646251678467 0.092132285237312317 0.012523037381470203
0.4881746768951416 0.09200306236743927 0.0096921734511852264
0.51750224828720093 0.094953350722789764 0.008520493283867836
0.53890478610992432 0.1002737283706665 0.0047408607788383961
0.55533057451248169 0.093749061226844788 0.0075629139319062233
0.022555002942681313 0.035603050142526627 0.036121878772974014
0.031032517552375793 0.036934886127710342 0.037762466818094254
0.044942144304513931 0.039650876075029373 0.038070093840360641
0.077845461666584015 0.050347287207841873 0.037719007581472397
0.1401868611574173 0.061886176466941833 0.031258184462785721
0.24056540429592133 0.073211058974266052 0.02009073831140995
0.33589094877243042 0.089689679443836212 0.016613814979791641
0.41760960221290588 0.1042698547244072 0.021406793966889381
0.48067224025726318 0.11610259860754013 0.027296867221593857
0.5220189094543457 0.11747299134731293 0.020186690613627434
0.55187249183654785 0.12019303441047668 0.012294245883822441
0.57002407312393188 0.12454284727573395 0.009546901099383831
0.58229333162307739 0.12085267901420593 0.0070548262447118759
0.030469542369246483 0.048853255808353424 0.044279150664806366
0.03690192848443985 0.051415000110864639 0.044030912220478058
0.051004074513912201 0.059849519282579422 0.043925881385803223
0.087191216647624969 0.070521906018257141 0.042180109769105911
0.15491054952144623 0.084024138748645782 0.03667818009853363
0.26321202516555786 0.10305763781070709 0.027482395991683006
0.36572027206420898 0.12431503087282181 0.026539312675595284
0.4535694420337677 0.14330674707889557 0.032209016382694244
0.51821410655975342 0.15019665658473969 0.033289503306150436
0.56245487928390503 0.14908614754676819 0.020496847108006477
0.59230571985244751 0.14760193228721619 0.012256442569196224
0.60722965002059937 0.15844224393367767 0.01858551986515522
0.61897110939025879 0.16703423857688904 0.021561447530984879
0.034382015466690063 0.071116380393505096 0.054678387939929962
0.038816206157207489 0.075416415929794312 0.052251778542995453
0.051334157586097717 0.093311399221420288 0.048956222832202911
0.093676276504993439 0.10948199033737183 0.046449266374111176
0.1786482185125351 0.12762533128261566 0.042547818273305893
0.29239854216575623 0.1530451625585556 0.039299745112657547
0.4076351523399353 0.18142770230770111 0.037392366677522659
0.49718940258026123 0.19238048791885376 0.03430774062871933
0.56303852796554565 0.20074692368507385 0.030803380534052849
0.60938936471939087 0.2027406245470047 0.021778615191578865
0.63559544086456299 0.20454777777194977 0.017152868211269379
0.65272891521453857 0.21459870040416718 0.01905314065515995
0.67231255769729614 0.23316317796707153 0.018982173874974251
0.027489874511957169 0.11457241326570511 0.07359950989484787
0.031793750822544098 0.12008056789636612 0.07103043794631958
0.045225735753774643 0.14033889770507812 0.062181316316127777
0.095208413898944855 0.16733451187610626 0.051084615290164948
0.20397260785102844 0.1975075900554657 0.047703389078378677
0.33828148245811462 0.23214994370937347 0.04904797300696373
0.45712512731552124 0.25501015782356262 0.047815136611461639
0.55261218547821045 0.26974263787269592 0.042687732726335526
0.62358874082565308 0.28275507688522339 0.036699302494525909
0.66538459062576294 0.2902778685092926 0.035734646022319794
0.68957996368408203 0.29249632358551025 0.027942972257733345
0.7082093358039856 0.30321612954139709 0.017587535083293915
0.72845041751861572 0.32484546303749084 0.015071150846779346
0.019738052040338516 0.16377413272857666 0.095388837158679962
0.028118716552853584 0.17753694951534271 0.096481740474700928
0.03658745065331459 0.20375056564807892 0.09135088324546814
0.083827704191207886 0.24042260646820068 0.06764906644821167
0.22566714882850647 0.28796035051345825 0.055792506784200668
0.3772948682308197 0.32554250955581665 0.057770479470491409
0.50717878341674805 0.35490769147872925 0.057444211095571518
0.61324840784072876 0.37981763482093811 0.054137300699949265
0.68407022953033447 0.39572227001190186 0.052626680582761765
0.72558432817459106 0.39815217256546021 0.055249575525522232
0.7550957202911377 0.40999573469161987 0.036621049046516418
0.77324199676513672 0.42250892519950867 0.0188559889793396
0.78406822681427002 0.43221914768218994 0.012086831033229828
0.020032396540045738 0.22325727343559265 0.1219976395368576
0.035728231072425842 0.24520103633403778 0.12464357167482376
0.039560772478580475 0.27681919932365417 0.11649828404188156
0.076592989265918732 0.32393127679824829 0.086917921900749207
0.23677355051040649 0.38088411092758179 0.066018559038639069
0.41527149081230164 0.43049922585487366 0.06282525509595871
0.55587393045425415 0.46676722168922424 0.064360916614532471
0.66820293664932251 0.49462041258811951 0.06567719578742981
0.74152517318725586 0.51343297958374023 0.06376541405916214
0.78707873821258545 0.52291762828826904 0.057888824492692947
0.81689739227294922 0.53486305475234985 0.03286316990852356
0.83475804328918457 0.54665660858154297 0.012718304991722107
0.84477591514587402 0.55453819036483765 0.0088305901736021042
0.021979013457894325 0.28081622719764709 0.14809586107730865
0.036649443209171295 0.30678483843803406 0.14973528683185577
0.045145265758037567 0.34668868780136108 0.14016823470592499
0.099078938364982605 0.39935189485549927 0.10087703913450241
0.26194828748703003 0.4686855673789978 0.063361719250679016
0.44956287741661072 0.52960926294326782 0.060814172029495239
0.60102635622024536 0.57441073656082153 0.064744837582111359
0.71607679128646851 0.60154515504837036 0.078296571969985962
0.79094743728637695 0.61821168661117554 0.078307360410690308
0.83928442001342773 0.63354122638702393 0.066146314144134521
0.86838424205780029 0.64538455009460449 0.043013136833906174
0.8851628303527832 0.65254050493240356 0.022683162242174149
0.89481031894683838 0.65987950563430786 0.021314164623618126
0.028160544112324715 0.32332223653793335 0.16829942166805267
0.033506356179714203 0.35325247049331665 0.16697341203689575
0.03995659202337265 0.3988182544708252 0.15442372858524323
0.096264556050300598 0.45929297804832458 0.11714298278093338
0.27807742357254028 0.53377878665924072 0.061516676098108292
0.47628149390220642 0.60115200281143188 0.047377940267324448
0.633433997631073 0.6527174711227417 0.064487308263778687
0.75105899572372437 0.68436098098754883 0.086831815540790558
0.83030438423156738 0.70448261499404907 0.097650490701198578
0.87633240222930908 0.71578329801559448 0.092482082545757294
0.90340518951416016 0.72241461277008057 0.078018322587013245
0.91903740167617798 0.7295304536819458 0.060926549136638641
0.92837667465209961 0.7373049259185791 0.05908425897359848
0.023966755717992783 0.35026514530181885 0.18230041861534119
0.027690079063177109 0.38775771856307983 0.17904144525527954
0.025889122858643532 0.4344952404499054 0.16571284830570221
0.067488141357898712 0.4969329833984375 0.10849540680646896
0.27624499797821045 0.57342904806137085 0.046699028462171555
0.489338219165802 0.64359712600708008 0.035181622952222824
0.64963078498840332 0.69615268707275391 0.066479295492172241
0.77137285470962524 0.73184823989868164 0.086370460689067841
0.85401475429534912 0.75524437427520752 0.10618521273136139
0.89831370115280151 0.76540052890777588 0.11456169933080673
0.92438822984695435 0.77064651250839233 0.11170986294746399
0.94037365913391113 0.77760857343673706 0.090907827019691467
0.94956284761428833 0.78200751543045044 0.081331901252269745
0.013220828026533127 0.37357351183891296 0.19537770748138428
0.017626160755753517 0.41504755616188049 0.19163168966770172
0.02357717789709568 0.46367877721786499 0.17623747885227203
0.067856796085834503 0.52788519859313965 0.11299547553062439
0.28556591272354126 0.60162591934204102 0.041202262043952942
0.49507817625999451 0.66865378618240356 0.026612943038344383
0.66259580850601196 0.72218644618988037 0.032540850341320038
0.78704190254211426 0.75867611169815063 0.052979998290538788
0.86966848373413086 0.78230911493301392 0.09201367199420929
0.9163438081741333 0.79504567384719849 0.10967733711004257
0.94236463308334351 0.80068254470825195 0.11465798318386078
0.95519322156906128 0.80424833297729492 0.10413675010204315
0.96395093202590942 0.80738341808319092 0.092673450708389282
0.021566053852438927 0.40970751643180847 0.21655142307281494
0.016429422423243523 0.4568449854850769 0.21249251067638397
0.024513155221939087 0.50421082973480225 0.18110482394695282
0.068970762193202972 0.56900608539581299 0.1065080389380455
0.29950657486915588 0.63570374250411987 0.024765148758888245
0.50787079334259033 0.69753348827362061 0.018694784492254257
0.67577230930328369 0.74553191661834717 0.030733205378055573
0.8015742301940918 0.78066110610961914 0.059620950371026993
0.88443928956985474 0.80159151554107666 0.078704386949539185
0.93221336603164673 0.81467258930206299 0.095441065728664398
0.95965123176574707 0.82084751129150391 0.10536900162696838
0.97024309635162354 0.82417821884155273 0.10374537110328674
0.97522163391113281 0.82588165998458862 0.10256374627351761
0.035691939294338226 0.45551291108131409 0.24278399348258972
0.027007248252630234 0.51316219568252563 0.23611757159233093
0.023037614300847054 0.55877989530563354 0.19008262455463409
0.11329410225152969 0.61072158813476562 0.10037687420845032
0.35083132982254028 0.67882317304611206 0.028541835024952888
0.54037302732467651 0.7280724048614502 0.014436983503401279
0.69184064865112305 0.76743620634078979 0.035339713096618652
0.81294721364974976 0.79947668313980103 0.062262248247861862
0.89405304193496704 0.81604272127151489 0.081891633570194244
0.94400835037231445 0.82843971252441406 0.089878305792808533
0.97452247142791748 0.83615410327911377 0.10234048962593079
0.98621374368667603 0.84025049209594727 0.11342942714691162
0.98559761047363281 0.8411446213722229 0.14385633170604706
0.019648009911179543 0.032824017107486725 0.045243836939334869
0.026751484721899033 0.030973292887210846 0.048079963773488998
0.043486367911100388 0.031693924218416214 0.050859652459621429
0.07745775580406189 0.038175977766513824 0.055791489779949188
0.13761907815933228 0.03940257802605629 0.051624655723571777
0.22337360680103302 0.035872843116521835 0.036539308726787567
0.31654366850852966 0.042147677391767502 0.03488507866859436
0.40001305937767029 0.048839852213859558 0.035351622849702835
0.46165189146995544 0.064383260905742645 0.04035910964012146
0.50532066822052002 0.063504226505756378 0.030478399246931076
0.53710424900054932 0.056325096637010574 0.019944313913583755
0.5557740330696106 0.057551231235265732 0.027189696207642555
0.5683666467666626 0.053743399679660797 0.028387226164340973
0.026533089578151703 0.041137233376502991 0.048685096204280853
0.032378207892179489 0.04089418426156044 0.053218618035316467
0.046106435358524323 0.043437555432319641 0.057869751006364822
0.078444704413414001 0.052364259958267212 0.062293108552694321
0.14755864441394806 0.056667745113372803 0.055308546870946884
0.24774475395679474 0.058037851005792618 0.041427955031394958
0.34608885645866394 0.075254611670970917 0.05042755976319313
0.43028035759925842 0.08992321789264679 0.0578446164727211
0.49437525868415833 0.10081233829259872 0.058031342923641205
0.54056000709533691 0.094691693782806396 0.041848275810480118
0.57095515727996826 0.086810991168022156 0.029051089659333229
0.59029269218444824 0.082477077841758728 0.025368275120854378
0.60387802124023438 0.076974563300609589 0.020324258133769035
0.03367125615477562 0.05473925918340683 0.055616818368434906
0.03998870775103569 0.057213727384805679 0.059315040707588196
0.053101304918527603 0.061043504625558853 0.062840253114700317
0.087040171027183533 0.072229422628879547 0.06681506335735321
0.15649120509624481 0.0842767134308815 0.064479947090148926
0.27030912041664124 0.10104864090681076 0.063859589397907257
0.37453183531761169 0.12064202874898911 0.069957926869392395
0.46346530318260193 0.1353156715631485 0.071592830121517181
0.53272265195846558 0.13733139634132385 0.064853787422180176
0.5825573205947876 0.1263858824968338 0.044017791748046875
0.61415177583694458 0.11649385094642639 0.023369075730443001
0.63259625434875488 0.11819800734519958 0.019613826647400856
0.64583766460418701 0.12305068969726562 0.022995892912149429
0.037584014236927032 0.077307894825935364 0.069167405366897583
0.043953076004981995 0.079658940434455872 0.0698370561003685
0.060969140380620956 0.094453312456607819 0.073388852179050446
0.10094594210386276 0.11256040632724762 0.0756821408867836
0.18097507953643799 0.13158801198005676 0.076659500598907471
0.29843807220458984 0.15556922554969788 0.084583193063735962
0.4106413722038269 0.18091301620006561 0.086684271693229675
0.50815367698669434 0.19795195758342743 0.083485789597034454
0.58526861667633057 0.1925710141658783 0.069845594465732574
0.63638359308242798 0.18283326923847198 0.051531128585338593
0.66660189628601074 0.18173898756504059 0.026685886085033417
0.68727642297744751 0.18034712970256805 0.014859397895634174
