assets/lut/films negative color fuji superia reala 100.cube
# Created by: G'MIC (https://gmic.eu)
TITLE "fuji_superia_reala_100"
# LUT size
LUT_3D_SIZE 5
# Data domain
DOMAIN_MIN 0.0 0.0 0.0
DOMAIN_MAX 1.0 1.0 1.0
# LUT data points
0.058325555175542831 0.055410571396350861 0.051956325769424438
0.30727949738502502 0.034175332635641098 0.029045375064015388
0.55759584903717041 0.013580322265625 0.026346933096647263
0.79285567998886108 0.0005103616276755929 0.040256276726722717
0.97546690702438354 0 0.11952893435955048
0.10382792353630066 0.31851056218147278 0.13226747512817383
0.32540339231491089 0.30029615759849548 0.1174851655960083
0.584148108959198 0.26342630386352539 0.10691367089748383
0.82000732421875 0.17664226889610291 0.11411987245082855
0.98966491222381592 0.058179054409265518 0.15623511373996735
0.16776439547538757 0.55763161182403564 0.12479819357395172
0.37532812356948853 0.55397331714630127 0.11495654284954071
0.63048768043518066 0.53655797243118286 0.12315294146537781
0.85571467876434326 0.50625592470169067 0.17479598522186279
0.99763250350952148 0.42973116040229797 0.25628310441970825
0.30927741527557373 0.76521366834640503 0.031184477731585503
0.48573166131973267 0.7626989483833313 0.038761556148529053
0.72016650438308716 0.75278651714324951 0.034086532890796661
0.93698185682296753 0.74337887763977051 0.065603695809841156
1 0.7101472020149231 0.22342376410961151
0.35893458127975464 0.95318806171417236 0
0.52434378862380981 0.94496840238571167 0
0.75863468647003174 0.94589507579803467 0
0.98363345861434937 0.93948078155517578 0
1 0.93165338039398193 0.0015336279757320881
0.066748566925525665 0.057084012776613235 0.25545480847358704
0.28948789834976196 0.030977645888924599 0.2252449244260788
0.53636711835861206 0.0082751400768756866 0.2022022157907486
0.76568329334259033 0.00014199649740476161 0.19899703562259674
0.96162158250808716 0 0.24150250852108002
0.088740617036819458 0.31987610459327698 0.31701409816741943
0.30183207988739014 0.3018682599067688 0.30257773399353027
0.55672043561935425 0.25804677605628967 0.27932807803153992
0.78612411022186279 0.17003999650478363 0.26010879874229431
0.96926617622375488 0.043332748115062714 0.2558169960975647
0.14031301438808441 0.56395179033279419 0.33156368136405945
0.32592964172363281 0.56090289354324341 0.32394188642501831
0.58499526977539062 0.54392027854919434 0.32343769073486328
0.81273454427719116 0.50649845600128174 0.34124946594238281
0.98687684535980225 0.41899043321609497 0.37809053063392639
0.32516035437583923 0.76936280727386475 0.18155406415462494
0.46664312481880188 0.76704531908035278 0.18606129288673401
0.6743236780166626 0.76082569360733032 0.21146592497825623
0.86781662702560425 0.74906653165817261 0.27409842610359192
0.9979405403137207 0.71555358171463013 0.41537809371948242
0.41951221227645874 0.95663189888000488 0.0024581609759479761
0.55822515487670898 0.95314580202102661 0
0.77572029829025269 0.95112764835357666 0
0.99713343381881714 0.94346922636032104 0
1 0.93323320150375366 0.10233336687088013
0.080598585307598114 0.057684265077114105 0.42691981792449951
0.29704564809799194 0.030938437208533287 0.38979610800743103
0.52450871467590332 0.0063596237450838089 0.36021909117698669
0.74426150321960449 0 0.33768290281295776
0.94115966558456421 0 0.3479616641998291
0.11024072766304016 0.31630375981330872 0.51258605718612671
0.30671951174736023 0.29789897799491882 0.49102678894996643
0.54155457019805908 0.25653508305549622 0.45481225848197937
0.76054126024246216 0.16136173903942108 0.41359591484069824
0.94791102409362793 0.020430935546755791 0.37327328324317932
0.10424463450908661 0.56852531433105469 0.58061808347702026
0.29123097658157349 0.5617859959602356 0.57100528478622437
0.54744929075241089 0.54729408025741577 0.54785013198852539
0.77331292629241943 0.51357263326644897 0.53352838754653931
0.9715455174446106 0.41663777828216553 0.51507329940795898
0.19453749060630798 0.77731317281723022 0.57532250881195068
0.34723585844039917 0.77374094724655151 0.57447189092636108
0.57668793201446533 0.76875871419906616 0.56293201446533203
0.78864830732345581 0.75082576274871826 0.56670057773590088
0.98133111000061035 0.71919935941696167 0.59602636098861694
0.5205417275428772 0.95779561996459961 0.10322858393192291
0.61074340343475342 0.95864605903625488 0.10434097796678543
0.76346057653427124 0.95728158950805664 0.14518119394779205
0.93648958206176758 0.95431160926818848 0.20523214340209961
0.99981778860092163 0.94080883264541626 0.4494401216506958
0.13573649525642395 0.035863645374774933 0.57243460416793823
0.32982984185218811 0.014961407519876957 0.53399503231048584
0.53006041049957275 0.00078178854892030358 0.49932980537414551
0.73302763700485229 0 0.46698513627052307
0.92171347141265869 0 0.45741605758666992
0.20344385504722595 0.30428165197372437 0.6597333550453186
0.35323762893676758 0.28444230556488037 0.63692188262939453
0.54719638824462891 0.23854696750640869 0.60008734464645386
0.74846631288528442 0.14968456327915192 0.54789471626281738
0.93146145343780518 0.024575820192694664 0.49122467637062073
0.21306490898132324 0.5695948600769043 0.74754351377487183
0.34753957390785217 0.56066608428955078 0.7340095043182373
0.55149251222610474 0.54304391145706177 0.70994800329208374
0.75958621501922607 0.50845354795455933 0.6793292760848999
0.95401972532272339 0.41118529438972473 0.63927114009857178
0.23271395266056061 0.7798883318901062 0.80393224954605103
0.36236175894737244 0.77500331401824951 0.78745090961456299
0.55886775255203247 0.76926594972610474 0.77221637964248657
0.75720381736755371 0.7539181113243103 0.75461316108703613
0.95305800437927246 0.71494990587234497 0.74980974197387695
0.29567182064056396 0.97378158569335938 0.72370988130569458
0.40553465485572815 0.97060859203338623 0.70109051465988159
0.59232211112976074 0.97139149904251099 0.70779520273208618
0.78385275602340698 0.96504104137420654 0.72052586078643799
0.98617768287658691 0.9483025074005127 0.74008679389953613
0.26811447739601135 0.0099137844517827034 0.68253284692764282
0.41000193357467651 0.0022351881489157677 0.65423727035522461
0.56963539123535156 0 0.61695760488510132
0.73941940069198608 0 0.56870311498641968
0.9086800217628479 0 0.53558516502380371
0.34958189725875854 0.27460026741027832 0.76063996553421021
0.44836413860321045 0.26105543971061707 0.74846863746643066
0.59110593795776367 0.21066154539585114 0.71465247869491577
0.75521701574325562 0.10244175046682358 0.64940923452377319
0.91637498140335083 0.00071855430724099278 0.57238000631332397
0.36496108770370483 0.55255800485610962 0.86448878049850464
0.45873591303825378 0.55114006996154785 0.85233914852142334
0.60243213176727295 0.52889323234558105 0.83140403032302856
0.77321475744247437 0.49157354235649109 0.79350811243057251
0.94189119338989258 0.37101423740386963 0.731689453125
0.39466923475265503 0.77453958988189697 0.94232040643692017
0.4770013689994812 0.7742113471031189 0.93167352676391602
0.6086617112159729 0.76761245727539062 0.92095065116882324
0.77185434103012085 0.7532469630241394 0.89385724067687988
0.95282018184661865 0.71059399843215942 0.87178415060043335
0.39251959323883057 0.97799670696258545 0.98721921443939209
0.45557671785354614 0.97645127773284912 0.97580033540725708
0.60356837511062622 0.97150123119354248 0.97273129224777222
0.76164799928665161 0.9671977162361145 0.95941799879074097
0.96417278051376343 0.96356463432312012 0.96166008710861206
