assets/lut/films negative color agfa vista 200.cube
# Created by: G'MIC (https://gmic.eu)
TITLE "agfa_vista_200"
# LUT size
LUT_3D_SIZE 13
# Data domain
DOMAIN_MIN 0.0 0.0 0.0
DOMAIN_MAX 1.0 1.0 1.0
# LUT data points
0.016545629128813744 0.012198145501315594 0.008561273105442524
0.049979012459516525 0.0093393661081790924 0.0083950264379382133
0.10050645470619202 0.0098537970334291458 0.0056681316345930099
0.17703555524349213 0.010109112598001957 0.0022297129034996033
0.27692076563835144 0.0099251391366124153 0.00055099185556173325
0.38861379027366638 0.011361918412148952 0.00010645249130902812
0.50239419937133789 0.01216334942728281 8.2936006947420537e-05
0.61020874977111816 0.010126659646630287 0.0012753505725413561
0.70547229051589966 0.0022304011508822441 0.00057751522399485111
0.78607946634292603 0 0
0.85747724771499634 0 0
0.92256796360015869 0 0
0.98293405771255493 0 0
0.030759610235691071 0.061439290642738342 0.023361848667263985
0.060047749429941177 0.057009991258382797 0.020312709733843803
0.11216804385185242 0.051628980785608292 0.014883288182318211
0.19080415368080139 0.047729209065437317 0.0091249207034707069
0.29103973507881165 0.046641960740089417 0.0048857447691261768
0.40293377637863159 0.045417621731758118 0.002432654844596982
0.51519811153411865 0.04168102890253067 0.0016165190609171987
0.61973130702972412 0.033777125179767609 0.0019729465711861849
0.71121221780776978 0.018186487257480621 0.00079979992005974054
0.7900654673576355 0.0020982930436730385 0
0.86059212684631348 0 0
0.92520129680633545 0 0
0.98279494047164917 0 0
0.064692027866840363 0.1351306140422821 0.044454328715801239
0.085179992020130157 0.1314871609210968 0.039744656533002853
0.12879417836666107 0.12459368258714676 0.033219866454601288
0.20698025822639465 0.11678937822580338 0.025181116536259651
0.30986052751541138 0.11208441108465195 0.017004663124680519
0.42244434356689453 0.10658786445856094 0.010263809934258461
0.53294622898101807 0.096998877823352814 0.0056217568926513195
0.63387024402618408 0.083578936755657196 0.0027215247973799706
0.72190123796463013 0.064926087856292725 0.0012169034453108907
0.79826247692108154 0.037777170538902283 0.00013517492334358394
0.86785578727722168 0.012300633825361729 0
0.93055886030197144 0.0010731416987255216 0
0.9842536449432373 0 0
0.078323423862457275 0.23788802325725555 0.068693317472934723
0.10341507941484451 0.23461893200874329 0.06486307829618454
0.1492786705493927 0.22895823419094086 0.058859582990407944
0.22746759653091431 0.22075827419757843 0.049583166837692261
0.3324984610080719 0.21209134161472321 0.038093462586402893
0.44618374109268188 0.20244330167770386 0.02743162214756012
0.5556570291519165 0.18791098892688751 0.017315059900283813
0.65424442291259766 0.171047642827034 0.0083760730922222137
0.74039071798324585 0.15314914286136627 0.0031856312416493893
0.81655585765838623 0.12683054804801941 0.0011602962622419
0.88502752780914307 0.093506708741188049 0.00032783957431092858
0.94352585077285767 0.055062014609575272 5.977855107630603e-05
0.98891353607177734 0.024642257019877434 0
0.055612675845623016 0.36015278100967407 0.094127640128135681
0.093340687453746796 0.35763436555862427 0.09080176055431366
0.15470871329307556 0.35364457964897156 0.086471617221832275
0.24469967186450958 0.34707775712013245 0.079241476953029633
0.35603374242782593 0.33822086453437805 0.067658565938472748
0.47220656275749207 0.32761979103088379 0.054732244461774826
0.58106935024261475 0.31321755051612854 0.041222695261240005
0.67796093225479126 0.29592046141624451 0.026362849399447441
0.76361083984375 0.27931410074234009 0.013242309913039207
0.84121412038803101 0.25674080848693848 0.006791477557271719
0.9103018045425415 0.22493407130241394 0.0053162220865488052
0.96391761302947998 0.1825096607208252 0.0053826128132641315
0.99597728252410889 0.13934981822967529 0.0053365970961749554
0.027375314384698868 0.48358124494552612 0.11940009891986847
0.081737503409385681 0.48098209500312805 0.11438132077455521
0.16223429143428802 0.47862100601196289 0.1116122230887413
0.26577016711235046 0.47463774681091309 0.1076088547706604
0.38268658518791199 0.46801650524139404 0.096840940415859222
0.50029337406158447 0.45946326851844788 0.083871029317378998
0.60793560743331909 0.44863185286521912 0.070425428450107574
0.7018856406211853 0.43399444222450256 0.05354473739862442
0.78528875112533569 0.41950425505638123 0.038659863173961639
0.86378461122512817 0.40278753638267517 0.02911866083741188
0.9352189302444458 0.38009351491928101 0.022528374567627907
0.98577147722244263 0.34665986895561218 0.018315019086003304
0.99987345933914185 0.30304500460624695 0.018019987270236015
0.039101246744394302 0.59282344579696655 0.13930860161781311
0.10342401266098022 0.5891539454460144 0.13158003985881805
0.19302059710025787 0.5860602855682373 0.12779565155506134
0.30092564225196838 0.58480292558670044 0.12457700073719025
0.41769015789031982 0.57985121011734009 0.11423121392726898
0.53193366527557373 0.57432585954666138 0.10135938227176666
0.63541698455810547 0.56775546073913574 0.090471215546131134
0.72507250308990479 0.55843132734298706 0.079073466360569
0.80423730611801147 0.54871684312820435 0.070056915283203125
0.88060194253921509 0.53769129514694214 0.061728339642286301
0.95163518190383911 0.52339452505111694 0.05047118291258812
0.99420404434204102 0.50169587135314941 0.040991451591253281
1 0.46759769320487976 0.03618583083152771
0.11503853648900986 0.68060499429702759 0.15318998694419861
0.1712726503610611 0.67770284414291382 0.14436282217502594
0.25323584675788879 0.67535513639450073 0.13908015191555023
0.35331210494041443 0.67302989959716797 0.13408990204334259
0.46156114339828491 0.66991984844207764 0.12312778830528259
0.56769257783889771 0.66538995504379272 0.10900039970874786
0.66381734609603882 0.66293525695800781 0.10148517042398453
0.74855345487594604 0.66001695394515991 0.099508769810199738
0.82650083303451538 0.65493679046630859 0.097305551171302795
0.90124523639678955 0.64625829458236694 0.091367892920970917
0.96621257066726685 0.63405084609985352 0.080380462110042572
0.99738937616348267 0.62107706069946289 0.068562328815460205
1 0.60177254676818848 0.058679662644863129
0.22644247114658356 0.75489723682403564 0.16944088041782379
0.26989319920539856 0.75347346067428589 0.16221095621585846
0.33555680513381958 0.75139683485031128 0.15713633596897125
0.41916677355766296 0.74881237745285034 0.15063232183456421
0.5118948221206665 0.7454724907875061 0.13924281299114227
0.60517877340316772 0.74209797382354736 0.12517701089382172
0.69128435850143433 0.74242925643920898 0.12055590748786926
0.76986002922058105 0.74386852979660034 0.1236768513917923
0.84600698947906494 0.74111360311508179 0.12348439544439316
0.92010581493377686 0.73276436328887939 0.11678528040647507
0.97914820909500122 0.72132235765457153 0.10429815948009491
0.9999157190322876 0.712807297706604 0.089059881865978241
1 0.70173680782318115 0.074403874576091766
0.33860084414482117 0.82225662469863892 0.19424313306808472
0.37363538146018982 0.82140040397644043 0.18915095925331116
0.42449861764907837 0.81930631399154663 0.18489445745944977
0.49005633592605591 0.81613564491271973 0.17912952601909637
0.56447559595108032 0.81298345327377319 0.17054134607315063
0.64127916097640991 0.81174105405807495 0.16141560673713684
0.71584004163742065 0.81377983093261719 0.15796981751918793
0.78792893886566162 0.81682556867599487 0.15875409543514252
0.86079734563827515 0.81473934650421143 0.15562374889850616
0.93012112379074097 0.80694037675857544 0.14380568265914917
0.98177856206893921 0.79791951179504395 0.12540265917778015
0.9994579553604126 0.7913593053817749 0.10541845858097076
0.99988937377929688 0.78299945592880249 0.087805412709712982
0.43773272633552551 0.88568115234375 0.22744329273700714
0.46920379996299744 0.88410454988479614 0.2233099490404129
0.50974434614181519 0.88110905885696411 0.22040656208992004
0.55985265970230103 0.87725049257278442 0.21671579778194427
0.61729860305786133 0.87347328662872314 0.21212391555309296
0.67881584167480469 0.87286084890365601 0.20778743922710419
0.74229562282562256 0.87623018026351929 0.20497620105743408
0.80701750516891479 0.88034176826477051 0.20259982347488403
0.87453585863113403 0.87816452980041504 0.19503460824489594
0.93806099891662598 0.87073171138763428 0.17883436381816864
0.98323756456375122 0.86386364698410034 0.15637603402137756
0.99937647581100464 0.8594132661819458 0.13186757266521454
0.99995142221450806 0.85339230298995972 0.11129437386989594
0.52940309047698975 0.94624495506286621 0.26431795954704285
0.55693709850311279 0.94275647401809692 0.26134949922561646
0.58954823017120361 0.93875765800476074 0.25931373238563538
0.62786179780960083 0.93389344215393066 0.25850406289100647
0.67176473140716553 0.92954957485198975 0.25715717673301697
0.72073346376419067 0.92811262607574463 0.25552210211753845
0.77555406093597412 0.93039333820343018 0.25268465280532837
0.83465009927749634 0.93327617645263672 0.24790790677070618
0.89592218399047852 0.93116158246994019 0.23849421739578247
0.95271944999694824 0.92532879114151001 0.22184175252914429
0.99208670854568481 0.92070949077606201 0.19797274470329285
1 0.91886472702026367 0.17186179757118225
1 0.9151376485824585 0.14977467060089111
0.61593043804168701 0.99473041296005249 0.30183589458465576
0.63940626382827759 0.99289733171463013 0.29924532771110535
0.66564846038818359 0.99007242918014526 0.29791668057441711
0.69554686546325684 0.98680490255355835 0.29844233393669128
0.72998291254043579 0.98261159658432007 0.30018752813339233
0.77004855871200562 0.98037511110305786 0.29951155185699463
0.81767040491104126 0.98112946748733521 0.29654726386070251
0.87077313661575317 0.98161894083023071 0.29085323214530945
0.92590641975402832 0.98036688566207886 0.28105396032333374
0.97693330049514771 0.97596615552902222 0.26540911197662354
0.99951910972595215 0.97394287586212158 0.24279473721981049
1 0.97377407550811768 0.21634498238563538
1 0.97296816110610962 0.19356615841388702
0.010171164758503437 0.0087701687589287758 0.034888248890638351
0.039618264883756638 0.0068453173153102398 0.032797869294881821
0.091723933815956116 0.0062286527827382088 0.029135745018720627
0.16812215745449066 0.0057247388176620007 0.022738197818398476
0.26716127991676331 0.0058340332470834255 0.015623623505234718
0.3800559937953949 0.007164644543081522 0.0091915354132652283
0.49515393376350403 0.0085621103644371033 0.0050804438069462776
0.60313993692398071 0.0065359375439584255 0.0028776130639016628
0.69846349954605103 0.00074374629184603691 0.00044045542017556727
0.78095775842666626 0 0
0.8544190526008606 0 0
0.92142367362976074 0 0
0.98252391815185547 0 0
0.024469023570418358 0.051758680492639542 0.052215576171875
0.052279945462942123 0.049401137977838516 0.048290133476257324
0.10440392792224884 0.044610250741243362 0.042491599917411804
0.18202805519104004 0.039881628006696701 0.035727016627788544
0.28201279044151306 0.038717951625585556 0.028214158490300179
0.39487996697425842 0.038198374211788177 0.020741840824484825
0.50818777084350586 0.035343918949365616 0.014949260279536247
0.61289149522781372 0.027700955048203468 0.011270979419350624
0.70480316877365112 0.013254756107926369 0.0059526632539927959
0.78471416234970093 0.0011339375050738454 0.00064416025998070836
0.85707902908325195 0 0
0.92342734336853027 0 0
0.98300009965896606 0 0
0.05453573539853096 0.12457402795553207 0.07452082633972168
0.07983437180519104 0.12181515991687775 0.070797353982925415
0.12278891354799271 0.11572675406932831 0.064907997846603394
0.1978483647108078 0.10752614587545395 0.055844534188508987
0.30153444409370422 0.10376542061567307 0.045879021286964417
0.41534385085105896 0.099781692028045654 0.035922031849622726
0.52641969919204712 0.091278642416000366 0.02744394913315773
0.62753802537918091 0.078042216598987579 0.020585212856531143
0.71568912267684937 0.05884883925318718 0.014753588475286961
0.79271537065505981 0.032592203468084335 0.0076734353788197041
0.86378467082977295 0.009771294891834259 0.0013497296022251248
0.92882668972015381 0.00069158215774223208 1.8101112800650299e-05
0.98420590162277222 0 0
0.073599599301815033 0.23009635508060455 0.099968165159225464
0.098504476249217987 0.22715297341346741 0.097904518246650696
0.14033731818199158 0.22197605669498444 0.09270603209733963
0.21569670736789703 0.21337689459323883 0.082456938922405243
0.32382038235664368 0.20650821924209595 0.070089809596538544
0.44011062383651733 0.19893647730350494 0.057339057326316833
0.54978930950164795 0.18546311557292938 0.04558379203081131
0.64826357364654541 0.1685374528169632 0.034620936959981918
0.73449933528900146 0.14786884188652039 0.025271052494645119
0.81064170598983765 0.12056850641965866 0.018236018717288971
0.8798413872718811 0.087807551026344299 0.011021393351256847
0.94053506851196289 0.052628908306360245 0.0041484609246253967
0.98888790607452393 0.025709802284836769 0.0010489070555195212
0.054842270910739899 0.35591292381286621 0.12815910577774048
0.081604719161987305 0.35453623533248901 0.12505212426185608
0.13417552411556244 0.35076957941055298 0.12043830752372742
0.22654488682746887 0.34306645393371582 0.11241582036018372
0.34505727887153625 0.33530190587043762 0.10001808404922485
0.46583729982376099 0.32630166411399841 0.086059555411338806
0.57579547166824341 0.31153392791748047 0.072104871273040771
0.67287248373031616 0.29466000199317932 0.057002466171979904
0.75854158401489258 0.27594628930091858 0.042840622365474701
0.83505010604858398 0.2520085871219635 0.03347155824303627
0.90280008316040039 0.21981455385684967 0.028166618198156357
0.95739173889160156 0.1802901029586792 0.022568153217434883
0.99451714754104614 0.14227129518985748 0.01755288802087307
0.026992423459887505 0.482005774974823 0.15752927958965302
0.068225696682929993 0.48026075959205627 0.15193025767803192
0.14035438001155853 0.47695741057395935 0.14748163521289825
0.24576851725578308 0.47164571285247803 0.14167529344558716
0.36958301067352295 0.46504703164100647 0.13068704307079315
0.49219042062759399 0.45730605721473694 0.11698921024799347
0.60218226909637451 0.44644623994827271 0.1028178334236145
0.69767647981643677 0.43331363797187805 0.087176680564880371
0.78179705142974854 0.41903394460678101 0.072564475238323212
0.85814368724822998 0.40143594145774841 0.06193218007683754
0.92480051517486572 0.37631356716156006 0.053797703236341476
0.97344595193862915 0.34165412187576294 0.045969855040311813
0.99833422899246216 0.30170238018035889 0.040426068007946014
0.038017887622117996 0.5920451283454895 0.18212457001209259
0.089736476540565491 0.58918720483779907 0.17387773096561432
0.172880619764328 0.58561581373214722 0.16866010427474976
0.28242510557174683 0.58231908082962036 0.16403791308403015
0.40414038300514221 0.57782310247421265 0.15368795394897461
0.52301329374313354 0.57255470752716064 0.14018569886684418
0.62928253412246704 0.56661146879196167 0.128403440117836
0.7211269736289978 0.55924838781356812 0.11782713979482651
0.80244612693786621 0.55042970180511475 0.10840443521738052
0.87753129005432129 0.53916835784912109 0.098860301077365875
0.94174116849899292 0.5227164626121521 0.087240956723690033
0.98282039165496826 0.49818751215934753 0.074723474681377411
0.99889546632766724 0.46445110440254211 0.065406933426856995
0.10543006658554077 0.68085837364196777 0.20209330320358276
0.15519659221172333 0.67869287729263306 0.19263489544391632
0.23404325544834137 0.67547774314880371 0.1864498108625412
0.33698868751525879 0.67280793190002441 0.18185807764530182
0.44952034950256348 0.66955620050430298 0.17067074775695801
0.55929994583129883 0.66561746597290039 0.15639586746692657
0.65737700462341309 0.6636279821395874 0.14784508943557739
0.74332773685455322 0.66193413734436035 0.14539726078510284
0.82232391834259033 0.65775352716445923 0.14216186106204987
0.89604032039642334 0.65000331401824951 0.13493160903453827
0.95684754848480225 0.63802880048751831 0.12231743335723877
0.98997455835342407 0.62269711494445801 0.10714283585548401
0.99951744079589844 0.59978640079498291 0.093837156891822815
0.21055415272712708 0.75672793388366699 0.22406403720378876
0.25194090604782104 0.75548523664474487 0.21661478281021118
0.31789124011993408 0.75296640396118164 0.21118533611297607
0.40451881289482117 0.74984848499298096 0.20499129593372345
0.5014689564704895 0.746448814868927 0.19364504516124725
0.59712749719619751 0.74355965852737427 0.17973847687244415
0.68407714366912842 0.74406486749649048 0.17416904866695404
0.76317125558853149 0.74639701843261719 0.17619529366493225
0.83943408727645874 0.74394840002059937 0.17520636320114136
0.91255521774291992 0.73685538768768311 0.16726122796535492
0.97085005044937134 0.72667199373245239 0.15333740413188934
0.99782282114028931 0.71653473377227783 0.13691464066505432
1 0.70185607671737671 0.12222655117511749
0.32208389043807983 0.82450014352798462 0.2528226375579834
0.35678058862686157 0.82398068904876709 0.24777047336101532
0.40895721316337585 0.82181024551391602 0.24361716210842133
0.47749981284141541 0.81825435161590576 0.2378656417131424
0.5545426607131958 0.81458663940429688 0.22891321778297424
0.63327306509017944 0.81294119358062744 0.21961849927902222
0.70809108018875122 0.81493484973907471 0.21555274724960327
0.780048668384552 0.81755733489990234 0.21563491225242615
0.85274189710617065 0.81600683927536011 0.21203109622001648
0.92354601621627808 0.80963760614395142 0.20006100833415985
0.97903525829315186 0.80106550455093384 0.1819438636302948
0.99977493286132812 0.79342669248580933 0.1640172004699707
1 0.78331488370895386 0.14829191565513611
0.42428135871887207 0.88757777214050293 0.28827992081642151
0.45535871386528015 0.88614857196807861 0.28449061512947083
0.49720609188079834 0.88367187976837158 0.28129398822784424
0.54899841547012329 0.87945717573165894 0.27763643860816956
0.60812103748321533 0.87611603736877441 0.27241972088813782
0.67061138153076172 0.87494128942489624 0.26742091774940491
0.73427903652191162 0.87690055370330811 0.26408100128173828
0.79909646511077881 0.88026422262191772 0.2612474262714386
0.86667156219482422 0.87804543972015381 0.25384721159934998
0.93210554122924805 0.87191927433013916 0.23859052360057831
0.98300212621688843 0.86553555727005005 0.21743637323379517
1 0.86017000675201416 0.19637493789196014
1 0.85349971055984497 0.17908382415771484
0.51948368549346924 0.94638478755950928 0.32592993974685669
0.54651111364364624 0.94401377439498901 0.32328665256500244
0.57934832572937012 0.94048392772674561 0.32128533720970154
0.61832123994827271 0.93581384420394897 0.31962147355079651
0.66315734386444092 0.93174600601196289 0.31763622164726257
0.71279788017272949 0.93012714385986328 0.31538748741149902
0.76702892780303955 0.93174707889556885 0.31243300437927246
0.82552027702331543 0.93299347162246704 0.30763870477676392
0.88708531856536865 0.93136686086654663 0.29828190803527832
0.94600892066955566 0.92633122205734253 0.2823602557182312
0.99042880535125732 0.92162609100341797 0.26071342825889587
1 0.91904968023300171 0.23776774108409882
1 0.91601479053497314 0.21811038255691528
0.60931527614593506 0.9947047233581543 0.36319607496261597
0.63176232576370239 0.99308127164840698 0.36145222187042236
0.65740245580673218 0.99039965867996216 0.36112862825393677
0.68712705373764038 0.98748505115509033 0.36082252860069275
0.72145777940750122 0.98408311605453491 0.36032015085220337
0.76161408424377441 0.98216694593429565 0.35918703675270081
0.80843853950500488 0.98213487863540649 0.35628926753997803
0.86058247089385986 0.98256373405456543 0.35074475407600403
0.91574156284332275 0.9810173511505127 0.3409736156463623
0.96820527315139771 0.97763478755950928 0.32530954480171204
0.99855828285217285 0.97499614953994751 0.30426359176635742
1 0.97510039806365967 0.28126776218414307
1 0.97375905513763428 0.25998339056968689
0.0085813188925385475 0.0080142747610807419 0.070794142782688141
0.032726496458053589 0.0057209688238799572 0.068725928664207458
0.080951780080795288 0.003875672584399581 0.065503515303134918
0.15656939148902893 0.00287602748721838 0.058279644697904587
0.25619068741798401 0.0029354020953178406 0.047790031880140305
0.37023785710334778 0.0037778518162667751 0.034816399216651917
0.48666557669639587 0.0050036562606692314 0.02241731621325016
0.59425181150436401 0.0037264057900756598 0.013719191774725914
0.68953144550323486 0.00032528149313293397 0.0056506884284317493
0.77325284481048584 0 0.00066710828104987741
0.84872031211853027 0 0
0.91810262203216553 0 0
0.98022425174713135 0 0
0.021236704662442207 0.045720987021923065 0.091512657701969147
0.04503987729549408 0.042278245091438293 0.08817628026008606
0.09303119033575058 0.037817981094121933 0.084157116711139679
0.17045311629772186 0.033678825944662094 0.076772533357143402
0.27109625935554504 0.031961224973201752 0.066344961524009705
0.384757399559021 0.031144279986619949 0.053559232503175735
0.49850922822952271 0.028522267937660217 0.04146144911646843
0.60326409339904785 0.021876152604818344 0.032061126083135605
0.69564616680145264 0.010339041240513325 0.022746216505765915
0.77712523937225342 0.0010027417447417974 0.011013614013791084
0.85112279653549194 0 0.0026009352877736092
0.91959911584854126 0 0.00014530256157740951
0.98059159517288208 0 0
0.045973833650350571 0.11507751047611237 0.1164478212594986
0.067144341766834259 0.11209779977798462 0.11321910470724106
0.11044915765523911 0.1066267117857933 0.10881026089191437
0.18845011293888092 0.099355094134807587 0.10095883905887604
0.29244774580001831 0.095110572874546051 0.089777849614620209
0.4057164192199707 0.091446414589881897 0.076634198427200317
0.51643508672714233 0.083522886037826538 0.064245767891407013
0.61736071109771729 0.070768795907497406 0.053559217602014542
0.70625466108322144 0.053219486027956009 0.043558306992053986
0.7853623628616333 0.030449692159891129 0.032229598611593246
0.8579784631729126 0.0093611022457480431 0.017830014228820801
0.92482751607894897 0.00066540285479277372 0.0053321239538490772
0.9831663966178894 0 0.00081003224477171898
0.063058041036128998 0.22074927389621735 0.14437927305698395
0.080494478344917297 0.21833835542201996 0.14220476150512695
0.12079814821481705 0.21338139474391937 0.1378549337387085
0.20341247320175171 0.20371629297733307 0.12962391972541809
0.3153623640537262 0.19699543714523315 0.11756891012191772
0.43095415830612183 0.19083671271800995 0.10376540571451187
0.5397832989692688 0.17825619876384735 0.090407520532608032
0.63776880502700806 0.16128014028072357 0.077729977667331696
0.72434538602828979 0.14016485214233398 0.066210955381393433
0.80159503221511841 0.11364398896694183 0.054776735603809357
0.87190920114517212 0.082609347999095917 0.041203830391168594
0.93543928861618042 0.049905784428119659 0.025435039773583412
0.98794102668762207 0.024782381951808929 0.013719640672206879
0.046589765697717667 0.3488248884677887 0.1760922372341156
0.064500875771045685 0.3483600914478302 0.17297472059726715
0.11073216795921326 0.3449135422706604 0.16820935904979706
0.20959267020225525 0.33522713184356689 0.160959392786026
0.33355170488357544 0.326861172914505 0.14936454594135284
0.45569953322410583 0.31872951984405518 0.13530482351779938
0.56567800045013428 0.30497324466705322 0.12123875319957733
0.66255807876586914 0.2881108820438385 0.10701011121273041
0.74784022569656372 0.26802331209182739 0.093520551919937134
0.82389289140701294 0.24325560033321381 0.081547409296035767
0.89161038398742676 0.21146649122238159 0.069510787725448608
0.94891119003295898 0.17370210587978363 0.055950447916984558
0.9923393726348877 0.13838955760002136 0.045010153204202652
0.020927818492054939 0.47795277833938599 0.20998835563659668
0.053762279450893402 0.47675338387489319 0.20476570725440979
0.11979648470878601 0.47255310416221619 0.1998075395822525
0.22688619792461395 0.46522915363311768 0.1932070255279541
0.35495841503143311 0.45809847116470337 0.18264928460121155
0.48015961050987244 0.45065850019454956 0.16913402080535889
0.59138864278793335 0.44082513451576233 0.15507061779499054
0.68777263164520264 0.42852407693862915 0.14108310639858246
