assets/lut/films negative color fuji superia x-tra 800.cube
# Created by: G'MIC (https://gmic.eu)
TITLE "fuji_superia_x-tra_800"
# LUT size
LUT_3D_SIZE 5
# Data domain
DOMAIN_MIN 0.0 0.0 0.0
DOMAIN_MAX 1.0 1.0 1.0
# LUT data points
0.059269744902849197 0.051630791276693344 0.05104248970746994
0.27874720096588135 0.029681053012609482 0.025674423202872276
0.48595595359802246 0.010964471846818924 0.026289861649274826
0.69048339128494263 0 0.051224652677774429
0.8658592700958252 0.0014939401298761368 0.14025448262691498
0.13982170820236206 0.28391513228416443 0.12807175517082214
0.31013262271881104 0.26991114020347595 0.11511664092540741
0.51971864700317383 0.23337489366531372 0.12870708107948303
0.72626179456710815 0.14471633732318878 0.12968334555625916
0.88089197874069214 0.030486730858683586 0.14090178906917572
0.26854223012924194 0.5038720965385437 0.13232406973838806
0.40050482749938965 0.50699728727340698 0.11960112303495407
0.58982563018798828 0.48814466595649719 0.16151660680770874
0.77969944477081299 0.44929072260856628 0.22606934607028961
0.93413454294204712 0.3567425012588501 0.29387563467025757
0.36088117957115173 0.71434122323989868 0.1201997771859169
0.49501898884773254 0.71488094329833984 0.092428483068943024
0.73004353046417236 0.71292668581008911 0.053797148168087006
0.89880400896072388 0.69699966907501221 0.15064689517021179
0.99414366483688354 0.65273964405059814 0.37450867891311646
0.34455129504203796 0.93275916576385498 0.20021919906139374
0.47962459921836853 0.93327862024307251 0.15682981908321381
0.72693204879760742 0.93700981140136719 0.048591822385787964
0.99075919389724731 0.9371182918548584 0.00092077814042568207
1 0.922507643699646 0.041721194982528687
0.039356980472803116 0.059884972870349884 0.22300572693347931
0.2534794807434082 0.032635826617479324 0.18401345610618591
0.46177577972412109 0.013986430130898952 0.15951155126094818
0.67361479997634888 0.0012995252618566155 0.15030162036418915
0.85707288980484009 0.00055857637198641896 0.19556134939193726
0.11998590081930161 0.2886471152305603 0.29140985012054443
0.27741312980651855 0.27416214346885681 0.27667337656021118
0.49378854036331177 0.24415887892246246 0.2560153603553772
0.70372962951660156 0.15750223398208618 0.23098896443843842
0.87269675731658936 0.013209758326411247 0.19553393125534058
0.20317406952381134 0.51088422536849976 0.29952308535575867
0.33251264691352844 0.5073007345199585 0.30409207940101624
0.54235380887985229 0.49149993062019348 0.31528148055076599
0.74836081266403198 0.45925256609916687 0.34143108129501343
0.92298179864883423 0.36275365948677063 0.36825883388519287
0.41348069906234741 0.71949887275695801 0.14135165512561798
0.51794672012329102 0.71825981140136719 0.14456373453140259
0.68825876712799072 0.71333503723144531 0.19313780963420868
0.82404255867004395 0.69490981101989746 0.33221381902694702
0.97890031337738037 0.65650683641433716 0.45367807149887085
0.38280516862869263 0.94075578451156616 0.21205757558345795
0.53382605314254761 0.94227296113967896 0.13085460662841797
0.76730465888977051 0.94359129667282104 0.020799480378627777
0.99638104438781738 0.94194459915161133 4.8469096327607986e-06
1 0.91851437091827393 0.19518087804317474
0.067448154091835022 0.076189927756786346 0.36858239769935608
0.24569797515869141 0.049952428787946701 0.32075130939483643
0.44645118713378906 0.014795729890465736 0.27715268731117249
0.65637880563735962 9.6938192655215971e-06 0.23541311919689178
0.85075563192367554 0 0.24805152416229248
0.08762078732252121 0.30271068215370178 0.45831331610679626
0.25427383184432983 0.28902000188827515 0.43953549861907959
0.47176197171211243 0.2562251091003418 0.40055495500564575
0.68079215288162231 0.180543452501297 0.35126134753227234
0.86555260419845581 0.051660068333148956 0.29045918583869934
0.10696415603160858 0.5173652172088623 0.5266910195350647
0.27351564168930054 0.51423436403274536 0.51605051755905151
0.50212031602859497 0.49900537729263306 0.49456331133842468
0.70855951309204102 0.46671772003173828 0.4873015284538269
0.90515494346618652 0.37277135252952576 0.45537570118904114
0.26514443755149841 0.72035890817642212 0.4979948103427887
0.37295922636985779 0.71739596128463745 0.51378864049911499
0.56838023662567139 0.71321755647659302 0.51941132545471191
0.74789047241210938 0.69651526212692261 0.53308677673339844
0.94603508710861206 0.66175466775894165 0.56846386194229126
0.53214395046234131 0.95300650596618652 0.14787589013576508
0.63967657089233398 0.95436817407608032 0.10477957874536514
0.84994184970855713 0.95550209283828735 0.028511391952633858
0.96898084878921509 0.9504392147064209 0.12947756052017212
1 0.92210429906845093 0.44034332036972046
0.11262016743421555 0.087651558220386505 0.50210154056549072
0.26437032222747803 0.076144471764564514 0.46183368563652039
0.45618361234664917 0.036007437855005264 0.39788645505905151
0.64382529258728027 0.00010340073640691116 0.33944311738014221
0.84233063459396362 0 0.32933107018470764
0.12068703025579453 0.31341296434402466 0.60853272676467896
0.27059265971183777 0.30472782254219055 0.58649438619613647
0.47914817929267883 0.27504625916481018 0.5349196195602417
0.66644597053527832 0.19451284408569336 0.46894246339797974
0.8475269079208374 0.032561581581830978 0.3623369038105011
0.13357214629650116 0.52464306354522705 0.69571977853775024
0.27555471658706665 0.52404546737670898 0.68343901634216309
0.49021497368812561 0.50693535804748535 0.64568608999252319
0.68713748455047607 0.47915083169937134 0.61418086290359497
0.88808596134185791 0.3880804181098938 0.55583786964416504
0.19739113748073578 0.72219675779342651 0.74491798877716064
0.32600018382072449 0.71995252370834351 0.73265403509140015
0.51746153831481934 0.71524429321289062 0.71696680784225464
0.70433193445205688 0.70441645383834839 0.70251762866973877
0.91992354393005371 0.66456294059753418 0.68383777141571045
0.40945044159889221 0.95362818241119385 0.55316418409347534
0.49954807758331299 0.95572268962860107 0.54991084337234497
0.62304592132568359 0.95045691728591919 0.59716475009918213
0.78028225898742676 0.94834262132644653 0.64889895915985107
0.98716336488723755 0.92859858274459839 0.71451020240783691
0.18367230892181396 0.13216540217399597 0.63335859775543213
0.32079896330833435 0.10808597505092621 0.5786745548248291
0.48425152897834778 0.05334148183465004 0.50817126035690308
0.65179872512817383 0.0010529013816267252 0.44923162460327148
0.83341449499130249 0 0.41236039996147156
0.24140197038650513 0.34138160943984985 0.72676700353622437
0.34796682000160217 0.33201593160629272 0.70022749900817871
0.50636255741119385 0.30342563986778259 0.6563604474067688
0.66974896192550659 0.21870274841785431 0.58687424659729004
0.84391146898269653 0.04708036407828331 0.47640368342399597
0.26778990030288696 0.54663515090942383 0.82675051689147949
0.36414697766304016 0.54197138547897339 0.8093828558921814
0.51497733592987061 0.52918148040771484 0.78092795610427856
0.68169379234313965 0.4955534040927887 0.74001574516296387
0.87474304437637329 0.40910646319389343 0.67180216312408447
0.30642330646514893 0.73418653011322021 0.91892164945602417
0.385101318359375 0.73111653327941895 0.90763920545578003
0.52306300401687622 0.72865307331085205 0.89103776216506958
0.69240224361419678 0.71519166231155396 0.8613508939743042
0.9018244743347168 0.68103188276290894 0.81892740726470947
0.28234416246414185 0.96248084306716919 0.97637230157852173
0.37833905220031738 0.95622485876083374 0.9652978777885437
0.50628405809402466 0.96420294046401978 0.97258508205413818
0.69309335947036743 0.96235865354537964 0.96194690465927124
0.94892686605453491 0.95038247108459473 0.94666332006454468
