assets/lut/films negative color kodak ektar 100.cube
# Created by: G'MIC (https://gmic.eu)
TITLE "kodak_ektar_100"
# LUT size
LUT_3D_SIZE 7
# Data domain
DOMAIN_MIN 0.0 0.0 0.0
DOMAIN_MAX 1.0 1.0 1.0
# LUT data points
0.048790305852890015 0.041310824453830719 0.040381830185651779
0.20319007337093353 0.051323879510164261 0.035475082695484161
0.35337331891059875 0.059516068547964096 0.034838926047086716
0.55965924263000488 0.069883055984973907 0.025373496115207672
0.75377070903778076 0.081352338194847107 0.013938948512077332
0.9169655442237854 0.088821440935134888 0.0055209589190781116
1 0.077013544738292694 0.0013565961271524429
0.078708037734031677 0.16682295501232147 0.088789932429790497
0.1763414740562439 0.1765812486410141 0.085863970220088959
0.32998129725456238 0.18374776840209961 0.080368831753730774
0.53334951400756836 0.19492831826210022 0.070815712213516235
0.72086602449417114 0.19986428320407867 0.054120171815156937
0.89420044422149658 0.18783116340637207 0.040411766618490219
1 0.16637104749679565 0.029321169480681419
0.071771077811717987 0.29771715402603149 0.13547709584236145
0.14623920619487762 0.29985207319259644 0.13275799155235291
0.30537194013595581 0.30623659491539001 0.12665146589279175
0.5142250657081604 0.31800931692123413 0.11420798301696777
0.6901664137840271 0.32701835036277771 0.10190405696630478
0.85725551843643188 0.31581258773803711 0.088645398616790771
0.99609410762786865 0.2901206910610199 0.073364853858947754
0.0065390793606638908 0.45831495523452759 0.16904960572719574
0.063059352338314056 0.46256917715072632 0.16400028765201569
0.24838390946388245 0.47023630142211914 0.16045498847961426
0.4637904167175293 0.48047298192977905 0.14921282231807709
0.6301957368850708 0.49320924282073975 0.1386837512254715
0.78928971290588379 0.48942252993583679 0.12673218548297882
0.94373977184295654 0.46789407730102539 0.11100941151380539
0.00047891653957776725 0.59469723701477051 0.19722428917884827
0.065133564174175262 0.59568184614181519 0.19438536465167999
0.25015801191329956 0.60445410013198853 0.18868468701839447
0.43793597817420959 0.61691755056381226 0.17904038727283478
0.59563350677490234 0.62415486574172974 0.16991712152957916
0.7416120171546936 0.63035571575164795 0.15472975373268127
0.87987661361694336 0.63060218095779419 0.13848736882209778
0.052379831671714783 0.71615809202194214 0.24137671291828156
0.13242833316326141 0.7165830135345459 0.2422223836183548
0.27706798911094666 0.72262793779373169 0.24034568667411804
0.43231254816055298 0.73410850763320923 0.23198451101779938
0.57495957612991333 0.74020582437515259 0.2256561815738678
0.70165038108825684 0.7507825493812561 0.20738014578819275
0.8473740816116333 0.75605118274688721 0.18250164389610291
0.12526983022689819 0.83923739194869995 0.30510073900222778
0.20359015464782715 0.83769285678863525 0.30701941251754761
0.30322638154029846 0.84909099340438843 0.29934015870094299
0.4243781566619873 0.86096477508544922 0.29100030660629272
0.5467904806137085 0.86695593595504761 0.29014426469802856
0.66081750392913818 0.88084632158279419 0.27387085556983948
0.82677215337753296 0.8835480809211731 0.243698850274086
0.066464319825172424 0.051694158464670181 0.15339846909046173
0.20861256122589111 0.056945502758026123 0.14918592572212219
0.36397850513458252 0.073313675820827484 0.14756292104721069
0.57549023628234863 0.08483944833278656 0.13304419815540314
0.76923853158950806 0.088645681738853455 0.12200614809989929
0.93131726980209351 0.10274575650691986 0.10334517806768417
1 0.094320215284824371 0.089909031987190247
0.097728893160820007 0.1754058450460434 0.18663740158081055
0.18349732458591461 0.1807645708322525 0.18368174135684967
0.33570468425750732 0.19119457900524139 0.17739751935005188
0.54484140872955322 0.20285230875015259 0.16435627639293671
0.73745256662368774 0.20358860492706299 0.15080879628658295
0.90827405452728271 0.19413045048713684 0.13644586503505707
1 0.17598596215248108 0.12653861939907074
0.074756145477294922 0.30405643582344055 0.21674028038978577
0.13892902433872223 0.30709335207939148 0.2132127583026886
0.31074920296669006 0.3136698305606842 0.20718172192573547
0.52219909429550171 0.32389825582504272 0.19664449989795685
0.70194846391677856 0.32875466346740723 0.18537479639053345
0.86907166242599487 0.32244130969047546 0.17077924311161041
0.99825829267501831 0.29968231916427612 0.15803113579750061
0.0034915551077574492 0.46236217021942139 0.24568226933479309
0.060666371136903763 0.46742728352546692 0.24000771343708038
0.27713397145271301 0.47166478633880615 0.23610924184322357
0.47906959056854248 0.48408043384552002 0.22556951642036438
0.63901776075363159 0.4938378632068634 0.21526813507080078
0.80012279748916626 0.49401694536209106 0.20376765727996826
0.95135039091110229 0.47737383842468262 0.18619951605796814
0.003415021812543273 0.59880197048187256 0.28033098578453064
0.077975913882255554 0.6006854772567749 0.27770122885704041
0.28510987758636475 0.60905951261520386 0.27538853883743286
0.45640739798545837 0.61986422538757324 0.27074599266052246
0.60457462072372437 0.6269831657409668 0.26137951016426086
0.75414156913757324 0.63181644678115845 0.24682711064815521
0.89110898971557617 0.63517493009567261 0.23009942471981049
0.082662634551525116 0.71929836273193359 0.33234462141990662
0.15419568121433258 0.72267413139343262 0.33302155137062073
0.30016106367111206 0.72818952798843384 0.33614632487297058
0.44894039630889893 0.73662286996841431 0.33172789216041565
0.58835643529891968 0.74260801076889038 0.32637390494346619
0.71567654609680176 0.7522159218788147 0.30946230888366699
0.85961997509002686 0.75931555032730103 0.28362482786178589
0.17151434719562531 0.83887326717376709 0.40362238883972168
0.23521962761878967 0.84117025136947632 0.4020904004573822
0.32466879487037659 0.85264509916305542 0.39222064614295959
0.44351732730865479 0.86057054996490479 0.38626495003700256
0.56456947326660156 0.86553835868835449 0.38707214593887329
0.67155462503433228 0.88408184051513672 0.3705708384513855
0.84595143795013428 0.88570618629455566 0.34347245097160339
0.070415377616882324 0.065690554678440094 0.26218631863594055
0.22223152220249176 0.067470729351043701 0.25670194625854492
0.38622602820396423 0.086041785776615143 0.25561919808387756
0.5908132791519165 0.098801031708717346 0.24556177854537964
0.78787100315093994 0.1024712473154068 0.23393039405345917
0.9554373025894165 0.10414044559001923 0.21447513997554779
1 0.090293943881988525 0.21020859479904175
0.099145509302616119 0.18495661020278931 0.29368895292282104
0.19375424087047577 0.19156710803508759 0.29020661115646362
0.34715259075164795 0.20233355462551117 0.28492414951324463
0.55988121032714844 0.21411554515361786 0.27227932214736938
0.74665606021881104 0.21752327680587769 0.26580220460891724
0.9210515022277832 0.2055741548538208 0.25276821851730347
1 0.18463429808616638 0.24785251915454865
0.067732535302639008 0.31171882152557373 0.32952204346656799
0.14444510638713837 0.31685185432434082 0.3290751576423645
0.3230535089969635 0.32464000582695007 0.32344448566436768
0.53871709108352661 0.33654049038887024 0.31481754779815674
0.70894813537597656 0.34504705667495728 0.31008484959602356
0.88265454769134521 0.33401066064834595 0.29824170470237732
0.99891668558120728 0.31241312623023987 0.28888645768165588
0.00013152477913536131 0.46964812278747559 0.37271484732627869
0.068413287401199341 0.47739651799201965 0.37072819471359253
0.29708012938499451 0.48538991808891296 0.36992162466049194
0.49280694127082825 0.49902436137199402 0.36084789037704468
0.65341782569885254 0.50794517993927002 0.35461103916168213
0.8176116943359375 0.50584763288497925 0.34428271651268005
0.96273523569107056 0.48977524042129517 0.33336582779884338
0.023145413026213646 0.59952831268310547 0.4194546639919281
0.10891129821538925 0.60641121864318848 0.41813257336616516
0.31123608350753784 0.61594021320343018 0.41986897587776184
0.47355878353118896 0.62574952840805054 0.41596373915672302
0.62228316068649292 0.63608282804489136 0.41001027822494507
0.7727348804473877 0.63899499177932739 0.40033581852912903
0.91475266218185425 0.63555818796157837 0.39167451858520508
0.11968323588371277 0.71971613168716431 0.46103253960609436
0.19326603412628174 0.72443372011184692 0.46405497193336487
0.32550644874572754 0.73152625560760498 0.4694308340549469
0.46756431460380554 0.73979473114013672 0.46285364031791687
0.60908514261245728 0.74856537580490112 0.45818361639976501
0.7352709174156189 0.75727725028991699 0.44972380995750427
0.87847268581390381 0.7629847526550293 0.43498289585113525
0.19177283346652985 0.84992629289627075 0.50745755434036255
0.25174489617347717 0.85268431901931763 0.50739473104476929
0.35063359141349792 0.85359281301498413 0.50497007369995117
0.4659978449344635 0.86228150129318237 0.50083667039871216
0.58464705944061279 0.86839056015014648 0.49849086999893188
0.6905977725982666 0.88489174842834473 0.48961034417152405
0.8635590672492981 0.89276385307312012 0.46822026371955872
0.080413162708282471 0.076889663934707642 0.39337611198425293
0.22973029315471649 0.081482380628585815 0.38584080338478088
0.39406317472457886 0.10235993564128876 0.38981127738952637
0.60553717613220215 0.10868836939334869 0.38500717282295227
0.80561453104019165 0.11389242112636566 0.37361076474189758
0.95603978633880615 0.1136622279882431 0.35736587643623352
1 0.093103267252445221 0.35972020030021667
0.10917443782091141 0.19659337401390076 0.43403154611587524
0.20531731843948364 0.2031443864107132 0.4305480420589447
0.3542102575302124 0.21513502299785614 0.43109896779060364
0.56632840633392334 0.22490178048610687 0.42197051644325256
0.7602609395980835 0.22870731353759766 0.41855230927467346
0.92892032861709595 0.22045208513736725 0.40435972809791565
1 0.19659616053104401 0.39915871620178223
0.075253643095493317 0.32272246479988098 0.4764130711555481
0.15957723557949066 0.32597580552101135 0.47818443179130554
0.33463478088378906 0.33864319324493408 0.47578564286231995
0.54615503549575806 0.3515925407409668 0.4660298228263855
0.72312957048416138 0.35486367344856262 0.46470221877098083
0.89498579502105713 0.34623664617538452 0.45259150862693787
0.9981687068939209 0.32027885317802429 0.44576391577720642
3.4466913348296657e-05 0.47687453031539917 0.51824277639389038
0.075094588100910187 0.48086279630661011 0.51874643564224243
0.30399388074874878 0.49644210934638977 0.51270103454589844
0.50727438926696777 0.50593441724777222 0.50534099340438843
0.6707843542098999 0.51353710889816284 0.49962228536605835
0.8327862024307251 0.51705551147460938 0.49115723371505737
0.97146379947662354 0.49635627865791321 0.4839015007019043
0.016370421275496483 0.60843145847320557 0.55340862274169922
0.11868678033351898 0.61346888542175293 0.55430459976196289
0.32267493009567261 0.62335216999053955 0.54888439178466797
0.48614388704299927 0.63268554210662842 0.54351675510406494
0.64030438661575317 0.63976162672042847 0.53889411687850952
0.78748220205307007 0.64688539505004883 0.53150010108947754
0.92972618341445923 0.64716267585754395 0.52234268188476562
0.13826932013034821 0.72721654176712036 0.58113604784011841
0.21838091313838959 0.73204761743545532 0.58169656991958618
0.352326899766922 0.73448127508163452 0.58088105916976929
0.47956585884094238 0.7476465106010437 0.57506662607192993
0.62599426507949829 0.75267177820205688 0.57197421789169312
0.75195688009262085 0.76385438442230225 0.5646899938583374
0.9007875919342041 0.77103728055953979 0.55505979061126709
0.20097935199737549 0.86323529481887817 0.60701823234558105
0.25943613052368164 0.86715686321258545 0.60618031024932861
0.36828052997589111 0.86075979471206665 0.6083608865737915
0.47274968028068542 0.87993317842483521 0.60486400127410889
0.59267473220825195 0.88071352243423462 0.60255974531173706
0.70331770181655884 0.89217054843902588 0.59772127866744995
0.88214755058288574 0.90091782808303833 0.58598047494888306
0.074206441640853882 0.084392279386520386 0.5350608229637146
0.22451123595237732 0.10172946751117706 0.52859294414520264
0.39713165163993835 0.11871372163295746 0.53349113464355469
0.61780864000320435 0.12107923626899719 0.52518999576568604
0.82519584894180298 0.12439865618944168 0.51473873853683472
0.97653758525848389 0.11899641156196594 0.50723350048065186
1 0.097244232892990112 0.5060315728187561
0.10459787398576736 0.20742350816726685 0.56807363033294678
0.21165436506271362 0.21587337553501129 0.56767386198043823
0.36949977278709412 0.22796648740768433 0.57006043195724487
0.58150750398635864 0.24047322571277618 0.55808877944946289
0.78234297037124634 0.24415914714336395 0.55259639024734497
0.95563489198684692 0.23594161868095398 0.54291003942489624
1 0.21096983551979065 0.53681105375289917
0.056022286415100098 0.34227928519248962 0.60136032104492188
0.14082646369934082 0.34607824683189392 0.60106390714645386
0.33340418338775635 0.35907995700836182 0.59981518983840942
0.55149686336517334 0.37325835227966309 0.59171444177627563
0.73542290925979614 0.37806916236877441 0.58593857288360596
0.91210013628005981 0.3669508695602417 0.57704871892929077
1 0.34206908941268921 0.56880879402160645
2.4503820895915851e-05 0.49031740427017212 0.63374024629592896
0.072811529040336609 0.49443149566650391 0.63163745403289795
0.30399015545845032 0.50663059949874878 0.6255185604095459
0.51681381464004517 0.51762813329696655 0.6207924485206604
0.68216735124588013 0.5256078839302063 0.61466497182846069
0.85050612688064575 0.52694058418273926 0.60854607820510864
0.98833924531936646 0.51146560907363892 0.60207504034042358
0.027764204889535904 0.61570107936859131 0.66371738910675049
0.13894316554069519 0.62234741449356079 0.66243904829025269
0.33802476525306702 0.63011610507965088 0.65630120038986206
0.50106453895568848 0.63953512907028198 0.65447181463241577
0.65030771493911743 0.64952361583709717 0.64961731433868408
0.80128276348114014 0.65770137310028076 0.64533776044845581
0.94440698623657227 0.65774416923522949 0.63874584436416626
0.17244045436382294 0.72764694690704346 0.69245612621307373
0.25119698047637939 0.73478490114212036 0.69139432907104492
0.37660571932792664 0.73778605461120605 0.68778800964355469
0.50339972972869873 0.74917334318161011 0.68449920415878296
0.63983005285263062 0.75971466302871704 0.68110007047653198
0.76881295442581177 0.76674968004226685 0.67933237552642822
0.91621941328048706 0.77415692806243896 0.67084425687789917
0.23522236943244934 0.86384463310241699 0.71344029903411865
0.29034638404846191 0.86365139484405518 0.71308189630508423
0.3838493824005127 0.86636358499526978 0.71108222007751465
0.49006575345993042 0.88093924522399902 0.70673716068267822
0.60321694612503052 0.8897891640663147 0.70443987846374512
0.72122418880462646 0.89992439746856689 0.70431959629058838
0.90080684423446655 0.9093242883682251 0.6986231803894043
0.070082858204841614 0.11297889798879623 0.65410768985748291
0.20865641534328461 0.13305443525314331 0.64962863922119141
0.3960757851600647 0.14138956367969513 0.64795249700546265
0.61460411548614502 0.14741639792919159 0.63952028751373291
0.82272958755493164 0.15140916407108307 0.63131582736968994
0.98840582370758057 0.1393439769744873 0.62570923566818237
1 0.11223192512989044 0.62135648727416992
0.085160166025161743 0.22824791073799133 0.68289577960968018
0.18801908195018768 0.23763652145862579 0.68207806348800659
0.36399808526039124 0.24571692943572998 0.67956554889678955
0.58464246988296509 0.26120454072952271 0.66776031255722046
0.7838318943977356 0.26642230153083801 0.66433858871459961
0.95656758546829224 0.25806522369384766 0.65864825248718262
1 0.23131488263607025 0.65096026659011841
0.041645783931016922 0.36060249805450439 0.71216708421707153
0.11007902771234512 0.3682105541229248 0.71192854642868042
0.31034180521965027 0.37734943628311157 0.70831519365310669
0.54427897930145264 0.39323154091835022 0.69908797740936279
0.73563921451568604 0.39315158128738403 0.69573360681533813
0.90595394372940063 0.39056256413459778 0.68708276748657227
0.99991726875305176 0.37234500050544739 0.67774105072021484
8.7513646576553583e-05 0.4963189959526062 0.74260812997817993
0.061935216188430786 0.50447016954421997 0.74141556024551392
0.29325315356254578 0.51722615957260132 0.73594027757644653
0.5177186131477356 0.52947533130645752 0.72747206687927246
0.6854669451713562 0.53796184062957764 0.72189450263977051
0.85537326335906982 0.53899067640304565 0.7155081033706665
0.99193114042282104 0.53006953001022339 0.70996761322021484
0.017405550926923752 0.62165570259094238 0.76617276668548584
0.1161947175860405 0.62693136930465698 0.76533085107803345
0.32093995809555054 0.63878077268600464 0.76140552759170532
0.50280404090881348 0.65072309970855713 0.75642973184585571
0.6548653244972229 0.66209179162979126 0.75118452310562134
0.80793470144271851 0.66744852066040039 0.74729108810424805
0.95694589614868164 0.6660468578338623 0.7456325888633728
0.15403008460998535 0.73379647731781006 0.78860729932785034
0.23604235053062439 0.73680210113525391 0.78913325071334839
0.36922875046730042 0.74377638101577759 0.78733813762664795
0.50874537229537964 0.75490111112594604 0.78580212593078613
0.64960014820098877 0.76616811752319336 0.77944022417068481
0.77760970592498779 0.77373141050338745 0.77545028924942017
0.93246650695800781 0.78270059823989868 0.7702135443687439
0.2080538421869278 0.88183730840682983 0.80845850706100464
0.27592402696609497 0.87535750865936279 0.81088525056838989
0.37652274966239929 0.8799898624420166 0.80867993831634521
0.48858210444450378 0.89604216814041138 0.80388039350509644
0.60206335783004761 0.90724664926528931 0.80141323804855347
0.72045433521270752 0.91569966077804565 0.80140411853790283
0.91616141796112061 0.92235696315765381 0.79709959030151367
0.062792651355266571 0.13591098785400391 0.76495039463043213
0.19710457324981689 0.15651430189609528 0.75999933481216431
0.38127017021179199 0.16938324272632599 0.75446641445159912
0.59839534759521484 0.17591676115989685 0.74636024236679077
0.80735176801681519 0.18091094493865967 0.73862618207931519
0.98649770021438599 0.1664915531873703 0.73277407884597778
1 0.13401485979557037 0.72908061742782593
0.050704881548881531 0.25388702750205994 0.79076659679412842
0.15483450889587402 0.26077502965927124 0.78840786218643188
0.33395344018936157 0.27858397364616394 0.78287231922149658
0.56673377752304077 0.28973418474197388 0.77474683523178101
0.77364599704742432 0.29907670617103577 0.76839143037796021
0.95875430107116699 0.29174301028251648 0.76328116655349731
1 0.25570064783096313 0.75705039501190186
0.0121498703956604 0.38900697231292725 0.81390708684921265
0.073632046580314636 0.39486873149871826 0.81279021501541138
0.27645507454872131 0.4092039167881012 0.80908304452896118
0.52883803844451904 0.42080116271972656 0.80248945951461792
0.72829216718673706 0.42689782381057739 0.79523211717605591
0.89321106672286987 0.42941403388977051 0.78748661279678345
0.99411880970001221 0.40380039811134338 0.78159487247467041
0 0.50994467735290527 0.83995693922042847
0.049749664962291718 0.51957279443740845 0.83732497692108154
0.2716580331325531 0.5354120135307312 0.83323299884796143
0.50020420551300049 0.54999691247940063 0.82499819993972778
0.67492908239364624 0.56254750490188599 0.8193209171295166
0.84978467226028442 0.56867551803588867 0.81414294242858887
0.99386727809906006 0.56248569488525391 0.81178432703018188
9.1193702246528119e-05 0.62984150648117065 0.85984808206558228
0.073510624468326569 0.64009785652160645 0.85864639282226562
0.29132369160652161 0.64985525608062744 0.85562199354171753
0.48573571443557739 0.6622273325920105 0.84952539205551147
0.64759534597396851 0.67579251527786255 0.84646362066268921
0.80967497825622559 0.68247252702713013 0.84552830457687378
0.97062236070632935 0.6818358302116394 0.84837812185287476
0.081594191491603851 0.74447083473205566 0.8904423713684082
0.20274242758750916 0.74440348148345947 0.89125579595565796
0.34808647632598877 0.75309067964553833 0.88832575082778931
0.49447062611579895 0.76256793737411499 0.89004868268966675
0.64547568559646606 0.77385467290878296 0.88788896799087524
0.78146803379058838 0.78535252809524536 0.88276189565658569
0.95333456993103027 0.78706616163253784 0.88630050420761108
0.15740053355693817 0.89236736297607422 0.93691861629486084
0.25323918461799622 0.8865736722946167 0.93329119682312012
0.35358330607414246 0.89693289995193481 0.92849898338317871
0.48591381311416626 0.9036526083946228 0.9280969500541687
0.61222267150878906 0.91416096687316895 0.93317496776580811
0.73400938510894775 0.93125009536743164 0.93558025360107422
0.94483643770217896 0.94800269603729248 0.94509083032608032
