assets/lut/films colorslide fuji fp 100c.cube
# Created by: G'MIC (https://gmic.eu)
TITLE "fuji_fp_100c"
# LUT size
LUT_3D_SIZE 7
# Data domain
DOMAIN_MIN 0.0 0.0 0.0
DOMAIN_MAX 1.0 1.0 1.0
# LUT data points
0.021125059574842453 0.023468675091862679 0.016998514533042908
0.084241874516010284 0.02327798493206501 0.012566540390253067
0.16882197558879852 0.015541675500571728 0.011697836220264435
0.29627889394760132 0.0051152249798178673 0.0029768850654363632
0.47797864675521851 0.01040909718722105 0.0038406671956181526
0.65857410430908203 0.012367936782538891 0.0010995154734700918
0.7875831127166748 0.0043908213265240192 0
0.083570621907711029 0.12442228943109512 0.049687672406435013
0.13160800933837891 0.11801639944314957 0.047393620014190674
0.22365577518939972 0.10297264903783798 0.030107416212558746
0.35672977566719055 0.084299154579639435 0.018872488290071487
0.52546477317810059 0.043000493198633194 0.0084203537553548813
0.67750203609466553 0.02356293611228466 0.0015016891993582249
0.80373466014862061 0.016410259529948235 0.00037859746953472495
0.14319807291030884 0.27608755230903625 0.09743499755859375
0.18791750073432922 0.26936933398246765 0.090336896479129791
0.28213196992874146 0.25562676787376404 0.074150487780570984
0.421866774559021 0.23106491565704346 0.045989092439413071
0.58789688348770142 0.19482184946537018 0.033165488392114639
0.73782145977020264 0.14373461902141571 0.0074985278770327568
0.84990042448043823 0.079457223415374756 0.0043469150550663471
0.19630484282970428 0.48313096165657043 0.13618342578411102
0.26152235269546509 0.47259989380836487 0.12667804956436157
0.36703029274940491 0.46754413843154907 0.11729610711336136
0.51164060831069946 0.45158997178077698 0.089287072420120239
0.66657304763793945 0.40643548965454102 0.057111896574497223
0.80071425437927246 0.37083294987678528 0.035975735634565353
0.89941102266311646 0.33227068185806274 0.018688995391130447
0.36265978217124939 0.67002826929092407 0.12498483061790466
0.41088539361953735 0.66376954317092896 0.12006253749132156
0.50005608797073364 0.65531355142593384 0.10747786611318588
0.63088458776473999 0.63902574777603149 0.089363589882850647
0.75409936904907227 0.62345808744430542 0.076225116848945618
0.86079990863800049 0.59825891256332397 0.062921173870563507
0.9532470703125 0.57236981391906738 0.058549288660287857
0.59290057420730591 0.77918374538421631 0.077408552169799805
0.61235892772674561 0.77511966228485107 0.069205008447170258
0.67665368318557739 0.769866943359375 0.058451663702726364
0.7574772834777832 0.76350581645965576 0.057322453707456589
0.84071779251098633 0.75357133150100708 0.047843288630247116
0.91530632972717285 0.74249827861785889 0.045644693076610565
0.96645009517669678 0.71588426828384399 0.047205425798892975
0.80538344383239746 0.85600113868713379 0.01508783083409071
0.81719273328781128 0.85218274593353271 0.01405385322868824
0.84011924266815186 0.84716367721557617 0.014640494249761105
0.88977056741714478 0.8483547568321228 0.012309369631111622
0.93201196193695068 0.83717876672744751 0.011308766901493073
0.97204220294952393 0.83358514308929443 0.012686321511864662
0.996837317943573 0.82919853925704956 0.011811334639787674
0.024065129458904266 0.02623482421040535 0.097115971148014069
0.079464301466941833 0.023214332759380341 0.086002975702285767
0.17367854714393616 0.017234906554222107 0.072531111538410187
0.30664375424385071 0.010207755491137505 0.046333327889442444
0.48033395409584045 0.0049801245331764221 0.021161291748285294
0.65350610017776489 0.0046110115945339203 0.0090394262224435806
0.79301053285598755 0.00072751514380797744 0.0042299604974687099
0.084358841180801392 0.13675196468830109 0.13734607398509979
0.13303858041763306 0.12564131617546082 0.12498585134744644
0.22313317656517029 0.11034276336431503 0.10599192976951599
0.3579554557800293 0.08757394552230835 0.078352876007556915
0.52642905712127686 0.051624760031700134 0.040110807865858078
0.68118488788604736 0.021137073636054993 0.019942265003919601
0.80631941556930542 0.0090222824364900589 0.0080078877508640289
0.13412673771381378 0.29003757238388062 0.17851367592811584
0.18254509568214417 0.28422972559928894 0.1690206378698349
0.28007757663726807 0.26881319284439087 0.15212155878543854
0.42509722709655762 0.23911938071250916 0.12070775032043457
0.58990871906280518 0.19683317840099335 0.078323796391487122
0.73699885606765747 0.15139521658420563 0.047576379030942917
0.84533500671386719 0.094751037657260895 0.036269422620534897
0.19158147275447845 0.4983333945274353 0.21165457367897034
0.25559878349304199 0.49219402670860291 0.20389942824840546
0.3681175708770752 0.4754212498664856 0.19078649580478668
0.50862979888916016 0.45071956515312195 0.16065452992916107
0.66554915904998779 0.41118344664573669 0.12833228707313538
0.79663586616516113 0.38329806923866272 0.10750938951969147
0.90077090263366699 0.33268368244171143 0.089743278920650482
0.35279271006584167 0.67959195375442505 0.20858190953731537
0.40548205375671387 0.67570382356643677 0.20573993027210236
0.5011412501335144 0.66383367776870728 0.18825432658195496
0.62252354621887207 0.65011334419250488 0.16877418756484985
0.7485385537147522 0.62963533401489258 0.15058331191539764
0.85538387298583984 0.60218578577041626 0.13390596210956573
0.94443947076797485 0.57966405153274536 0.13564366102218628
0.59074646234512329 0.79004675149917603 0.13209736347198486
0.61755836009979248 0.78700095415115356 0.12927812337875366
0.67638212442398071 0.78048866987228394 0.117900550365448
0.75082921981811523 0.77080917358398438 0.11594782769680023
0.832011878490448 0.76394492387771606 0.11461564898490906
0.90947806835174561 0.75350785255432129 0.10837044566869736
0.97610181570053101 0.73830097913742065 0.12542517483234406
0.80763942003250122 0.86367487907409668 0.026561496779322624
0.81633347272872925 0.86247396469116211 0.023179821670055389
0.84398096799850464 0.85791599750518799 0.021520143374800682
0.88570696115493774 0.85514122247695923 0.025727290660142899
0.93237113952636719 0.85144108533859253 0.022680364549160004
0.97312444448471069 0.84172660112380981 0.036397013813257217
0.99298590421676636 0.83989304304122925 0.045443397015333176
0.026613391935825348 0.035869300365447998 0.20888799428939819
0.075980812311172485 0.025612715631723404 0.19926637411117554
0.18471606075763702 0.026037732139229774 0.18547305464744568
0.30772700905799866 0.013187139295041561 0.15079149603843689
0.49202334880828857 0.0061902212910354137 0.11573024094104767
0.65644675493240356 0.0019689672626554966 0.077798075973987579
0.78986912965774536 0 0.057019595056772232
0.083589054644107819 0.15140995383262634 0.25003677606582642
0.12760752439498901 0.14340788125991821 0.24515746533870697
0.22092641890048981 0.12454859167337418 0.223917156457901
0.36222392320632935 0.09842720627784729 0.19679293036460876
0.52974468469619751 0.060747843235731125 0.15722304582595825
0.68561005592346191 0.023610282689332962 0.11580726504325867
0.80487900972366333 0.015974830836057663 0.093754008412361145
0.11930441856384277 0.30685910582542419 0.30169025063514709
0.17274869978427887 0.29700967669487 0.29205897450447083
0.28140044212341309 0.28824177384376526 0.27656584978103638
0.42824587225914001 0.25860181450843811 0.25251543521881104
0.59472876787185669 0.21614173054695129 0.21316637098789215
0.73619192838668823 0.17263048887252808 0.17848958075046539
0.83921915292739868 0.11095579713582993 0.15553909540176392
0.18045824766159058 0.51787382364273071 0.35149991512298584
0.24409754574298859 0.50591307878494263 0.34226995706558228
0.35656282305717468 0.49543851613998413 0.33107838034629822
0.51488375663757324 0.47584247589111328 0.30627495050430298
0.66481643915176392 0.4331226646900177 0.27335911989212036
0.78961986303329468 0.39619031548500061 0.2489941269159317
0.89018988609313965 0.34725520014762878 0.23770096898078918
0.34564635157585144 0.69214391708374023 0.36910933256149292
0.38923442363739014 0.69085752964019775 0.36536380648612976
0.48824054002761841 0.68471801280975342 0.35612261295318604
0.61757123470306396 0.67057293653488159 0.33653825521469116
0.73712283372879028 0.65022873878479004 0.31907084584236145
0.83973705768585205 0.62725943326950073 0.30923175811767578
0.92828142642974854 0.59773081541061401 0.30815154314041138
0.57080316543579102 0.80242204666137695 0.32580608129501343
0.59617656469345093 0.80171722173690796 0.32995030283927917
0.65393632650375366 0.79737013578414917 0.32441297173500061
0.73576080799102783 0.79077368974685669 0.3165743350982666
0.81285512447357178 0.78192144632339478 0.31933748722076416
0.88892179727554321 0.77178770303726196 0.32472893595695496
0.96475929021835327 0.76094293594360352 0.32881265878677368
0.79028010368347168 0.88074314594268799 0.16698795557022095
0.8007737398147583 0.8807758092880249 0.16777877509593964
0.82664638757705688 0.87755835056304932 0.17159432172775269
0.86407530307769775 0.87454807758331299 0.15603972971439362
0.91278481483459473 0.8724663257598877 0.17230522632598877
0.96302801370620728 0.86843991279602051 0.18596130609512329
0.99591505527496338 0.86121636629104614 0.21911510825157166
0.022447189316153526 0.049960475414991379 0.35213512182235718
0.077627815306186676 0.042771328240633011 0.34326910972595215
0.17695333063602448 0.031189773231744766 0.32948502898216248
0.31115931272506714 0.018539354205131531 0.3021799623966217
0.48820459842681885 0.0093533983454108238 0.26420241594314575
0.65204119682312012 0.002519944217056036 0.22847047448158264
0.78307956457138062 8.4013096056878567e-05 0.20934675633907318
0.082522585988044739 0.17311473190784454 0.40687030553817749
0.12436064332723618 0.15901651978492737 0.39718148112297058
0.22120200097560883 0.14133176207542419 0.37976673245429993
0.36241215467453003 0.11342555284500122 0.35429075360298157
0.53006541728973389 0.07400059700012207 0.31600096821784973
0.68516218662261963 0.038507647812366486 0.28445452451705933
0.79617089033126831 0.010030425153672695 0.25992175936698914
0.094788163900375366 0.32759633660316467 0.46896821260452271
0.16454207897186279 0.31935203075408936 0.46460852026939392
0.27505913376808167 0.29936999082565308 0.44719690084457397
0.43142411112785339 0.27923914790153503 0.42725265026092529
0.59180772304534912 0.24458217620849609 0.39098682999610901
0.72534340620040894 0.18878455460071564 0.35681882500648499
0.82891333103179932 0.12480618059635162 0.33425316214561462
0.14024505019187927 0.53425818681716919 0.53740018606185913
0.23798456788063049 0.52320575714111328 0.52420520782470703
0.34946230053901672 0.51934534311294556 0.51991838216781616
0.50801932811737061 0.50490421056747437 0.499794602394104
0.64997440576553345 0.47292891144752502 0.47041982412338257
0.77713495492935181 0.4280642569065094 0.44409394264221191
0.87499195337295532 0.37132880091667175 0.43071159720420837
0.32128250598907471 0.71465384960174561 0.57588374614715576
0.37103703618049622 0.71328568458557129 0.57443052530288696
0.47755417227745056 0.70405131578445435 0.56196403503417969
0.60069495439529419 0.70033365488052368 0.5506819486618042
0.71735388040542603 0.67570877075195312 0.52697575092315674
0.82146435976028442 0.65612989664077759 0.51986545324325562
0.90909481048583984 0.61913174390792847 0.51036369800567627
0.54730784893035889 0.82884913682937622 0.57253491878509521
0.57668149471282959 0.82198971509933472 0.55580723285675049
0.6349179744720459 0.82077693939208984 0.55444550514221191
0.71118491888046265 0.81829679012298584 0.55003863573074341
0.7912973165512085 0.80649608373641968 0.5418584942817688
0.86527901887893677 0.79933851957321167 0.54742050170898438
0.94363653659820557 0.78329753875732422 0.54918354749679565
0.75324732065200806 0.90719026327133179 0.47400566935539246
0.76968634128570557 0.90959519147872925 0.47916832566261292
0.79469901323318481 0.90660905838012695 0.48120099306106567
0.82982057332992554 0.90265697240829468 0.48377430438995361
0.88006258010864258 0.90110230445861816 0.48393958806991577
0.93122386932373047 0.89800089597702026 0.49185049533843994
0.9831048846244812 0.89309573173522949 0.50399339199066162
0.022915588691830635 0.071092896163463593 0.52441132068634033
0.074741080403327942 0.051635067909955978 0.51452434062957764
0.17104266583919525 0.043469700962305069 0.50141429901123047
0.30756282806396484 0.026165053248405457 0.47635424137115479
0.48825493454933167 0.016936521977186203 0.44758358597755432
0.64749056100845337 0.0042976979166269302 0.39923951029777527
0.76987248659133911 0.00058698467910289764 0.38451185822486877
0.076328754425048828 0.18946447968482971 0.58403617143630981
0.12078012526035309 0.17804637551307678 0.57377690076828003
0.21566967666149139 0.16118527948856354 0.55761349201202393
0.36543095111846924 0.13377448916435242 0.53003668785095215
0.53323137760162354 0.094023823738098145 0.49132323265075684
0.68093448877334595 0.05445529893040657 0.45193353295326233
0.78730303049087524 0.011537349782884121 0.42612478137016296
0.086426921188831329 0.34442529082298279 0.64622384309768677
0.15415142476558685 0.33392944931983948 0.63654720783233643
0.26999571919441223 0.3195611834526062 0.62199848890304565
0.43702629208564758 0.30270439386367798 0.59671121835708618
0.59222239255905151 0.26491057872772217 0.5619056224822998
0.72280383110046387 0.21199706196784973 0.52232098579406738
0.82227408885955811 0.14548446238040924 0.4948810338973999
0.13020357489585876 0.55134475231170654 0.70940756797790527
0.22334848344326019 0.54631030559539795 0.70018243789672852
0.35691514611244202 0.53433793783187866 0.68244367837905884
0.5089418888092041 0.51826721429824829 0.66044098138809204
0.64900356531143188 0.50038999319076538 0.63683891296386719
0.76853448152542114 0.45265701413154602 0.60676020383834839
0.86719000339508057 0.39880424737930298 0.58551120758056641
0.32080569863319397 0.73633825778961182 0.74907958507537842
0.38063642382621765 0.72974932193756104 0.7419964075088501
0.4733816385269165 0.72997838258743286 0.73675477504730225
0.59568184614181519 0.71775704622268677 0.71560603380203247
0.70940041542053223 0.70169937610626221 0.69586676359176636
0.80811476707458496 0.67905139923095703 0.68209207057952881
0.89333707094192505 0.6482309103012085 0.66809660196304321
0.54316741228103638 0.85414224863052368 0.75538748502731323
0.57096654176712036 0.84876352548599243 0.75257968902587891
0.6245959997177124 0.84289616346359253 0.7438356876373291
0.69656401872634888 0.84105825424194336 0.73573821783065796
0.77535527944564819 0.83492743968963623 0.72997170686721802
0.84882700443267822 0.8203468918800354 0.72281396389007568
0.92244583368301392 0.80660438537597656 0.71228337287902832
0.72910988330841064 0.93860423564910889 0.73032468557357788
0.7412792444229126 0.93821549415588379 0.72336262464523315
0.76903790235519409 0.93722504377365112 0.71844857931137085
0.80536305904388428 0.93053042888641357 0.71755748987197876
0.85341870784759521 0.93058604001998901 0.71435672044754028
0.90528297424316406 0.92664033174514771 0.7140735387802124
0.96647566556930542 0.91906255483627319 0.71071577072143555
0.022799503058195114 0.075127199292182922 0.67148059606552124
0.08101760596036911 0.067331589758396149 0.66154855489730835
0.17999012768268585 0.052588444203138351 0.64256983995437622
0.32674115896224976 0.037324208766222 0.60894691944122314
0.5026623010635376 0.016974475234746933 0.57487016916275024
0.65326851606369019 0.0069438559003174305 0.53426873683929443
0.76168620586395264 0.0043368320912122726 0.51156282424926758
0.081011168658733368 0.19975915551185608 0.7177276611328125
0.12957809865474701 0.19155596196651459 0.71052443981170654
0.23157460987567902 0.17637749016284943 0.69201767444610596
0.38016718626022339 0.14565283060073853 0.65759021043777466
0.54154908657073975 0.10534368455410004 0.61670488119125366
0.68283921480178833 0.062160685658454895 0.57698053121566772
0.78310185670852661 0.020701434463262558 0.54314923286437988
0.097902573645114899 0.35628288984298706 0.77192002534866333
0.17093361914157867 0.34542959928512573 0.76521474123001099
0.29331284761428833 0.33098408579826355 0.74696141481399536
0.44631102681159973 0.30881723761558533 0.71492838859558105
0.59784764051437378 0.26785328984260559 0.67653161287307739
0.72165781259536743 0.22907738387584686 0.63635241985321045
0.81549400091171265 0.16924066841602325 0.60478168725967407
0.17175661027431488 0.57320833206176758 0.82917726039886475
0.25073802471160889 0.5666624903678894 0.82118874788284302
0.37147819995880127 0.55077487230300903 0.80357879400253296
0.51618051528930664 0.52731335163116455 0.77363914251327515
0.6562730073928833 0.50481832027435303 0.74702304601669312
0.76839852333068848 0.46376097202301025 0.71332192420959473
0.86260664463043213 0.3996846079826355 0.68463271856307983
0.35118159651756287 0.74678748846054077 0.86349397897720337
0.40923574566841125 0.74773252010345459 0.85963279008865356
0.49704521894454956 0.73951238393783569 0.84709078073501587
0.60385245084762573 0.72632062435150146 0.82600235939025879
0.70888632535934448 0.7126041054725647 0.8085702657699585
0.80649471282958984 0.69289946556091309 0.78872889280319214
0.88820117712020874 0.66418051719665527 0.77236586809158325
0.55116516351699829 0.86873418092727661 0.87350988388061523
0.58340561389923096 0.86365252733230591 0.86715805530548096
0.63110506534576416 0.85936868190765381 0.86462795734405518
0.69787287712097168 0.85502141714096069 0.85626697540283203
0.77129650115966797 0.84545928239822388 0.84390449523925781
0.84010016918182373 0.8334118127822876 0.83135461807250977
0.91556984186172485 0.82224994897842407 0.82233649492263794
0.72344011068344116 0.95667445659637451 0.86246794462203979
0.73522007465362549 0.95629560947418213 0.86262917518615723
0.76104491949081421 0.95736932754516602 0.86488968133926392
0.79564738273620605 0.95332318544387817 0.86039108037948608
0.84048807621002197 0.95085304975509644 0.85741013288497925
0.89211112260818481 0.94552522897720337 0.8530346155166626
0.95996600389480591 0.93723869323730469 0.84229475259780884
0.033564772456884384 0.093410864472389221 0.77786946296691895
0.10424071550369263 0.076162777841091156 0.75972509384155273
0.20776553452014923 0.059492956846952438 0.73517107963562012
0.3517778217792511 0.042042870074510574 0.70067483186721802
0.51676630973815918 0.016583969816565514 0.65751379728317261
0.66417312622070312 0.01038996409624815 0.62218314409255981
0.7734600305557251 0.0053334254771471024 0.58874654769897461
0.10418246686458588 0.20270568132400513 0.8086627721786499
0.15902625024318695 0.19840569794178009 0.79844552278518677
0.26187595725059509 0.17480118572711945 0.77582347393035889
0.4099944531917572 0.14515909552574158 0.7375190258026123
0.56165289878845215 0.10681047290563583 0.6982043981552124
0.68614357709884644 0.063870824873447418 0.6561272144317627
0.78350013494491577 0.02976633794605732 0.62765210866928101
0.14665810763835907 0.36995962262153625 0.84532082080841064
0.22320094704627991 0.35255864262580872 0.84037083387374878
0.33380860090255737 0.32854357361793518 0.82207721471786499
0.46975862979888916 0.30913850665092468 0.78170287609100342
0.61033248901367188 0.27862975001335144 0.75175505876541138
0.72656399011611938 0.22663073241710663 0.71462029218673706
0.81757646799087524 0.17311801016330719 0.684609055519104
0.2535860538482666 0.58226317167282104 0.90169548988342285
0.31609663367271423 0.57007473707199097 0.89769876003265381
0.41631075739860535 0.55239379405975342 0.87516289949417114
0.54383271932601929 0.52535051107406616 0.84918004274368286
0.67342716455459595 0.50508451461791992 0.82344228029251099
0.77583730220794678 0.4712965190410614 0.79188394546508789
0.86280149221420288 0.40865308046340942 0.76084023714065552
0.417207270860672 0.76020467281341553 0.94321167469024658
0.45330026745796204 0.74945998191833496 0.93258547782897949
0.52819615602493286 0.73853129148483276 0.91952669620513916
0.62521237134933472 0.72763639688491821 0.89931869506835938
0.72095870971679688 0.72003889083862305 0.88209658861160278
0.81029725074768066 0.69938004016876221 0.86369580030441284
0.89101189374923706 0.66845875978469849 0.83207088708877563
0.58900463581085205 0.87685972452163696 0.96015119552612305
0.60672515630722046 0.87243270874023438 0.95379161834716797
0.65099793672561646 0.86695080995559692 0.94609636068344116
0.70989465713500977 0.86376988887786865 0.93732070922851562
0.7716134786605835 0.85373181104660034 0.92136657238006592
0.84251850843429565 0.84243440628051758 0.91395455598831177
0.91505146026611328 0.82487541437149048 0.89955848455429077
0.73892402648925781 0.97217470407485962 0.96814405918121338
0.74316751956939697 0.96872067451477051 0.96622771024703979
0.76472783088684082 0.96763402223587036 0.95511692762374878
0.8010791540145874 0.96881133317947388 0.96192890405654907
0.83978539705276489 0.96419835090637207 0.95628565549850464
0.89025551080703735 0.9554639458656311 0.94883173704147339
0.94312179088592529 0.95205152034759521 0.93755829334259033
