assets/lut/films colorslide kodak kodachrome 25.cube
# Created by: G'MIC (https://gmic.eu)
TITLE "kodak_kodachrome_25"
# LUT size
LUT_3D_SIZE 13
# Data domain
DOMAIN_MIN 0.0 0.0 0.0
DOMAIN_MAX 1.0 1.0 1.0
# LUT data points
0.0069024031981825829 0.0056974524632096291 0.0087893912568688393
0.039449594914913177 0.0098360097035765648 0.010867324657738209
0.081404998898506165 0.01466655358672142 0.011693468317389488
0.13206955790519714 0.016017794609069824 0.010950963944196701
0.20911365747451782 0.014475489966571331 0.0092018125578761101
0.3338695764541626 0.011192097328603268 0.0044055264443159103
0.50331312417984009 0.0089468266814947128 0.00038048237911425531
0.69130235910415649 0.013833393342792988 0.00013122559175826609
0.89919847249984741 0.024096589535474777 0.0030023164581507444
0.99796772003173828 0.051632765680551529 0.010343125090003014
0.99999099969863892 0.10390040278434753 0.028295179829001427
0.99874395132064819 0.20383238792419434 0.10260334610939026
1 0.3186248242855072 0.20252597332000732
0.034120656549930573 0.054515164345502853 0.025570603087544441
0.067741349339485168 0.060617979615926743 0.028116503730416298
0.1183844655752182 0.065152503550052643 0.026532774791121483
0.19251514971256256 0.066764608025550842 0.024475561454892159
0.29649573564529419 0.064995922148227692 0.019047187641263008
0.42030641436576843 0.067189007997512817 0.01289711706340313
0.58327054977416992 0.06781565397977829 0.0068401261232793331
0.75712686777114868 0.077047042548656464 0.0069163902662694454
0.90179258584976196 0.11305128782987595 0.021886639297008514
0.97345882654190063 0.17441512644290924 0.047573570162057877
0.98609703779220581 0.24469812214374542 0.083404958248138428
0.99102377891540527 0.3255389928817749 0.15051728487014771
0.99939286708831787 0.40336138010025024 0.23088601231575012
0.078613817691802979 0.14402101933956146 0.068693734705448151
0.097986973822116852 0.15138235688209534 0.072376027703285217
0.16019050776958466 0.15299956500530243 0.067232005298137665
0.24300336837768555 0.16073161363601685 0.064943693578243256
0.33881106972694397 0.16653960943222046 0.061380438506603241
0.46763023734092712 0.16801521182060242 0.054297339171171188
0.6149364709854126 0.17652705311775208 0.050830870866775513
0.75537353754043579 0.1951773464679718 0.055238086730241776
0.85671377182006836 0.23670960962772369 0.072521790862083435
0.91157644987106323 0.29601281881332397 0.10014187544584274
0.94489622116088867 0.3523133397102356 0.13573761284351349
0.97233319282531738 0.40420436859130859 0.18626844882965088
0.99641555547714233 0.4528745710849762 0.24429288506507874
0.097861163318157196 0.27433866262435913 0.13459724187850952
0.11957584321498871 0.27951145172119141 0.13648879528045654
0.19466014206409454 0.27984139323234558 0.13216002285480499
0.29500406980514526 0.28747665882110596 0.12667115032672882
0.39865362644195557 0.29304066300392151 0.12019083648920059
0.51415562629699707 0.29659926891326904 0.11315606534481049
0.61993700265884399 0.31460914015769958 0.11622477322816849
0.71995890140533447 0.33754169940948486 0.12487867474555969
0.8026890754699707 0.36523887515068054 0.13346497714519501
0.86284774541854858 0.40010431408882141 0.14860360324382782
0.91222482919692993 0.43392011523246765 0.17310307919979095
0.95621150732040405 0.46452438831329346 0.20745722949504852
0.99319225549697876 0.49710705876350403 0.24834661185741425
0.13658587634563446 0.42275816202163696 0.20687775313854218
0.19666160643100739 0.41776475310325623 0.2004462331533432
0.26833298802375793 0.41616123914718628 0.19443657994270325
0.36384743452072144 0.42188867926597595 0.18798215687274933
0.45303401350975037 0.43054378032684326 0.18439480662345886
0.53905695676803589 0.43538063764572144 0.17887866497039795
0.62035942077636719 0.44324991106987 0.17681986093521118
0.70035582780838013 0.45326089859008789 0.17766974866390228
0.77265948057174683 0.46756711602210999 0.18017888069152832
0.83657532930374146 0.48452052474021912 0.18551921844482422
0.89368504285812378 0.50293737649917603 0.19888558983802795
0.94642114639282227 0.52331626415252686 0.21942348778247833
0.99171340465545654 0.54862803220748901 0.24669209122657776
0.33815768361091614 0.53076624870300293 0.25201243162155151
0.36133044958114624 0.52857345342636108 0.24959553778171539
0.39647257328033447 0.52843749523162842 0.24613922834396362
0.45249417424201965 0.53200525045394897 0.24025051295757294
0.51221936941146851 0.53711032867431641 0.23658198118209839
0.57216864824295044 0.53941881656646729 0.23197284340858459
0.63508105278015137 0.53874999284744263 0.22547058761119843
0.70043015480041504 0.54087358713150024 0.21977938711643219
0.76276928186416626 0.54872161149978638 0.21784524619579315
0.82289546728134155 0.5578155517578125 0.21914511919021606
0.88197851181030273 0.56861758232116699 0.22395254671573639
0.94018048048019409 0.5825810432434082 0.23205140233039856
0.99089342355728149 0.60226774215698242 0.24702885746955872
0.47186505794525146 0.61125391721725464 0.29012373089790344
0.48316842317581177 0.6117815375328064 0.29053601622581482
0.50290632247924805 0.61250019073486328 0.28921520709991455
0.5341154932975769 0.61320322751998901 0.28384464979171753
0.57211166620254517 0.61349749565124512 0.27867305278778076
0.61373722553253174 0.61428868770599365 0.27428269386291504
0.65987575054168701 0.61391967535018921 0.26830720901489258
0.71143406629562378 0.61443805694580078 0.26025897264480591
0.76413768529891968 0.61849784851074219 0.25526243448257446
0.81804323196411133 0.62462592124938965 0.25517266988754272
0.87621551752090454 0.63134229183197021 0.25470611453056335
0.93806636333465576 0.63990849256515503 0.25313204526901245
0.99094241857528687 0.65484946966171265 0.25848886370658875
0.55772632360458374 0.67666858434677124 0.3211551308631897
0.56513029336929321 0.6790623664855957 0.32493045926094055
0.57857817411422729 0.67948132753372192 0.32408854365348816
0.5997881293296814 0.67774409055709839 0.31925079226493835
0.62682622671127319 0.67597335577011108 0.31417301297187805
0.65675532817840576 0.67599779367446899 0.31028956174850464
0.69225823879241943 0.67599779367446899 0.30398371815681458
0.7328764796257019 0.67718195915222168 0.29693514108657837
0.77664822340011597 0.68102353811264038 0.29331940412521362
0.82431679964065552 0.68626880645751953 0.29386937618255615
0.88046538829803467 0.69041246175765991 0.29100808501243591
0.94309639930725098 0.69473767280578613 0.2835313081741333
0.99361294507980347 0.70595681667327881 0.28231099247932434
0.62541449069976807 0.73986548185348511 0.35180371999740601
0.63078445196151733 0.7424471378326416 0.35540872812271118
0.63927572965621948 0.74285668134689331 0.3557736873626709
0.65377938747406006 0.7411186695098877 0.3530544638633728
0.67355525493621826 0.739299476146698 0.34960693120956421
0.69755184650421143 0.73857259750366211 0.34574016928672791
0.72734683752059937 0.73802226781845093 0.33946418762207031
0.761646568775177 0.73814284801483154 0.33347958326339722
0.79887974262237549 0.74176317453384399 0.33197343349456787
0.84327960014343262 0.74595695734024048 0.33191138505935669
0.89797401428222656 0.74807202816009521 0.32741841673851013
0.95653992891311646 0.7498241662979126 0.31994619965553284
0.99729549884796143 0.75896775722503662 0.31658431887626648
0.68107771873474121 0.80724310874938965 0.3856029212474823
0.68713241815567017 0.8086313009262085 0.38737362623214722
0.6945764422416687 0.80896461009979248 0.38753753900527954
0.70487600564956665 0.80780363082885742 0.38687619566917419
0.71818041801452637 0.80636632442474365 0.38524144887924194
0.73831814527511597 0.80545341968536377 0.38219925761222839
0.76615965366363525 0.80534809827804565 0.37736022472381592
0.79677516222000122 0.80536872148513794 0.37215235829353333
0.82892191410064697 0.80707532167434692 0.37053787708282471
0.86975646018981934 0.80944633483886719 0.36878150701522827
0.92165982723236084 0.80951899290084839 0.36328321695327759
0.97302180528640747 0.81104201078414917 0.35700443387031555
0.99962282180786133 0.82014352083206177 0.35502451658248901
0.7414429783821106 0.876903235912323 0.4199700653553009
0.74999773502349854 0.87863153219223022 0.41979777812957764
0.75814485549926758 0.87886333465576172 0.41926455497741699
0.7650219202041626 0.87776726484298706 0.41936099529266357
0.77222597599029541 0.8762391209602356 0.4190584123134613
0.78844994306564331 0.87607640027999878 0.41761422157287598
0.81602340936660767 0.87700003385543823 0.41475915908813477
0.84318691492080688 0.87641268968582153 0.41021963953971863
0.86865139007568359 0.87517297267913818 0.40601769089698792
0.90178203582763672 0.87497133016586304 0.40371629595756531
0.94527345895767212 0.87457704544067383 0.39855629205703735
0.98648077249526978 0.87784236669540405 0.39394927024841309
1 0.88732302188873291 0.39367997646331787
0.81438177824020386 0.94584321975708008 0.45376390218734741
0.824271559715271 0.94758486747741699 0.45326423645019531
0.83300429582595825 0.94818234443664551 0.45247003436088562
0.83708524703979492 0.94715917110443115 0.45243775844573975
0.84054887294769287 0.94571900367736816 0.45243465900421143
0.85380798578262329 0.94597154855728149 0.45165926218032837
0.87764447927474976 0.94710242748260498 0.44963675737380981
0.90028220415115356 0.94471979141235352 0.44476383924484253
0.91745853424072266 0.937785804271698 0.43842941522598267
0.93911135196685791 0.93353909254074097 0.43405875563621521
0.96757417917251587 0.93530851602554321 0.43178364634513855
0.9939311146736145 0.94316798448562622 0.43133166432380676
1 0.95352667570114136 0.4306827187538147
0.88754004240036011 0.9962877631187439 0.48942407965660095
0.89798927307128906 0.99756264686584473 0.48866894841194153
0.90534740686416626 0.99779409170150757 0.48704996705055237
0.9078485369682312 0.99675118923187256 0.48655694723129272
0.91063225269317627 0.99626225233078003 0.48651960492134094
0.92041158676147461 0.99626225233078003 0.48568665981292725
0.93731778860092163 0.9961475133895874 0.48294126987457275
0.95306128263473511 0.99437487125396729 0.47720196843147278
0.96380531787872314 0.98855084180831909 0.46919238567352295
0.97596335411071777 0.98357099294662476 0.46331876516342163
0.9906114935874939 0.98669546842575073 0.46331709623336792
0.99946540594100952 0.9930235743522644 0.46518716216087341
1 0.99760913848876953 0.46535283327102661
0.0034795126412063837 0.0077643003314733505 0.053115606307983398
0.029848748818039894 0.011572116054594517 0.053813740611076355
0.066751144826412201 0.015737332403659821 0.055912632495164871
0.10955264419317245 0.016046816483139992 0.058647319674491882
0.18270403146743774 0.012018315494060516 0.056910481303930283
0.30449381470680237 0.0071440301835536957 0.046967897564172745
0.47574123740196228 0.0061493217945098877 0.032155878841876984
0.66638612747192383 0.013716664165258408 0.025099361315369606
0.88143807649612427 0.024067537859082222 0.024235714226961136
0.99557119607925415 0.046758674085140228 0.037100248038768768
0.99999028444290161 0.0965728759765625 0.078863047063350677
0.99895131587982178 0.20194414258003235 0.17037305235862732
1 0.32266807556152344 0.27419948577880859
0.02244243212044239 0.053967613726854324 0.062535934150218964
0.053464237600564957 0.056542012840509415 0.063016511499881744
0.10214858502149582 0.060378775000572205 0.063846111297607422
0.17441439628601074 0.061643578112125397 0.062971122562885284
0.27630740404129028 0.05921642854809761 0.057852383702993393
0.39866682887077332 0.060615241527557373 0.052267890423536301
0.56262648105621338 0.062215797603130341 0.043707486242055893
0.74323368072509766 0.073319420218467712 0.04201195016503334
0.88836658000946045 0.11105650663375854 0.062047891318798065
0.96455115079879761 0.16621202230453491 0.097684122622013092
0.9815409779548645 0.23169304430484772 0.14970120787620544
0.98723882436752319 0.31619647145271301 0.22654660046100616
0.99847221374511719 0.40197113156318665 0.30642250180244446
0.062240347266197205 0.13918018341064453 0.094447284936904907
0.087136633694171906 0.14246141910552979 0.096681706607341766
0.14794057607650757 0.14524805545806885 0.094950765371322632
0.22939655184745789 0.15315890312194824 0.094231642782688141
0.32910886406898499 0.15753088891506195 0.09119376540184021
0.44788408279418945 0.16299732029438019 0.090093828737735748
0.60403287410736084 0.16837312281131744 0.083150692284107208
0.75557130575180054 0.18539920449256897 0.087491624057292938
0.84762340784072876 0.23283809423446655 0.11810583621263504
0.89676165580749512 0.29209858179092407 0.15936879813671112
0.93316352367401123 0.34495776891708374 0.20520387589931488
0.9667171835899353 0.39714813232421875 0.25986427068710327
0.99588781595230103 0.45041102170944214 0.31608909368515015
0.089274145662784576 0.26578161120414734 0.14869104325771332
0.11165720969438553 0.27132585644721985 0.15208141505718231
0.18139566481113434 0.27347549796104431 0.15091323852539062
0.28271079063415527 0.28109103441238403 0.14796252548694611
0.38964331150054932 0.28475546836853027 0.14246176183223724
0.50257307291030884 0.29154953360557556 0.13807074725627899
0.61760425567626953 0.30688256025314331 0.13864646852016449
0.719443678855896 0.32995414733886719 0.15088662505149841
0.79306298494338989 0.36255019903182983 0.17513035237789154
0.8472868800163269 0.39860367774963379 0.20334714651107788
0.89941239356994629 0.43006071448326111 0.23504149913787842
0.95030099153518677 0.45946294069290161 0.27222821116447449
0.99290668964385986 0.49335595965385437 0.31212446093559265
0.12263086438179016 0.41974732279777527 0.21693827211856842
0.18712113797664642 0.41448530554771423 0.21088998019695282
0.25614061951637268 0.41327521204948425 0.20643627643585205
0.35800716280937195 0.41773718595504761 0.20118452608585358
0.44936418533325195 0.42416843771934509 0.19905447959899902
0.53448212146759033 0.43055760860443115 0.19398343563079834
0.61742985248565674 0.43840265274047852 0.19161613285541534
0.6938246488571167 0.45143833756446838 0.19945922493934631
0.76235896348953247 0.46709966659545898 0.21340493857860565
0.82469522953033447 0.48264896869659424 0.22847519814968109
0.88352513313293457 0.49977278709411621 0.24810214340686798
0.94059383869171143 0.51932346820831299 0.2711755633354187
0.99051523208618164 0.54505926370620728 0.29764848947525024
0.32439810037612915 0.53080809116363525 0.25513187050819397
0.35764974355697632 0.52811217308044434 0.2524050772190094
0.3928128182888031 0.52760285139083862 0.24939046800136566
0.45179584622383118 0.53020352125167847 0.2454860657453537
0.51164323091506958 0.53453993797302246 0.24384218454360962
0.56982648372650146 0.53642064332962036 0.23880894482135773
0.63241863250732422 0.53519105911254883 0.23142775893211365
0.69508814811706543 0.53906840085983276 0.23113828897476196
0.7553744912147522 0.54774028062820435 0.23716969788074493
0.81513059139251709 0.5564420223236084 0.2459321916103363
0.87532281875610352 0.56583064794540405 0.2567165195941925
0.93607670068740845 0.57935458421707153 0.26735565066337585
0.98980230093002319 0.59945410490036011 0.28190761804580688
0.467183917760849 0.61053860187530518 0.28739467263221741
0.47899365425109863 0.6110197901725769 0.28863584995269775
0.49953225255012512 0.61105060577392578 0.28695708513259888
0.53274405002593994 0.61186599731445312 0.28341633081436157
0.57142418622970581 0.61285310983657837 0.2799067497253418
0.61211645603179932 0.61235642433166504 0.27476504445075989
0.65892386436462402 0.61109304428100586 0.26571804285049438
0.70929557085037231 0.61261981725692749 0.25975987315177917
0.76158183813095093 0.61738675832748413 0.25934335589408875
0.81584304571151733 0.62297439575195312 0.26386538147926331
0.87436103820800781 0.62855952978134155 0.26878190040588379
0.93616056442260742 0.63707149028778076 0.27032539248466492
0.99024355411529541 0.65215033292770386 0.27698394656181335
0.55380165576934814 0.67691880464553833 0.31884464621543884
0.56130379438400269 0.67832911014556885 0.32098895311355591
0.57537186145782471 0.67818349599838257 0.3200681209564209
0.59721082448959351 0.67714488506317139 0.31607630848884583
0.62557822465896606 0.67602920532226562 0.3117014467716217
0.65650570392608643 0.67547708749771118 0.30647262930870056
0.6918177604675293 0.67523270845413208 0.29796740412712097
0.73171228170394897 0.67636466026306152 0.29114028811454773
0.77596688270568848 0.67985731363296509 0.28931227326393127
0.82552725076675415 0.68385928869247437 0.29113242030143738
0.88180166482925415 0.68748098611831665 0.2899288535118103
0.94215887784957886 0.69285643100738525 0.28429701924324036
0.992301344871521 0.7047000527381897 0.28438517451286316
0.62225395441055298 0.73943185806274414 0.35038465261459351
0.62701690196990967 0.74064171314239502 0.35263857245445251
0.63514328002929688 0.74045997858047485 0.35252737998962402
0.65083950757980347 0.73939383029937744 0.35012942552566528
0.67280536890029907 0.7384609580039978 0.34711039066314697
0.69782906770706177 0.73792952299118042 0.34273704886436462
0.72616934776306152 0.73791009187698364 0.33525517582893372
0.75912851095199585 0.73831862211227417 0.32934480905532837
0.79724830389022827 0.74031805992126465 0.32843026518821716
0.84314191341400146 0.74297082424163818 0.32882508635520935
0.89773976802825928 0.74526280164718628 0.32318738102912903
0.95322459936141968 0.74927234649658203 0.31463512778282166
0.99497485160827637 0.75880789756774902 0.31240066885948181
0.67846059799194336 0.80547130107879639 0.3843788206577301
0.68055480718612671 0.80576241016387939 0.38514447212219238
0.68696248531341553 0.80574905872344971 0.38532200455665588
0.70031082630157471 0.80536121129989624 0.38611906766891479
0.71725356578826904 0.80482113361358643 0.38630300760269165
0.7386971116065979 0.8048475980758667 0.38352271914482117
0.76443636417388916 0.80540174245834351 0.37809005379676819
0.79329687356948853 0.80523824691772461 0.37221264839172363
0.82591730356216431 0.80491757392883301 0.36987015604972839
0.86842125654220581 0.80594903230667114 0.36777386069297791
0.92015784978866577 0.80738264322280884 0.36229240894317627
0.96786463260650635 0.81058037281036377 0.35687220096588135
0.99736040830612183 0.81956654787063599 0.35613572597503662
0.74308055639266968 0.87578654289245605 0.41851279139518738
0.74470406770706177 0.87599396705627441 0.41794940829277039
0.7500302791595459 0.87573260068893433 0.41791579127311707
0.76003682613372803 0.87550002336502075 0.41981703042984009
0.77200949192047119 0.87533807754516602 0.42183026671409607
0.79011279344558716 0.8762284517288208 0.42168298363685608
0.81553071737289429 0.87769871950149536 0.41889137029647827
0.84159284830093384 0.87715268135070801 0.41313266754150391
0.86692500114440918 0.8741118311882019 0.40703883767127991
0.90192717313766479 0.87258672714233398 0.40436559915542603
0.9437670111656189 0.87344193458557129 0.4010809063911438
0.98141855001449585 0.8786129355430603 0.39873698353767395
0.99949640035629272 0.88773280382156372 0.39689132571220398
0.82164859771728516 0.94682961702346802 0.45139890909194946
0.82554703950881958 0.9474029541015625 0.45083847641944885
0.82966756820678711 0.94683009386062622 0.45040923357009888
0.83410018682479858 0.94549709558486938 0.45213049650192261
0.84091538190841675 0.94475340843200684 0.45392417907714844
0.85586869716644287 0.94655019044876099 0.45476073026657104
0.87936639785766602 0.94933491945266724 0.45358473062515259
0.90154922008514404 0.94783943891525269 0.44866794347763062
0.91910392045974731 0.94054150581359863 0.44166797399520874
0.9402763843536377 0.93509858846664429 0.43737348914146423
0.96599733829498291 0.93663406372070312 0.43609026074409485
0.98899906873703003 0.94585305452346802 0.43664997816085815
0.99981492757797241 0.95551496744155884 0.43365713953971863
0.89847004413604736 0.99703854322433472 0.48650327324867249
0.90446048974990845 0.99779391288757324 0.48631477355957031
0.90778583288192749 0.99723583459854126 0.48550096154212952
0.90874987840652466 0.99629616737365723 0.48580819368362427
0.91180241107940674 0.9959639310836792 0.48648485541343689
0.92219740152359009 0.99625235795974731 0.48694974184036255
0.93953591585159302 0.99748396873474121 0.48504450917243958
0.95593243837356567 0.99602675437927246 0.480133056640625
0.96671712398529053 0.99163341522216797 0.47284090518951416
0.97720789909362793 0.98735737800598145 0.46755927801132202
0.98899799585342407 0.98862373828887939 0.46672505140304565
0.99780082702636719 0.9941590428352356 0.46817228198051453
1 0.99795961380004883 0.46593958139419556
0.0039009093306958675 0.010119599290192127 0.12375651299953461
0.022172620519995689 0.012387234717607498 0.12479964643716812
0.047304295003414154 0.01347401924431324 0.12874200940132141
0.0842718705534935 0.011858966201543808 0.13257209956645966
0.16189113259315491 0.0062736808322370052 0.12808530032634735
0.27921465039253235 0.0044953138567507267 0.11825784295797348
0.43714925646781921 0.0085013443604111671 0.10508099943399429
0.64200460910797119 0.014581537805497646 0.086876779794692993
0.86388987302780151 0.025997236371040344 0.07357393205165863
0.99193114042282104 0.052984334528446198 0.089162446558475494
1 0.11078713834285736 0.14610263705253601
1 0.20508843660354614 0.23172077536582947
1 0.31079274415969849 0.31878611445426941
0.015136688947677612 0.050568524748086929 0.12625148892402649
0.039986584335565567 0.053395874798297882 0.12746000289916992
0.083612360060214996 0.054401084780693054 0.12917403876781464
0.15573814511299133 0.05243295431137085 0.12873801589012146
0.26336196064949036 0.048124648630619049 0.12299297749996185
0.37323656678199768 0.055431321263313293 0.12348348647356033
0.52735590934753418 0.06140562891960144 0.11751894652843475
0.71750056743621826 0.072691790759563446 0.10931093990802765
0.87016278505325317 0.11024697870016098 0.12548696994781494
0.95496946573257446 0.16303250193595886 0.16649667918682098
0.97896486520767212 0.22840741276741028 0.22675266861915588
0.98833560943603516 0.30844691395759583 0.29542434215545654
0.99789583683013916 0.39244812726974487 0.36396276950836182
0.051760803908109665 0.13259704411029816 0.14841431379318237
0.078123621642589569 0.13619782030582428 0.15016429126262665
0.13228712975978851 0.13817040622234344 0.15058059990406036
0.21121880412101746 0.14316396415233612 0.15077930688858032
0.31081452965736389 0.14818045496940613 0.15143762528896332
0.42630565166473389 0.15695473551750183 0.15559077262878418
0.59408795833587646 0.15797515213489532 0.14427296817302704
0.74407529830932617 0.17815379798412323 0.15207977592945099
0.83322024345397949 0.22771671414375305 0.18882395327091217
0.88711971044540405 0.28387218713760376 0.23481762409210205
0.92546504735946655 0.33663833141326904 0.28423008322715759
0.96181690692901611 0.39009028673171997 0.33350422978401184
0.99357479810714722 0.44688966870307922 0.38271996378898621
0.087793402373790741 0.25888487696647644 0.19092509150505066
0.12164224684238434 0.26334589719772339 0.19330301880836487
0.18145059049129486 0.26722371578216553 0.19424426555633545
0.26442146301269531 0.27305525541305542 0.19614990055561066
0.37263917922973633 0.27627867460250854 0.19417345523834229
0.49362629652023315 0.28378966450691223 0.19343462586402893
0.61723077297210693 0.29567748308181763 0.19444532692432404
0.71306383609771729 0.32111454010009766 0.21382690966129303
0.77985227108001709 0.35726785659790039 0.24693456292152405
0.83378928899765015 0.39319998025894165 0.28029125928878784
0.8872564435005188 0.42453300952911377 0.31304836273193359
0.94183623790740967 0.45547711849212646 0.34645810723304749
0.98948460817337036 0.4928165078163147 0.38135632872581482
0.11000140011310577 0.41525691747665405 0.24922630190849304
0.18816560506820679 0.40960118174552917 0.24328592419624329
0.25705099105834961 0.40944263339042664 0.24043986201286316
0.3460085391998291 0.41187232732772827 0.24020083248615265
0.43634217977523804 0.41884025931358337 0.2406773716211319
0.52375727891921997 0.42882347106933594 0.23997257649898529
0.60908114910125732 0.43563249707221985 0.24210977554321289
0.68462258577346802 0.44668501615524292 0.25631421804428101
