assets/lut/films print kodak 2393 cuspclip.cube
# Created by: G'MIC (https://gmic.eu)
TITLE "kodak_2393_cuspclip"
# LUT size
LUT_3D_SIZE 7
# Data domain
DOMAIN_MIN 0.0 0.0 0.0
DOMAIN_MAX 1.0 1.0 1.0
# LUT data points
0.014590783044695854 0.019665572792291641 0.016823144629597664
0.066742584109306335 0.036237455904483795 0.016225762665271759
0.14350523054599762 0.041492104530334473 0.0053588566370308399
0.3319774866104126 0.056577045470476151 0
0.51054757833480835 0.08826129138469696 0.00035439286148175597
0.59363502264022827 0.11324003338813782 0.007718703243881464
0.62219291925430298 0.13076919317245483 0.021376606076955795
0.0081012947484850883 0.054530244320631027 0.032140500843524933
0.050360467284917831 0.066635057330131531 0.01519616786390543
0.17833638191223145 0.087603054940700531 0.0066209230571985245
0.41345912218093872 0.12026646733283997 0.0016314188251271844
0.59979462623596191 0.17200429737567902 0.0064239203929901123
0.65668833255767822 0.18362675607204437 0.019511891528964043
0.67717123031616211 0.18886379897594452 0.027686653658747673
0.00044987996807321906 0.14536368846893311 0.061689011752605438
0.010202415287494659 0.14980477094650269 0.021963231265544891
0.20237331092357635 0.1922229677438736 0.0041227303445339203
0.49258974194526672 0.26024594902992249 6.354836659738794e-05
0.67122477293014526 0.30255964398384094 0.0126126604154706
0.7353406548500061 0.30690246820449829 0.032144911587238312
0.76512825489044189 0.33482688665390015 0.018827386200428009
0.011474414728581905 0.31494313478469849 0.1505158543586731
0.00249632284976542 0.33755236864089966 0.084067881107330322
0.22223198413848877 0.40838363766670227 0.0047806235961616039
0.61117005348205566 0.50726014375686646 0.0050439275801181793
0.77845573425292969 0.53916686773300171 0.010528714396059513
0.84564512968063354 0.54375916719436646 0.013616614043712616
0.87086194753646851 0.5718802809715271 0.02441883459687233
0.021859681233763695 0.4589751660823822 0.22539806365966797
0.013190519995987415 0.48953041434288025 0.15870939195156097
0.24955663084983826 0.57432842254638672 0.0076977447606623173
0.68410336971282959 0.69983422756195068 0.014428187161684036
0.86754411458969116 0.73207497596740723 0.050936993211507797
0.91570252180099487 0.720062255859375 0.047739423811435699
0.94059938192367554 0.74195915460586548 0.066447332501411438
0.0075829299166798592 0.51048940420150757 0.24464371800422668
0.02215048111975193 0.55310207605361938 0.16474138200283051
0.30723723769187927 0.64863485097885132 0.012908516451716423
0.70833730697631836 0.76260131597518921 0.031035734340548515
0.8840491771697998 0.79723870754241943 0.06832413375377655
0.9514082670211792 0.80145853757858276 0.081937767565250397
0.97049194574356079 0.80206626653671265 0.095801427960395813
0.022467968985438347 0.56671380996704102 0.25157856941223145
0.023524429649114609 0.60139250755310059 0.064347304403781891
0.35629728436470032 0.68685203790664673 0.0031093673314899206
0.71158313751220703 0.78089451789855957 0.018945956602692604
0.90341722965240479 0.82516181468963623 0.075227074325084686
0.96960908174514771 0.83147764205932617 0.09127064049243927
0.98796826601028442 0.83630889654159546 0.10464637726545334
0.0025383294560015202 0.026735642924904823 0.056386265903711319
0.051013827323913574 0.033805593848228455 0.060524359345436096
0.15126574039459229 0.029231246560811996 0.0421333909034729
0.34231013059616089 0.0068639270029962063 0.019378317520022392
0.52148771286010742 0.012150304391980171 0.013015956617891788
0.60361820459365845 0.018944324925541878 0.01599833182990551
0.63115149736404419 0.025441473349928856 0.01464258786290884
0.0028021419420838356 0.060390397906303406 0.07015526294708252
0.03587055578827858 0.069385573267936707 0.064389154314994812
0.17170007526874542 0.082993000745773315 0.051924925297498703
0.41749584674835205 0.064165078103542328 0.02352173812687397
0.60414779186248779 0.064421005547046661 0.0044341143220663071
0.66883689165115356 0.057388082146644592 0.0036525351461023092
0.69876134395599365 0.10205639153718948 0.011379885487258434
0.00025676653604023159 0.15784013271331787 0.11291438341140747
0.0050521399825811386 0.15616939961910248 0.087006695568561554
0.1960216611623764 0.20679225027561188 0.049407165497541428
0.50466716289520264 0.24358734488487244 0.01193630788475275
0.68030214309692383 0.26191291213035583 0.0060018501244485378
0.76041454076766968 0.2596583366394043 0.010337979532778263
0.7920229434967041 0.28817617893218994 0.010813171043992043
0.013076108880341053 0.35198310017585754 0.21736511588096619
0.0057863420806825161 0.37004673480987549 0.17197279632091522
0.18031467497348785 0.40342053771018982 0.020402630791068077
0.60451745986938477 0.50483840703964233 0.0074270209297537804
0.80568814277648926 0.53958559036254883 0.025781219825148582
0.87167561054229736 0.54425936937332153 0.01148065272718668
0.89641964435577393 0.56567096710205078 0.0060079987160861492
0.028259964659810066 0.48474064469337463 0.2854122519493103
0.011252503842115402 0.52375274896621704 0.24419620633125305
0.14950805902481079 0.57366526126861572 0.01787332259118557
0.65843474864959717 0.69667428731918335 0.0083575528115034103
0.88048440217971802 0.7379915714263916 0.034108974039554596
0.93940752744674683 0.7417178750038147 0.052896551787853241
0.95982760190963745 0.75685197114944458 0.053428918123245239
0.026559777557849884 0.53684669733047485 0.31493127346038818
0.041456844657659531 0.58609926700592041 0.27914616465568542
0.15646621584892273 0.64234137535095215 0.035801365971565247
0.68546795845031738 0.76853394508361816 0.0079741235822439194
0.90507739782333374 0.8156542181968689 0.053113017231225967
0.97158288955688477 0.82320845127105713 0.077359803020954132
0.9866834282875061 0.82665956020355225 0.097625121474266052
0.010638457722961903 0.61748528480529785 0.40439930558204651
0.01107177697122097 0.65090668201446533 0.33696916699409485
0.22252768278121948 0.70359534025192261 0.19831512868404388
0.68383193016052246 0.79968434572219849 0.12883985042572021
0.91105121374130249 0.84554755687713623 0.098975159227848053
0.99400383234024048 0.85948586463928223 0.11051514744758606
0.99796754121780396 0.86294198036193848 0.22402167320251465
0.0037905524950474501 0.058087114244699478 0.15518359839916229
0.032590858638286591 0.015146561898291111 0.15105506777763367
0.1390601247549057 0.016036104410886765 0.15177558362483978
0.33483701944351196 0.0084291640669107437 0.16090865433216095
0.50882428884506226 0 0.16829630732536316
0.60522574186325073 0.0019396912539377809 0.17811007797718048
0.6505553126335144 0.0039581898599863052 0.18823964893817902
0.0015573389828205109 0.10652724653482437 0.18712647259235382
0.013513976708054543 0.080937720835208893 0.19060945510864258
0.16981521248817444 0.08667486160993576 0.19620141386985779
0.41972428560256958 0.063872165977954865 0.1987013965845108
0.59344965219497681 0.014688649214804173 0.18794283270835876
0.68030107021331787 0.0043924967758357525 0.17749018967151642
0.71234387159347534 0.012157649733126163 0.19984321296215057
0.0025498932227492332 0.21079140901565552 0.24974600970745087
0.005146280862390995 0.22420135140419006 0.26407763361930847
0.17692986130714417 0.23074871301651001 0.23604729771614075
0.49581238627433777 0.25480794906616211 0.21712438762187958
0.70233446359634399 0.24227726459503174 0.20913764834403992
0.78447985649108887 0.24003809690475464 0.21676264703273773
0.81464302539825439 0.25911864638328552 0.22371037304401398
0.0098387328907847404 0.42696166038513184 0.38187745213508606
0.0044399634934961796 0.44950747489929199 0.38012868165969849
0.11202961206436157 0.44464111328125 0.28016850352287292
0.58368432521820068 0.52203691005706787 0.25145325064659119
0.81888115406036377 0.54818719625473022 0.21849322319030762
0.89921474456787109 0.54206162691116333 0.22014564275741577
0.92645972967147827 0.56369626522064209 0.24052110314369202
0.021786902099847794 0.54419785737991333 0.4344104528427124
0.0078339967876672745 0.58642709255218506 0.43224439024925232
0.068581283092498779 0.62392348051071167 0.32048264145851135
0.62130331993103027 0.72119492292404175 0.24994122982025146
0.89475148916244507 0.76385164260864258 0.14026674628257751
0.98314332962036133 0.77838766574859619 0.12892632186412811
0.99628353118896484 0.78908920288085938 0.17735536396503448
0.0085553489625453949 0.61199808120727539 0.48958370089530945
0.023211145773530006 0.64712584018707275 0.48130872845649719
0.047837290912866592 0.69550466537475586 0.38002404570579529
0.63342618942260742 0.80161827802658081 0.3259720504283905
0.90960532426834106 0.85572844743728638 0.28971648216247559
0.99300205707550049 0.86344075202941895 0.24523402750492096
0.99999284744262695 0.86753517389297485 0.31504517793655396
0.0089961634948849678 0.6711655855178833 0.5645635724067688
0.0070386850275099277 0.70952939987182617 0.5461878776550293
0.10870291292667389 0.7462608814239502 0.47854852676391602
0.64135819673538208 0.83865708112716675 0.46403330564498901
0.90051847696304321 0.8860049843788147 0.42830631136894226
0.98683458566665649 0.90360432863235474 0.44505199790000916
1 0.90578335523605347 0.46695810556411743
0.0033994039986282587 0.14528539776802063 0.313092440366745
0.01848519966006279 0.091086626052856445 0.31244564056396484
0.14842230081558228 0.0085537778213620186 0.3175029456615448
0.3594130277633667 0.0044340994209051132 0.35431763529777527
0.55086934566497803 0.0017582313157618046 0.37261968851089478
0.62658631801605225 0.0043607824482023716 0.38108396530151367
0.66782945394515991 0.0013498343760147691 0.393871009349823
0.0039215688593685627 0.21897724270820618 0.3819463849067688
0.0021114873234182596 0.18041212856769562 0.38789570331573486
0.14668302237987518 0.069385901093482971 0.38667857646942139
0.41435053944587708 0.034388270229101181 0.41027215123176575
0.60541397333145142 0.008157782256603241 0.42643511295318604
0.69659769535064697 0.0067007327452301979 0.43122932314872742
0.72734230756759644 0.013795561157166958 0.4529845118522644
0.0093342354521155357 0.33439946174621582 0.47178983688354492
0.011249422095716 0.32384774088859558 0.48204371333122253
0.12073253840208054 0.24616281688213348 0.46194642782211304
0.47657182812690735 0.25719046592712402 0.47665414214134216
0.70403838157653809 0.25157433748245239 0.49133095145225525
0.78355127573013306 0.22970326244831085 0.49936780333518982
0.81875896453857422 0.27732065320014954 0.52382433414459229
0.028149489313364029 0.49756515026092529 0.56810849905014038
0.025071388110518456 0.51527243852615356 0.58191382884979248
0.057750299572944641 0.51243120431900024 0.5602685809135437
0.55277740955352783 0.5518372654914856 0.55512243509292603
0.81221753358840942 0.59291547536849976 0.57117581367492676
0.8958238959312439 0.58825582265853882 0.56814432144165039
0.9302477240562439 0.62211102247238159 0.58332455158233643
0.011231919750571251 0.60736775398254395 0.62387621402740479
0.0076563069596886635 0.65984368324279785 0.65239459276199341
0.014432391151785851 0.68803852796554565 0.61172968149185181
0.56832718849182129 0.77642691135406494 0.6047552227973938
0.86902111768722534 0.81741088628768921 0.59485083818435669
0.96781307458877563 0.82829976081848145 0.5910535454750061
0.98984593152999878 0.84471482038497925 0.61163055896759033
0.0076220645569264889 0.67440605163574219 0.66879498958587646
0.0039901286363601685 0.71611207723617554 0.69165462255477905
0.0090104350820183754 0.75708472728729248 0.66152060031890869
0.57987523078918457 0.85051232576370239 0.64004313945770264
0.88106697797775269 0.89819657802581787 0.63756090402603149
0.97513037919998169 0.91319280862808228 0.62828356027603149
0.99738019704818726 0.91514289379119873 0.64061099290847778
0 0.71585190296173096 0.71521580219268799
0.0046737371012568474 0.75980132818222046 0.7334740161895752
0.036621078848838806 0.79744851589202881 0.71138054132461548
0.58067196607589722 0.87649381160736084 0.70676594972610474
0.881622314453125 0.93068450689315796 0.72476553916931152
0.97508543729782104 0.94546318054199219 0.72555363178253174
0.99808937311172485 0.94851219654083252 0.73040199279785156
0.0016355178086087108 0.2177242785692215 0.43282374739646912
0.011419259011745453 0.18313924968242645 0.4440256655216217
0.15600872039794922 0.0092040719464421272 0.4549403190612793
0.37899079918861389 0.0044564339332282543 0.48838213086128235
0.57513213157653809 0.0010725134052336216 0.52098900079727173
0.64949601888656616 0.0032261267770081758 0.53267806768417358
0.68786299228668213 0 0.5378379225730896
0.0031411414965987206 0.28781604766845703 0.50343680381774902
0.00270994589664042 0.26465937495231628 0.51728922128677368
0.14794322848320007 0.034113999456167221 0.52900499105453491
0.42246216535568237 0.016789110377430916 0.56824350357055664
0.62598168849945068 0.0070321476086974144 0.59732240438461304
0.70979404449462891 0.0076957405544817448 0.5933869481086731
0.74119728803634644 0.012640859931707382 0.61585348844528198
0.001968323951587081 0.38115137815475464 0.58183485269546509
0.0045744804665446281 0.36064913868904114 0.59370172023773193
0.081166349351406097 0.2761264443397522 0.62103819847106934
0.47086888551712036 0.27346158027648926 0.66746640205383301
0.70112150907516479 0.26016378402709961 0.68525302410125732
0.78954488039016724 0.24799077212810516 0.68724626302719116
0.83293646574020386 0.2878018319606781 0.7072187066078186
0.011870126239955425 0.52582889795303345 0.66867053508758545
0.041787479072809219 0.55114203691482544 0.69921588897705078
0.018448624759912491 0.54761314392089844 0.72270870208740234
0.52292817831039429 0.58468520641326904 0.76144897937774658
0.78672695159912109 0.6100088357925415 0.77842676639556885
0.88965517282485962 0.6247098445892334 0.78339886665344238
0.92769885063171387 0.65131491422653198 0.78142362833023071
0.021124687045812607 0.63872444629669189 0.73579192161560059
0.038352366536855698 0.68264466524124146 0.76738107204437256
0.022610219195485115 0.73496633768081665 0.79098868370056152
0.5286058783531189 0.81077671051025391 0.81196308135986328
0.84451276063919067 0.85337096452713013 0.82002109289169312
0.95241343975067139 0.86474096775054932 0.8205685019493103
0.97774827480316162 0.86905205249786377 0.82062435150146484
0.035560876131057739 0.68656980991363525 0.76363766193389893
0.040354888886213303 0.73499733209609985 0.79683047533035278
0.020447526127099991 0.79677057266235352 0.82349330186843872
0.53572088479995728 0.88616997003555298 0.84210830926895142
0.85202705860137939 0.92954534292221069 0.8487933874130249
0.96305513381958008 0.95144599676132202 0.85635405778884888
0.99475616216659546 0.95456081628799438 0.85285288095474243
0.008497798815369606 0.72132140398025513 0.79007071256637573
0.0086135715246200562 0.77646654844284058 0.8255651593208313
0.020456232130527496 0.82970446348190308 0.85308009386062622
0.57288885116577148 0.91087049245834351 0.87595605850219727
0.85942500829696655 0.95694351196289062 0.88883233070373535
0.96348220109939575 0.97273331880569458 0.8863908052444458
0.99127233028411865 0.9768947958946228 0.88927656412124634
0.0035555672366172075 0.24353522062301636 0.48423957824707031
0.009133925661444664 0.22995208203792572 0.50491058826446533
0.14962223172187805 0.014525066129863262 0.52578103542327881
0.37536162137985229 0.0030887529719620943 0.56667888164520264
0.58468258380889893 0.0016307606128975749 0.60591304302215576
0.66526103019714355 0.0039215688593685627 0.61613017320632935
0.70167243480682373 0.00034790037898346782 0.6161034107208252
9.3347889560391195e-06 0.30806127190589905 0.5566098690032959
0.0029481477104127407 0.29704722762107849 0.57799094915390015
0.14298775792121887 0.042365729808807373 0.61795341968536377
0.43432486057281494 0.021207980811595917 0.65918934345245361
0.64153599739074707 0.0062486687675118446 0.68749558925628662
0.72368884086608887 0.0049103233031928539 0.69383138418197632
0.75471824407577515 0.0097133265808224678 0.70490998029708862
0 0.39626502990722656 0.62763255834579468
0.00019570144650060683 0.39464372396469116 0.65591609477996826
0.077023737132549286 0.31317609548568726 0.70025861263275146
0.46874839067459106 0.26585760712623596 0.7551199197769165
0.71355468034744263 0.25677245855331421 0.77924996614456177
0.79992187023162842 0.24170631170272827 0.78675711154937744
0.83462023735046387 0.29515069723129272 0.79836052656173706
0.0201595239341259 0.53518438339233398 0.71233195066452026
0.014095231890678406 0.56275999546051025 0.74901771545410156
0.015751482918858528 0.5612863302230835 0.80140382051467896
0.50237429141998291 0.59474450349807739 0.85617530345916748
0.79921334981918335 0.6211782693862915 0.87530970573425293
0.88182228803634644 0.62445682287216187 0.87680113315582275
0.92206650972366333 0.65722930431365967 0.88576382398605347
0.025042351335287094 0.65024930238723755 0.77706438302993774
0.013660475611686707 0.68521559238433838 0.80667424201965332
0.052009403705596924 0.74070566892623901 0.85760116577148438
0.50722247362136841 0.8178173303604126 0.91466724872589111
0.84253525733947754 0.86670970916748047 0.93328124284744263
0.95118409395217896 0.88207423686981201 0.9324224591255188
0.97771662473678589 0.89268279075622559 0.93094724416732788
0.032407812774181366 0.69936418533325195 0.8061603307723999
0.025460755452513695 0.74423503875732422 0.83897703886032104
0.028102859854698181 0.80902624130249023 0.88462263345718384
0.48295459151268005 0.90032213926315308 0.9367789626121521
0.84332716464996338 0.94544929265975952 0.94778770208358765
0.95488590002059937 0.95675498247146606 0.94282567501068115
0.98961788415908813 0.96504592895507812 0.94227772951126099
0.025098703801631927 0.73964929580688477 0.83596241474151611
0.037593197077512741 0.78020000457763672 0.86390483379364014
0.0090299267321825027 0.83847504854202271 0.90754294395446777
0.54244011640548706 0.92251771688461304 0.94889581203460693
0.85107982158660889 0.96928191184997559 0.95810306072235107
0.95706522464752197 0.98574459552764893 0.96600872278213501
0.9886552095413208 0.98949754238128662 0.96507441997528076
0.00038506003329530358 0.27516207098960876 0.52904355525970459
0.0062716314569115639 0.26262006163597107 0.54995745420455933
0.1580902487039566 0.013252108357846737 0.57980197668075562
0.40234613418579102 0.000213623046875 0.62664026021957397
0.612743079662323 0.0010622062254697084 0.66189563274383545
0.69149619340896606 0.0027234095614403486 0.67128890752792358
0.71719491481781006 0.0036874059587717056 0.67426162958145142
0 0.33450609445571899 0.59604364633560181
8.2576980275916867e-06 0.32322672009468079 0.61003643274307251
0.12875401973724365 0.08780372142791748 0.66013962030410767
0.45335319638252258 0.055899839848279953 0.7113690972328186
0.6570398211479187 0.026321785524487495 0.73248523473739624
0.73846042156219482 0.020526258274912834 0.74240714311599731
0.77253764867782593 0.043967466801404953 0.75832021236419678
0 0.42379158735275269 0.66343742609024048
0.0001853194844443351 0.42816966772079468 0.69132918119430542
0.065696001052856445 0.34303495287895203 0.74031978845596313
0.48118829727172852 0.30017593502998352 0.79703432321548462
0.72068256139755249 0.30898252129554749 0.8183823823928833
0.80826270580291748 0.29301998019218445 0.82359665632247925
0.84530162811279297 0.34673470258712769 0.84069377183914185
0.0034245809074491262 0.54411870241165161 0.73064172267913818
0.010817659087479115 0.57292699813842773 0.76754283905029297
0.010557765141129494 0.57505995035171509 0.82572662830352783
0.50549542903900146 0.6110914945602417 0.89109271764755249
0.79015117883682251 0.63483768701553345 0.91050487756729126
0.8891148567199707 0.62729406356811523 0.91147428750991821
0.92646616697311401 0.67286592721939087 0.92537051439285278
0.023102615028619766 0.66067928075790405 0.79731553792953491
0.010080643929541111 0.69971638917922974 0.82794874906539917
0.023405397310853004 0.7450261116027832 0.87629014253616333
0.47073566913604736 0.82591205835342407 0.94577270746231079
0.81644648313522339 0.8693045973777771 0.96458899974822998
0.94243812561035156 0.88303077220916748 0.97078341245651245
0.97556126117706299 0.89407747983932495 0.97310501337051392
0.0098774628713726997 0.700153648853302 0.81665557622909546
0.027449782937765121 0.74637353420257568 0.85073447227478027
0.029288154095411301 0.8121412992477417 0.9022907018661499
0.4707355797290802 0.90451586246490479 0.96426129341125488
0.82862108945846558 0.9506722092628479 0.98124361038208008
0.96009087562561035 0.97215491533279419 0.98640501499176025
0.98839414119720459 0.96923130750656128 0.98402595520019531
0.014111597090959549 0.73782062530517578 0.84175920486450195
0.03836987167596817 0.78657740354537964 0.8774142861366272
0.023213764652609825 0.83870941400527954 0.92086243629455566
0.50703823566436768 0.92260968685150146 0.96878933906555176
0.84034734964370728 0.97219902276992798 0.98532146215438843
0.95739763975143433 0.98997026681900024 0.99099433422088623
0.99325215816497803 0.99368500709533691 0.99204975366592407
