assets/lut/films negative color kodak elite color 400.cube
# Created by: G'MIC (https://gmic.eu)
TITLE "kodak_elite_color_400"
# LUT size
LUT_3D_SIZE 13
# Data domain
DOMAIN_MIN 0.0 0.0 0.0
DOMAIN_MAX 1.0 1.0 1.0
# LUT data points
0.031476728618144989 0.02277030237019062 0.017591439187526703
0.069709330797195435 0.012749885208904743 0.019162990152835846
0.12375551462173462 0.0074559380300343037 0.021243629977107048
0.18302741646766663 0.0054017608053982258 0.022680634632706642
0.24474264681339264 0.0050965403206646442 0.023875681683421135
0.31312704086303711 0.0067188488319516182 0.024721840396523476
0.39169061183929443 0.0066987280733883381 0.024249566718935966
0.47766426205635071 0.006191642489284277 0.023087101057171822
0.56646716594696045 0.0079808700829744339 0.022398211061954498
0.65576171875 0.011351282708346844 0.022300077602267265
0.74357998371124268 0.014866353943943977 0.021438494324684143
0.83050060272216797 0.015030475333333015 0.018694320693612099
0.9156067967414856 0.0066070258617401123 0.011811140924692154
0.060155875980854034 0.076130032539367676 0.032244991511106491
0.093179009854793549 0.064614884555339813 0.033504799008369446
0.14527396857738495 0.055504370480775833 0.034059680998325348
0.2039349377155304 0.047235019505023956 0.034114688634872437
0.26393169164657593 0.03777536004781723 0.03394564613699913
0.33141240477561951 0.030880048871040344 0.034483261406421661
0.40893375873565674 0.027023868635296822 0.035506829619407654
0.49352788925170898 0.022915171459317207 0.035880353301763535
0.58057969808578491 0.020596837624907494 0.035242132842540741
0.66759294271469116 0.019566988572478294 0.034039918333292007
0.75346344709396362 0.018159888684749603 0.030598688870668411
0.83775389194488525 0.013091502711176872 0.024108214303851128
0.92049378156661987 0.0028041317127645016 0.01385523471981287
0.095348283648490906 0.13751915097236633 0.047505158931016922
0.12127397954463959 0.12939049303531647 0.048696614801883698
0.16992869973182678 0.11985970288515091 0.048482093960046768
0.22619038820266724 0.10681481659412384 0.047619510442018509
0.28506472706794739 0.090801447629928589 0.046871602535247803
0.35226482152938843 0.076154254376888275 0.047165364027023315
0.4295385479927063 0.063205629587173462 0.048644587397575378
0.51275730133056641 0.050057400017976761 0.049032129347324371
0.5975719690322876 0.040800686925649643 0.048294126987457275
0.68176859617233276 0.033036161214113235 0.045374266803264618
0.76467543840408325 0.023002924397587776 0.039140544831752777
0.84621274471282959 0.0088530592620372772 0.029271578416228294
0.92675298452377319 0.00011402204836485907 0.016267230734229088
0.13078621029853821 0.20253583788871765 0.065475001931190491
0.15422981977462769 0.19666476547718048 0.065865397453308105
0.19610728323459625 0.18858958780765533 0.065452545881271362
0.24847953021526337 0.17684100568294525 0.065379902720451355
0.30716121196746826 0.16309815645217896 0.064691759645938873
0.37522643804550171 0.1473824679851532 0.065069995820522308
0.45268961787223816 0.12465578317642212 0.065247692167758942
0.53467732667922974 0.099155247211456299 0.063982464373111725
0.61687463521957397 0.081237852573394775 0.061603397130966187
0.69819915294647217 0.063364274799823761 0.056847576051950455
0.7783932089805603 0.039880130439996719 0.048513419926166534
0.85696399211883545 0.011692944914102554 0.036521986126899719
0.93457621335983276 0 0.022093245759606361
0.15916754305362701 0.27242395281791687 0.085780546069145203
0.18428632616996765 0.2688559889793396 0.086610756814479828
0.22337950766086578 0.26306197047233582 0.085436515510082245
0.27358332276344299 0.25387269258499146 0.084552347660064697
0.33253735303878784 0.24422828853130341 0.082685448229312897
0.40109658241271973 0.23171006143093109 0.08250109851360321
0.4778188169002533 0.20737579464912415 0.081727288663387299
0.55775386095046997 0.17729756236076355 0.078886516392230988
0.63825875520706177 0.15064992010593414 0.07438996434211731
0.71654647588729858 0.12105554342269897 0.067941911518573761
0.79386067390441895 0.08117377758026123 0.058432277292013168
0.87006562948226929 0.033358272165060043 0.045969240367412567
0.945057213306427 0.00145721435546875 0.031214365735650063
0.19174692034721375 0.35195592045783997 0.10045874863862991
0.21706496179103851 0.35032075643539429 0.10259350389242172
0.25486931204795837 0.34688404202461243 0.10284943133592606
0.30392426252365112 0.3402906060218811 0.10146155208349228
0.36300167441368103 0.33193719387054443 0.0992555171251297
0.43081206083297729 0.32036429643630981 0.097826547920703888
0.50512278079986572 0.30011886358261108 0.096077941358089447
0.58243536949157715 0.27408823370933533 0.092422232031822205
0.66035008430480957 0.24579758942127228 0.086105659604072571
0.73702764511108398 0.20980784296989441 0.077653773128986359
0.81275093555450439 0.15750689804553986 0.067845240235328674
0.88553333282470703 0.090524859726428986 0.056023288518190384
0.95753204822540283 0.029301093891263008 0.041494794189929962
0.23697017133235931 0.44152680039405823 0.10704009234905243
0.25902670621871948 0.44084829092025757 0.11267945170402527
0.2937263548374176 0.43922415375709534 0.11510045826435089
0.3407738208770752 0.43442556262016296 0.11331328004598618
0.39864945411682129 0.42668634653091431 0.10992392897605896
0.46400675177574158 0.41581404209136963 0.10837098956108093
0.53466856479644775 0.39998587965965271 0.10734742134809494
0.60832196474075317 0.37989160418510437 0.10410112887620926
0.68336683511734009 0.35575664043426514 0.096905305981636047
0.75883114337921143 0.32293424010276794 0.086772546172142029
0.83140462636947632 0.27043184638023376 0.076820597052574158
0.9025079607963562 0.19818697869777679 0.066063582897186279
0.97112417221069336 0.12527933716773987 0.051313541829586029
0.29262042045593262 0.53527235984802246 0.11113589257001877
0.31108644604682922 0.53557181358337402 0.1184910461306572
0.34163567423820496 0.53497862815856934 0.12183313071727753
0.38584482669830322 0.53099185228347778 0.11795033514499664
0.44054755568504333 0.52408534288406372 0.11255041509866714
0.50159335136413574 0.51476365327835083 0.11230134963989258
0.56695652008056641 0.50272464752197266 0.11502318829298019
0.63572901487350464 0.48748031258583069 0.11426382511854172
0.7066950798034668 0.46822270750999451 0.1074097603559494
0.77846193313598633 0.44167444109916687 0.097365602850914001
0.84928601980209351 0.4015038013458252 0.087467685341835022
0.91860997676849365 0.34648486971855164 0.07613721489906311
0.98256880044937134 0.27903535962104797 0.059493571519851685
0.35661405324935913 0.62790000438690186 0.11715622246265411
0.37300056219100952 0.62784981727600098 0.12090286612510681
0.40061807632446289 0.62717169523239136 0.11991999298334122
0.44058519601821899 0.62418699264526367 0.11276044696569443
0.48994946479797363 0.61870962381362915 0.10625173896551132
0.54433906078338623 0.6117088794708252 0.10910557955503464
0.60254329442977905 0.60271406173706055 0.11751949787139893
0.6648978590965271 0.59108668565750122 0.11999268084764481
0.73052573204040527 0.57546204328536987 0.11329318583011627
0.79793161153793335 0.55456668138504028 0.10377426445484161
0.86517179012298584 0.52614313364028931 0.094936296343803406
0.93162411451339722 0.48839545249938965 0.082956217229366302
0.98973625898361206 0.43396779894828796 0.063454650342464447
0.42928627133369446 0.71547216176986694 0.11679709702730179
0.44444328546524048 0.71484863758087158 0.11508407443761826
0.46911787986755371 0.71348267793655396 0.10917589068412781
0.50340938568115234 0.71132373809814453 0.10019878298044205
0.5453374981880188 0.70789617300033569 0.093398138880729675
0.59166431427001953 0.7031552791595459 0.097820863127708435
0.64186489582061768 0.6970517635345459 0.10903206467628479
0.69698667526245117 0.68823713064193726 0.11291471123695374
0.75710320472717285 0.67574846744537354 0.10501614958047867
0.8195120096206665 0.65958446264266968 0.09646790474653244
0.88210910558700562 0.63853102922439575 0.090320870280265808
0.9435962438583374 0.61008650064468384 0.08063429594039917
0.99427735805511475 0.56882429122924805 0.058363940566778183
0.51179748773574829 0.79783529043197632 0.098561078310012817
0.5243489146232605 0.79625511169433594 0.097061380743980408
0.54450142383575439 0.795052170753479 0.091034457087516785
0.57209300994873047 0.79396677017211914 0.082306474447250366
0.60584670305252075 0.7917826771736145 0.074965775012969971
0.6439855694770813 0.7887919545173645 0.074177220463752747
0.68621945381164551 0.7843669056892395 0.077911794185638428
0.73430657386779785 0.77798247337341309 0.078068949282169342
0.78788506984710693 0.76888501644134521 0.0726790651679039
0.84463363885879517 0.75732624530792236 0.068302690982818604
0.90192711353302002 0.7422754168510437 0.066342912614345551
0.95753926038742065 0.72172033786773682 0.061798155307769775
0.99785429239273071 0.69057744741439819 0.037074893712997437
0.60136592388153076 0.87623310089111328 0.068287163972854614
0.6103094220161438 0.87620377540588379 0.069251760840415955
0.62529492378234863 0.87507641315460205 0.065903425216674805
0.64588785171508789 0.87368685007095337 0.058202646672725677
0.67166882753372192 0.8725624680519104 0.048438321799039841
0.7019234299659729 0.87081074714660645 0.039456594735383987
0.73684924840927124 0.86743324995040894 0.030449436977505684
0.77744632959365845 0.86282795667648315 0.023719234392046928
0.82408428192138672 0.85745859146118164 0.023130379617214203
0.87413680553436279 0.85020381212234497 0.022873507812619209
0.92486435174942017 0.84006404876708984 0.020858556032180786
0.97428202629089355 0.82584404945373535 0.016489755362272263
0.99981492757797241 0.80290323495864868 0.0041949101723730564
0.69518822431564331 0.95603054761886597 0.036492306739091873
0.70035219192504883 0.95464473962783813 0.03888765349984169
0.71016037464141846 0.95411652326583862 0.037269279360771179
0.72458267211914062 0.95395725965499878 0.030561350286006927
0.74340158700942993 0.9537702202796936 0.0205116868019104
0.76661783456802368 0.95230972766876221 0.010517359711229801
0.79467684030532837 0.95042818784713745 0.0033328037243336439
0.82805085182189941 0.94769740104675293 0.00070046819746494293
0.86718517541885376 0.94534236192703247 0.00062758504645898938
0.90966600179672241 0.94172072410583496 0.00048020307440310717
0.95348465442657471 0.93534362316131592 9.9092372693121433e-05
0.99205613136291504 0.92515695095062256 0
1 0.90808582305908203 0
0.017542116343975067 0.032362096011638641 0.06582273542881012
0.054370999336242676 0.021928809583187103 0.066124364733695984
0.11251837015151978 0.012566735036671162 0.067929334938526154
0.17527161538600922 0.0077806361950933933 0.069664210081100464
0.23872682452201843 0.0049403021112084389 0.070431999862194061
0.30879169702529907 0.0045535517856478691 0.069699212908744812
0.38857045769691467 0.0044976775534451008 0.066603869199752808
0.4758247435092926 0.0062238806858658791 0.06208057701587677
0.56591701507568359 0.0096360901370644569 0.058461897075176239
0.65619361400604248 0.013656002469360828 0.055022984743118286
0.74511927366256714 0.017639175057411194 0.048867993056774139
0.83196943998336792 0.018251560628414154 0.038260739296674728
0.91685563325881958 0.0099210701882839203 0.025484122335910797
0.049332413822412491 0.085895881056785583 0.079001061618328094
0.0790213942527771 0.076083555817604065 0.079092271625995636
0.13276630640029907 0.065524697303771973 0.079622752964496613
0.1946575939655304 0.054605953395366669 0.080108970403671265
0.25688925385475159 0.043539982289075851 0.08022589236497879
0.32615211606025696 0.035238318145275116 0.079986602067947388
0.40510380268096924 0.03016878105700016 0.078246802091598511
0.49104443192481995 0.026197725906968117 0.075655497610569
0.57946687936782837 0.02370871789753437 0.072666063904762268
0.66772216558456421 0.022792292758822441 0.068781472742557526
0.75437808036804199 0.022262468934059143 0.060767408460378647
0.8386836051940918 0.018497645854949951 0.047904923558235168
0.9211350679397583 0.0068621765822172165 0.033265102654695511
0.089863374829292297 0.1463761180639267 0.091561697423458099
0.1114443764090538 0.13942171633243561 0.091783292591571808
0.15751370787620544 0.13103510439395905 0.091709986329078674
0.21536567807197571 0.11770570278167725 0.091517351567745209
0.27668255567550659 0.10116759687662125 0.091337420046329498
0.34610024094581604 0.085423685610294342 0.091143622994422913
0.42477279901504517 0.070872843265533447 0.09098738431930542
0.5091547966003418 0.057350292801856995 0.089700214564800262
0.59543365240097046 0.046504735946655273 0.087275922298431396
0.68094676733016968 0.037296101450920105 0.082231037318706512
0.76443958282470703 0.027757801115512848 0.07257099449634552
0.84579390287399292 0.016097303479909897 0.057459678500890732
0.92606014013290405 0.0022562362719327211 0.041184786707162857
0.12848486006259918 0.21150735020637512 0.10613846033811569
0.14749504625797272 0.2070193886756897 0.10725484788417816
0.18613359332084656 0.20030951499938965 0.1068919450044632
0.23811256885528564 0.18831132352352142 0.10624386370182037
0.29826334118843079 0.17314781248569489 0.10541141033172607
0.36834150552749634 0.15465125441551208 0.1053670272231102
0.44717666506767273 0.13228349387645721 0.1052735298871994
0.5303809642791748 0.10911498963832855 0.1040913462638855
0.61400890350341797 0.088687688112258911 0.10136654227972031
0.69645196199417114 0.068094171583652496 0.095789529383182526
0.77690935134887695 0.044511519372463226 0.08488793671131134
0.85567009449005127 0.018191393464803696 0.06898200511932373
0.93319404125213623 0.00047749537043273449 0.05188668891787529
0.15694922208786011 0.28233158588409424 0.12262044847011566
0.17833361029624939 0.27921316027641296 0.12365806102752686
0.21439869701862335 0.27377307415008545 0.12392833828926086
0.2638126015663147 0.26437085866928101 0.1235264465212822
0.32394891977310181 0.25260308384895325 0.12137799710035324
0.39446800947189331 0.23559184372425079 0.1205517053604126
0.47283756732940674 0.21159650385379791 0.11987727880477905
0.55404090881347656 0.18485614657402039 0.11786807328462601
0.63510620594024658 0.15773575007915497 0.11410897970199585
0.71512842178344727 0.1258009672164917 0.10780695080757141
0.7932124137878418 0.085162341594696045 0.097002319991588593
0.86882549524307251 0.038438744843006134 0.082032822072505951
0.9437069296836853 0.0030213899444788694 0.065718404948711395
0.18787442147731781 0.36164453625679016 0.13452325761318207
0.21010228991508484 0.35980388522148132 0.13726860284805298
0.24567891657352448 0.35598599910736084 0.13878943026065826
0.29456841945648193 0.34905350208282471 0.1380402147769928
0.35484704375267029 0.33904197812080383 0.13626997172832489
0.42465391755104065 0.32429558038711548 0.13446159660816193
0.50084590911865234 0.30375123023986816 0.13294389843940735
0.57915055751800537 0.27999556064605713 0.12990611791610718
0.65787571668624878 0.25222790241241455 0.12457235157489777
0.73574721813201904 0.21524475514888763 0.11665400862693787
0.8114045262336731 0.16240088641643524 0.10651408135890961
0.88482213020324707 0.097215108573436737 0.093450210988521576
0.95662480592727661 0.037169884890317917 0.07864069938659668
0.23025617003440857 0.44947859644889832 0.13961569964885712
0.25093141198158264 0.44856148958206177 0.14560428261756897
0.28467443585395813 0.44642400741577148 0.14901873469352722
0.33199211955070496 0.44120410084724426 0.14812475442886353
0.39079466462135315 0.43288549780845642 0.14536640048027039
0.45787534117698669 0.42093995213508606 0.14364607632160187
0.53022211790084839 0.40508702397346497 0.14302371442317963
0.60534536838531494 0.38612845540046692 0.14007885754108429
0.68140137195587158 0.36273205280303955 0.13332007825374603
0.75719058513641357 0.32950997352600098 0.1236933097243309
0.83085346221923828 0.27715346217155457 0.1134692057967186
0.9019542932510376 0.20741692185401917 0.10210215300321579
0.97060006856918335 0.13794365525245667 0.088358938694000244
0.28461244702339172 0.54098016023635864 0.14224186539649963
0.30261266231536865 0.54109275341033936 0.15097023546695709
0.33352771401405334 0.53972804546356201 0.15487045049667358
0.37806570529937744 0.53598314523696899 0.15166474878787994
0.43329992890357971 0.52941292524337769 0.1471441239118576
0.49566769599914551 0.52023029327392578 0.14725115895271301
0.5623476505279541 0.5084298849105835 0.14968922734260559
0.63247585296630859 0.49380901455879211 0.14873693883419037
0.70462918281555176 0.47544372081756592 0.14181734621524811
0.7771562933921814 0.44931825995445251 0.13187147676944733
0.84855484962463379 0.40846818685531616 0.12164773046970367
0.91747075319290161 0.35214531421661377 0.10961221158504486
0.98139262199401855 0.28605237603187561 0.095090351998806
0.3479515016078949 0.63110947608947754 0.15070639550685883
0.36462804675102234 0.63112324476242065 0.15616500377655029
0.39280161261558533 0.63039129972457886 0.1562328040599823
0.43326643109321594 0.62776446342468262 0.14935691654682159
0.48373544216156006 0.62317025661468506 0.14123289287090302
0.53881126642227173 0.61641210317611694 0.14381834864616394
0.59785610437393188 0.60779035091400146 0.15203180909156799
0.66133356094360352 0.59661620855331421 0.15440678596496582
0.72810947895050049 0.58206987380981445 0.14793366193771362
0.79624265432357788 0.56183701753616333 0.13832160830497742
0.86389756202697754 0.53327775001525879 0.12829354405403137
0.92963594198226929 0.49287191033363342 0.11560738086700439
0.98799687623977661 0.43839630484580994 0.098063692450523376
0.42073211073875427 0.71664834022521973 0.15803804993629456
0.4361516535282135 0.71640235185623169 0.15894672274589539
0.46133643388748169 0.71551746129989624 0.15443068742752075
0.4965425431728363 0.71347159147262573 0.14445573091506958
0.53939932584762573 0.71089434623718262 0.13530349731445312
0.58627092838287354 0.70645254850387573 0.13786587119102478
0.63698446750640869 0.70039808750152588 0.14718331396579742
0.69292789697647095 0.69202202558517456 0.15038749575614929
0.75372743606567383 0.68056941032409668 0.14421673119068146
0.81678694486618042 0.66517853736877441 0.13465666770935059
0.87960171699523926 0.64418679475784302 0.12487133592367172
0.94021022319793701 0.61483019590377808 0.11268851906061172
0.99197834730148315 0.57354640960693359 0.09244537353515625
0.50290596485137939 0.79807001352310181 0.1528053879737854
0.51636844873428345 0.79555386304855347 0.15249277651309967
0.53714221715927124 0.79509806632995605 0.14709313213825226
0.56527113914489746 0.79488235712051392 0.13754855096340179
0.59929847717285156 0.79318439960479736 0.12845231592655182
0.6375386118888855 0.79043269157409668 0.12603051960468292
0.68050515651702881 0.78641843795776367 0.12786096334457397
0.7289741039276123 0.78043001890182495 0.1274486631155014
0.78306597471237183 0.77213519811630249 0.12256982922554016
0.8404729962348938 0.7605893611907959 0.1134016141295433
0.89755874872207642 0.74426889419555664 0.10178752243518829
0.95156580209732056 0.72416281700134277 0.088858857750892639
0.99506670236587524 0.69469118118286133 0.066002234816551208
0.59322899580001831 0.87622547149658203 0.13542002439498901
0.60326844453811646 0.87439918518066406 0.13649837672710419
0.61873245239257812 0.87250322103500366 0.13329143822193146
0.6395343542098999 0.87232804298400879 0.12441026419401169
0.665000319480896 0.87231314182281494 0.11379418522119522
0.69513499736785889 0.87151181697845459 0.10380358248949051
0.7299882173538208 0.86851239204406738 0.094958454370498657
0.77080905437469482 0.86471295356750488 0.08797156810760498
0.81737107038497925 0.85979753732681274 0.084918633103370667
0.867786705493927 0.85219448804855347 0.075953446328639984
0.91815018653869629 0.84101772308349609 0.058703836053609848
0.96429258584976196 0.82747948169708252 0.039359763264656067
0.99768465757369995 0.807700514793396 0.017572050914168358
0.68819373846054077 0.954295814037323 0.11328084766864777
0.69429737329483032 0.95318174362182617 0.11493641138076782
0.70448046922683716 0.95227175951004028 0.11292636394500732
0.71869194507598877 0.95238745212554932 0.1047646626830101
0.73687583208084106 0.95265942811965942 0.092394091188907623
0.75936985015869141 0.95215320587158203 0.077605709433555603
0.78667229413986206 0.95103496313095093 0.061582602560520172
0.81976741552352905 0.94923126697540283 0.049446810036897659
0.85841262340545654 0.94733023643493652 0.04478105902671814
0.90024226903915405 0.94374722242355347 0.034178804606199265
0.94195461273193359 0.93771493434906006 0.015905881300568581
0.980843186378479 0.92923504114151001 0.0024560964666306973
0.99973756074905396 0.91480743885040283 2.3696002244832925e-05
0.013345351442694664 0.038710486143827438 0.11936649680137634
0.047046676278114319 0.030150095000863075 0.11807791143655777
0.10393983125686646 0.018923919647932053 0.11877438426017761
0.16718856990337372 0.010890361852943897 0.12032463401556015
0.23145334422588348 0.0058386856690049171 0.12159785628318787
0.30370870232582092 0.0034087835811078548 0.12001549452543259
0.38541242480278015 0.0034266004804521799 0.1149078831076622
0.47410410642623901 0.0046996772289276123 0.10787368565797806
0.56577396392822266 0.0071228179149329662 0.10185772925615311
0.65695500373840332 0.0099142184481024742 0.096424967050552368
0.74656057357788086 0.013353236019611359 0.085790149867534637
0.83375859260559082 0.013761811889708042 0.067214086651802063
0.91867208480834961 0.0055470336228609085 0.048131741583347321
0.042290497571229935 0.095552973449230194 0.12980562448501587
0.069415658712387085 0.088138431310653687 0.12929590046405792
0.12136555463075638 0.077079609036445618 0.12962917983531952
0.18444623053073883 0.063727118074893951 0.13090972602367401
0.24883359670639038 0.050307359546422958 0.13190492987632751
0.32029590010643005 0.039871260523796082 0.13100264966487885
0.40103521943092346 0.033789929002523422 0.12723535299301147
0.48834282159805298 0.028871005401015282 0.12239595502614975
0.57831281423568726 0.024299412965774536 0.11795350909233093
0.66779088973999023 0.021527055650949478 0.11232898384332657
0.75503766536712646 0.020076422020792961 0.10088089853525162
0.83982843160629272 0.017007011920213699 0.081834442913532257
0.92207401990890503 0.0058433534577488899 0.062286019325256348
0.080809317529201508 0.156076580286026 0.13993921875953674
0.10188700258731842 0.15130425989627838 0.14022217690944672
0.14526861906051636 0.14342112839221954 0.14062279462814331
0.20323826372623444 0.12937043607234955 0.14167588949203491
0.26723015308380127 0.11208982020616531 0.14231410622596741
0.33919689059257507 0.095714777708053589 0.14163079857826233
0.41950660943984985 0.080553792417049408 0.13959109783172607
0.50508224964141846 0.065476752817630768 0.13703133165836334
0.59286922216415405 0.051238879561424255 0.13382777571678162
0.67978477478027344 0.038600023835897446 0.1279594898223877
0.76417559385299683 0.028260624036192894 0.11560278385877609
0.84593367576599121 0.018299821764230728 0.095727480947971344
0.92580735683441162 0.0041585587896406651 0.075567685067653656
0.11825753003358841 0.22117327153682709 0.15232554078102112
0.13721176981925964 0.21776552498340607 0.15333567559719086
0.17383377254009247 0.21166303753852844 0.15426602959632874
0.22613286972045898 0.19925782084465027 0.15513411164283752
0.28882911801338196 0.18267473578453064 0.15488050878047943
0.36099714040756226 0.16420462727546692 0.15392372012138367
0.44097980856895447 0.14336402714252472 0.15271623432636261
0.52520191669464111 0.12041676789522171 0.15115004777908325
0.61021292209625244 0.096502147614955902 0.14879463613033295
0.69404906034469604 0.071916259825229645 0.14330300688743591
0.77556389570236206 0.046757131814956665 0.1310315877199173
0.85487806797027588 0.022444406524300575 0.11132702976465225
0.93250644207000732 0.0023228514473885298 0.090879805386066437
0.14765304327011108 0.2926023006439209 0.16583649814128876
0.167072594165802 0.28985518217086792 0.16741350293159485
0.20159512758255005 0.28445708751678467 0.16909162700176239
0.25196999311447144 0.274076908826828 0.16984178125858307
