assets/lut/films print fuji 3513 cuspclip.cube
# Created by: G'MIC (https://gmic.eu)
TITLE "fuji_3513_cuspclip"
# LUT size
LUT_3D_SIZE 7
# Data domain
DOMAIN_MIN 0.0 0.0 0.0
DOMAIN_MAX 1.0 1.0 1.0
# LUT data points
0.0069656521081924438 0.01894034631550312 0.023030748590826988
0.042808562517166138 0.034051902592182159 0.029046181589365005
0.13402548432350159 0.043909799307584763 0.014424971304833889
0.31601658463478088 0.031063288450241089 0.0013845555949956179
0.48279106616973877 0.00525639858096838 0
0.57608926296234131 0.0071016796864569187 0
0.59843927621841431 0.034717828035354614 0
0.001441461849026382 0.077185899019241333 0.042967192828655243
0.039147127419710159 0.085090607404708862 0.042504284530878067
0.17951475083827972 0.10212616622447968 0.023141374811530113
0.40234649181365967 0.12552072107791901 0.0051187104545533657
0.56795734167098999 0.13010813295841217 0.00069191126385703683
0.65033411979675293 0.135332390666008 0
0.67618221044540405 0.16843274235725403 0.0011539683910086751
0.00034071979462169111 0.16842132806777954 0.073754645884037018
0.013967731036245823 0.17416591942310333 0.045633234083652496
0.19728460907936096 0.1992814689874649 0.0082493498921394348
0.44309380650520325 0.24889780580997467 0.0040484261699020863
0.64303106069564819 0.27426740527153015 0.0045220321044325829
0.71643394231796265 0.28071177005767822 0.0051096598617732525
0.75380730628967285 0.30626100301742554 0.0068413377739489079
0.008057822473347187 0.35150769352912903 0.15514874458312988
0.0024158402811735868 0.33834636211395264 0.092035986483097076
0.21825473010540009 0.37717989087104797 0.0024993747938424349
0.52963465452194214 0.4661828875541687 0.0033059513662010431
0.72813034057617188 0.49567469954490662 0.0091450409963726997
0.80877888202667236 0.50665909051895142 0.016166014596819878
0.83817273378372192 0.52541571855545044 0.0094158397987484932
0.0098080951720476151 0.49805060029029846 0.21958966553211212
0.026804126799106598 0.51346504688262939 0.18503619730472565
0.17025826871395111 0.55302047729492188 0.0074602761305868626
0.59408611059188843 0.65356171131134033 0.0039794920012354851
0.8014947772026062 0.6896967887878418 0.026026079431176186
0.89563214778900146 0.712493896484375 0.032540787011384964
0.91256195306777954 0.71409952640533447 0.027807377278804779
0.022455088794231415 0.56245094537734985 0.25024309754371643
0.020775126293301582 0.57800805568695068 0.19399918615818024
0.21291853487491608 0.6357458233833313 0.011544141918420792
0.61172711849212646 0.73297750949859619 0.013134346343576908
0.84709644317626953 0.78388899564743042 0.051750872284173965
0.93547135591506958 0.79797738790512085 0.072054602205753326
0.95161765813827515 0.7974926233291626 0.080172024667263031
0.023132847622036934 0.60787558555603027 0.28442734479904175
0.018085973337292671 0.63078266382217407 0.13913038372993469
0.31391638517379761 0.69805461168289185 0.006221771240234375
0.65709233283996582 0.77842748165130615 0.016098650172352791
0.88006424903869629 0.82417124509811401 0.042828399688005447
0.96607863903045654 0.83266490697860718 0.06832345575094223
0.98252713680267334 0.83438229560852051 0.1061001643538475
0.0092050144448876381 0.02850126288831234 0.061334423720836639
0.052044004201889038 0.035961031913757324 0.071035616099834442
0.15183942019939423 0.042349033057689667 0.062337793409824371
0.3696601390838623 0.018886042758822441 0.018268778920173645
0.51410067081451416 0.0070809759199619293 0.013476487249135971
0.60830521583557129 0.0081790098920464516 0.027508515864610672
0.63531339168548584 0.0069966185837984085 0.012533060275018215
0.0045336405746638775 0.081560440361499786 0.076758831739425659
0.047791514545679092 0.086980484426021576 0.082044310867786407
0.20640039443969727 0.10144810378551483 0.074208065867424011
0.42569726705551147 0.093405768275260925 0.036066092550754547
0.60359340906143188 0.066711187362670898 0.014125913381576538
0.68692469596862793 0.049012515693902969 0.010562597773969173
0.71622049808502197 0.060459975153207779 0.013063453137874603
0.00039708754047751427 0.19270725548267365 0.12757572531700134
0.010195025242865086 0.18833307921886444 0.11206763982772827
0.21986760199069977 0.21860474348068237 0.078773662447929382
0.49425807595252991 0.25590646266937256 0.024002375081181526
0.68826037645339966 0.26763072609901428 0.012008995749056339
0.77348202466964722 0.26178008317947388 0.013236416503787041
0.80687224864959717 0.29201307892799377 0.014549629762768745
0.022458439692854881 0.39748474955558777 0.23103228211402893
0.01473973598331213 0.39110732078552246 0.18787124752998352
0.20047992467880249 0.41051512956619263 0.058673635125160217
0.56457120180130005 0.47738361358642578 0.028197569772601128
0.77527731657028198 0.50371754169464111 0.0061547672376036644
0.86577749252319336 0.51188820600509644 0.018691716715693474
0.89759212732315063 0.53466248512268066 0.01657918281853199
0.023018406704068184 0.54126816987991333 0.3000640869140625
0.016715001314878464 0.55960297584533691 0.2691076397895813
0.12440569698810577 0.58682161569595337 0.037378616631031036
0.61738771200180054 0.67901170253753662 0.0071576288901269436
0.85863059759140015 0.72783780097961426 0.022747667506337166
0.94489377737045288 0.73964506387710571 0.026516932994127274
0.96263867616653442 0.74997657537460327 0.052648298442363739
0.019690165296196938 0.60067665576934814 0.34701862931251526
0.022264711558818817 0.63066530227661133 0.32027792930603027
0.12466020882129669 0.66979825496673584 0.10194120556116104
0.62728369235992432 0.76879686117172241 0.029087664559483528
0.89019381999969482 0.81702148914337158 0.016394058242440224
0.97995752096176147 0.83173084259033203 0.03811543807387352
0.9923895001411438 0.83279848098754883 0.079935140907764435
0.01713193953037262 0.65889543294906616 0.44582563638687134
0.012048115022480488 0.68673622608184814 0.38677603006362915
0.17431460320949554 0.73174124956130981 0.2639501690864563
0.64937108755111694 0.81524819135665894 0.23411205410957336
0.90134960412979126 0.85781550407409668 0.13327211141586304
0.99798774719238281 0.87043601274490356 0.15540957450866699
0.99984478950500488 0.87108200788497925 0.28366774320602417
0.0062164156697690487 0.034388523548841476 0.155100017786026
0.040232144296169281 0.024980058893561363 0.16128897666931152
0.16719736158847809 0.02337493933737278 0.17084957659244537
0.38516396284103394 0.0089483223855495453 0.17485019564628601
0.54693388938903809 0.0052675884217023849 0.17901398241519928
0.63884925842285156 0.0040801404975354671 0.17833146452903748
0.6701970100402832 3.6621095205191523e-05 0.18981599807739258
0.00099903182126581669 0.11383362114429474 0.202312171459198
0.012031435035169125 0.099120303988456726 0.19613231718540192
0.19579753279685974 0.10724750906229019 0.21369734406471252
0.45135632157325745 0.10429269820451736 0.22400406002998352
0.63059008121490479 0.042058564722537994 0.20029956102371216
0.71665006875991821 0.032493636012077332 0.19206003844738007
0.74473476409912109 0.021577512845396996 0.19693067669868469
0.0024549148511141539 0.25056758522987366 0.27903419733047485
0.010316258296370506 0.2463887631893158 0.27653414011001587
0.20641891658306122 0.2524353563785553 0.26313897967338562
0.51123124361038208 0.26930558681488037 0.26209187507629395
0.71636343002319336 0.25502163171768188 0.24264849722385406
0.80054306983947754 0.24471555650234222 0.21246571838855743
0.8328859806060791 0.2699449360370636 0.22188678383827209
0.0096755530685186386 0.467999666929245 0.39510408043861389
0.022762896493077278 0.47416090965270996 0.38184347748756409
0.14092902839183807 0.46314305067062378 0.29965108633041382
0.56211447715759277 0.51703613996505737 0.27241495251655579
0.81398630142211914 0.53296035528182983 0.25621631741523743
0.90110689401626587 0.5258948802947998 0.23668879270553589
0.9372209906578064 0.56389892101287842 0.27205273509025574
0.031370006501674652 0.60455667972564697 0.45893093943595886
0.029354888945817947 0.62428635358810425 0.44768157601356506
0.072351731359958649 0.657237708568573 0.36176183819770813
0.60494887828826904 0.72938996553421021 0.28444001078605652
0.88099539279937744 0.76926684379577637 0.25373852252960205
0.98163741827011108 0.78411000967025757 0.2358027845621109
0.99570685625076294 0.78892534971237183 0.26534891128540039
0.031774677336215973 0.66091424226760864 0.51776397228240967
0.019237741827964783 0.68747872114181519 0.51187771558761597
0.052147328853607178 0.72764378786087036 0.42119750380516052
0.59027278423309326 0.81276541948318481 0.34855365753173828
0.89531391859054565 0.86260408163070679 0.31671729683876038
0.98909950256347656 0.87394481897354126 0.32395970821380615
1 0.87583625316619873 0.35774439573287964
0.007660974282771349 0.71456688642501831 0.6127275824546814
0.016336508095264435 0.74151444435119629 0.58554697036743164
0.11417320370674133 0.77667468786239624 0.52046805620193481
0.61260628700256348 0.85059154033660889 0.4903201162815094
0.89029842615127563 0.89819461107254028 0.49138548970222473
0.99025744199752808 0.91212296485900879 0.48824682831764221
1 0.91104316711425781 0.50142103433609009
0.0041549382731318474 0.15150079131126404 0.34721720218658447
0.043015200644731522 0.028633417561650276 0.32930701971054077
0.18892192840576172 0.0086569394916296005 0.35126271843910217
0.40315285325050354 0.0026876262854784727 0.36698395013809204
0.5648728609085083 0.0027283313684165478 0.37488090991973877
0.66000503301620483 0 0.37588334083557129
0.69068211317062378 0 0.39396244287490845
0.0032978730741888285 0.23563450574874878 0.41696491837501526
0.0094807194545865059 0.18373729288578033 0.41132986545562744
0.18171872198581696 0.099281206727027893 0.41173207759857178
0.44876018166542053 0.084106460213661194 0.43190115690231323
0.64813423156738281 0.032718345522880554 0.43627393245697021
0.72803306579589844 0.021343903616070747 0.41997841000556946
0.76077926158905029 0.024833215400576591 0.45032349228858948
0.0087597565725445747 0.36076456308364868 0.50052571296691895
0.017753586173057556 0.33024042844772339 0.49771901965141296
0.1527380496263504 0.27930223941802979 0.49093115329742432
0.51113337278366089 0.30536890029907227 0.49810811877250671
0.71827405691146851 0.29767778515815735 0.50989329814910889
0.81273233890533447 0.27812498807907104 0.50077205896377563
0.84612941741943359 0.31705752015113831 0.52392077445983887
0.019921919330954552 0.53552860021591187 0.59210580587387085
0.02183825895190239 0.5423780083656311 0.60119402408599854
0.075318805873394012 0.52124285697937012 0.56926459074020386
0.56370240449905396 0.57191163301467896 0.57023674249649048
0.80756521224975586 0.58423566818237305 0.57244104146957397
0.90375125408172607 0.58281928300857544 0.56545513868331909
0.93876618146896362 0.62147235870361328 0.58939510583877563
0.010333102196455002 0.66663432121276855 0.65136116743087769
0.0057271472178399563 0.68085014820098877 0.65993386507034302
0.0097261769697070122 0.70850342512130737 0.62825930118560791
0.57159841060638428 0.79036736488342285 0.61725956201553345
0.87583953142166138 0.8296012282371521 0.62585961818695068
0.97955030202865601 0.83445560932159424 0.61172163486480713
0.99000483751296997 0.83339214324951172 0.63125360012054443
0.0046631908044219017 0.71768724918365479 0.70148241519927979
0.0051494822837412357 0.74479663372039795 0.70952904224395752
0.01160252932459116 0.78545999526977539 0.68771594762802124
0.54595315456390381 0.86431336402893066 0.67766135931015015
0.87839239835739136 0.91317212581634521 0.67281997203826904
0.98330938816070557 0.92102116346359253 0.66640651226043701
0.9974173903465271 0.92400139570236206 0.68788164854049683
0.0028905530925840139 0.76000332832336426 0.76053744554519653
0.0014021480455994606 0.79025179147720337 0.76937174797058105
0.021999239921569824 0.82491576671600342 0.75190013647079468
0.57722955942153931 0.89574676752090454 0.76009988784790039
0.86716967821121216 0.94018423557281494 0.76031601428985596
0.97929435968399048 0.95444983243942261 0.75762790441513062
0.99778902530670166 0.9560314416885376 0.76699012517929077
0.0094832023605704308 0.22943338751792908 0.4696725606918335
0.019828826189041138 0.17541688680648804 0.4834100604057312
0.19484850764274597 0.0036458631511777639 0.48956507444381714
0.42257434129714966 0.0046914792619645596 0.53654450178146362
0.58642357587814331 0.0036590576637536287 0.53589999675750732
0.67688465118408203 0.0018801670521497726 0.53905534744262695
0.70628869533538818 0.00027788948500528932 0.54969561100006104
0.0039215688593685627 0.29354026913642883 0.53597879409790039
0.0045824088156223297 0.25431254506111145 0.55163651704788208
0.20129533112049103 0.095268905162811279 0.57771551609039307
0.47009691596031189 0.069422192871570587 0.61296755075454712
0.65539628267288208 0.034636717289686203 0.62537205219268799
0.74143064022064209 0.024738805368542671 0.61837083101272583
0.77306157350540161 0.028808834031224251 0.63652592897415161
0.0039464612491428852 0.38809660077095032 0.60446089506149292
0.003713016863912344 0.38094165921211243 0.63100284337997437
0.11653711646795273 0.29578369855880737 0.66528677940368652
0.5148080587387085 0.31209903955459595 0.69527357816696167
0.72934520244598389 0.31946760416030884 0.71696645021438599
0.82779771089553833 0.31698811054229736 0.72091507911682129
0.85477900505065918 0.34316056966781616 0.73104327917098999
0.016885943710803986 0.55745333433151245 0.70279580354690552
0.030661189928650856 0.57651948928833008 0.72985714673995972
0.016003493219614029 0.5632898211479187 0.75313907861709595
0.53269970417022705 0.59873521327972412 0.78511977195739746
0.79980194568634033 0.60972404479980469 0.77654457092285156
0.90574175119400024 0.62413465976715088 0.78274834156036377
0.93172043561935425 0.64271008968353271 0.80591094493865967
0.023005407303571701 0.69493764638900757 0.77276724576950073
0.032752975821495056 0.71495908498764038 0.78939944505691528
0.0097248153761029243 0.75134599208831787 0.80791348218917847
0.51983922719955444 0.80982679128646851 0.83197170495986938
0.85731625556945801 0.85930126905441284 0.83207142353057861
0.96526217460632324 0.86631035804748535 0.83501702547073364
0.98745757341384888 0.87961596250534058 0.85535532236099243
0.024649601429700851 0.73692846298217773 0.79198282957077026
0.010584393516182899 0.76575726270675659 0.81547349691390991
0.010647298768162727 0.81827747821807861 0.84312719106674194
0.51733559370040894 0.89697080850601196 0.86677849292755127
0.85661298036575317 0.94317322969436646 0.88171607255935669
0.97658795118331909 0.95764929056167603 0.88691753149032593
0.99483472108840942 0.95237410068511963 0.87957364320755005
0.018009515479207039 0.76620423793792725 0.82341223955154419
0.0061429939232766628 0.80284988880157471 0.85083669424057007
0.011986481957137585 0.84615874290466309 0.87796175479888916
0.52676749229431152 0.91872906684875488 0.90345877408981323
0.85380762815475464 0.96525931358337402 0.91383552551269531
0.97213858366012573 0.9778754711151123 0.90363341569900513
0.99615615606307983 0.98375743627548218 0.91809731721878052
0.0053460812196135521 0.26039958000183105 0.53415489196777344
0.016184473410248756 0.21040135622024536 0.54965931177139282
0.20252099633216858 0.0051978765986859798 0.58044368028640747
0.42951777577400208 0.0041516474448144436 0.62092512845993042
0.60436570644378662 0.0052192388102412224 0.64087992906570435
0.69893342256546021 0.0042103934101760387 0.64919638633728027
0.72700607776641846 0.0073667489923536777 0.65811264514923096
0.0045166914351284504 0.31802701950073242 0.6046634316444397
0.0076508615165948868 0.29410690069198608 0.62462788820266724
0.17894341051578522 0.094086125493049622 0.6666756272315979
0.46843045949935913 0.062134701758623123 0.70334029197692871
0.67698830366134644 0.024154603481292725 0.72645872831344604
0.75717145204544067 0.023173747584223747 0.7274056077003479
0.78569716215133667 0.025907179340720177 0.74246901273727417
0.0054132947698235512 0.41953465342521667 0.67246288061141968
0.0071849147789180279 0.41662648320198059 0.69847285747528076
0.10624896734952927 0.32268503308296204 0.74548506736755371
0.51193267107009888 0.33342054486274719 0.79614555835723877
0.74176549911499023 0.31984791159629822 0.81344139575958252
0.8288503885269165 0.30978772044181824 0.8149835467338562
0.85494506359100342 0.33602026104927063 0.81719708442687988
0.022151274606585503 0.56619477272033691 0.74713766574859619
0.023415733128786087 0.59072983264923096 0.7796938419342041
0.025159768760204315 0.57655215263366699 0.82670587301254272
0.52041870355606079 0.60494399070739746 0.87599796056747437
0.79452389478683472 0.61874151229858398 0.88983476161956787
0.90187245607376099 0.63570272922515869 0.89479470252990723
0.92645049095153809 0.63852447271347046 0.8965144157409668
0.025701679289340973 0.68913191556930542 0.80502462387084961
0.023736691102385521 0.71949893236160278 0.8312075138092041
0.03767743706703186 0.76848095655441284 0.87905204296112061
0.49302756786346436 0.83237433433532715 0.92939126491546631
0.8412286639213562 0.87773877382278442 0.94342678785324097
0.95334702730178833 0.88406938314437866 0.94701486825942993
0.97893160581588745 0.88933199644088745 0.95302838087081909
0.014474128372967243 0.73997753858566284 0.8309481143951416
0.042241279035806656 0.76905488967895508 0.85583025217056274
0.015030939131975174 0.8307458758354187 0.89985275268554688
0.47337508201599121 0.9126703143119812 0.94956856966018677
0.84311258792877197 0.95709824562072754 0.96007221937179565
0.96061915159225464 0.96732497215270996 0.96321189403533936
0.99224746227264404 0.97492337226867676 0.97090435028076172
0.011850334703922272 0.77168923616409302 0.85912477970123291
0.044420894235372543 0.79774069786071777 0.8787192702293396
0.025481699034571648 0.85241377353668213 0.91877144575119019
0.51196181774139404 0.92825764417648315 0.96038722991943359
0.82699167728424072 0.96848362684249878 0.9672585129737854
0.96233832836151123 0.98752021789550781 0.97226405143737793
0.99484056234359741 0.99068057537078857 0.97312211990356445
0.0028420393355190754 0.28772702813148499 0.5749935507774353
0.0099432552233338356 0.24979592859745026 0.60375708341598511
0.20301517844200134 0.0078765572980046272 0.64248198270797729
0.44769832491874695 0.011861240491271019 0.68232506513595581
0.64718133211135864 0.0093009499832987785 0.70740193128585815
0.72481495141983032 0.0049374750815331936 0.70522034168243408
0.7517775297164917 0.007811826653778553 0.71871352195739746
0.0039215688593685627 0.36145439743995667 0.64173597097396851
0.0043693394400179386 0.33471313118934631 0.65929996967315674
0.1676248162984848 0.16765154898166656 0.72171753644943237
0.48254173994064331 0.15152209997177124 0.76526188850402832
0.69517630338668823 0.096940852701663971 0.78223031759262085
0.78453272581100464 0.078881688416004181 0.79131597280502319
0.8115120530128479 0.12631680071353912 0.80317264795303345
0.0035580205731093884 0.45566287636756897 0.70473259687423706
0.0051684658974409103 0.42602276802062988 0.71597921848297119
0.085868492722511292 0.35084974765777588 0.77907943725585938
0.4954034686088562 0.36713531613349915 0.83466005325317383
0.73112481832504272 0.36056059598922729 0.85007119178771973
0.8355751633644104 0.3467959463596344 0.85762161016464233
0.85976743698120117 0.36912110447883606 0.86040621995925903
0.024669662117958069 0.58347433805465698 0.76818168163299561
0.025197107344865799 0.59113854169845581 0.78850311040878296
0.014174607582390308 0.59543538093566895 0.8472895622253418
0.51073282957077026 0.6258925199508667 0.90677928924560547
0.79887604713439941 0.6448482871055603 0.92312264442443848
0.89906275272369385 0.64867740869522095 0.9264712929725647
0.93052130937576294 0.66954213380813599 0.9318464994430542
0.018949979916214943 0.69041019678115845 0.81475591659545898
0.0049413046799600124 0.71865803003311157 0.84139931201934814
0.0043272431939840317 0.76647341251373291 0.89462548494338989
0.46863746643066406 0.8365713357925415 0.95231980085372925
0.83441829681396484 0.88179475069046021 0.97150117158889771
0.94508248567581177 0.88899689912796021 0.97556942701339722
0.97768765687942505 0.90044230222702026 0.98021262884140015
0.024839079007506371 0.74348938465118408 0.84254550933837891
0.046129893511533737 0.7730029821395874 0.86712157726287842
0.0053644366562366486 0.83048278093338013 0.91257190704345703
0.45511606335639954 0.91218787431716919 0.96571332216262817
0.82198101282119751 0.95324337482452393 0.97992748022079468
0.94910734891891479 0.96242368221282959 0.98673844337463379
0.98380041122436523 0.96449345350265503 0.98986577987670898
0.026157902553677559 0.76695400476455688 0.85927838087081909
0.026966992765665054 0.80102729797363281 0.88466054201126099
0.019750243052840233 0.8527834415435791 0.92735350131988525
0.50057870149612427 0.929412841796875 0.97150647640228271
0.82652252912521362 0.97346824407577515 0.98602044582366943
0.95628941059112549 0.99000710248947144 0.99208903312683105
0.98951280117034912 0.99038350582122803 0.99443966150283813
