assets/lut/films colorslide fuji astia 100f.cube
# Created by: G'MIC (https://gmic.eu)
TITLE "fuji_astia_100f"
# LUT size
LUT_3D_SIZE 13
# Data domain
DOMAIN_MIN 0.0 0.0 0.0
DOMAIN_MAX 1.0 1.0 1.0
# LUT data points
0.042214754968881607 0.039383023977279663 0.029565580189228058
0.09964364767074585 0.031898140907287598 0.028763953596353531
0.17343701422214508 0.027640130370855331 0.026400592178106308
0.25445377826690674 0.02938862144947052 0.023679502308368683
0.33589339256286621 0.031928073614835739 0.025060152634978294
0.41776496171951294 0.034172400832176208 0.028238318860530853
0.50184613466262817 0.035731926560401917 0.02919921837747097
0.58557140827178955 0.037517309188842773 0.033219087868928909
0.66487723588943481 0.040675576776266098 0.045080777257680893
0.74177277088165283 0.044182781130075455 0.059591811150312424
0.81560307741165161 0.051985137164592743 0.078317008912563324
0.88541799783706665 0.065784424543380737 0.10189982503652573
0.95009452104568481 0.079037532210350037 0.12643532454967499
0.075956471264362335 0.11551151424646378 0.069938987493515015
0.12186310440301895 0.11010939627885818 0.066859737038612366
0.19126203656196594 0.10485823452472687 0.060097608715295792
0.2721007764339447 0.10110975056886673 0.050949964672327042
0.35227426886558533 0.096495173871517181 0.047839280217885971
0.43247005343437195 0.090091913938522339 0.04869372770190239
0.51602113246917725 0.082818128168582916 0.045788336545228958
0.59893608093261719 0.073101118206977844 0.04332592710852623
0.67781972885131836 0.062180507928133011 0.04613615944981575
0.75365632772445679 0.053040135651826859 0.053564783185720444
0.82707351446151733 0.053473751991987228 0.069209367036819458
0.89718055725097656 0.068617366254329681 0.096280820667743683
0.96184152364730835 0.087020695209503174 0.12657499313354492
0.11217837035655975 0.19547748565673828 0.11665830761194229
0.14493606984615326 0.19364537298679352 0.11131338775157928
0.20705881714820862 0.18960441648960114 0.10210435092449188
0.28625255823135376 0.18365824222564697 0.091899722814559937
0.36650210618972778 0.17608428001403809 0.087236292660236359
0.44724929332733154 0.16618002951145172 0.085302732884883881
0.53029382228851318 0.15369029343128204 0.080026976764202118
0.61237931251525879 0.13576598465442657 0.073678396642208099
0.6907849907875061 0.11160729825496674 0.067756727337837219
0.76615375280380249 0.084898732602596283 0.06374841183423996
0.83878517150878906 0.066008158028125763 0.067504391074180603
0.90896236896514893 0.071151331067085266 0.090162284672260284
0.97316235303878784 0.090382441878318787 0.12357296049594879
0.12774753570556641 0.27490997314453125 0.15315775573253632
0.16623826324939728 0.2757028341293335 0.14986085891723633
0.22963029146194458 0.27415478229522705 0.14194665849208832
0.3064272403717041 0.27077636122703552 0.13543799519538879
0.3859279453754425 0.2658521831035614 0.1332152783870697
0.46706938743591309 0.25775912404060364 0.13000749051570892
0.54966741800308228 0.24470402300357819 0.12462355941534042
0.63067436218261719 0.22527152299880981 0.11912989616394043
0.70859700441360474 0.19655297696590424 0.11096228659152985
0.78333055973052979 0.15732736885547638 0.098784066736698151
0.85508793592453003 0.11503143608570099 0.08825257420539856
0.92335373163223267 0.088490791618824005 0.092201277613639832
0.98277127742767334 0.080976776778697968 0.11051773279905319
0.16271296143531799 0.35552504658699036 0.17931355535984039
0.20507669448852539 0.35710644721984863 0.17793786525726318
0.26700285077095032 0.35753348469734192 0.17278781533241272
0.33986267447471619 0.35707342624664307 0.1692749410867691
0.41593220829963684 0.35604283213615417 0.1697545051574707
0.4952845573425293 0.35139524936676025 0.16798287630081177
0.57618141174316406 0.34220054745674133 0.16589881479740143
0.65568023920059204 0.32807424664497375 0.16576817631721497
0.73253864049911499 0.30507376790046692 0.16256935894489288
0.80647534132003784 0.26793086528778076 0.15308068692684174
0.87745910882949829 0.2183576226234436 0.14028440415859222
0.9416612982749939 0.15719778835773468 0.12432689219713211
0.99088281393051147 0.1041402593255043 0.11514566093683243
0.22387939691543579 0.43810215592384338 0.20517453551292419
0.25903373956680298 0.43911030888557434 0.20463529229164124
0.31418612599372864 0.43984991312026978 0.19921363890171051
0.38222149014472961 0.44069376587867737 0.19364403188228607
0.45456346869468689 0.4413960874080658 0.19185556471347809
0.53132838010787964 0.44011655449867249 0.19167508184909821
0.60974442958831787 0.43602484464645386 0.1947198361158371
0.68790137767791748 0.42835712432861328 0.19960124790668488
0.76414477825164795 0.41519606113433838 0.20306999981403351
0.83690470457077026 0.39189985394477844 0.20444619655609131
0.90559029579162598 0.353271484375 0.20353807508945465
0.96206331253051758 0.28563961386680603 0.18883174657821655
0.99674391746520996 0.21227675676345825 0.17070165276527405
0.27593144774436951 0.52079969644546509 0.24196319282054901
0.30615785717964172 0.52139824628829956 0.24108770489692688
0.35419711470603943 0.52193033695220947 0.23459115624427795
0.41821140050888062 0.52314770221710205 0.22546525299549103
0.49019590020179749 0.52424806356430054 0.21751575171947479
0.56733959913253784 0.52504211664199829 0.2133697122335434
0.64601564407348633 0.5252947211265564 0.21621973812580109
0.72555404901504517 0.52320593595504761 0.22065907716751099
0.80431920289993286 0.51723253726959229 0.22557120025157928
0.87781322002410889 0.50463736057281494 0.2339598536491394
0.94092249870300293 0.47877824306488037 0.24603118002414703
0.98294109106063843 0.42827111482620239 0.25119584798812866
0.99959373474121094 0.36619311571121216 0.24839580059051514
0.31518092751502991 0.6013493537902832 0.28855004906654358
0.34133312106132507 0.60214143991470337 0.28718352317810059
0.38402608036994934 0.60264956951141357 0.28122895956039429
0.44376850128173828 0.60291123390197754 0.27132740616798401
0.51711928844451904 0.60580110549926758 0.25788843631744385
0.59757250547409058 0.60753560066223145 0.24692714214324951
0.6794353723526001 0.61012870073318481 0.24220040440559387
0.76304006576538086 0.61100518703460693 0.23908652365207672
0.84786099195480347 0.60801458358764648 0.23578359186649323
0.92410570383071899 0.60006290674209595 0.24038051068782806
0.97742903232574463 0.5840446949005127 0.25990459322929382
0.99822044372558594 0.55458635091781616 0.28728166222572327
1 0.51294773817062378 0.30868014693260193
0.35289880633354187 0.67479902505874634 0.33249774575233459
0.37820222973823547 0.67499625682830811 0.33141419291496277
0.41673493385314941 0.67577975988388062 0.32687479257583618
0.47151768207550049 0.67784637212753296 0.31933662295341492
0.5432620644569397 0.68024110794067383 0.3050629198551178
0.62398791313171387 0.68360871076583862 0.28985914587974548
0.7071995735168457 0.68776321411132812 0.27855518460273743
0.792930006980896 0.69073700904846191 0.2676924467086792
0.88271105289459229 0.68856024742126465 0.25141364336013794
0.96002382040023804 0.68313097953796387 0.24056877195835114
0.99652880430221558 0.675697922706604 0.25586801767349243
1 0.66153782606124878 0.28774186968803406
0.99938118457794189 0.63509654998779297 0.32288357615470886
0.39718329906463623 0.7420685887336731 0.36667612195014954
0.42385116219520569 0.74240481853485107 0.36487880349159241
0.46046382188796997 0.74248826503753662 0.36281889677047729
0.51049256324768066 0.74339461326599121 0.35835900902748108
0.57608097791671753 0.74626421928405762 0.3476777970790863
0.65208011865615845 0.75108450651168823 0.33461236953735352
0.7329944372177124 0.75662362575531006 0.32236617803573608
0.81694251298904419 0.76073485612869263 0.30896890163421631
0.90390300750732422 0.76058721542358398 0.2862752377986908
0.97468507289886475 0.75816142559051514 0.26295262575149536
0.99961572885513306 0.75622421503067017 0.25744011998176575
0.99996936321258545 0.75089311599731445 0.26657897233963013
0.99721533060073853 0.73534762859344482 0.29159241914749146
0.4462430477142334 0.80423521995544434 0.39315006136894226
0.4751732349395752 0.80336862802505493 0.39147552847862244
0.51080864667892456 0.80220586061477661 0.39034247398376465
0.55752217769622803 0.80230778455734253 0.38806718587875366
0.61646002531051636 0.80560779571533203 0.38194370269775391
0.68509882688522339 0.81139570474624634 0.37328079342842102
0.7622685432434082 0.8179888129234314 0.36369013786315918
0.84570002555847168 0.8227764368057251 0.35085707902908325
0.92746633291244507 0.82470130920410156 0.32945749163627625
0.98575526475906372 0.82480078935623169 0.30322551727294922
0.99998056888580322 0.82649976015090942 0.28115192055702209
0.99982732534408569 0.8271869421005249 0.26656424999237061
0.99767273664474487 0.82028603553771973 0.2692159116268158
0.49734672904014587 0.8643043041229248 0.41590654850006104
0.52662736177444458 0.86391627788543701 0.41521731019020081
0.56246316432952881 0.86080765724182129 0.41389560699462891
0.60743892192840576 0.86011189222335815 0.41135373711585999
0.66095787286758423 0.86272460222244263 0.40754443407058716
0.72146004438400269 0.86930251121520996 0.40365380048751831
0.79302757978439331 0.87661463022232056 0.39767813682556152
0.87583041191101074 0.88159739971160889 0.38721877336502075
0.95549046993255615 0.88376277685165405 0.37039506435394287
0.99748760461807251 0.88615661859512329 0.34814164042472839
1 0.89029324054718018 0.32390621304512024
0.99999570846557617 0.89443361759185791 0.29903104901313782
0.99967116117477417 0.893776535987854 0.28519710898399353
0.54889243841171265 0.92628836631774902 0.43527975678443909
0.57743877172470093 0.92396348714828491 0.43555492162704468
0.61243224143981934 0.92234688997268677 0.43421775102615356
0.65433609485626221 0.92140316963195801 0.43222853541374207
0.70283734798431396 0.92369955778121948 0.42990604043006897
0.75700730085372925 0.92971956729888916 0.4283565878868103
0.8218265175819397 0.93687278032302856 0.42514535784721375
0.89922446012496948 0.94221550226211548 0.41765141487121582
0.97148299217224121 0.9456213116645813 0.40489879250526428
1 0.94913327693939209 0.38764834403991699
1 0.95454615354537964 0.36638054251670837
1 0.96032875776290894 0.34093829989433289
1 0.9632260799407959 0.31957429647445679
0.030996600165963173 0.035044711083173752 0.07287222146987915
0.084252707660198212 0.031218225136399269 0.072256378829479218
0.15738922357559204 0.027906648814678192 0.069403015077114105
0.23885487020015717 0.027374282479286194 0.066923327744007111
0.31943804025650024 0.029006315395236015 0.068297907710075378
0.39951243996620178 0.03261527419090271 0.071779720485210419
0.4823651909828186 0.035141918808221817 0.07451794296503067
0.56585907936096191 0.03882230818271637 0.080757752060890198
0.64954572916030884 0.043725121766328812 0.089025042951107025
0.73200565576553345 0.049861565232276917 0.098661132156848907
0.80932098627090454 0.059635896235704422 0.11375658959150314
0.88164585828781128 0.074631378054618835 0.13473740220069885
0.94817137718200684 0.087788090109825134 0.1567949652671814
0.065262556076049805 0.11100206524133682 0.10831756889820099
0.11089687049388885 0.10643041133880615 0.10591968894004822
0.18054230511188507 0.1004626676440239 0.10028331726789474
0.25951042771339417 0.095404483377933502 0.094021894037723541
0.33604627847671509 0.090005107223987579 0.091376133263111115
0.41479337215423584 0.08338242769241333 0.089761190116405487
0.4975782036781311 0.074792467057704926 0.08427855372428894
0.58090001344680786 0.063572630286216736 0.079690583050251007
0.66267716884613037 0.053859665989875793 0.079441264271736145
0.74221205711364746 0.048863191157579422 0.084856338798999786
0.8191981315612793 0.055566869676113129 0.1004488617181778
0.89188647270202637 0.073621951043605804 0.12637409567832947
0.95846450328826904 0.091128811240196228 0.15342694520950317
0.10348028689622879 0.19339935481548309 0.14809046685695648
0.13805964589118958 0.18952079117298126 0.14538982510566711
0.19890399277210236 0.18414166569709778 0.13882216811180115
0.27504515647888184 0.17774020135402679 0.1317225843667984
0.35173889994621277 0.16951972246170044 0.12759788334369659
0.43082445859909058 0.15898716449737549 0.12268694490194321
0.51365625858306885 0.14427872002124786 0.11393479257822037
0.59631228446960449 0.12311073392629623 0.10363932698965073
0.67617827653884888 0.098165534436702728 0.094410285353660583
0.75388354063034058 0.075406618416309357 0.089585952460765839
0.83038544654846191 0.066432565450668335 0.096805348992347717
0.90310579538345337 0.073443271219730377 0.11753129959106445
0.96873021125793457 0.085578814148902893 0.14388479292392731
0.1204284206032753 0.27416777610778809 0.18283745646476746
0.16180248558521271 0.27276349067687988 0.1810152530670166
0.22223301231861115 0.27031895518302917 0.17588044703006744
0.29549992084503174 0.2666155993938446 0.17112183570861816
0.37260323762893677 0.26139658689498901 0.16866753995418549
0.45219153165817261 0.25329264998435974 0.16405463218688965
0.53402841091156006 0.23808467388153076 0.1569238156080246
0.61519664525985718 0.21453237533569336 0.14817757904529572
0.69395297765731812 0.18422850966453552 0.13678668439388275
0.77066826820373535 0.14956130087375641 0.12479927390813828
0.84606564044952393 0.11602897197008133 0.11688980460166931
0.91708314418792725 0.089505575597286224 0.11741887778043747
0.97891390323638916 0.073786176741123199 0.12781144678592682
0.15297092497348785 0.35379806160926819 0.2067938894033432
0.19848909974098206 0.35498344898223877 0.20663006603717804
0.25891605019569397 0.35491684079170227 0.20381340384483337
0.32947307825088501 0.35440099239349365 0.2010875940322876
0.40372106432914734 0.35304486751556396 0.2011387050151825
0.48161256313323975 0.3487490713596344 0.20018182694911957
0.56111037731170654 0.33724766969680786 0.19821487367153168
0.64029854536056519 0.31857287883758545 0.19573673605918884
0.71738827228546143 0.29454609751701355 0.18989226222038269
0.79263871908187866 0.26071465015411377 0.1794653981924057
0.86648327112197876 0.21407374739646912 0.16468919813632965
0.9341578483581543 0.15342250466346741 0.14510659873485565
0.98794597387313843 0.09888477623462677 0.1324072927236557
0.21871556341648102 0.4375152587890625 0.22668512165546417
0.25436791777610779 0.43826070427894592 0.22739337384700775
0.30786946415901184 0.43841078877449036 0.22466552257537842
0.37388810515403748 0.43922999501228333 0.22119829058647156
0.44447499513626099 0.44034439325332642 0.22145704925060272
0.51942324638366699 0.43836861848831177 0.22304704785346985
0.59652894735336304 0.43153795599937439 0.22610300779342651
0.67310541868209839 0.42067989706993103 0.23049309849739075
0.74751287698745728 0.40727102756500244 0.23240256309509277
0.82004439830780029 0.38538867235183716 0.23208847641944885
0.89212328195571899 0.34637314081192017 0.22604833543300629
0.95416271686553955 0.28156572580337524 0.20789532363414764
0.99469417333602905 0.2103370875120163 0.18901814520359039
0.28161942958831787 0.52192181348800659 0.25222939252853394
0.30817645788192749 0.52173000574111938 0.25393685698509216
0.35406327247619629 0.52172094583511353 0.25000303983688354
0.41673952341079712 0.52307283878326416 0.24327093362808228
0.48669421672821045 0.524699866771698 0.23886920511722565
0.56155240535736084 0.52534735202789307 0.23712781071662903
0.63758629560470581 0.52314192056655884 0.24042966961860657
0.71373194456100464 0.51881569623947144 0.24625538289546967
0.78891795873641968 0.51243162155151367 0.25277218222618103
0.86116772890090942 0.5005180835723877 0.262643963098526
0.92784601449966431 0.47722238302230835 0.27295100688934326
0.97598588466644287 0.4323541522026062 0.2751309871673584
0.99828130006790161 0.37061426043510437 0.27021491527557373
0.33091533184051514 0.60269469022750854 0.28716453909873962
0.34994110465049744 0.60269606113433838 0.28984567523002625
0.39130046963691711 0.60269606113433838 0.28521266579627991
0.45217955112457275 0.60363352298736572 0.27533388137817383
0.52370327711105347 0.60658782720565796 0.26494953036308289
0.60104846954345703 0.60891503095626831 0.25620928406715393
0.67972958087921143 0.61020439863204956 0.25307980179786682
0.75802600383758545 0.61004734039306641 0.25317239761352539
0.83822423219680786 0.606525719165802 0.2549653947353363
0.9127689003944397 0.5986785888671875 0.26577585935592651
0.9689258337020874 0.5860099196434021 0.28795468807220459
0.9948468804359436 0.56074655055999756 0.31311172246932983
0.99971485137939453 0.51938778162002563 0.33112397789955139
0.3713630735874176 0.67648935317993164 0.32739266753196716
0.39056152105331421 0.67632168531417847 0.32872548699378967
0.42818799614906311 0.67688089609146118 0.32451608777046204
0.48456493020057678 0.6784864068031311 0.31570509076118469
0.5550006628036499 0.68179726600646973 0.30327638983726501
0.63390463590621948 0.68575525283813477 0.28905674815177917
0.71517491340637207 0.68971198797225952 0.27794110774993896
0.79697930812835693 0.69154250621795654 0.26976042985916138
0.88151365518569946 0.68927240371704102 0.26051703095436096
0.95637291669845581 0.68350416421890259 0.25936415791511536
0.99506872892379761 0.67689782381057739 0.27939698100090027
0.99998551607131958 0.66428488492965698 0.31228449940681458
0.99921530485153198 0.6373058557510376 0.34855440258979797
0.41258993744850159 0.74287295341491699 0.36479276418685913
0.43641853332519531 0.74310219287872314 0.36375290155410767
0.47066980600357056 0.7433350682258606 0.3619539737701416
0.5200340747833252 0.74491924047470093 0.35756412148475647
0.58496403694152832 0.74857717752456665 0.34743911027908325
0.66143280267715454 0.7536655068397522 0.33284518122673035
0.74302405118942261 0.75909972190856934 0.31779605150222778
0.82562112808227539 0.76236408948898315 0.30500802397727966
0.90793812274932861 0.76191830635070801 0.28888112306594849
0.97629028558731079 0.75921499729156494 0.27322611212730408
0.99988871812820435 0.75703787803649902 0.27255624532699585
0.99991995096206665 0.75186258554458618 0.28709077835083008
0.99609339237213135 0.73539727926254272 0.32152506709098816
0.4594358503818512 0.80442279577255249 0.39572116732597351
0.48554316163063049 0.80482715368270874 0.39375540614128113
0.51884299516677856 0.80379122495651245 0.39298614859580994
0.56319475173950195 0.80512648820877075 0.39105895161628723
0.62115371227264404 0.8081963062286377 0.38500189781188965
0.69100981950759888 0.81418895721435547 0.37420284748077393
0.7698969841003418 0.82041060924530029 0.36126607656478882
0.85231298208236694 0.82509684562683105 0.34779167175292969
0.92975121736526489 0.82637399435043335 0.3300611674785614
0.98629516363143921 0.82635939121246338 0.30750057101249695
1 0.82694768905639648 0.28934243321418762
0.99918502569198608 0.82747453451156616 0.28035035729408264
0.99399387836456299 0.82018178701400757 0.2934931218624115
0.51034843921661377 0.86403220891952515 0.42091172933578491
0.53689467906951904 0.86403006315231323 0.41929334402084351
0.57034242153167725 0.86247080564498901 0.41719439625740051
0.61174720525741577 0.86263114213943481 0.41575801372528076
0.66331976652145386 0.86556863784790039 0.41200855374336243
0.72578561305999756 0.87162399291992188 0.40591311454772949
0.79975175857543945 0.87835490703582764 0.39796364307403564
0.88181966543197632 0.883372962474823 0.38672292232513428
0.95648866891860962 0.88642817735671997 0.37066531181335449
0.99704968929290771 0.88777917623519897 0.35161444544792175
1 0.88988059759140015 0.33317998051643372
0.9982178807258606 0.8940388560295105 0.31120824813842773
0.99634987115859985 0.89374321699142456 0.3014296293258667
0.56200659275054932 0.92424178123474121 0.44175457954406738
0.58782780170440674 0.92295533418655396 0.44106593728065491
0.61994457244873047 0.92223042249679565 0.43921470642089844
0.65860092639923096 0.9225996732711792 0.43748301267623901
0.70516753196716309 0.92546433210372925 0.43502727150917053
0.76176935434341431 0.93129873275756836 0.43129253387451172
0.82981669902801514 0.93795669078826904 0.42721569538116455
0.90688943862915039 0.94335496425628662 0.4196980893611908
0.97526639699935913 0.94714170694351196 0.40785092115402222
0.99989819526672363 0.95037686824798584 0.39461493492126465
1 0.9542052149772644 0.3791235089302063
0.99985802173614502 0.95970767736434937 0.35588774085044861
0.99986660480499268 0.96343666315078735 0.33548519015312195
0.019546389579772949 0.028608255088329315 0.12167588621377945
0.068537436425685883 0.02905782125890255 0.11878407746553421
0.13997229933738708 0.026398558169603348 0.11308146268129349
0.22244152426719666 0.024294549599289894 0.10891029238700867
0.30327460169792175 0.02611745148897171 0.10876853764057159
0.38357505202293396 0.0297585129737854 0.11157876998186111
0.46628230810165405 0.029930967837572098 0.11170284450054169
0.55145943164825439 0.030946888029575348 0.1137215718626976
0.63743430376052856 0.039225351065397263 0.12146527320146561
0.72231638431549072 0.050497032701969147 0.13155493140220642
0.80203747749328613 0.06356869637966156 0.14515697956085205
0.8761974573135376 0.079399406909942627 0.16384328901767731
0.94435805082321167 0.091639243066310883 0.18286740779876709
0.050986658781766891 0.10516352951526642 0.15258291363716125
0.09622250497341156 0.10243011265993118 0.14972026646137238
0.16259728372097015 0.097161762416362762 0.14362463355064392
0.24248288571834564 0.091492220759391785 0.13732291758060455
0.32031047344207764 0.086014918982982635 0.13312405347824097
0.39926654100418091 0.078451476991176605 0.1283012181520462
0.48169818520545959 0.06551651656627655 0.11878044158220291
0.56601607799530029 0.050629723817110062 0.10940355807542801
0.64945441484451294 0.044521763920783997 0.10907923430204391
0.73145514726638794 0.045999906957149506 0.11560119688510895
0.81033259630203247 0.057372208684682846 0.13100337982177734
0.88484567403793335 0.076151065528392792 0.15396234393119812
0.95258468389511108 0.091696701943874359 0.17724208533763885
0.089302048087120056 0.18978118896484375 0.18814049661159515
0.12681615352630615 0.18577057123184204 0.18681043386459351
0.18485775589942932 0.18070715665817261 0.18144088983535767
0.25922870635986328 0.17451111972332001 0.17501688003540039
0.33624294400215149 0.16622310876846313 0.16943526268005371
0.41535812616348267 0.15449585020542145 0.16178931295871735
0.49787512421607971 0.13626934587955475 0.14921814203262329
0.58119243383407593 0.11225062608718872 0.13485458493232727
0.66291618347167969 0.089171528816223145 0.12403061985969543
0.7426026463508606 0.072405062615871429 0.12019354104995728
0.82076859474182129 0.069949746131896973 0.12841314077377319
0.89462196826934814 0.076339676976203918 0.14540126919746399
0.96110093593597412 0.082739822566509247 0.16525165736675262
0.11303872615098953 0.27274546027183533 0.22293566167354584
0.15420562028884888 0.27043792605400085 0.22239691019058228
0.21061694622039795 0.26779845356941223 0.21884411573410034
0.28020492196083069 0.26406401395797729 0.21455435454845428
0.35565361380577087 0.25801914930343628 0.21046191453933716
0.43495407700538635 0.24922177195549011 0.20442287623882294
0.51717168092727661 0.23223848640918732 0.19460758566856384
0.59950357675552368 0.20667660236358643 0.18189074099063873
0.6804497241973877 0.17825138568878174 0.16869108378887177
0.75920814275741577 0.14898133277893066 0.15697912871837616
0.83575499057769775 0.12133660167455673 0.14986526966094971
0.90766030550003052 0.095529995858669281 0.14732380211353302
0.97124826908111572 0.075488120317459106 0.15174058079719543
0.14277729392051697 0.35353526473045349 0.24869821965694427
0.18660597503185272 0.35326513648033142 0.24879918992519379
0.24375928938388824 0.35275131464004517 0.24760131537914276
0.31095486879348755 0.3518034815788269 0.24595098197460175
0.38397800922393799 0.34951436519622803 0.24532581865787506
0.46156319975852966 0.34445637464523315 0.24296210706233978
0.54204195737838745 0.33212399482727051 0.23873814940452576
0.62260669469833374 0.31258863210678101 0.23305176198482513
0.70167040824890137 0.29001006484031677 0.22504530847072601
