assets/lut/films print fuji 3513 constlclip.cube
# Created by: G'MIC (https://gmic.eu)
TITLE "fuji_3513_constlclip"
# LUT size
LUT_3D_SIZE 5
# Data domain
DOMAIN_MIN 0.0 0.0 0.0
DOMAIN_MAX 1.0 1.0 1.0
# LUT data points
0.010951966047286987 0.020266873762011528 0.024316795170307159
0.094094760715961456 0.03846760094165802 0.022364342585206032
0.32772982120513916 0.058250576257705688 0.0097163179889321327
0.46497455239295959 0.091392114758491516 0.010175951756536961
0.53745299577713013 0.10770242661237717 0.023272136226296425
0.005800329614430666 0.10203231871128082 0.058805026113986969
0.090452782809734344 0.1292867511510849 0.036008842289447784
0.38062959909439087 0.18252392113208771 0.0051037208177149296
0.57970529794692993 0.20924282073974609 0.010978040285408497
0.64275515079498291 0.21970956027507782 0.030574049800634384
0.0065223542042076588 0.26169052720069885 0.12616772949695587
0.041017539799213409 0.32853925228118896 0.066741436719894409
0.49698475003242493 0.44052669405937195 0.0079217497259378433
0.74565184116363525 0.4799748957157135 0.011406917124986649
0.78684723377227783 0.48695525527000427 0.019415298476815224
0.018016021698713303 0.41334640979766846 0.18315567076206207
0.044969178736209869 0.50565129518508911 0.10344133526086807
0.5861891508102417 0.66410773992538452 0.015694532543420792
0.84525024890899658 0.72860747575759888 0.034332994371652603
0.9121742844581604 0.73981332778930664 0.056306306272745132
0.020540902391076088 0.50250953435897827 0.23730303347110748
0.088260278105735779 0.62674742937088013 0.055170245468616486
0.64216464757919312 0.75222188234329224 0.015643520280718803
0.91201531887054443 0.81010228395462036 0.057313762605190277
0.97678995132446289 0.83108770847320557 0.10992316156625748
0.0035783655475825071 0.037382882088422775 0.097584530711174011
0.094304896891117096 0.034438908100128174 0.10763704031705856
0.35725188255310059 0.017572604119777679 0.086316473782062531
0.55093050003051758 0.021208310499787331 0.09831402450799942
0.60748863220214844 0.032335422933101654 0.10828320682048798
0.0042349272407591343 0.12692348659038544 0.13366307318210602
0.083677671849727631 0.14411459863185883 0.14492128789424896
0.47110193967819214 0.17375798523426056 0.11240784823894501
0.71037942171096802 0.12426624447107315 0.080633990466594696
0.77161502838134766 0.14120139181613922 0.088297568261623383
0.0082078669220209122 0.3056950569152832 0.21513473987579346
0.023826001212000847 0.38277092576026917 0.20320405066013336
0.57132035493850708 0.48365497589111328 0.092658191919326782
0.85363036394119263 0.50185984373092651 0.053772900253534317
0.92410248517990112 0.54004544019699097 0.054899942129850388
0.016229443252086639 0.46420562267303467 0.30511707067489624
0.026586554944515228 0.5708240270614624 0.29185613989830017
0.61960506439208984 0.75944417715072632 0.070900171995162964
0.9606131911277771 0.81487351655960083 0.056995794177055359
0.99692046642303467 0.82478481531143188 0.098716437816619873
0.012725785374641418 0.56787753105163574 0.43090131878852844
0.011844455264508724 0.69132870435714722 0.41403955221176147
0.62740004062652588 0.83142578601837158 0.36536255478858948
0.97067368030548096 0.88833439350128174 0.30520501732826233
1 0.89511078596115112 0.44544121623039246
0.0042657740414142609 0.10469690710306168 0.23353651165962219
0.10406612604856491 0.0055444752797484398 0.31973668932914734
0.38433989882469177 0.012743107974529266 0.33722695708274841
0.58663547039031982 0.038247305899858475 0.35750472545623779
0.65214782953262329 0.034941744059324265 0.38212800025939941
0.0059834797866642475 0.20102490484714508 0.31758022308349609
0.039013419300317764 0.19052749872207642 0.40949586033821106
0.49394983053207397 0.20233199000358582 0.46420171856880188
0.74027097225189209 0.13898460566997528 0.4539848268032074
0.80009979009628296 0.15040715038776398 0.48540380597114563
0.007951115258038044 0.40617308020591736 0.45558097958564758
0.018984820693731308 0.46425947546958923 0.50971639156341553
0.56165999174118042 0.56959211826324463 0.57485365867614746
0.87254053354263306 0.58182418346405029 0.56118440628051758
0.93293935060501099 0.61422371864318848 0.5750051736831665
0.020592872053384781 0.56361889839172363 0.54574644565582275
0.0069677615538239479 0.66286611557006836 0.60203605890274048
0.56164425611495972 0.83973830938339233 0.65176630020141602
0.95414304733276367 0.89309251308441162 0.64761161804199219
0.99715876579284668 0.89365065097808838 0.67868858575820923
0.0031211106106638908 0.64370214939117432 0.64420896768569946
0.028853233903646469 0.76425588130950928 0.71187049150466919
0.56460565328598022 0.89451467990875244 0.75642293691635132
0.94175451993942261 0.95163744688034058 0.7634894847869873
0.99899601936340332 0.95464885234832764 0.78705888986587524
0.0051884520798921585 0.16726487874984741 0.33850455284118652
0.082658253610134125 0.026251206174492836 0.49229881167411804
0.40017890930175781 0.021415784955024719 0.53904533386230469
0.60875171422958374 0.045234322547912598 0.55748051404953003
0.6722487211227417 0.03232308104634285 0.57223045825958252
8.6167283370741643e-06 0.26208430528640747 0.45299449563026428
0.022762028500437737 0.23974280059337616 0.56768542528152466
0.4931187629699707 0.18493719398975372 0.71396499872207642
0.74492549896240234 0.13779683411121368 0.72874611616134644
0.81217211484909058 0.16392239928245544 0.72809231281280518
0.017133690416812897 0.462972491979599 0.59790337085723877
0.034712128341197968 0.51766049861907959 0.6845700740814209
0.52383184432983398 0.61012250185012817 0.84309327602386475
0.86372262239456177 0.62413287162780762 0.8554612398147583
0.93251562118530273 0.65471702814102173 0.86289364099502563
0.020471176132559776 0.62117618322372437 0.69628816843032837
0.029873447492718697 0.71037387847900391 0.78236657381057739
0.4945945143699646 0.88358205556869507 0.91050451993942261
0.92326205968856812 0.92543703317642212 0.92334455251693726
0.99313467741012573 0.94806444644927979 0.93241226673126221
0.025584815070033073 0.68232673406600952 0.75465208292007446
0.028100959956645966 0.78867036104202271 0.84290152788162231
0.52931952476501465 0.92501336336135864 0.93853527307510376
0.92159897089004517 0.97972738742828369 0.95420479774475098
0.99176555871963501 0.98524439334869385 0.95584553480148315
0.00024056527763605118 0.20563213527202606 0.40976819396018982
0.062277879565954208 0.071566052734851837 0.56662940979003906
0.43594762682914734 0.0060599683783948421 0.65569686889648438
0.66611957550048828 0.033146698027849197 0.67302370071411133
0.72204816341400146 0.026569247245788574 0.6892162561416626
0.0014143999433144927 0.29683622717857361 0.50647401809692383
0.0054949144832789898 0.28370767831802368 0.62689769268035889
0.49448469281196594 0.25508853793144226 0.79979068040847778
0.76489883661270142 0.21575602889060974 0.81775140762329102
0.83331787586212158 0.23746675252914429 0.83100885152816772
0.030474914237856865 0.48830258846282959 0.63627487421035767
0.022903831675648689 0.53117579221725464 0.73263794183731079
0.51679068803787231 0.61914592981338501 0.90710985660552979
0.8611111044883728 0.64190477132797241 0.92481553554534912
0.92796462774276733 0.65432190895080566 0.92879569530487061
0.027778804302215576 0.63263070583343506 0.72516155242919922
0.019788315519690514 0.72682493925094604 0.81872159242630005
0.45490345358848572 0.89408236742019653 0.96262866258621216
0.91958081722259521 0.94526755809783936 0.98450428247451782
0.98747944831848145 0.94970345497131348 0.98687928915023804
0.015486414544284344 0.69243508577346802 0.77764952182769775
0.029078045859932899 0.79345244169235229 0.86873531341552734
0.49808844923973083 0.92877542972564697 0.9715765118598938
0.91708391904830933 0.982635498046875 0.98952937126159668
0.98951047658920288 0.99150228500366211 0.99426686763763428
