assets/lut/films colorslide fuji astia 100f.cube
# Created by: G'MIC (https://gmic.eu)
TITLE "fuji_astia_100f"
# LUT size
LUT_3D_SIZE 7
# Data domain
DOMAIN_MIN 0.0 0.0 0.0
DOMAIN_MAX 1.0 1.0 1.0
# LUT data points
0.042214754968881607 0.039383023977279663 0.029565580189228058
0.17343701422214508 0.027640130370855331 0.026400592178106308
0.33589339256286621 0.031928073614835739 0.025060152634978294
0.50184613466262817 0.035731926560401917 0.02919921837747097
0.66487723588943481 0.040675576776266098 0.045080777257680893
0.81560307741165161 0.051985137164592743 0.078317008912563324
0.95009452104568481 0.079037532210350037 0.12643532454967499
0.11217837035655975 0.19547748565673828 0.11665830761194229
0.20705881714820862 0.18960441648960114 0.10210435092449188
0.36650210618972778 0.17608428001403809 0.087236292660236359
0.53029382228851318 0.15369029343128204 0.080026976764202118
0.6907849907875061 0.11160729825496674 0.067756727337837219
0.83878517150878906 0.066008158028125763 0.067504391074180603
0.97316235303878784 0.090382441878318787 0.12357296049594879
0.16271296143531799 0.35552504658699036 0.17931355535984039
0.26700285077095032 0.35753348469734192 0.17278781533241272
0.41593220829963684 0.35604283213615417 0.1697545051574707
0.57618141174316406 0.34220054745674133 0.16589881479740143
0.73253864049911499 0.30507376790046692 0.16256935894489288
0.87745910882949829 0.2183576226234436 0.14028440415859222
0.99088281393051147 0.1041402593255043 0.11514566093683243
0.27593144774436951 0.52079969644546509 0.24196319282054901
0.35419711470603943 0.52193033695220947 0.23459115624427795
0.49019590020179749 0.52424806356430054 0.21751575171947479
0.64601564407348633 0.5252947211265564 0.21621973812580109
0.80431920289993286 0.51723253726959229 0.22557120025157928
0.94092249870300293 0.47877824306488037 0.24603118002414703
0.99959373474121094 0.36619311571121216 0.24839580059051514
0.35289880633354187 0.67479902505874634 0.33249774575233459
0.41673493385314941 0.67577975988388062 0.32687479257583618
0.5432620644569397 0.68024110794067383 0.3050629198551178
0.7071995735168457 0.68776321411132812 0.27855518460273743
0.88271105289459229 0.68856024742126465 0.25141364336013794
0.99652880430221558 0.675697922706604 0.25586801767349243
0.99938118457794189 0.63509654998779297 0.32288357615470886
0.4462430477142334 0.80423521995544434 0.39315006136894226
0.51080864667892456 0.80220586061477661 0.39034247398376465
0.61646002531051636 0.80560779571533203 0.38194370269775391
0.7622685432434082 0.8179888129234314 0.36369013786315918
0.92746633291244507 0.82470130920410156 0.32945749163627625
0.99998056888580322 0.82649976015090942 0.28115192055702209
0.99767273664474487 0.82028603553771973 0.2692159116268158
0.54889243841171265 0.92628836631774902 0.43527975678443909
0.61243224143981934 0.92234688997268677 0.43421775102615356
0.70283734798431396 0.92369955778121948 0.42990604043006897
0.8218265175819397 0.93687278032302856 0.42514535784721375
0.97148299217224121 0.9456213116645813 0.40489879250526428
1 0.95454615354537964 0.36638054251670837
1 0.9632260799407959 0.31957429647445679
0.019546389579772949 0.028608255088329315 0.12167588621377945
0.13997229933738708 0.026398558169603348 0.11308146268129349
0.30327460169792175 0.02611745148897171 0.10876853764057159
0.46628230810165405 0.029930967837572098 0.11170284450054169
0.63743430376052856 0.039225351065397263 0.12146527320146561
0.80203747749328613 0.06356869637966156 0.14515697956085205
0.94435805082321167 0.091639243066310883 0.18286740779876709
0.089302048087120056 0.18978118896484375 0.18814049661159515
0.18485775589942932 0.18070715665817261 0.18144088983535767
0.33624294400215149 0.16622310876846313 0.16943526268005371
0.49787512421607971 0.13626934587955475 0.14921814203262329
0.66291618347167969 0.089171528816223145 0.12403061985969543
0.82076859474182129 0.069949746131896973 0.12841314077377319
0.96110093593597412 0.082739822566509247 0.16525165736675262
0.14277729392051697 0.35353526473045349 0.24869821965694427
0.24375928938388824 0.35275131464004517 0.24760131537914276
0.38397800922393799 0.34951436519622803 0.24532581865787506
0.54204195737838745 0.33212399482727051 0.23873814940452576
0.70167040824890137 0.29001006484031677 0.22504530847072601
0.85438138246536255 0.21691319346427917 0.19750337302684784
0.98154258728027344 0.10805211961269379 0.16154742240905762
0.27609679102897644 0.52283543348312378 0.27691110968589783
0.34544983506202698 0.52131575345993042 0.27953281998634338
0.47233712673187256 0.52515268325805664 0.27641722559928894
0.61891716718673706 0.51994800567626953 0.2801307737827301
0.76459640264511108 0.50658786296844482 0.29528510570526123
0.90648335218429565 0.4743785560131073 0.31346133351325989
0.99511206150054932 0.37589836120605469 0.30038681626319885
0.39303788542747498 0.6781914234161377 0.32365888357162476
0.44870844483375549 0.67844367027282715 0.31985440850257874
0.56806230545043945 0.68324202299118042 0.30460038781166077
0.71991866827011108 0.6903223991394043 0.28518563508987427
0.86565113067626953 0.68798685073852539 0.29222914576530457
0.98365944623947144 0.67433100938796997 0.33042165637016296
0.99998098611831665 0.63329172134399414 0.39775979518890381
0.47957050800323486 0.80534499883651733 0.39367195963859558
0.5361441969871521 0.80612742900848389 0.38845124840736389
0.63415849208831787 0.81121134757995605 0.38127422332763672
0.78020292520523071 0.82258063554763794 0.3560241162776947
0.93773442506790161 0.82816898822784424 0.32551929354667664
1 0.82740229368209839 0.3014257550239563
0.99680924415588379 0.81898194551467896 0.32631531357765198
0.57896751165390015 0.92295998334884644 0.44641432166099548
0.63180410861968994 0.92296379804611206 0.44109836220741272
0.71136343479156494 0.92801159620285034 0.43733680248260498
0.83722668886184692 0.93964302539825439 0.4260292649269104
0.97907501459121704 0.94938474893569946 0.40397745370864868
1 0.95657211542129517 0.37936297059059143
0.99905157089233398 0.96424657106399536 0.34503573179244995
0.0050953286699950695 0.022116327658295631 0.20137292146682739
0.12503483891487122 0.018547970801591873 0.18747104704380035
0.28443700075149536 0.014998088590800762 0.17534127831459045
0.44742599129676819 0.018687978386878967 0.17207324504852295
0.6195598840713501 0.038305036723613739 0.1810012012720108
0.78481650352478027 0.064425915479660034 0.19986160099506378
0.93334132432937622 0.090696670114994049 0.22783878445625305
0.050507966428995132 0.17792205512523651 0.27744725346565247
0.16384397447109222 0.17360587418079376 0.26704585552215576
0.30920621752738953 0.15681101381778717 0.24822704493999481
0.47148534655570984 0.12634751200675964 0.22260348498821259
0.63867968320846558 0.079960808157920837 0.18927094340324402
0.79875582456588745 0.068802386522293091 0.18797808885574341
0.9410361647605896 0.087826840579509735 0.2179911881685257
0.08069368451833725 0.34881460666656494 0.35307395458221436
0.19106613099575043 0.34831565618515015 0.35064932703971863
0.33958148956298828 0.34204056859016418 0.34324699640274048
0.50207602977752686 0.32469522953033447 0.32821205258369446
0.66832882165908813 0.28216022253036499 0.3008233904838562
0.82412242889404297 0.21390588581562042 0.26435881853103638
0.95758992433547974 0.12403992563486099 0.22828944027423859
0.19459673762321472 0.51889717578887939 0.39621499180793762
0.28077632188796997 0.51947754621505737 0.39250531792640686
0.40648254752159119 0.52110880613327026 0.39824861288070679
0.55358290672302246 0.51316946744918823 0.40375247597694397
0.70951730012893677 0.50241643190383911 0.4059605598449707
0.86270171403884888 0.46759852766990662 0.39729025959968567
0.98109567165374756 0.36536291241645813 0.35997956991195679
0.38200795650482178 0.67861312627792358 0.37903454899787903
0.44311061501502991 0.68147599697113037 0.37443816661834717
0.53970009088516235 0.68332910537719727 0.38248232007026672
0.66619056463241577 0.68557661771774292 0.39704668521881104
0.7935950756072998 0.68311399221420288 0.42678815126419067
0.92643767595291138 0.67026621103286743 0.4616299569606781
0.996451735496521 0.62656193971633911 0.48375231027603149
0.54139077663421631 0.80791753530502319 0.38069441914558411
0.59012973308563232 0.81214171648025513 0.37236249446868896
0.68467164039611816 0.81466925144195557 0.35968577861785889
0.8035164475440979 0.82326245307922363 0.35637393593788147
0.94317960739135742 0.82822740077972412 0.34755513072013855
0.9990273118019104 0.82813769578933716 0.38375955820083618
1 0.81327825784683228 0.47254031896591187
0.62150973081588745 0.92395228147506714 0.44955834746360779
0.66369426250457764 0.92717498540878296 0.44302895665168762
0.74107342958450317 0.93293911218643188 0.4385317862033844
0.86053484678268433 0.94312280416488647 0.42094367742538452
0.98329055309295654 0.95414525270462036 0.39014005661010742
0.99865972995758057 0.96338027715682983 0.37234407663345337
0.99989336729049683 0.96736270189285278 0.32524499297142029
0.003411969868466258 0.015981681644916534 0.26994651556015015
0.12051116675138474 0.018000554293394089 0.25935590267181396
0.2714085578918457 0.019920768216252327 0.24774350225925446
0.43126693367958069 0.019205788150429726 0.2391466349363327
0.60022836923599243 0.047808043658733368 0.24942827224731445
0.76495444774627686 0.072683252394199371 0.25991004705429077
0.91665256023406982 0.09265492856502533 0.27619755268096924
0.042604304850101471 0.16367833316326141 0.35120612382888794
0.15648245811462402 0.15315891802310944 0.33814758062362671
0.29395943880081177 0.13876789808273315 0.31831938028335571
0.45096403360366821 0.11105961352586746 0.28947266936302185
0.61434859037399292 0.079999260604381561 0.26230210065841675
0.77352511882781982 0.059150367975234985 0.24569980800151825
0.92011785507202148 0.084311090409755707 0.26950350403785706
0.046159915626049042 0.33856236934661865 0.44416025280952454
0.16136437654495239 0.33605483174324036 0.43994107842445374
0.3160569965839386 0.32957062125205994 0.42833620309829712
0.47611981630325317 0.30684274435043335 0.40388652682304382
0.63853353261947632 0.25605642795562744 0.3652404248714447
0.79524201154708862 0.17279152572154999 0.3106406033039093
0.93258905410766602 0.086535587906837463 0.26614835858345032
0.099465914070606232 0.51410090923309326 0.52882272005081177
0.20001077651977539 0.51600915193557739 0.52134066820144653
0.34465056657791138 0.51458972692489624 0.52040046453475952
0.50718545913696289 0.50775790214538574 0.51393550634384155
0.67156165838241577 0.49252131581306458 0.49637329578399658
0.82462239265441895 0.4501289427280426 0.46913480758666992
0.95995891094207764 0.33585917949676514 0.41283857822418213
0.2487143874168396 0.67487287521362305 0.55456292629241943
0.3153337836265564 0.67666757106781006 0.55594629049301147
0.43096932768821716 0.67728489637374878 0.56274259090423584
0.57112032175064087 0.6817137598991394 0.56874799728393555
0.72028511762619019 0.67811471223831177 0.57047885656356812
0.86259013414382935 0.66258698701858521 0.56982004642486572
0.98144149780273438 0.61573272943496704 0.56748360395431519
0.51912873983383179 0.8086475133895874 0.46470668911933899
0.55370843410491943 0.81063073873519897 0.4721139669418335
0.63320326805114746 0.81502038240432739 0.47633764147758484
0.73959535360336304 0.82430827617645264 0.48986068367958069
0.84758502244949341 0.82947230339050293 0.52854025363922119
0.95049917697906494 0.82690751552581787 0.5706743597984314
0.99788421392440796 0.81141912937164307 0.6259613037109375
0.68080228567123413 0.9317927360534668 0.43447244167327881
0.71522718667984009 0.93326812982559204 0.4327283501625061
0.79373908042907715 0.94167035818099976 0.42002406716346741
0.89783507585525513 0.94968920946121216 0.41629457473754883
0.9995415210723877 0.95828664302825928 0.36752879619598389
1 0.96713370084762573 0.36059433221817017
1 0.96962058544158936 0.39613801240921021
0.014580386690795422 0.0067910286597907543 0.33626261353492737
0.13038499653339386 0.010421214625239372 0.32696443796157837
0.26859036087989807 0.010872874408960342 0.31548044085502625
0.42210417985916138 0.021343575790524483 0.31064650416374207
0.58523929119110107 0.048720013350248337 0.31332919001579285
0.74871760606765747 0.075984016060829163 0.31651276350021362
0.90248310565948486 0.091732040047645569 0.32182455062866211
0.051765799522399902 0.13787420094013214 0.41760888695716858
0.1606626957654953 0.13103680312633514 0.40393093228340149
0.29037743806838989 0.10971947759389877 0.38029062747955322
0.43978860974311829 0.0848068967461586 0.35062015056610107
0.59758275747299194 0.069187074899673462 0.32597643136978149
0.75493216514587402 0.062164802104234695 0.30941605567932129
0.90370970964431763 0.08903377503156662 0.32337746024131775
0.063877120614051819 0.31997305154800415 0.5217127799987793
0.16729895770549774 0.32009768486022949 0.51543664932250977
0.3096829354763031 0.30979740619659424 0.49891823530197144
0.46472817659378052 0.28574368357658386 0.47117063403129578
0.62032425403594971 0.23375606536865234 0.42570963501930237
0.77222681045532227 0.14249183237552643 0.36025696992874146
0.91343235969543457 0.088452942669391632 0.3249509334564209
0.076768405735492706 0.50546735525131226 0.62276983261108398
0.17444334924221039 0.50689435005187988 0.61731523275375366
0.32453158497810364 0.50567877292633057 0.60852980613708496
0.48722288012504578 0.49925297498703003 0.59717166423797607
0.64505511522293091 0.48002296686172485 0.57244545221328735
0.79750174283981323 0.43361541628837585 0.53612732887268066
0.93590641021728516 0.29070758819580078 0.44772577285766602
0.1522601991891861 0.67265719175338745 0.69013029336929321
0.23536248505115509 0.67271465063095093 0.68502175807952881
0.36946147680282593 0.67583286762237549 0.6839759349822998
0.5213736891746521 0.67543774843215942 0.6817970871925354
0.67193329334259033 0.67200714349746704 0.66814941167831421
0.81931006908416748 0.65460211038589478 0.65915906429290771
0.96118474006652832 0.59575891494750977 0.62911307811737061
0.34902513027191162 0.80952686071395874 0.69688773155212402
0.39746427536010742 0.80987179279327393 0.6977728009223938
0.48807635903358459 0.81401544809341431 0.70624905824661255
0.60678404569625854 0.82010906934738159 0.71213376522064209
0.7379721999168396 0.82316559553146362 0.71055054664611816
0.86593133211135864 0.82214003801345825 0.71690809726715088
0.98418343067169189 0.80402350425720215 0.73256373405456543
0.73240512609481812 0.93933749198913574 0.44791799783706665
0.76496189832687378 0.94141697883605957 0.44611787796020508
0.81360894441604614 0.94555538892745972 0.46290901303291321
0.91633641719818115 0.95346224308013916 0.44485664367675781
0.97052597999572754 0.96149957180023193 0.46482622623443604
0.99057853221893311 0.96918559074401855 0.51326984167098999
1 0.96637213230133057 0.63893282413482666
0.05312734842300415 9.6220130217261612e-05 0.38449651002883911
0.15539087355136871 0.0034531238488852978 0.38228711485862732
0.28245928883552551 0.0062983492389321327 0.37379813194274902
0.42687457799911499 0.011057415977120399 0.36347323656082153
0.58190631866455078 0.044811774045228958 0.36662369966506958
0.73920261859893799 0.078632667660713196 0.370513916015625
0.88826757669448853 0.09136759489774704 0.3710903525352478
0.097780860960483551 0.099305413663387299 0.45704749226570129
0.18737815320491791 0.10247741639614105 0.44864791631698608
0.30596494674682617 0.085572503507137299 0.42815494537353516
0.44483160972595215 0.053843896836042404 0.39387315511703491
0.59470671415328979 0.051165442913770676 0.37309527397155762
0.74578547477722168 0.062936730682849884 0.36258676648139954
0.89173406362533569 0.089419014751911163 0.36956718564033508
0.12711700797080994 0.29117265343666077 0.56847816705703735
0.2076793909072876 0.2947571873664856 0.56512534618377686
0.32831805944442749 0.28038212656974792 0.54582506418228149
0.46988242864608765 0.24918442964553833 0.51156234741210938
0.61766177415847778 0.19308298826217651 0.46097931265830994
0.7598380446434021 0.1127617210149765 0.3969351053237915
0.89881026744842529 0.081006146967411041 0.3668401837348938
0.13077639043331146 0.49205613136291504 0.68655747175216675
0.20894381403923035 0.49334359169006348 0.68413442373275757
0.33996173739433289 0.4905427098274231 0.6721997857093811
0.49010595679283142 0.48393020033836365 0.65435796976089478
0.6420893669128418 0.45839491486549377 0.62354123592376709
0.78634190559387207 0.39658400416374207 0.57278764247894287
0.91943418979644775 0.24570426344871521 0.46979585289955139
0.15720215439796448 0.66423147916793823 0.78141242265701294
0.23414869606494904 0.66459321975708008 0.77801299095153809
0.36420533061027527 0.66808468103408813 0.77046763896942139
0.50963938236236572 0.66778111457824707 0.76036471128463745
0.65674138069152832 0.66133660078048706 0.74177342653274536
0.79823654890060425 0.64279520511627197 0.72396183013916016
0.93836528062820435 0.5756341814994812 0.67653185129165649
0.27525585889816284 0.80626791715621948 0.83711308240890503
0.33099600672721863 0.8056984543800354 0.83178591728210449
0.43652576208114624 0.81344199180603027 0.82965117692947388
0.55483341217041016 0.81527066230773926 0.82581508159637451
0.68207454681396484 0.81989920139312744 0.82335615158081055
0.81651157140731812 0.81474214792251587 0.81825500726699829
0.95333957672119141 0.79092609882354736 0.80114567279815674
0.56162303686141968 0.93800145387649536 0.72485512495040894
0.5879819393157959 0.94004476070404053 0.72649669647216797
0.6413763165473938 0.94337677955627441 0.7419590950012207
0.72120457887649536 0.94963067770004272 0.75543224811553955
0.81253767013549805 0.95902293920516968 0.77005594968795776
0.90855914354324341 0.96533370018005371 0.798786461353302
0.99417376518249512 0.96040034294128418 0.83306080102920532
0.1114971712231636 0 0.42502045631408691
0.20064690709114075 0.0042170058004558086 0.43250787258148193
0.31716907024383545 0.022319449111819267 0.43147557973861694
0.44963619112968445 0.016414478421211243 0.41576039791107178
0.59220987558364868 0.036039657890796661 0.41213774681091309
0.737751305103302 0.064780518412590027 0.41573181748390198
0.8784063458442688 0.080556370317935944 0.41902759671211243
0.17068995535373688 0.052028071135282516 0.47909802198410034
0.23904763162136078 0.065887287259101868 0.4762326180934906
0.34572327136993408 0.077618002891540527 0.47000601887702942
0.47176221013069153 0.050471346825361252 0.43893060088157654
0.60851585865020752 0.033937729895114899 0.41080880165100098
0.74815660715103149 0.050254553556442261 0.40355175733566284
0.88616061210632324 0.087385781109333038 0.41583490371704102
0.22400513291358948 0.24741721153259277 0.59290170669555664
0.27975896000862122 0.25101169943809509 0.5891343355178833
0.37668851017951965 0.24020770192146301 0.57103604078292847
0.49843376874923706 0.1988023966550827 0.52941906452178955
0.63191229104995728 0.1281486451625824 0.46841505169868469
0.76306271553039551 0.068309292197227478 0.41525143384933472
0.89550775289535522 0.085016153752803802 0.40959060192108154
0.24771787226200104 0.47076296806335449 0.72579479217529297
0.29833361506462097 0.46525424718856812 0.71931785345077515
0.39721882343292236 0.45596516132354736 0.70313572883605957
0.52218925952911377 0.43969210982322693 0.67682570219039917
0.65954327583312988 0.40964505076408386 0.64093643426895142
0.78997212648391724 0.32794225215911865 0.57613515853881836
0.91300243139266968 0.17106379568576813 0.46460950374603271
0.26924529671669006 0.65396833419799805 0.83428782224655151
0.32201018929481506 0.65254324674606323 0.82928597927093506
0.42118561267852783 0.65040117502212524 0.81884169578552246
0.54107391834259033 0.64706718921661377 0.80453705787658691
0.67009073495864868 0.63631218671798706 0.7839658260345459
0.80119222402572632 0.6078571081161499 0.75455033779144287
0.92820847034454346 0.52204853296279907 0.69250237941741943
0.3431759774684906 0.80576038360595703 0.91540205478668213
0.38002383708953857 0.80463749170303345 0.91532623767852783
0.46874439716339111 0.80850768089294434 0.90787684917449951
0.56832718849182129 0.80843830108642578 0.90195775032043457
0.68518394231796265 0.80993169546127319 0.89169132709503174
0.80887269973754883 0.80422508716583252 0.880656898021698
0.93680071830749512 0.77432441711425781 0.85154533386230469
0.45854303240776062 0.94165068864822388 0.96014845371246338
0.49928385019302368 0.93993937969207764 0.94550448656082153
0.54523509740829468 0.94592809677124023 0.96188235282897949
0.63561958074569702 0.952381432056427 0.94989961385726929
0.72384274005889893 0.95825827121734619 0.96053063869476318
0.83564114570617676 0.9643668532371521 0.96195244789123535
0.96536588668823242 0.96329373121261597 0.96095722913742065
