assets/lut/films print kodak 2393 cuspclip.cube
# Created by: G'MIC (https://gmic.eu)
TITLE "kodak_2393_cuspclip"
# LUT size
LUT_3D_SIZE 13
# Data domain
DOMAIN_MIN 0.0 0.0 0.0
DOMAIN_MAX 1.0 1.0 1.0
# LUT data points
0.014590783044695854 0.019665572792291641 0.016823144629597664
0.037553600966930389 0.028459047898650169 0.016585106030106544
0.066742584109306335 0.036237455904483795 0.016225762665271759
0.10101331770420074 0.039937112480401993 0.012529081664979458
0.14350523054599762 0.041492104530334473 0.0053588566370308399
0.22771859169006348 0.046119794249534607 0.00011870440357597545
0.3319774866104126 0.056577045470476151 0
0.4268975555896759 0.072002142667770386 0
0.51054757833480835 0.08826129138469696 0.00035439286148175597
0.56295949220657349 0.10215946286916733 0.0037051630206406116
0.59363502264022827 0.11324003338813782 0.007718703243881464
0.61105608940124512 0.12184739857912064 0.014130506664514542
0.62219291925430298 0.13076919317245483 0.021376606076955795
0.013120748102664948 0.034370079636573792 0.022739619016647339
0.033264715224504471 0.041581951081752777 0.018157271668314934
0.058682207018136978 0.049173347651958466 0.014225006103515625
0.096495009958744049 0.054184094071388245 0.0095464223995804787
0.15965886414051056 0.061706334352493286 0.0043788985349237919
0.26144129037857056 0.074708573520183563 0.0012628143886104226
0.37515348196029663 0.085030622780323029 1.1848001122416463e-05
0.47462189197540283 0.10096417367458344 0.00016837027214933187
0.55647116899490356 0.12798596918582916 0.0033167970832437277
0.60194128751754761 0.13927309215068817 0.0075774248689413071
0.62369155883789062 0.14489613473415375 0.013122244738042355
0.63940626382827759 0.15088756382465363 0.020725145936012268
0.6484718918800354 0.15317945182323456 0.023802034556865692
0.0081012947484850883 0.054530244320631027 0.032140500843524933
0.02519722655415535 0.061301495879888535 0.022726589813828468
0.050360467284917831 0.066635057330131531 0.01519616786390543
0.093469135463237762 0.072676561772823334 0.0095016481354832649
0.17833638191223145 0.087603054940700531 0.0066209230571985245
0.29164788126945496 0.10656343400478363 0.0035357906017452478
0.41345912218093872 0.12026646733283997 0.0016314188251271844
0.52058899402618408 0.13916856050491333 0.002056181663647294
0.59979462623596191 0.17200429737567902 0.0064239203929901123
0.63985687494277954 0.18182612955570221 0.012046799063682556
0.65668833255767822 0.18362675607204437 0.019511891528964043
0.67035114765167236 0.18926069140434265 0.027377499267458916
0.67717123031616211 0.18886379897594452 0.027686653658747673
0.0031654955819249153 0.095476977527141571 0.044540718197822571
0.0073296492919325829 0.097023725509643555 0.028536029160022736
0.027249759063124657 0.098821677267551422 0.016155587509274483
0.089791424572467804 0.10562843084335327 0.011025970801711082
0.19021216034889221 0.12098987400531769 0.0067091998644173145
0.31672939658164978 0.1490541398525238 0.0032818664330989122
0.44546723365783691 0.17307686805725098 0.00056243594735860825
0.56215071678161621 0.20909319818019867 0.0025695799849927425
0.6369977593421936 0.23267450928688049 0.0092254485934972763
0.67660194635391235 0.23576509952545166 0.017836388200521469
0.69427859783172607 0.23971447348594666 0.025189179927110672
0.70971047878265381 0.24917834997177124 0.029277890920639038
0.71973395347595215 0.25268059968948364 0.02384522370994091
0.00044987996807321906 0.14536368846893311 0.061689011752605438
0.0012122659245505929 0.15258759260177612 0.047825846821069717
0.010202415287494659 0.14980477094650269 0.021963231265544891
0.076133489608764648 0.15828186273574829 0.0067606759257614613
0.20237331092357635 0.1922229677438736 0.0041227303445339203
0.34800612926483154 0.22599394619464874 0.0021664488594979048
0.49258974194526672 0.26024594902992249 6.354836659738794e-05
0.60816168785095215 0.29358863830566406 0.0027280619833618402
0.67122477293014526 0.30255964398384094 0.0126126604154706
0.71488463878631592 0.30071845650672913 0.023886781185865402
0.7353406548500061 0.30690246820449829 0.032144911587238312
0.75125759840011597 0.31951263546943665 0.033748209476470947
0.76512825489044189 0.33482688665390015 0.018827386200428009
0.0040094112046062946 0.22098125517368317 0.09807809442281723
0.0043444167822599411 0.24032168090343475 0.090503141283988953
0.0060699163004755974 0.24061699211597443 0.050416477024555206
0.049591947346925735 0.24486277997493744 0.0062860525213181973
0.21143144369125366 0.29545426368713379 0.002921190345659852
0.39265662431716919 0.34351286292076111 0.0019066155655309558
0.55806636810302734 0.3807072639465332 0.0010431476403027773
0.65967553853988647 0.40583392977714539 0.0051406710408627987
0.72076380252838135 0.41013219952583313 0.014875748194754124
0.7654343843460083 0.40905505418777466 0.024165404960513115
0.78694617748260498 0.41194561123847961 0.028891948983073235
0.80232745409011841 0.42466557025909424 0.031129425391554832
0.81654870510101318 0.44375276565551758 0.0183066725730896
0.011474414728581905 0.31494313478469849 0.1505158543586731
0.0095006460323929787 0.33946162462234497 0.14430044591426849
0.00249632284976542 0.33755236864089966 0.084067881107330322
0.045376062393188477 0.35166919231414795 0.015375354327261448
0.22223198413848877 0.40838363766670227 0.0047806235961616039
0.4286358654499054 0.46417796611785889 0.0039215688593685627
0.61117005348205566 0.50726014375686646 0.0050439275801181793
0.71107536554336548 0.52971941232681274 0.0069739548489451408
0.77845573425292969 0.53916686773300171 0.010528714396059513
0.82004541158676147 0.54078012704849243 0.012895411811769009
0.84564512968063354 0.54375916719436646 0.013616614043712616
0.85985714197158813 0.55816680192947388 0.02003154344856739
0.87086194753646851 0.5718802809715271 0.02441883459687233
0.024300249293446541 0.40166929364204407 0.19773221015930176
0.017061091959476471 0.4221651554107666 0.18836258351802826
0.0053869658149778843 0.42707043886184692 0.13022780418395996
0.041905961930751801 0.44316932559013367 0.030436182394623756
0.2325088232755661 0.50425487756729126 0.005855949129909277
0.46617671847343445 0.57527202367782593 0.0062315994873642921
0.65543073415756226 0.62477540969848633 0.0086059868335723877
0.76416081190109253 0.64516055583953857 0.013167736120522022
0.82921344041824341 0.65128695964813232 0.018344700336456299
0.86557751893997192 0.65175712108612061 0.018883185461163521
0.89080578088760376 0.65254867076873779 0.016489410772919655
0.903633713722229 0.66434365510940552 0.030440237373113632
0.91284793615341187 0.67539632320404053 0.044926542788743973
0.021859681233763695 0.4589751660823822 0.22539806365966797
0.015892956405878067 0.47331908345222473 0.20779943466186523
0.013190519995987415 0.48953041434288025 0.15870939195156097
0.044078916311264038 0.51070255041122437 0.045182786881923676
0.24955663084983826 0.57432842254638672 0.0076977447606623173
0.50442534685134888 0.65437781810760498 0.0051627815701067448
0.68410336971282959 0.69983422756195068 0.014428187161684036
0.79711979627609253 0.72128379344940186 0.030141433700919151
0.86754411458969116 0.73207497596740723 0.050936993211507797
0.90117776393890381 0.72955679893493652 0.053583331406116486
0.91570252180099487 0.720062255859375 0.047739423811435699
0.92943662405014038 0.73012745380401611 0.056042898446321487
0.94059938192367554 0.74195915460586548 0.066447332501411438
0.010512498207390308 0.48990258574485779 0.23780429363250732
0.013077754527330399 0.50855469703674316 0.21858619153499603
0.01650707796216011 0.5276416540145874 0.17208634316921234
0.051090627908706665 0.55458921194076538 0.049490656703710556
0.27250903844833374 0.61966818571090698 0.012784067541360855
0.52775132656097412 0.69384801387786865 0.0095244459807872772
0.69831949472427368 0.73676711320877075 0.024888865649700165
0.81344234943389893 0.76239359378814697 0.044382985681295395
0.88209700584411621 0.77441865205764771 0.065036237239837646
0.92145240306854248 0.77709048986434937 0.0739259272813797
0.93824982643127441 0.77490800619125366 0.073461852967739105
0.95048850774765015 0.77602273225784302 0.076496794819831848
0.95677697658538818 0.77524322271347046 0.081776529550552368
0.0075829299166798592 0.51048940420150757 0.24464371800422668
0.01847921684384346 0.53276306390762329 0.2197885662317276
0.02215048111975193 0.55310207605361938 0.16474138200283051
0.062520012259483337 0.58184421062469482 0.047484766691923141
0.30723723769187927 0.64863485097885132 0.012908516451716423
0.54024010896682739 0.71498346328735352 0.013045292347669601
0.70833730697631836 0.76260131597518921 0.031035734340548515
0.82274919748306274 0.79170763492584229 0.051277205348014832
0.8840491771697998 0.79723870754241943 0.06832413375377655
0.92904394865036011 0.79890817403793335 0.079711213707923889
0.9514082670211792 0.80145853757858276 0.081937767565250397
0.96577274799346924 0.80366003513336182 0.084698334336280823
0.97049194574356079 0.80206626653671265 0.095801427960395813
0.01638977974653244 0.53341978788375854 0.24680933356285095
0.017404638230800629 0.55622601509094238 0.20510852336883545
0.026864459738135338 0.5758209228515625 0.1387646496295929
0.07930099219083786 0.60300278663635254 0.021413287147879601
0.33828407526016235 0.66978269815444946 0.0039216135628521442
0.55839276313781738 0.73155635595321655 0.0080758938565850258
0.71323627233505249 0.77461647987365723 0.025983922183513641
0.82561731338500977 0.80272513628005981 0.048593230545520782
0.89196944236755371 0.81455487012863159 0.070501573383808136
0.93922626972198486 0.81908595561981201 0.087389461696147919
0.96273422241210938 0.82000702619552612 0.087530873715877533
0.97483575344085693 0.82075315713882446 0.08143354207277298
0.97918474674224854 0.81942069530487061 0.10263016819953918
0.022467968985438347 0.56671380996704102 0.25157856941223145
0.011594555340707302 0.58508145809173584 0.18630479276180267
0.023524429649114609 0.60139250755310059 0.064347304403781891
0.14395228028297424 0.63263684511184692 0.0087216543033719063
0.35629728436470032 0.68685203790664673 0.0031093673314899206
0.56520301103591919 0.74192541837692261 0.0031039069872349501
0.71158313751220703 0.78089451789855957 0.018945956602692604
0.82732963562011719 0.81001764535903931 0.050652150064706802
0.90341722965240479 0.82516181468963623 0.075227074325084686
0.94742327928543091 0.83050405979156494 0.089984908699989319
0.96960908174514771 0.83147764205932617 0.09127064049243927
0.98207926750183105 0.83470332622528076 0.074387431144714355
0.98796826601028442 0.83630889654159546 0.10464637726545334
0.0086671421304345131 0.023289190605282784 0.034865196794271469
0.027967998757958412 0.029832068830728531 0.034865196794271469
0.059085201472043991 0.035370681434869766 0.035043872892856598
0.098106637597084045 0.038666341453790665 0.031084831804037094
0.15006415545940399 0.038118056952953339 0.014913267455995083
0.23389880359172821 0.026617147028446198 0.001972198486328125
0.34104681015014648 0.02988586388528347 0.0014068154850974679
0.43591117858886719 0.041014280170202255 0.0015065660700201988
0.51896226406097412 0.052194647490978241 0.00058671541046351194
0.57234251499176025 0.067518375813961029 0.0015090942615643144
0.59847915172576904 0.074300535023212433 0.0048286737874150276
0.61546057462692261 0.082105018198490143 0.0088439639657735825
0.62787860631942749 0.10188078135251999 0.012904956005513668
0.0093061858788132668 0.035924486815929413 0.034974325448274612
0.028159886598587036 0.043183360248804092 0.034955866634845734
0.055100984871387482 0.05001400038599968 0.033805187791585922
0.097642697393894196 0.054875902831554413 0.028270930051803589
0.15588466823101044 0.058966498821973801 0.013527365401387215
0.25862151384353638 0.063700854778289795 0.0032541162800043821
0.3769761323928833 0.058822032064199448 0.0017745522782206535
0.47828322649002075 0.062899857759475708 0.00097083294531330466
0.56135088205337524 0.099599339067935944 0.0020395165774971247
0.60567700862884521 0.11367563158273697 0.0034811282530426979
0.62698793411254883 0.11138009279966354 0.0059252721257507801
0.64362931251525879 0.11180723458528519 0.010483057238161564
0.65384101867675781 0.12805989384651184 0.015945179387927055
0.0056701363064348698 0.053674615919589996 0.039071761071681976
0.022198501974344254 0.061556916683912277 0.037696912884712219
0.047027692198753357 0.070125848054885864 0.03644702211022377
0.09298049658536911 0.076948679983615875 0.032080184668302536
0.17260892689228058 0.088572889566421509 0.023823367431759834
0.29215967655181885 0.10238788276910782 0.0094310538843274117
0.41643872857093811 0.1011054664850235 0.005216546356678009
0.52281516790390015 0.10785115510225296 0.0040349774062633514
0.60166317224502563 0.13905924558639526 0.0050094155594706535
0.64302623271942139 0.14808124303817749 0.0063672834075987339
0.66222977638244629 0.15448862314224243 0.0081744026392698288
0.67796510457992554 0.16215057671070099 0.011769717559218407
0.6844785213470459 0.17509686946868896 0.022468296810984612
0.0012704437831416726 0.095178268849849701 0.055958453565835953
0.0065689836628735065 0.094890370965003967 0.048393908888101578
0.024526080116629601 0.097199805080890656 0.040770705789327621
0.085670813918113708 0.11066100001335144 0.03372332826256752
0.19424194097518921 0.13095450401306152 0.023716272786259651
0.32174944877624512 0.14748235046863556 0.0082597769796848297
0.45342797040939331 0.16096451878547668 0.0037549186963587999
0.56495153903961182 0.18462541699409485 0.0039223018102347851
0.63613772392272949 0.20844444632530212 0.0065515707246959209
0.67790085077285767 0.20870526134967804 0.010526918806135654
0.70029670000076294 0.21308068931102753 0.014657577499747276
0.71755337715148926 0.22055816650390625 0.017052818089723587
0.72711634635925293 0.230178102850914 0.019254453480243683
0.00020620308350771666 0.14505121111869812 0.076247990131378174
0.0019377614371478558 0.15570570528507233 0.072727218270301819
0.010026250965893269 0.15126514434814453 0.049509730190038681
0.073091842234134674 0.16411153972148895 0.026139965280890465
0.20314076542854309 0.19702912867069244 0.017556717619299889
0.35571783781051636 0.23156684637069702 0.011566745117306709
0.5037199854850769 0.25314229726791382 0.0033695294987410307
0.60891687870025635 0.27283823490142822 0.0049283197149634361
0.6748664379119873 0.28786578774452209 0.01118520088493824
0.72128880023956299 0.29066240787506104 0.016400670632719994
0.74307709932327271 0.29079630970954895 0.023470515385270119
0.76066750288009644 0.29645842313766479 0.027031200006604195
0.77598845958709717 0.31938651204109192 0.01806284673511982
0.0054098092950880527 0.22699907422065735 0.11747737228870392
0.0026045257691293955 0.24379797279834747 0.11289817839860916
0.0060625560581684113 0.24432569742202759 0.069498829543590546
0.044603414833545685 0.2488921731710434 0.014851798303425312
0.19764100015163422 0.29475963115692139 0.0071932775899767876
0.38709816336631775 0.34266310930252075 0.0056686550378799438
0.56076550483703613 0.37893441319465637 0.0049479766748845577
0.66336381435394287 0.40093010663986206 0.010789086110889912
0.73363727331161499 0.41335406899452209 0.020769350230693817
0.77724683284759521 0.41287142038345337 0.024849701672792435
0.79698842763900757 0.41110128164291382 0.024473780766129494
0.81294184923171997 0.42092135548591614 0.026537142693996429
0.83133900165557861 0.44174745678901672 0.015726441517472267
0.019699007272720337 0.33452093601226807 0.17863725125789642
0.0072929081507027149 0.34846574068069458 0.16900911927223206
0.0028436996508389711 0.34482923150062561 0.10349355638027191
0.035296406596899033 0.35260441899299622 0.032770417630672455
0.19740839302539825 0.40425115823745728 0.0064053107053041458
0.41597577929496765 0.46049672365188599 0.0056715421378612518
0.61021667718887329 0.50873774290084839 0.0068516451865434647
0.72210705280303955 0.53351390361785889 0.012399815954267979
0.79132324457168579 0.54301077127456665 0.021414946764707565
0.8320540189743042 0.54550862312316895 0.020794648677110672
0.85571968555450439 0.54551678895950317 0.011770091019570827
0.86850279569625854 0.55846494436264038 0.015586628578603268
0.88151443004608154 0.57319414615631104 0.01624767854809761
0.029611071571707726 0.41869214177131653 0.22381198406219482
0.0099614160135388374 0.43461346626281738 0.21428914368152618
0.0042100944556295872 0.43688300251960754 0.14953233301639557
0.026355160400271416 0.44814679026603699 0.056760616600513458
0.19336241483688354 0.50017273426055908 0.0060105267912149429
0.44768619537353516 0.56728798151016235 0.0064666448161005974
0.65190821886062622 0.62541317939758301 0.0082512199878692627
0.7682843804359436 0.64869433641433716 0.014620537869632244
0.83817380666732788 0.65147280693054199 0.026449106633663177
0.87466371059417725 0.65151882171630859 0.024995451793074608
0.89911484718322754 0.65771371126174927 0.019244056195020676
0.91195642948150635 0.66994988918304443 0.027919156476855278
0.92119735479354858 0.68018418550491333 0.040221706032752991
0.028791988268494606 0.46818631887435913 0.24383135139942169
0.0094970706850290298 0.48507049679756165 0.23141378164291382
0.011079736053943634 0.50232958793640137 0.18611569702625275
0.040735341608524323 0.52632772922515869 0.089824646711349487
0.20853006839752197 0.57545310258865356 0.015165037475526333
0.47719550132751465 0.6458316445350647 0.0052994671277701855
0.67217361927032471 0.69858980178833008 0.013886290602385998
0.79565060138702393 0.72571700811386108 0.031271018087863922
0.87217289209365845 0.73371416330337524 0.048821065574884415
0.90853309631347656 0.73319047689437866 0.050763733685016632
0.92520433664321899 0.73037815093994141 0.051369968801736832
0.93809735774993896 0.73847472667694092 0.058409027755260468
0.94704538583755493 0.74803972244262695 0.06782880425453186
0.024900848045945168 0.50093519687652588 0.25959581136703491
0.018883423879742622 0.52004510164260864 0.24632525444030762
0.016146551817655563 0.53939950466156006 0.20603644847869873
0.035821788012981415 0.56377977132797241 0.093344472348690033
0.21001528203487396 0.61417883634567261 0.011543498374521732
0.50039130449295044 0.68800371885299683 0.0052533317357301712
0.68955016136169434 0.73834401369094849 0.017815114930272102
0.81493544578552246 0.76892936229705811 0.03936353325843811
0.88787221908569336 0.78001374006271362 0.063810534775257111
0.92820584774017334 0.7839084267616272 0.074154496192932129
0.9466937780380249 0.78359884023666382 0.076962821185588837
0.9570920467376709 0.78349006175994873 0.079429149627685547
0.96315681934356689 0.7842409610748291 0.084924899041652679
0.013302866369485855 0.52524518966674805 0.27399098873138428
0.018374364823102951 0.54569965600967407 0.25556328892707825
0.023295158520340919 0.564666748046875 0.20901443064212799
0.03278077021241188 0.58753365278244019 0.094392575323581696
0.23924265801906586 0.64323574304580688 0.011009201407432556
0.52016323804855347 0.71354609727859497 0.0067032906226813793
0.7008776068687439 0.76448595523834229 0.020705413073301315
0.82433158159255981 0.79651361703872681 0.043556932359933853
0.89058732986450195 0.80394351482391357 0.068629950284957886
0.93412321805953979 0.80790221691131592 0.080664195120334625
0.95850902795791626 0.80998247861862183 0.083972737193107605
0.97108393907546997 0.81193184852600098 0.090831369161605835
0.9771081805229187 0.81291824579238892 0.10110638290643692
0.015260659158229828 0.55112707614898682 0.29058006405830383
0.015371075831353664 0.572914719581604 0.26168376207351685
0.02300732210278511 0.58973711729049683 0.20205250382423401
0.042393133044242859 0.61011147499084473 0.076422117650508881
0.2862551212310791 0.6665492057800293 0.010256674140691757
0.53105777502059937 0.73177683353424072 0.017126195132732391
0.70258152484893799 0.77871954441070557 0.017528804019093513
0.81978303194046021 0.80734872817993164 0.026844173669815063
0.89478224515914917 0.82065826654434204 0.060927178710699081
0.94376832246780396 0.82536488771438599 0.080666154623031616
0.9701959490776062 0.82792562246322632 0.082794710993766785
0.98112177848815918 0.83008104562759399 0.083970881998538971
0.9853864312171936 0.83007937669754028 0.11860619485378265
0.023335326462984085 0.58494293689727783 0.31899034976959229
0.024498749524354935 0.61059373617172241 0.28710111975669861
0.014491541311144829 0.62020421028137207 0.19270342588424683
0.069675922393798828 0.63815844058990479 0.083869040012359619
0.31579750776290894 0.6909186840057373 0.029712706804275513
0.5445486307144165 0.74710714817047119 0.016760522499680519
0.7068411111831665 0.78781843185424805 0.019341636449098587
0.82063126564025879 0.81442767381668091 0.03141452744603157
0.90332359075546265 0.83031690120697021 0.043663863092660904
0.95924973487854004 0.83853799104690552 0.061539802700281143
0.98168110847473145 0.84236204624176025 0.082124717533588409
0.9902031421661377 0.84401041269302368 0.080148763954639435
0.99312865734100342 0.84433752298355103 0.11791374534368515
0.0025383294560015202 0.026735642924904823 0.056386265903711319
0.017278259620070457 0.029141414910554886 0.056507036089897156
0.051013827323913574 0.033805593848228455 0.060524359345436096
0.087588079273700714 0.036905370652675629 0.059505045413970947
0.15126574039459229 0.029231246560811996 0.0421333909034729
0.24051985144615173 0.0088404035195708275 0.017264077439904213
0.34231013059616089 0.0068639270029962063 0.019378317520022392
0.44037443399429321 0.0091535532847046852 0.021503403782844543
0.52148771286010742 0.012150304391980171 0.013015956617891788
0.57634496688842773 0.012576084583997726 0.012743571773171425
0.60361820459365845 0.018944324925541878 0.01599833182990551
0.62102144956588745 0.018826982006430626 0.013673550449311733
0.63115149736404419 0.025441473349928856 0.01464258786290884
0.0043779709376394749 0.04066263884305954 0.061572626233100891
0.016782991588115692 0.045455604791641235 0.061253223568201065
0.046965163201093674 0.050904758274555206 0.061809703707695007
0.091197878122329712 0.055028174072504044 0.060646072030067444
0.15847085416316986 0.050729189068078995 0.045949209481477737
0.26359480619430542 0.036344505846500397 0.021025205031037331
0.37798923254013062 0.021989636123180389 0.016032753512263298
0.48061582446098328 0.015331283211708069 0.01381390169262886
0.56217390298843384 0.023805985227227211 0.010179736651480198
0.60988301038742065 0.027529668062925339 0.0071768816560506821
0.63033676147460938 0.029831307008862495 0.0075101065449416637
0.64787954092025757 0.033104345202445984 0.012339468114078045
0.65917372703552246 0.034301817417144775 0.014260969124734402
0.0028021419420838356 0.060390397906303406 0.07015526294708252
0.011481056921184063 0.063135780394077301 0.066428259015083313
0.03587055578827858 0.069385573267936707 0.064389154314994812
0.087267853319644928 0.076868630945682526 0.061428893357515335
0.17170007526874542 0.082993000745773315 0.051924925297498703
0.29598048329353333 0.083748489618301392 0.028577378019690514
0.41749584674835205 0.064165078103542328 0.02352173812687397
0.52433794736862183 0.058947004377841949 0.01576213538646698
0.60414779186248779 0.064421005547046661 0.0044341143220663071
0.64827930927276611 0.067020803689956665 0.0024955002591013908
0.66883689165115356 0.057388082146644592 0.0036525351461023092
0.68673205375671387 0.073860108852386475 0.0069821225479245186
0.69876134395599365 0.10205639153718948 0.011379885487258434
0.0015948725631460547 0.10341868549585342 0.090448193252086639
0.0045580244623124599 0.099323093891143799 0.080643072724342346
0.017202654853463173 0.097651340067386627 0.070508308708667755
0.07740514725446701 0.1169080063700676 0.065003536641597748
0.19176791608333588 0.138434037566185 0.053377743810415268
0.3219168484210968 0.13956485688686371 0.02226664312183857
0.45560020208358765 0.13709157705307007 0.015336279757320881
0.56745225191116333 0.14223203063011169 0.0082328198477625847
0.63586133718490601 0.15101771056652069 0.0038632859941571951
0.68316555023193359 0.15699373185634613 0.0027688120026141405
0.71106362342834473 0.14078842103481293 0.0061198216862976551
