assets/lut/films colorslide kodak elite extracolor 100.cube
# Created by: G'MIC (https://gmic.eu)
TITLE "kodak_elite_extracolor_100"
# LUT size
LUT_3D_SIZE 5
# Data domain
DOMAIN_MIN 0.0 0.0 0.0
DOMAIN_MAX 1.0 1.0 1.0
# LUT data points
0.037927381694316864 0.035773586481809616 0.032415218651294708
0.2022358626127243 0.01994507759809494 0.020149126648902893
0.41655236482620239 0.0085333734750747681 0.012572583742439747
0.65185678005218506 4.2006548028439283e-05 0.0034798416309058666
0.83774030208587646 0.00044495824840851128 8.8680491899140179e-05
0.13360755145549774 0.22500079870223999 0.091617569327354431
0.25162532925605774 0.2144969254732132 0.077763333916664124
0.4815029501914978 0.18282775580883026 0.050871007144451141
0.69596183300018311 0.1165006011724472 0.017171477898955345
0.86081516742706299 0.054094024002552032 0
0.17855075001716614 0.5231015682220459 0.12410393357276917
0.32687512040138245 0.50840795040130615 0.12285657227039337
0.57498425245285034 0.48660984635353088 0.096358537673950195
0.79911321401596069 0.44049292802810669 0.058774866163730621
0.94923096895217896 0.31345802545547485 0.0094412714242935181
0.30041390657424927 0.82919228076934814 0.055840302258729935
0.44243621826171875 0.82675635814666748 0.049823939800262451
0.69963538646697998 0.81749361753463745 0.030014935880899429
0.91133660078048706 0.80984234809875488 0.025146977975964546
1 0.73952221870422363 0.011537963524460793
0.51809579133987427 1 0
0.62715756893157959 1 0
0.81779038906097412 1 0
0.98914128541946411 0.99927341938018799 0.00029015634208917618
1 0.99960792064666748 0
0.02207762748003006 0.040271982550621033 0.1859961599111557
0.16575318574905396 0.02613513357937336 0.17088459432125092
0.39055299758911133 0.011623726226389408 0.14198677241802216
0.63101202249526978 0.00022668277961201966 0.10100378841161728
0.81731909513473511 0 0.048949506133794785
0.10525728017091751 0.23153018951416016 0.22915108501911163
0.21913526952266693 0.21947772800922394 0.21856357157230377
0.45163682103157043 0.1857704222202301 0.19009032845497131
0.68025034666061401 0.10690026730298996 0.1399158239364624
0.83379471302032471 0.030770245939493179 0.078699953854084015
0.11581023037433624 0.51541554927825928 0.26776149868965149
0.28466254472732544 0.51732522249221802 0.26251646876335144
0.55575954914093018 0.49453896284103394 0.23807241022586823
0.7848849892616272 0.43775466084480286 0.19220054149627686
0.93267017602920532 0.30901610851287842 0.12800514698028564
0.2242950052022934 0.82381534576416016 0.25259560346603394
0.39850437641143799 0.81580513715744019 0.22489632666110992
0.6648215651512146 0.81241840124130249 0.19611835479736328
0.88425159454345703 0.79460299015045166 0.16945402324199677
0.99972474575042725 0.75277954339981079 0.11492590606212616
0.51950854063034058 0.99659770727157593 0.00844548549503088
0.61684650182723999 0.99974596500396729 0.00997950229793787
0.81014454364776611 1 0.009434778243303299
0.98289567232131958 1 0.0008719500619918108
1 0.99987632036209106 0
0.0025813982356339693 0.045930299907922745 0.36998173594474792
0.11449137330055237 0.028163939714431763 0.3649323582649231
0.35466611385345459 0.016198355704545975 0.33182379603385925
0.59742850065231323 0.003177702659741044 0.30151858925819397
0.78455245494842529 5.7175580877810717e-05 0.25390082597732544
0.04382038488984108 0.23794284462928772 0.43822082877159119
0.15451595187187195 0.22484712302684784 0.42966857552528381
0.41094911098480225 0.19009050726890564 0.406159907579422
0.64804881811141968 0.11957760900259018 0.37183409929275513
0.80193591117858887 0.033964060246944427 0.31628897786140442
0.012974338605999947 0.52501410245895386 0.51956164836883545
0.17716293036937714 0.51697409152984619 0.51290225982666016
0.49783527851104736 0.49774947762489319 0.4949832558631897
0.74410867691040039 0.44598874449729919 0.46476587653160095
0.89959657192230225 0.32591596245765686 0.40774935483932495
0.02533404715359211 0.8001333475112915 0.55955034494400024
0.25723075866699219 0.79967594146728516 0.56618136167526245
0.59460830688476562 0.79828071594238281 0.54692906141281128
0.82988184690475464 0.78201603889465332 0.52296727895736694
0.99287921190261841 0.72967678308486938 0.47102311253547668
0.26999887824058533 0.99894034862518311 0.42336156964302063
0.48944932222366333 0.99702507257461548 0.40924224257469177
0.72019457817077637 0.99999356269836426 0.40260803699493408
0.93541628122329712 0.99800336360931396 0.35093125700950623
1 0.99446481466293335 0.25219416618347168
0 0.054395563900470734 0.57824599742889404
0.067570813000202179 0.037088897079229355 0.58022171258926392
0.30040362477302551 0.01589304581284523 0.54929322004318237
0.55484586954116821 0.0019515542080625892 0.5221019983291626
0.72625231742858887 0 0.48424690961837769
0.001209947164170444 0.25125354528427124 0.65973961353302002
0.08086782693862915 0.2441631555557251 0.65855896472930908
0.34742367267608643 0.20632894337177277 0.6351085901260376
0.61330515146255493 0.14137646555900574 0.60451745986938477
0.76052236557006836 0.034873154014348984 0.55765897035598755
0 0.54115325212478638 0.74321311712265015
0.041044630110263824 0.53485995531082153 0.73699337244033813
0.41821789741516113 0.51651924848556519 0.7255064845085144
0.70650225877761841 0.466146320104599 0.69912338256835938
0.8684380054473877 0.34610176086425781 0.65806323289871216
0 0.79240196943283081 0.80861586332321167
0.05699220672249794 0.79616779088973999 0.8037954568862915
0.50594985485076904 0.78754401206970215 0.79087668657302856
0.77199429273605347 0.77307319641113281 0.77205997705459595
0.96486735343933105 0.72908073663711548 0.74733281135559082
0.036564290523529053 0.98954570293426514 0.80115693807601929
0.20490537583827972 0.98950988054275513 0.787525475025177
0.57336115837097168 0.99361610412597656 0.78313618898391724
0.8459811806678772 0.99529993534088135 0.77854013442993164
0.99945247173309326 0.98907715082168579 0.74049669504165649
0 0.089952908456325531 0.76071828603744507
0.016725143417716026 0.079909786581993103 0.75268685817718506
0.23828557133674622 0.035278379917144775 0.7316933274269104
0.53379344940185547 0.00354615761898458 0.70522946119308472
0.70983260869979858 0.0032253640238195658 0.67211532592773438
0 0.29942423105239868 0.83326613903045654
0.012658421881496906 0.29550155997276306 0.8269006609916687
0.26841714978218079 0.2631537914276123 0.80888193845748901
0.58286023139953613 0.19582757353782654 0.7788318395614624
0.75219994783401489 0.069427788257598877 0.7406962513923645
0.0015399259282276034 0.57247793674468994 0.9105149507522583
0.0020590838976204395 0.57018452882766724 0.90639907121658325
0.25405716896057129 0.55022221803665161 0.8910222053527832
0.65416276454925537 0.51949059963226318 0.87129861116409302
0.85427689552307129 0.40432626008987427 0.83650988340377808
1.9387638531043194e-05 0.80183815956115723 0.98140537738800049
0.001356027671135962 0.80171233415603638 0.97197192907333374
0.3002077043056488 0.79991370439529419 0.95948737859725952
0.70915156602859497 0.79097980260848999 0.94285190105438232
0.9310029149055481 0.75132453441619873 0.92999368906021118
0 0.98377120494842529 0.99891698360443115
0.032555211335420609 0.9829520583152771 0.99950689077377319
0.3458918035030365 0.98220157623291016 0.99367713928222656
0.74845629930496216 0.98847347497940063 0.99228036403656006
0.98301917314529419 0.98314434289932251 0.98144704103469849
