assets/lut/films colorslide kodak kodachrome 200.cube
# Created by: G'MIC (https://gmic.eu)
TITLE "kodak_kodachrome_200"
# LUT size
LUT_3D_SIZE 7
# Data domain
DOMAIN_MIN 0.0 0.0 0.0
DOMAIN_MAX 1.0 1.0 1.0
# LUT data points
0.019736509770154953 0.0096767647191882133 0.0047102686949074268
0.12052237987518311 0.013222024776041508 0.013030571863055229
0.30291634798049927 0.021138090640306473 0.029069054871797562
0.50141388177871704 0.016153223812580109 0.024749740958213806
0.67295902967453003 0.0075725479982793331 0.014264633879065514
0.81529831886291504 0.00061483943136408925 0.0032389771658927202
0.9286574125289917 0 0
0.075487487018108368 0.14636963605880737 0.07738737016916275
0.16229961812496185 0.14686000347137451 0.080599993467330933
0.35017740726470947 0.14674130082130432 0.089467145502567291
0.54234510660171509 0.14670868217945099 0.094340316951274872
0.69987004995346069 0.13978619873523712 0.087486162781715393
0.8341367244720459 0.1145862489938736 0.069478549063205719
0.9410024881362915 0.097585909068584442 0.043567042797803879
0.066152162849903107 0.35484904050827026 0.17134431004524231
0.18913236260414124 0.35281762480735779 0.17095360159873962
0.38862597942352295 0.34767282009124756 0.1712411493062973
0.5655134916305542 0.34410578012466431 0.17355106770992279
0.71196073293685913 0.34030294418334961 0.16378724575042725
0.83698409795761108 0.32110109925270081 0.14239971339702606
0.93863707780838013 0.30173662304878235 0.11835701018571854
0.15365561842918396 0.54221886396408081 0.28673848509788513
0.27620992064476013 0.54063183069229126 0.28555861115455627
0.43808162212371826 0.53972363471984863 0.28254431486129761
0.58537131547927856 0.53831601142883301 0.27996450662612915
0.72035032510757446 0.53580915927886963 0.26674500107765198
0.84210580587387085 0.52910059690475464 0.23686446249485016
0.94177502393722534 0.52415865659713745 0.20330736041069031
0.34921145439147949 0.67638248205184937 0.41460543870925903
0.40651050209999084 0.67663025856018066 0.41401189565658569
0.50369822978973389 0.67734062671661377 0.40951964259147644
0.61579388380050659 0.67789775133132935 0.40516051650047302
0.73108214139938354 0.67699390649795532 0.39530074596405029
0.85405313968658447 0.67387646436691284 0.36137038469314575
0.96047419309616089 0.67041563987731934 0.32155996561050415
0.4840272068977356 0.80137425661087036 0.53226733207702637
0.51246535778045654 0.79787003993988037 0.53649067878723145
0.57118135690689087 0.79830360412597656 0.53324431180953979
0.65407663583755493 0.79870009422302246 0.52851712703704834
0.74733603000640869 0.79903155565261841 0.52457898855209351
0.86004257202148438 0.79696786403656006 0.49961698055267334
0.96386784315109253 0.79263705015182495 0.46740099787712097
0.57157242298126221 0.93945378065109253 0.63945299386978149
0.59721291065216064 0.93547570705413818 0.64613956212997437
0.6387706995010376 0.93326479196548462 0.64791029691696167
0.7003854513168335 0.93244016170501709 0.64939761161804199
0.77587628364562988 0.9350314736366272 0.65383923053741455
0.87532675266265869 0.93774509429931641 0.64081436395645142
0.98833143711090088 0.93391704559326172 0.60683542490005493
0.018454696983098984 0.016471458598971367 0.070458009839057922
0.11435868591070175 0.015201643109321594 0.076548978686332703
0.29842415452003479 0.013508052565157413 0.083830259740352631
0.50894784927368164 0.015486982651054859 0.083371676504611969
0.68065637350082397 0.012098574079573154 0.078169502317905426
0.81495457887649536 0.0033252192661166191 0.059600215405225754
0.92342758178710938 0.00017323213978670537 0.033191066235303879
0.064639084041118622 0.14404375851154327 0.14783500134944916
0.15301132202148438 0.14093062281608582 0.14996904134750366
0.34105345606803894 0.13886229693889618 0.15705987811088562
0.53974765539169312 0.14564235508441925 0.1621212363243103
0.69932073354721069 0.14153768122196198 0.15477605164051056
0.82864964008331299 0.1166682094335556 0.12816886603832245
0.92938113212585449 0.095109887421131134 0.097283370792865753
0.044628862291574478 0.35388389229774475 0.24657553434371948
0.18587182462215424 0.34819525480270386 0.24854737520217896
0.37840121984481812 0.34813806414604187 0.2513631284236908
0.5598214864730835 0.34938022494316101 0.25391638278961182
0.70775949954986572 0.3421638011932373 0.24025964736938477
0.83969968557357788 0.32522419095039368 0.20541365444660187
0.95116239786148071 0.30449950695037842 0.17229720950126648
0.13458338379859924 0.54290580749511719 0.3596874475479126
0.26212882995605469 0.54080104827880859 0.36139979958534241
0.42807188630104065 0.54087793827056885 0.36193960905075073
0.58091193437576294 0.54087507724761963 0.3631177544593811
0.713825523853302 0.53736543655395508 0.34928262233734131
0.83999305963516235 0.53136104345321655 0.31837514042854309
0.94673341512680054 0.52307665348052979 0.28129133582115173
0.33662328124046326 0.67838555574417114 0.47229796648025513
0.39996981620788574 0.67857068777084351 0.47368243336677551
0.50006508827209473 0.67855393886566162 0.47140240669250488
0.61167842149734497 0.67855393886566162 0.46934634447097778
0.72431713342666626 0.67693942785263062 0.46150660514831543
0.84410196542739868 0.67415469884872437 0.43929097056388855
0.95028674602508545 0.67124372720718384 0.40581190586090088
0.48318120837211609 0.80084323883056641 0.577953040599823
0.51454305648803711 0.80019927024841309 0.58016884326934814
0.5709957480430603 0.79848968982696533 0.57665055990219116
0.65131258964538574 0.79528677463531494 0.57077741622924805
0.74337828159332275 0.79548478126525879 0.56591427326202393
0.85549235343933105 0.79687255620956421 0.55383783578872681
0.95613819360733032 0.79526317119598389 0.52967464923858643
0.57328301668167114 0.93808627128601074 0.67877393960952759
0.59651356935501099 0.93664634227752686 0.68231469392776489
0.63636970520019531 0.93312227725982666 0.68191766738891602
0.69688385725021362 0.93012022972106934 0.67860561609268188
0.77332484722137451 0.93294668197631836 0.67915695905685425
0.87807118892669678 0.93774509429931641 0.67490136623382568
0.99119693040847778 0.93382352590560913 0.65300643444061279
0.012240959331393242 0.017289254814386368 0.17736169695854187
0.10065942257642746 0.019010161980986595 0.17764660716056824
0.28924140334129333 0.010763624683022499 0.18497568368911743
0.50986462831497192 0.015081682242453098 0.18223589658737183
0.68112766742706299 0.013937153853476048 0.178536057472229
0.81644296646118164 0.0068778842687606812 0.15261007845401764
0.93388622999191284 0.0065267672762274742 0.11239621043205261
0.062471427023410797 0.1417069286108017 0.25795704126358032
0.14497557282447815 0.14056567847728729 0.26015013456344604
0.33152183890342712 0.13608202338218689 0.26627638936042786
0.53336095809936523 0.14066195487976074 0.26874825358390808
0.69209152460098267 0.13198953866958618 0.26226723194122314
0.82454943656921387 0.10611383616924286 0.23023125529289246
0.93487405776977539 0.087913930416107178 0.19008485972881317
0.03637206181883812 0.35012915730476379 0.35540249943733215
0.16831852495670319 0.34596100449562073 0.35871708393096924
0.37169122695922852 0.34718543291091919 0.36407020688056946
0.55321824550628662 0.34322682023048401 0.36612418293952942
0.69968611001968384 0.3324526846408844 0.35570308566093445
0.83324778079986572 0.31443506479263306 0.32652133703231812
0.94357109069824219 0.29777461290359497 0.29444798827171326
0.12738080322742462 0.54291164875030518 0.45489704608917236
0.24929219484329224 0.54038095474243164 0.45938456058502197
0.41946321725845337 0.54012465476989746 0.46315696835517883
0.5733344554901123 0.5392337441444397 0.46556362509727478
0.70376753807067871 0.53575789928436279 0.45694124698638916
0.83299928903579712 0.52933061122894287 0.43830636143684387
0.9439123272895813 0.51974773406982422 0.41156136989593506
0.32511436939239502 0.68126887083053589 0.54788875579833984
0.38877329230308533 0.67990148067474365 0.54899883270263672
0.49086248874664307 0.67865455150604248 0.54897081851959229
0.60397255420684814 0.67853885889053345 0.54896485805511475
0.71502619981765747 0.67529112100601196 0.54715973138809204
0.83196771144866943 0.67350846529006958 0.53890830278396606
0.9407651424407959 0.66934877634048462 0.51623648405075073
0.4714241623878479 0.79928606748580933 0.63152807950973511
0.50669014453887939 0.80093264579772949 0.63269084692001343
0.56495809555053711 0.79998505115509033 0.63187229633331299
0.64446550607681274 0.79645490646362305 0.62989348173141479
0.7353053092956543 0.79725605249404907 0.62905800342559814
0.84900295734405518 0.79965907335281372 0.62560427188873291
0.95312213897705078 0.79586952924728394 0.61116915941238403
0.56890338659286499 0.93515735864639282 0.72027933597564697
0.59343230724334717 0.9378504753112793 0.7218625545501709
0.63293343782424927 0.9357343316078186 0.72219181060791016
0.69217425584793091 0.93294352293014526 0.72131431102752686
0.76813864707946777 0.93732523918151855 0.72230392694473267
0.87124919891357422 0.94423836469650269 0.7204667329788208
0.98194235563278198 0.93789368867874146 0.70813482999801636
0.011424584314227104 0.019083479419350624 0.29964044690132141
0.090707667171955109 0.018536750227212906 0.29989299178123474
0.27888482809066772 0.010028315708041191 0.30954286456108093
0.49807444214820862 0.014015587046742439 0.31631508469581604
0.66900050640106201 0.011425482109189034 0.31793555617332458
0.80068457126617432 0.0061864517629146576 0.30076014995574951
0.92096281051635742 0.011426095850765705 0.26268705725669861
0.05859437957406044 0.14061816036701202 0.37348279356956482
0.13731034100055695 0.13690908253192902 0.37623044848442078
0.32084131240844727 0.12947675585746765 0.38304814696311951
0.52231901884078979 0.13287836313247681 0.39091512560844421
0.68054383993148804 0.12291336059570312 0.39200669527053833
0.81248956918716431 0.099594458937644958 0.37272301316261292
0.92471086978912354 0.089127890765666962 0.34077426791191101
0.048789635300636292 0.34181180596351624 0.45579060912132263
0.13651719689369202 0.34587001800537109 0.46161216497421265
0.3531072735786438 0.33904531598091125 0.46843656897544861
0.54098129272460938 0.33501866459846497 0.473101407289505
0.68791419267654419 0.32631084322929382 0.47400599718093872
0.82123064994812012 0.30677369236946106 0.46125730872154236
0.92956191301345825 0.28608214855194092 0.43976870179176331
0.12612329423427582 0.53811454772949219 0.54261571168899536
0.2315119206905365 0.54020172357559204 0.54869979619979858
0.40467572212219238 0.53985059261322021 0.5529133677482605
0.56171214580535889 0.53674954175949097 0.55631369352340698
0.69422817230224609 0.53551238775253296 0.55855023860931396
0.82446861267089844 0.53078591823577881 0.55308693647384644
0.93334084749221802 0.51659619808197021 0.53485572338104248
0.31004312634468079 0.68084996938705444 0.61984670162200928
0.3690076470375061 0.67911112308502197 0.62094348669052124
0.47795847058296204 0.68049293756484985 0.62336105108261108
0.59487569332122803 0.67837011814117432 0.62596964836120605
0.70816737413406372 0.67635858058929443 0.62865537405014038
0.82884937524795532 0.677631676197052 0.62806528806686401
0.93885046243667603 0.67204368114471436 0.61653047800064087
0.45975387096405029 0.79969757795333862 0.68845224380493164
0.49468997120857239 0.80270528793334961 0.68941164016723633
0.55505365133285522 0.80305761098861694 0.69089186191558838
0.63702237606048584 0.79855287075042725 0.69209820032119751
0.72914397716522217 0.79749095439910889 0.69266021251678467
0.84134197235107422 0.80023437738418579 0.69187217950820923
0.94546365737915039 0.79866266250610352 0.68614405393600464
0.56482857465744019 0.93902832269668579 0.76687180995941162
0.59003984928131104 0.94238048791885376 0.76789069175720215
0.62691938877105713 0.94215023517608643 0.76988857984542847
0.68704789876937866 0.93797045946121216 0.77107334136962891
0.76619851589202881 0.9392397403717041 0.77193444967269897
0.87514418363571167 0.94233965873718262 0.77074187994003296
0.98779118061065674 0.94009572267532349 0.764598548412323
0.018677147105336189 0.015898849815130234 0.40466398000717163
0.099439762532711029 0.0099471146240830421 0.40538331866264343
0.2672710120677948 0.0090222377330064774 0.41384434700012207
0.48176431655883789 0.01185735035687685 0.42690417170524597
0.6584966778755188 0.0063133989460766315 0.43437716364860535
0.79100453853607178 0.0021954106632620096 0.43052741885185242
0.90042906999588013 0.0091336416080594063 0.41550150513648987
0.046068932861089706 0.12048975378274918 0.46475231647491455
0.13100770115852356 0.11912021785974503 0.46847856044769287
0.30287227034568787 0.12021686136722565 0.47866854071617126
0.50708436965942383 0.122270368039608 0.48982945084571838
0.67257601022720337 0.11049129813909531 0.49646195769309998
0.80561751127243042 0.08775048702955246 0.49013510346412659
0.91242313385009766 0.080186106264591217 0.47404670715332031
0.024321552366018295 0.32482090592384338 0.53449755907058716
0.10501200705766678 0.33229473233222961 0.54215776920318604
0.33539590239524841 0.32706260681152344 0.55111873149871826
0.52914881706237793 0.3249707818031311 0.55782967805862427
0.68021482229232788 0.31641289591789246 0.56440627574920654
0.81478244066238403 0.29591339826583862 0.56293284893035889
0.92193257808685303 0.27328881621360779 0.55138415098190308
0.089204005897045135 0.53254824876785278 0.61280214786529541
0.20113994181156158 0.53885155916213989 0.62005823850631714
0.39341297745704651 0.53838264942169189 0.62549477815628052
0.55357187986373901 0.53508651256561279 0.63011729717254639
0.68838882446289062 0.53467637300491333 0.63678216934204102
0.81997829675674438 0.53005629777908325 0.63942605257034302
0.92665666341781616 0.51121008396148682 0.62917041778564453
0.27726230025291443 0.6793169379234314 0.68218612670898438
0.35253643989562988 0.6789436936378479 0.68560868501663208
0.46733251214027405 0.68072509765625 0.68921679258346558
0.58669531345367432 0.67809802293777466 0.69221949577331543
0.70365631580352783 0.67846620082855225 0.69636470079421997
0.82569384574890137 0.68062430620193481 0.70026195049285889
0.92693072557449341 0.67276382446289062 0.69594240188598633
0.44753533601760864 0.80538308620452881 0.74743276834487915
0.48459172248840332 0.80563414096832275 0.74805939197540283
0.54573458433151245 0.8055843710899353 0.75049722194671631
0.6291162371635437 0.80147600173950195 0.75219786167144775
0.72613829374313354 0.79724448919296265 0.753764808177948
0.83993107080459595 0.79871708154678345 0.75438916683197021
0.94097048044204712 0.79837042093276978 0.75310808420181274
0.55856913328170776 0.95119619369506836 0.82134467363357544
0.58366918563842773 0.95176631212234497 0.82200300693511963
0.61876773834228516 0.95114332437515259 0.82454419136047363
0.67960107326507568 0.94656062126159668 0.8267967700958252
0.7622445821762085 0.94430619478225708 0.82733428478240967
0.86776572465896606 0.94804930686950684 0.82888197898864746
0.98907727003097534 0.94710564613342285 0.82581007480621338
0.0053844377398490906 0.0016822664765641093 0.47947031259536743
0.07184726744890213 0.00078130984911695123 0.48330396413803101
0.23488824069499969 0.0046535567380487919 0.49139869213104248
0.46300482749938965 0.0064390744082629681 0.50369763374328613
0.64913374185562134 0.00025275736697949469 0.5122380256652832
0.7840772271156311 0 0.51220166683197021
0.89159810543060303 0 0.50231248140335083
0.026406113058328629 0.096104972064495087 0.53282028436660767
0.094948999583721161 0.091711677610874176 0.53944259881973267
0.27099704742431641 0.094660468399524689 0.54948961734771729
0.49103108048439026 0.095132909715175629 0.55786561965942383
0.66292858123779297 0.078080572187900543 0.56554728746414185
0.79948526620864868 0.052794840186834335 0.56286418437957764
0.90961110591888428 0.046737983822822571 0.55240172147750854
0.002524461830034852 0.30580708384513855 0.59821516275405884
0.091746389865875244 0.30479657649993896 0.60831612348556519
0.31640514731407166 0.29992672801017761 0.61609834432601929
0.51874411106109619 0.29578989744186401 0.62046366930007935
0.67152518033981323 0.28653374314308167 0.62714523077011108
0.80877232551574707 0.26722460985183716 0.62912869453430176
0.92032796144485474 0.24767190217971802 0.62089139223098755
0.018828971311450005 0.52921980619430542 0.67645972967147827
0.13288132846355438 0.52806419134140015 0.68652045726776123
0.36163532733917236 0.52880823612213135 0.69174718856811523
0.5417291522026062 0.52539300918579102 0.69374966621398926
0.68101781606674194 0.52415454387664795 0.70019358396530151
0.81535357236862183 0.51792412996292114 0.70660817623138428
0.92610877752304077 0.49835145473480225 0.69885504245758057
0.21074926853179932 0.67756360769271851 0.74613314867019653
0.30031618475914001 0.67471462488174438 0.74943286180496216
0.44484421610832214 0.67430776357650757 0.75279062986373901
0.57404869794845581 0.67279016971588135 0.7557913064956665
0.69252675771713257 0.67485290765762329 0.76462918519973755
0.81940174102783203 0.67175710201263428 0.76956665515899658
0.93066120147705078 0.66291719675064087 0.76399236917495728
0.40607184171676636 0.80271804332733154 0.81220471858978271
0.45568546652793884 0.79961699247360229 0.80988818407058716
0.52676576375961304 0.80016577243804932 0.81122541427612305
0.61472880840301514 0.8009154200553894 0.81523734331130981
0.71362543106079102 0.79972964525222778 0.82124584913253784
0.83149361610412598 0.80055075883865356 0.8216511607170105
0.94251930713653564 0.79784774780273438 0.82611739635467529
0.52970689535140991 0.95190727710723877 0.88787198066711426
0.56335121393203735 0.95371145009994507 0.88585752248764038
0.60352915525436401 0.95421117544174194 0.88657176494598389
0.6648256778717041 0.95122849941253662 0.89115387201309204
0.75074797868728638 0.9575381875038147 0.89267617464065552
0.85543394088745117 0.95370292663574219 0.8963007926940918
0.98739111423492432 0.95956528186798096 0.89977419376373291
0 0 0.5348932147026062
0.049061104655265808 2.3336971935350448e-05 0.54063248634338379
0.20876972377300262 0.0087078018113970757 0.54783064126968384
0.45523309707641602 0.0095430109649896622 0.56002020835876465
0.63951408863067627 0 0.56771337985992432
0.77095019817352295 0 0.56775718927383423
0.87816458940505981 0 0.55954587459564209
0.018771033734083176 0.076905660331249237 0.58980977535247803
0.076552294194698334 0.074973359704017639 0.59577268362045288
0.24884273111820221 0.081874415278434753 0.60101258754730225
0.47932559251785278 0.075679704546928406 0.60656642913818359
0.65283721685409546 0.064209088683128357 0.61697059869766235
0.78462636470794678 0.040946003049612045 0.61896336078643799
0.89243137836456299 0.028040641918778419 0.61263573169708252
0.018375666812062263 0.28534713387489319 0.64581596851348877
0.10127370804548264 0.27955159544944763 0.6580047607421875
0.30195540189743042 0.27945730090141296 0.66190344095230103
0.50848519802093506 0.2653883695602417 0.6657596230506897
0.66321802139282227 0.26621529459953308 0.67763447761535645
0.79848623275756836 0.24823462963104248 0.68176543712615967
0.90617603063583374 0.21459308266639709 0.67471367120742798
0.011543288826942444 0.51729518175125122 0.72611182928085327
0.11063475906848907 0.50978922843933105 0.73650050163269043
0.34270378947257996 0.51340460777282715 0.73737746477127075
0.52952855825424194 0.51174002885818481 0.74185597896575928
0.67225050926208496 0.51107656955718994 0.75276023149490356
0.80774486064910889 0.50101292133331299 0.75725740194320679
0.91859924793243408 0.48014777898788452 0.75080829858779907
0.17836025357246399 0.66896587610244751 0.80359369516372681
0.26188701391220093 0.66710317134857178 0.80253666639328003
0.42212530970573425 0.6680140495300293 0.80287075042724609
0.56064993143081665 0.66989666223526001 0.81026089191436768
0.68196111917495728 0.66676855087280273 0.82081985473632812
0.80717611312866211 0.66090285778045654 0.82348650693893433
0.91800945997238159 0.65733814239501953 0.81826263666152954
0.36008119583129883 0.80223590135574341 0.87393742799758911
0.41731908917427063 0.79674810171127319 0.86728966236114502
0.50273865461349487 0.79713344573974609 0.86188894510269165
0.59854823350906372 0.79802787303924561 0.87427043914794922
0.70254737138748169 0.79627817869186401 0.87903183698654175
0.82619136571884155 0.79711216688156128 0.87827831506729126
0.94123154878616333 0.79555320739746094 0.8906739354133606
0.49078652262687683 0.95623362064361572 0.94960099458694458
0.53512179851531982 0.95549356937408447 0.94317269325256348
0.58096134662628174 0.95192104578018188 0.94529879093170166
0.64908283948898315 0.95832693576812744 0.94981199502944946
0.73802775144577026 0.95687079429626465 0.96035122871398926
0.8462531566619873 0.96307206153869629 0.96560949087142944
0.9837040901184082 0.96258997917175293 0.97652983665466309
