assets/lut/films colorslide polaroid 669.cube
# Created by: G'MIC (https://gmic.eu)
TITLE "polaroid_669"
# LUT size
LUT_3D_SIZE 13
# Data domain
DOMAIN_MIN 0.0 0.0 0.0
DOMAIN_MAX 1.0 1.0 1.0
# LUT data points
0.016914516687393188 0.15287463366985321 0.11792336404323578
0.056013502180576324 0.15229277312755585 0.11846808344125748
0.10670796036720276 0.15394634008407593 0.12178091704845428
0.16315054893493652 0.1587737649679184 0.12529835104942322
0.23300507664680481 0.16394986212253571 0.12899579107761383
0.31827232241630554 0.16623345017433167 0.13434447348117828
0.40705052018165588 0.16307412087917328 0.1404542475938797
0.49749469757080078 0.15750789642333984 0.14663541316986084
0.5894244909286499 0.15383060276508331 0.15183550119400024
0.67820960283279419 0.14768479764461517 0.15704867243766785
0.76375329494476318 0.14565461874008179 0.16347664594650269
0.84675216674804688 0.15427631139755249 0.17409902811050415
0.92733508348464966 0.17327362298965454 0.19155010581016541
0.018072614446282387 0.17595274746417999 0.12524215877056122
0.060970157384872437 0.17430593073368073 0.12468655407428741
0.11631341278553009 0.17619180679321289 0.12592306733131409
0.1769365519285202 0.1786477267742157 0.12961281836032867
0.25151905417442322 0.18257103860378265 0.1350160539150238
0.33961048722267151 0.18638747930526733 0.14098498225212097
0.42996972799301147 0.18539708852767944 0.14613343775272369
0.51896685361862183 0.18043702840805054 0.15112693607807159
0.60667139291763306 0.17653609812259674 0.15619505941867828
0.69194048643112183 0.17283152043819427 0.16228438913822174
0.77448099851608276 0.17392832040786743 0.16883145272731781
0.8545258641242981 0.18613678216934204 0.17793844640254974
0.93216913938522339 0.20732587575912476 0.19368812441825867
0.020643331110477448 0.20668043196201324 0.13448427617549896
0.064943678677082062 0.20415575802326202 0.13312402367591858
0.1224101334810257 0.20657600462436676 0.12992207705974579
0.18769820034503937 0.20941859483718872 0.13147492706775665
0.27028095722198486 0.21456310153007507 0.13917478919029236
0.36646127700805664 0.22181592881679535 0.14821946620941162
0.45921134948730469 0.22337064146995544 0.15385714173316956
0.5454869270324707 0.21974477171897888 0.15838311612606049
0.62790966033935547 0.21621955931186676 0.16354288160800934
0.70912730693817139 0.21438300609588623 0.16983942687511444
0.78748613595962524 0.21721909940242767 0.17631283402442932
0.86366713047027588 0.23071196675300598 0.18429359793663025
0.93831342458724976 0.25144821405410767 0.19878411293029785
0.027177728712558746 0.24902504682540894 0.14312969148159027
0.070274785161018372 0.24432899057865143 0.14196176826953888
0.12729941308498383 0.24560235440731049 0.13740396499633789
0.19481325149536133 0.25059050321578979 0.13492071628570557
0.28212401270866394 0.2589404284954071 0.13980275392532349
0.38459688425064087 0.26791244745254517 0.1495797336101532
0.48015666007995605 0.27175948023796082 0.15743300318717957
0.56610363721847534 0.2720550000667572 0.16438004374504089
0.64765483140945435 0.27235311269760132 0.17166921496391296
0.72593635320663452 0.27379265427589417 0.17910309135913849
0.80145776271820068 0.27913451194763184 0.18611367046833038
0.87411922216415405 0.29094934463500977 0.19409757852554321
0.94478529691696167 0.30947771668434143 0.20800712704658508
0.043849345296621323 0.30318045616149902 0.14828374981880188
0.083310715854167938 0.29698684811592102 0.14804299175739288
0.13651622831821442 0.29454338550567627 0.14580482244491577
0.20283010601997375 0.29928287863731384 0.14270958304405212
0.2853710949420929 0.30826753377914429 0.14182312786579132
0.37946891784667969 0.31505373120307922 0.14360718429088593
0.47522979974746704 0.31922513246536255 0.14965812861919403
0.56765764951705933 0.32537403702735901 0.16058683395385742
0.65648102760314941 0.33464890718460083 0.17376427352428436
0.73993963003158569 0.34483948349952698 0.18777193129062653
0.81635218858718872 0.35570776462554932 0.20037685334682465
0.88601768016815186 0.3673408031463623 0.21062126755714417
0.95261049270629883 0.38344737887382507 0.22462514042854309
0.068425044417381287 0.36103180050849915 0.15401533246040344
0.10294162482023239 0.35384544730186462 0.1542133241891861
0.14979071915149689 0.3481176495552063 0.15420198440551758
0.20944423973560333 0.35074037313461304 0.15244357287883759
0.28231176733970642 0.35842102766036987 0.14817532896995544
0.36454114317893982 0.36254176497459412 0.14102399349212646
0.4533369243144989 0.36578664183616638 0.13889029622077942
0.54922193288803101 0.37576436996459961 0.14702770113945007
0.6474030613899231 0.39384347200393677 0.16393508017063141
0.74096208810806274 0.41524931788444519 0.1874488890171051
0.82368713617324829 0.43554744124412537 0.21167708933353424
0.89370483160018921 0.45159965753555298 0.22987699508666992
0.95879995822906494 0.46734139323234558 0.24866753816604614
0.092055484652519226 0.414987713098526 0.16120046377182007
0.12247691303491592 0.40958485007286072 0.16085253655910492
0.16299903392791748 0.40320906043052673 0.1616133451461792
0.2143196314573288 0.40121525526046753 0.16062390804290771
0.27788054943084717 0.4051569402217865 0.15570768713951111
0.35252410173416138 0.4120490550994873 0.14626950025558472
0.43598100543022156 0.42019400000572205 0.13855269551277161
0.52630436420440674 0.42812362313270569 0.13659171760082245
0.62265801429748535 0.44369986653327942 0.14458662271499634
0.71861636638641357 0.46821922063827515 0.16535548865795135
0.80752807855606079 0.49753668904304504 0.19790124893188477
0.88696122169494629 0.52725362777709961 0.2356521338224411
0.9591529369354248 0.55378776788711548 0.27372455596923828
0.10622349381446838 0.46869176626205444 0.16541510820388794
0.13546131551265717 0.46617510914802551 0.16458334028720856
0.1729915589094162 0.46063292026519775 0.16482779383659363
0.21804434061050415 0.45255503058433533 0.1656770259141922
0.27486321330070496 0.45189639925956726 0.16241262853145599
0.34490427374839783 0.46238940954208374 0.15359057486057281
0.42377084493637085 0.47445482015609741 0.14314271509647369
0.50730937719345093 0.4823487401008606 0.13311979174613953
0.5946052074432373 0.49266853928565979 0.12612675130367279
0.68293988704681396 0.50875651836395264 0.12605687975883484
0.77304226160049438 0.538596510887146 0.15081486105918884
0.86334848403930664 0.5807604193687439 0.20481014251708984
0.9473755955696106 0.6228519082069397 0.26694402098655701
0.10845824331045151 0.53224635124206543 0.16139908134937286
0.14012792706489563 0.52920055389404297 0.16307751834392548
0.17850442230701447 0.52287864685058594 0.16479058563709259
0.21998274326324463 0.50964021682739258 0.16650953888893127
0.27308440208435059 0.50506973266601562 0.1648591160774231
0.3409026563167572 0.51759916543960571 0.15601068735122681
0.41576573252677917 0.5308193564414978 0.14466774463653564
0.49470964074134827 0.5422137975692749 0.13122886419296265
0.57611721754074097 0.55406540632247925 0.11362853646278381
0.65505820512771606 0.56226098537445068 0.087236933410167694
0.74000799655914307 0.58125382661819458 0.083802707493305206
0.83377218246459961 0.62324577569961548 0.13359293341636658
0.92721903324127197 0.67424654960632324 0.21293841302394867
0.10645946115255356 0.60907161235809326 0.15063583850860596
0.14051003754138947 0.60439455509185791 0.15525583922863007
0.18151775002479553 0.59659075736999512 0.15964394807815552
0.22292129695415497 0.58362048864364624 0.15898291766643524
0.27493077516555786 0.57556754350662231 0.15758414566516876
0.34047392010688782 0.58314007520675659 0.1504988819360733
0.41205096244812012 0.59608340263366699 0.13805374503135681
0.48763439059257507 0.61086428165435791 0.11924552172422409
0.56700432300567627 0.62809950113296509 0.093924731016159058
0.64448529481887817 0.64016437530517578 0.05067424476146698
0.72323471307754517 0.65002626180648804 0.017480961978435516
0.81231158971786499 0.67785578966140747 0.035665132105350494
0.90794110298156738 0.7251092791557312 0.11454696953296661
0.11565703153610229 0.70493042469024658 0.14288762211799622
0.14583893120288849 0.70075452327728271 0.14473415911197662
0.19120831787586212 0.69426792860031128 0.15258072316646576
0.23495484888553619 0.68397164344787598 0.15008266270160675
0.28483271598815918 0.67443293333053589 0.14405356347560883
0.34674724936485291 0.67470693588256836 0.13722199201583862
0.4163631796836853 0.68537718057632446 0.12422388046979904
0.49028560519218445 0.70021647214889526 0.10066331177949905
0.56761264801025391 0.71659833192825317 0.067573398351669312
0.64677202701568604 0.73554164171218872 0.02192738838493824
0.72637015581130981 0.74921810626983643 0.00027753046015277505
0.80882638692855835 0.76230275630950928 1.7951516610992257e-06
0.89636629819869995 0.78755205869674683 0.015074277296662331
0.17353102564811707 0.82160145044326782 0.16964916884899139
0.19227534532546997 0.81847888231277466 0.16567789018154144
0.2403741329908371 0.81416702270507812 0.18019562959671021
0.2815912663936615 0.80820035934448242 0.1731160581111908
0.3232211172580719 0.80328023433685303 0.15479864180088043
0.3794463574886322 0.80250334739685059 0.14590050280094147
0.44746577739715576 0.80783092975616455 0.14053191244602203
0.52264320850372314 0.81693738698959351 0.12903900444507599
0.59706360101699829 0.82935267686843872 0.099464923143386841
0.67493003606796265 0.84662437438964844 0.067314177751541138
0.75523710250854492 0.85955959558486938 0.035713568329811096
0.83389031887054443 0.86914682388305664 0.01416569110006094
0.911640465259552 0.88196325302124023 0.028093419969081879
0.30485948920249939 0.94623905420303345 0.26527190208435059
0.31704616546630859 0.9444316029548645 0.26173916459083557
0.35398128628730774 0.94216698408126831 0.27341368794441223
0.38106071949005127 0.93945598602294922 0.25910532474517822
0.41320100426673889 0.93822109699249268 0.23948952555656433
0.46358552575111389 0.93833673000335693 0.23707146942615509
0.52779704332351685 0.94122594594955444 0.24766851961612701
0.59987670183181763 0.94606548547744751 0.2582295835018158
0.66809463500976562 0.95157283544540405 0.24841119349002838
0.73967921733856201 0.95874011516571045 0.24653491377830505
0.81923693418502808 0.96312874555587769 0.26395609974861145
0.89118492603302002 0.96742540597915649 0.25617623329162598
0.95605605840682983 0.97448903322219849 0.27303850650787354
0.013806870207190514 0.15631172060966492 0.13868102431297302
0.051047846674919128 0.15595467388629913 0.14076787233352661
0.10209868103265762 0.15960840880870819 0.14519363641738892
0.16462652385234833 0.1638648509979248 0.15137465298175812
0.2396293580532074 0.16736820340156555 0.15621420741081238
0.3265109658241272 0.168892502784729 0.16021133959293365
0.4172438383102417 0.16413985192775726 0.16451096534729004
0.50814813375473022 0.15787704288959503 0.16963183879852295
0.59762316942214966 0.15510833263397217 0.17531150579452515
0.68348205089569092 0.14597947895526886 0.17941521108150482
0.76664459705352783 0.14043553173542023 0.18556332588195801
0.84820526838302612 0.14888589084148407 0.19708554446697235
0.92753523588180542 0.16926455497741699 0.215232253074646
0.01476129237562418 0.18078343570232391 0.14858564734458923
0.057112362235784531 0.1781657338142395 0.14999544620513916
0.11466380208730698 0.17948658764362335 0.15287107229232788
0.17912986874580383 0.18271882832050323 0.15700434148311615
0.25638172030448914 0.18588891625404358 0.16161631047725677
0.34592065215110779 0.18682184815406799 0.1659361869096756
0.43637904524803162 0.18457579612731934 0.16934573650360107
0.52510005235671997 0.18029503524303436 0.17368832230567932
0.61097592115402222 0.1773381233215332 0.1787504106760025
0.69406306743621826 0.17304788529872894 0.18420128524303436
0.77539849281311035 0.17337208986282349 0.19097375869750977
0.85536736249923706 0.18479940295219421 0.20136739313602448
0.93303191661834717 0.20605023205280304 0.21787922084331512
0.01711539551615715 0.2136259526014328 0.15977393090724945
0.064635500311851501 0.21009045839309692 0.16019740700721741
0.12744475901126862 0.21076506376266479 0.15967260301113129
0.1966003030538559 0.21431402862071991 0.16150450706481934
0.27883157134056091 0.22018390893936157 0.1679571121931076
0.37201479077339172 0.22465462982654572 0.17515328526496887
0.46287715435028076 0.22516973316669464 0.1795642226934433
0.5487062931060791 0.22260147333145142 0.18385425209999084
0.62912493944168091 0.21981486678123474 0.18816225230693817
0.70912081003189087 0.21690686047077179 0.1932435929775238
0.78632956743240356 0.21969059109687805 0.19946262240409851
0.8631787896156311 0.23182819783687592 0.20810887217521667
0.93871551752090454 0.25182360410690308 0.22267387807369232
0.021680464968085289 0.25997921824455261 0.16874127089977264
0.07230135053396225 0.25544223189353943 0.16878880560398102
0.13685129582881927 0.25406458973884583 0.16662049293518066
0.20899489521980286 0.25749310851097107 0.16410267353057861
0.29600369930267334 0.26541844010353088 0.16808885335922241
0.39213895797729492 0.27284929156303406 0.17788627743721008
0.486127108335495 0.27757009863853455 0.1870281845331192
0.57287102937698364 0.27899360656738281 0.19546294212341309
0.65142911672592163 0.27856361865997314 0.20093977451324463
0.72610247135162354 0.27704623341560364 0.20513895153999329
0.79925912618637085 0.28058871626853943 0.20983409881591797
0.87257808446884155 0.29277631640434265 0.21734386682510376
0.9441760778427124 0.31081381440162659 0.23114335536956787
0.040497723966836929 0.31773042678833008 0.17524565756320953
0.087056227028369904 0.31140747666358948 0.17604163289070129
0.14583975076675415 0.30508571863174438 0.17461131513118744
0.21389360725879669 0.30688008666038513 0.16867658495903015
0.29537081718444824 0.31485417485237122 0.16484449803829193
0.38698360323905945 0.32237279415130615 0.16749735176563263
0.48611336946487427 0.32898685336112976 0.1799769252538681
0.58076328039169312 0.33638843894004822 0.19579362869262695
0.66509640216827393 0.34374257922172546 0.2081415206193924
0.74202626943588257 0.34906026721000671 0.21687154471874237
0.81390643119812012 0.35586926341056824 0.2242288738489151
0.88411301374435425 0.36817598342895508 0.23267504572868347
0.9513358473777771 0.38336452841758728 0.24490182101726532
0.076593615114688873 0.37661218643188477 0.18182224035263062
0.11149332672357559 0.36975815892219543 0.18245814740657806
0.15861696004867554 0.36003834009170532 0.18168336153030396
0.21693408489227295 0.35782739520072937 0.17632143199443817
0.2885127067565918 0.36350929737091064 0.16843600571155548
0.37234464287757874 0.36991912126541138 0.16277618706226349
0.46522489190101624 0.37625217437744141 0.1652711033821106
0.56124973297119141 0.38531559705734253 0.17759791016578674
0.65696293115615845 0.40188965201377869 0.19614927470684052
0.74578768014907837 0.42140969634056091 0.21762457489967346
0.82444709539413452 0.43929970264434814 0.23871630430221558
0.89423686265945435 0.45389801263809204 0.2536005973815918
0.95766204595565796 0.46601694822311401 0.26665931940078735
0.10576567053794861 0.43081021308898926 0.18797588348388672
0.13413500785827637 0.42510166764259338 0.18798542022705078
0.17201873660087585 0.41553384065628052 0.18749181926250458
0.22050468623638153 0.40907114744186401 0.18399082124233246
0.28264865279197693 0.41103440523147583 0.17694339156150818
0.35887002944946289 0.41930553317070007 0.1678602546453476
0.4436071515083313 0.42779508233070374 0.16143183410167694
0.53151828050613403 0.43110686540603638 0.15859606862068176
0.62714672088623047 0.44593212008476257 0.16856671869754791
0.72384494543075562 0.47350248694419861 0.19325943291187286
0.81278574466705322 0.50538831949234009 0.22869375348091125
0.89110910892486572 0.53252261877059937 0.26348266005516052
0.95966970920562744 0.55232042074203491 0.29320642352104187
0.11691698431968689 0.48405689001083374 0.18992996215820312
0.14446258544921875 0.48070469498634338 0.18941926956176758
0.18021075427532196 0.47221666574478149 0.18931815028190613
0.22417178750038147 0.46230626106262207 0.18846163153648376
0.28034457564353943 0.46049457788467407 0.18383753299713135
0.35020345449447632 0.46986615657806396 0.1758863627910614
0.42864853143692017 0.48093318939208984 0.16607764363288879
0.51010334491729736 0.48493173718452454 0.15413230657577515
0.59733957052230835 0.49361434578895569 0.14684620499610901
0.68835610151290894 0.51373505592346191 0.15243977308273315
0.78042399883270264 0.54671388864517212 0.18318486213684082
0.86952030658721924 0.58708751201629639 0.23613592982292175
0.95001482963562012 0.62284117937088013 0.2910027801990509
0.11615488678216934 0.54516792297363281 0.18496198952198029
0.14465054869651794 0.54146623611450195 0.18624597787857056
0.18151082098484039 0.53335648775100708 0.18667817115783691
0.2252519428730011 0.52090603113174438 0.18635272979736328
0.27917584776878357 0.51594501733779907 0.18443132936954498
0.34552028775215149 0.52394580841064453 0.17765170335769653
0.41929739713668823 0.53602641820907593 0.16733361780643463
0.49774855375289917 0.54645782709121704 0.15427280962467194
0.57970225811004639 0.55787116289138794 0.13731510937213898
0.66191405057907104 0.5705295205116272 0.11773207783699036
0.74795681238174438 0.59120416641235352 0.12358130514621735
0.84091997146606445 0.63065540790557861 0.17280443012714386
0.93116170167922974 0.67666083574295044 0.24362902343273163
0.11020904034376144 0.61909192800521851 0.17449881136417389
0.14159232378005981 0.61400806903839111 0.17745186388492584
0.18008320033550262 0.60623443126678467 0.17769032716751099
0.22436776757240295 0.59400618076324463 0.17650508880615234
0.27925384044647217 0.58559608459472656 0.17626233398914337
0.34402626752853394 0.58936882019042969 0.17069274187088013
0.41350674629211426 0.60123920440673828 0.15780322253704071
0.489786297082901 0.61573499441146851 0.1444530189037323
0.57141697406768799 0.6322934627532959 0.12725821137428284
0.6515076756477356 0.64875918626785278 0.093211203813552856
0.73124986886978149 0.66076123714447021 0.064261175692081451
0.81845563650131226 0.68412321805953979 0.075159244239330292
0.91170090436935425 0.72664719820022583 0.14058496057987213
0.11404073238372803 0.71260231733322144 0.16577330231666565
0.14747442305088043 0.70798200368881226 0.16967380046844482
0.18795329332351685 0.70179510116577148 0.17017911374568939
0.23160229623317719 0.6916269063949585 0.16638317704200745
0.2871641218662262 0.68210804462432861 0.16562375426292419
0.35035267472267151 0.68124711513519287 0.15923021733760834
0.41636040806770325 0.69054484367370605 0.14236550033092499
0.49033388495445251 0.70397543907165527 0.126754030585289
0.57239174842834473 0.72040379047393799 0.11138924956321716
0.65343153476715088 0.74051403999328613 0.073130741715431213
0.73340523242950439 0.75428730249404907 0.024301715195178986
0.81311869621276855 0.76203829050064087 0.0035195443779230118
0.8985440731048584 0.78705817461013794 0.020472792908549309
0.1661781370639801 0.82610642910003662 0.187907874584198
0.20096330344676971 0.82376056909561157 0.19612257182598114
0.23736822605133057 0.81946390867233276 0.19730216264724731
0.27403628826141357 0.81297963857650757 0.18823917210102081
0.32576042413711548 0.80741202831268311 0.18430887162685394
0.38577952980995178 0.80603063106536865 0.17798846960067749
0.44776079058647156 0.81028473377227783 0.16150893270969391
0.52009207010269165 0.81884580850601196 0.15016975998878479
0.59902244806289673 0.83267003297805786 0.13858897984027863
0.67969721555709839 0.84998446702957153 0.11383876204490662
0.75913578271865845 0.86044794321060181 0.075296618044376373
0.83574259281158447 0.8662877082824707 0.033341500908136368
0.91282808780670166 0.88061422109603882 0.030377062037587166
0.29487058520317078 0.94717240333557129 0.27797004580497742
0.32555225491523743 0.94759935140609741 0.28719374537467957
0.35038661956787109 0.94551283121109009 0.28622910380363464
0.37444087862968445 0.94237679243087769 0.27363497018814087
0.41625288128852844 0.94097834825515747 0.2697683572769165
0.47146210074424744 0.94108980894088745 0.27249252796173096
0.52779603004455566 0.94165867567062378 0.26656049489974976
0.5931963324546814 0.9453580379486084 0.26606050133705139
0.66565549373626709 0.95266592502593994 0.26741132140159607
0.74029123783111572 0.9611278772354126 0.27061858773231506
0.81744527816772461 0.9650803804397583 0.27913740277290344
0.88908952474594116 0.96770918369293213 0.2722230851650238
0.95627671480178833 0.97454869747161865 0.28193831443786621
0.0079484675079584122 0.1630428284406662 0.17084480822086334
0.04197215661406517 0.1626308262348175 0.1749422699213028
0.10014595836400986 0.16781976819038391 0.18091313540935516
0.16462787985801697 0.17428825795650482 0.18776848912239075
0.24125666916370392 0.17530369758605957 0.1948455423116684
0.3330267071723938 0.17137888073921204 0.20072926580905914
0.42924058437347412 0.1628422886133194 0.20524613559246063
0.52199685573577881 0.15382510423660278 0.20855256915092468
0.60822564363479614 0.14674147963523865 0.21090266108512878
0.69074279069900513 0.13610276579856873 0.21364334225654602
0.77165007591247559 0.13050514459609985 0.21940037608146667
0.85114705562591553 0.14121183753013611 0.23144145309925079
0.92891848087310791 0.16639257967472076 0.25097650289535522
0.0082307253032922745 0.18956722319126129 0.18372942507266998
0.046616349369287491 0.18531577289104462 0.18740162253379822
0.11126438528299332 0.18671903014183044 0.19215479493141174
0.18044091761112213 0.19135594367980957 0.19663393497467041
0.25987556576728821 0.19189795851707458 0.20155924558639526
0.35169261693954468 0.18789589405059814 0.20535075664520264
0.44548609852790833 0.18201556801795959 0.20900872349739075
0.53497552871704102 0.17721058428287506 0.21291831135749817
0.61851209402084351 0.17483481764793396 0.21627166867256165
0.6993708610534668 0.17025177180767059 0.22047057747840881
0.77855384349822998 0.17066687345504761 0.22672669589519501
0.85701781511306763 0.18347761034965515 0.23733939230442047
0.934070885181427 0.2067524790763855 0.25414466857910156
0.01137098390609026 0.22264431416988373 0.19844996929168701
0.059047356247901917 0.21905387938022614 0.20140162110328674
0.12984129786491394 0.22013767063617706 0.20371431112289429
0.20421279966831207 0.22340810298919678 0.20787826180458069
0.29052183032035828 0.22649131715297699 0.21509657800197601
0.38093903660774231 0.22528685629367828 0.21832327544689178
0.4699990451335907 0.22326290607452393 0.22144006192684174
0.55387979745864868 0.22251367568969727 0.22469265758991241
0.63258117437362671 0.22145217657089233 0.22743460536003113
0.71112853288650513 0.21876130998134613 0.23183201253414154
0.78744500875473022 0.2228713184595108 0.23810163140296936
0.86352884769439697 0.23479470610618591 0.24641993641853333
0.93896347284317017 0.25350761413574219 0.25973093509674072
0.012422105297446251 0.27172768115997314 0.2101212739944458
0.070093967020511627 0.2699357271194458 0.21246305108070374
0.14792357385158539 0.2699856162071228 0.21335616707801819
0.22555723786354065 0.27107453346252441 0.21337482333183289
0.31473878026008606 0.27578514814376831 0.21899989247322083
0.40678951144218445 0.27994170784950256 0.2299758642911911
0.49425879120826721 0.28131625056266785 0.23471210896968842
0.57650744915008545 0.28241881728172302 0.23911124467849731
0.65334373712539673 0.28173407912254333 0.24329976737499237
0.72777962684631348 0.28036943078041077 0.24672394990921021
0.79953646659851074 0.28530064225196838 0.2506965696811676
0.87215769290924072 0.29785826802253723 0.25740134716033936
0.94403815269470215 0.31475818157196045 0.26945814490318298
0.02935435064136982 0.33541411161422729 0.21830439567565918
0.086703717708587646 0.33275532722473145 0.22171254456043243
0.15939439833164215 0.3268178403377533 0.22249755263328552
0.23294918239116669 0.32512345910072327 0.21695351600646973
0.31470730900764465 0.32969117164611816 0.21327817440032959
0.40629157423973083 0.33475574851036072 0.22172024846076965
0.49844476580619812 0.33852636814117432 0.2305133044719696
0.58795547485351562 0.345041424036026 0.24413132667541504
