assets/lut/films negative color agfa ultra color 100.cube
# Created by: G'MIC (https://gmic.eu)
TITLE "agfa_ultra_color_100"
# LUT size
LUT_3D_SIZE 13
# Data domain
DOMAIN_MIN 0.0 0.0 0.0
DOMAIN_MAX 1.0 1.0 1.0
# LUT data points
0.033487223088741302 0.024473331868648529 0.015675503760576248
0.061349935829639435 0.01329193077981472 0.015822915360331535
0.098586633801460266 0.0069299135357141495 0.014226711355149746
0.14025206863880157 0.0044994279742240906 0.010541444644331932
0.19395530223846436 0.00089003617176786065 0.0075391731224954128
0.26165768504142761 0 0.0051953932270407677
0.34807190299034119 0 0.0044053620658814907
0.44834613800048828 0.00011279536556685343 0.0049376394599676132
0.54979944229125977 0.0014000238152220845 0.0051408056169748306
0.63983476161956787 0.0017796385800465941 0.0026404287200421095
0.71351492404937744 0.0020046457648277283 0.00033946317853406072
0.77600646018981934 0.0030240975320339203 0
0.83145290613174438 0.0034738876856863499 8.6346793978009373e-05
0.056711744517087936 0.08414662629365921 0.028254430741071701
0.081979118287563324 0.070589520037174225 0.028227593749761581
0.12166593968868256 0.055593393743038177 0.026999829337000847
0.16744090616703033 0.039153695106506348 0.024171866476535797
0.22101742029190063 0.021909182891249657 0.020029928535223007
0.28768500685691833 0.013286231085658073 0.015578116290271282
0.37415677309036255 0.0082141207531094551 0.013983169570565224
0.4736381471157074 0.0026880600489675999 0.014085088856518269
0.57409930229187012 8.2262828072998673e-05 0.013451819308102131
0.66319781541824341 0 0.008096747100353241
0.73636335134506226 0 0.0025200487580150366
0.79783433675765991 2.5132123937510187e-06 0.0010147393913939595
0.85169976949691772 1.6545314792892896e-05 0.0020872079767286777
0.095006413757801056 0.15004520118236542 0.044581186026334763
0.11210538446903229 0.14296130836009979 0.043779365718364716
0.1449924111366272 0.13006420433521271 0.041781853884458542
0.19051326811313629 0.10789255052804947 0.038812972605228424
0.24625885486602783 0.082369484007358551 0.034358829259872437
0.31638368964195251 0.061965480446815491 0.029265504330396652
0.40418091416358948 0.044517457485198975 0.026253823190927505
0.50200539827346802 0.024833798408508301 0.023548875004053116
0.59948915243148804 0.005902518518269062 0.019022503867745399
0.68710356950759888 3.5005457903025672e-05 0.011916216462850571
0.76105087995529175 0 0.0062772715464234352
0.822795569896698 0 0.0054498109966516495
0.87562882900238037 0 0.0096360454335808754
0.12109045684337616 0.23154608905315399 0.065643623471260071
0.13708095252513885 0.22726099193096161 0.06487564742565155
0.1680864542722702 0.21665698289871216 0.06224638968706131
0.21509188413619995 0.19754885137081146 0.058008469641208649
0.27491480112075806 0.17401577532291412 0.052066892385482788
0.35023894906044006 0.14792567491531372 0.045917391777038574
0.4405805766582489 0.11750806868076324 0.040776871144771576
0.53731232881546021 0.083352155983448029 0.034928072243928909
0.63193875551223755 0.04580891877412796 0.026889007538557053
0.71785056591033936 0.01323121041059494 0.018417747691273689
0.79278123378753662 0.0024336571805179119 0.01473521813750267
0.85563820600509644 0.0010300131980329752 0.017889553681015968
0.90701395273208618 0.0017238243017345667 0.02758229523897171
0.1146947368979454 0.3408772349357605 0.086355037987232208
0.14120838046073914 0.33485928177833557 0.085612095892429352
0.18299512565135956 0.32385990023612976 0.082360647618770599
0.23981139063835144 0.30687466263771057 0.07716592401266098
0.30934202671051025 0.28601586818695068 0.070432804524898529
0.39195543527603149 0.25821343064308167 0.063710905611515045
0.48473054170608521 0.22401748597621918 0.057192754000425339
0.58102059364318848 0.18434646725654602 0.049646608531475067
0.67421883344650269 0.13801094889640808 0.040223784744739532
0.75904637575149536 0.090536095201969147 0.031807005405426025
0.834053635597229 0.059362597763538361 0.031201606616377831
0.89697265625 0.041775722056627274 0.039392732083797455
0.94610458612442017 0.031286485493183136 0.053759898990392685
0.098385483026504517 0.46935316920280457 0.098396435379981995
0.13559216260910034 0.46415862441062927 0.097509868443012238
0.19165472686290741 0.45340487360954285 0.094439037144184113
0.26339572668075562 0.43732380867004395 0.088973060250282288
0.34634855389595032 0.41641610860824585 0.082728788256645203
0.43813943862915039 0.3890317976474762 0.077440820634365082
0.53427952527999878 0.35828503966331482 0.072315901517868042
0.63097184896469116 0.32289284467697144 0.06535261869430542
0.72404873371124268 0.28039222955703735 0.057193338871002197
0.80885523557662964 0.23556122183799744 0.052044093608856201
0.88199043273925781 0.19239594042301178 0.054049309343099594
0.94049340486526489 0.15102897584438324 0.064546443521976471
0.98292559385299683 0.1191074475646019 0.08231431245803833
0.10433781892061234 0.60332584381103516 0.091139249503612518
0.14454564452171326 0.60162979364395142 0.094185881316661835
0.20929330587387085 0.59267210960388184 0.092811480164527893
0.29369118809700012 0.57573843002319336 0.08769487589597702
0.38829925656318665 0.5555681586265564 0.082863315939903259
0.48683410882949829 0.53157699108123779 0.080965779721736908
0.58592730760574341 0.50709152221679688 0.079809106886386871
0.68344587087631226 0.4767146110534668 0.075410403311252594
0.77641677856445312 0.44087725877761841 0.069979727268218994
0.86043334007263184 0.40386143326759338 0.069194942712783813
0.9281190037727356 0.36053586006164551 0.074260443449020386
0.97428971529006958 0.31341984868049622 0.087081640958786011
0.99839907884597778 0.27129635214805603 0.10780180245637894
0.15337406098842621 0.72618573904037476 0.064420305192470551
0.18931305408477783 0.72875350713729858 0.07354610413312912
0.25388002395629883 0.72112554311752319 0.076350376009941101
0.34282630681991577 0.70389288663864136 0.072237692773342133
0.44116127490997314 0.6830829381942749 0.06881982833147049
0.54152858257293701 0.66221177577972412 0.070179268717765808
0.64104640483856201 0.64169877767562866 0.073226228356361389
0.73716527223587036 0.61468344926834106 0.072366498410701752
0.82769453525543213 0.58397728204727173 0.071780651807785034
0.90810889005661011 0.55187106132507324 0.07583986222743988
0.96827638149261475 0.51658487319946289 0.086180470883846283
0.9950365424156189 0.48314031958580017 0.10344585031270981
0.9999229907989502 0.4481494128704071 0.12814392149448395
0.24510933458805084 0.82801204919815063 0.029936501756310463
0.27653178572654724 0.83201694488525391 0.043325342237949371
0.33462297916412354 0.82473301887512207 0.050350908190011978
0.41616934537887573 0.807792067527771 0.048763543367385864
0.50901287794113159 0.78821665048599243 0.047258354723453522
0.60488635301589966 0.76868331432342529 0.051337327808141708
0.69981342554092407 0.74770307540893555 0.055210143327713013
0.79036307334899902 0.72393828630447388 0.057394258677959442
0.87404322624206543 0.69823116064071655 0.061304248869419098
0.9464532732963562 0.67075610160827637 0.0705886110663414
0.99363100528717041 0.64318710565567017 0.087048642337322235
1 0.62032002210617065 0.11061564087867737
1 0.59326636791229248 0.13989384472370148
0.3607490062713623 0.91038787364959717 0.0072524873539805412
0.38873451948165894 0.91324931383132935 0.019137602299451828
0.43882361054420471 0.90662217140197754 0.026603743433952332
0.50899934768676758 0.89106446504592896 0.027844956144690514
0.59052789211273193 0.87210464477539062 0.030743766576051712
0.67605692148208618 0.85292381048202515 0.036371957510709763
0.76148921251296997 0.83322447538375854 0.039303664118051529
0.84195518493652344 0.81197112798690796 0.039355512708425522
0.91355764865875244 0.78991973400115967 0.042977876961231232
0.97075796127319336 0.76785570383071899 0.053518183529376984
0.99909001588821411 0.7463226318359375 0.073427431285381317
1 0.72662955522537231 0.10299620032310486
1 0.70293515920639038 0.13842473924160004
0.48664197325706482 0.97583878040313721 0.00083405739860609174
0.51312249898910522 0.97672784328460693 0.0032065745908766985
0.55633723735809326 0.96953868865966797 0.0060278200544416904
0.61464387178421021 0.95637351274490356 0.009214768186211586
0.6825706958770752 0.94066822528839111 0.017244242131710052
0.75463408231735229 0.92348456382751465 0.025721816346049309
0.82676917314529419 0.90498733520507812 0.024632757529616356
0.89385372400283813 0.88608711957931519 0.017097083851695061
0.94906336069107056 0.86732864379882812 0.015081548132002354
0.98867082595825195 0.8488803505897522 0.022941844537854195
1 0.83186900615692139 0.043086271733045578
1 0.81384807825088501 0.078119181096553802
1 0.79309803247451782 0.12119221687316895
0.6250298023223877 1 0
0.64866441488265991 1 0
0.68443417549133301 0.99964183568954468 0
0.73089677095413208 0.99683237075805664 0
0.78429818153381348 0.9903939962387085 0.0014557782560586929
0.84098780155181885 0.97980678081512451 0.0069662057794630527
0.89785140752792358 0.96506357192993164 0.0043689804151654243
0.94909018278121948 0.94915390014648438 0.00023728913220111281
0.98600238561630249 0.93423241376876831 3.3569336665095761e-05
0.99946671724319458 0.91979515552520752 0.00055283191613852978
1 0.90514081716537476 0.0064396429806947708
1 0.88985270261764526 0.035324934870004654
1 0.87198829650878906 0.085428468883037567
0.77238994836807251 1 0
0.79189908504486084 1 0
0.81959140300750732 1 0
0.85400968790054321 1 0
0.89309597015380859 1 0
0.93474531173706055 1 0
0.97401529550552368 0.99911403656005859 0
0.99569404125213623 0.99505162239074707 0
1 0.98893725872039795 0
1 0.98091918230056763 0
1 0.97096151113510132 0
1 0.95844542980194092 0.0029212203808128834
1 0.94385212659835815 0.037174612283706665
0.019505938515067101 0.019796049222350121 0.054257441312074661
0.04613393172621727 0.010987046174705029 0.0526847243309021
0.083925269544124603 0.0048403120599687099 0.050274450331926346
0.12602478265762329 0.0033144033513963223 0.045083753764629364
0.17961949110031128 0.0012652229052037001 0.039732765406370163
0.24788196384906769 0.00024421542184427381 0.034604359418153763
0.33480069041252136 0.00039731193101033568 0.030725352466106415
0.43588542938232422 0.00062076345784589648 0.027979427948594093
0.53818649053573608 0.00093133962946012616 0.025115711614489555
0.62938773632049561 0.0022156508639454842 0.020502755418419838
0.70454597473144531 0.0051830066367983818 0.015481013804674149
0.76693010330200195 0.0096552977338433266 0.01403483934700489
0.82170027494430542 0.010885844938457012 0.018415907397866249
0.044180132448673248 0.078427992761135101 0.066193237900733948
0.069289281964302063 0.065147697925567627 0.065332494676113129
0.10759712755680084 0.049528907984495163 0.063605710864067078
0.15348510444164276 0.034970704466104507 0.059801723808050156
0.20815874636173248 0.021643634885549545 0.054293941706418991
0.27596595883369446 0.012241333723068237 0.048069644719362259
0.36185029149055481 0.00431849155575037 0.043422084301710129
0.46116870641708374 0.00022128236014395952 0.040017686784267426
0.56204253435134888 0 0.036134295165538788
0.65205627679824829 0 0.030607201159000397
0.72655665874481201 5.7744045989238657e-06 0.024951037019491196
0.78795409202575684 0.0008117227116599679 0.023507555946707726
0.84119218587875366 0.0020687028300017118 0.029433591291308403
0.085029885172843933 0.14434939622879028 0.080148078501224518
0.1019018292427063 0.13636383414268494 0.078870184719562531
0.13256965577602386 0.12297572940587997 0.077147461473941803
0.17855258285999298 0.10170838236808777 0.073550187051296234
0.2360941618680954 0.078397922217845917 0.067998133599758148
0.30715671181678772 0.056923151016235352 0.061649803072214127
0.39389243721961975 0.035833470523357391 0.056048076599836349
0.49131608009338379 0.014762774109840393 0.050989758223295212
0.58898508548736572 0.0018225576495751739 0.045451954007148743
0.67726737260818481 0 0.039201728999614716
0.75161397457122803 0 0.034770306199789047
0.8128201961517334 0 0.035804316401481628
0.86519604921340942 0 0.044548679143190384
0.11367199569940567 0.22622892260551453 0.097409568727016449
0.13007944822311401 0.22060312330722809 0.096148595213890076
0.15954782068729401 0.21067985892295837 0.093676671385765076
0.20547212660312653 0.19216379523277283 0.089683696627616882
0.26698088645935059 0.16787482798099518 0.083677925169467926
0.34318619966506958 0.13973134756088257 0.076766431331634521
0.43244418501853943 0.1071910485625267 0.070199288427829742
0.52886956930160522 0.072343982756137848 0.063670650124549866
0.62387251853942871 0.038571823388338089 0.056245587766170502
0.71027475595474243 0.012765607796609402 0.049789175391197205
0.78437823057174683 0.0022654663771390915 0.047953259199857712
0.84612202644348145 9.6534276963211596e-05 0.05296223983168602
0.89687162637710571 0 0.065818816423416138
0.10565264523029327 0.33611908555030823 0.11428794264793396
0.13362960517406464 0.32868358492851257 0.11275777220726013
0.17476306855678558 0.31918144226074219 0.10991309583187103
0.23094107210636139 0.30430561304092407 0.10553710162639618
0.30187210440635681 0.28209415078163147 0.099423818290233612
0.38560435175895691 0.25183570384979248 0.092363603413105011
0.47832959890365601 0.21603214740753174 0.085359133780002594
0.57455873489379883 0.17596539855003357 0.078236386179924011
0.66799473762512207 0.13318362832069397 0.070649482309818268
0.7529178261756897 0.092227742075920105 0.065036535263061523
0.8267398476600647 0.058606479316949844 0.065838038921356201
0.88758862018585205 0.03204721212387085 0.075199976563453674
0.93510383367538452 0.015927080065011978 0.092005513608455658
0.082556284964084625 0.46783187985420227 0.12275224924087524
0.12316756695508957 0.45992147922515869 0.12158174812793732
0.18119479715824127 0.45020771026611328 0.11885364353656769
0.25404751300811768 0.43700045347213745 0.11468593776226044
0.33885282278060913 0.41608297824859619 0.10943789035081863
0.43199390172958374 0.38569393754005432 0.10357176512479782
0.52871048450469971 0.35336917638778687 0.097951911389827728
0.62529242038726807 0.31795710325241089 0.091950133442878723
0.71793282032012939 0.27659887075424194 0.086040601134300232
0.80228477716445923 0.23304092884063721 0.083311997354030609
0.87494981288909912 0.18884576857089996 0.086184978485107422
0.93218553066253662 0.14391209185123444 0.09874020516872406
0.97328019142150879 0.10757504403591156 0.1192162036895752
0.078385911881923676 0.60604941844940186 0.11390406638383865
0.12638077139854431 0.59977346658706665 0.11567182093858719
0.19685782492160797 0.59032654762268066 0.11440146714448929
0.28371068835258484 0.57730674743652344 0.11072684079408646
0.3805384635925293 0.55790847539901733 0.10651737451553345
0.48067909479141235 0.53159022331237793 0.10313984006643295
0.58036172389984131 0.50444948673248291 0.10132742673158646
0.67753368616104126 0.47475981712341309 0.098841436207294464
0.7695503830909729 0.43965843319892883 0.096418194472789764
0.85267430543899536 0.40162384510040283 0.097445502877235413
0.92191219329833984 0.35920625925064087 0.10421009361743927
0.97147613763809204 0.31437292695045471 0.11890601366758347
0.99679553508758545 0.26854398846626282 0.14338725805282593
0.12304714322090149 0.72978299856185913 0.08465246856212616
0.16914971172809601 0.72732686996459961 0.092140600085258484
0.24110285937786102 0.71836942434310913 0.095012158155441284
0.33237940073013306 0.70400583744049072 0.090985618531703949
0.43291780352592468 0.68502116203308105 0.086794234812259674
0.53493160009384155 0.6625068187713623 0.087109647691249847
0.63513755798339844 0.63949549198150635 0.090141758322715759
0.73125231266021729 0.6138797402381897 0.092472165822982788
0.82065898180007935 0.58554917573928833 0.096500113606452942
0.90007644891738892 0.55498355627059937 0.10400881618261337
0.96326404809951782 0.52144598960876465 0.11657647788524628
0.9960479736328125 0.48856362700462341 0.1359722763299942
1 0.44689258933067322 0.16549693048000336
0.21880204975605011 0.82985168695449829 0.043019581586122513
0.25627908110618591 0.83112508058547974 0.059581756591796875
0.32038941979408264 0.82270193099975586 0.068168550729751587
0.40512964129447937 0.806629478931427 0.063702844083309174
0.50017839670181274 0.78719687461853027 0.058694861829280853
0.59760177135467529 0.76709115505218506 0.063690364360809326
0.69382280111312866 0.744731605052948 0.069431900978088379
0.78564095497131348 0.72201639413833618 0.075914226472377777
0.86935615539550781 0.69930964708328247 0.087024480104446411
0.94147032499313354 0.67443859577178955 0.10138742625713348
0.99090844392776489 0.64816188812255859 0.12122919410467148
1 0.62358313798904419 0.14896894991397858
1 0.59169042110443115 0.18393588066101074
0.34298205375671387 0.90974462032318115 0.012349655851721764
0.37119778990745544 0.91282838582992554 0.034665890038013458
0.4237237274646759 0.90530824661254883 0.046033613383769989
0.49705001711845398 0.88953107595443726 0.043342322111129761
0.58066946268081665 0.87069892883300781 0.040705692023038864
0.66823643445968628 0.85160714387893677 0.04745851457118988
0.75539988279342651 0.82988202571868896 0.052935283631086349
0.83799111843109131 0.80934804677963257 0.059069927781820297
0.91088813543319702 0.78984397649765015 0.071814566850662231
0.96954917907714844 0.76892691850662231 0.088509246706962585
0.99888956546783447 0.74774420261383057 0.11300543695688248
1 0.72803431749343872 0.14873458445072174
1 0.70278900861740112 0.19147588312625885
0.4735686182975769 0.97283601760864258 0.0069542378187179565
0.49792897701263428 0.97567611932754517 0.018842868506908417
0.54234182834625244 0.96796244382858276 0.025579730048775673
0.602885901927948 0.95403897762298584 0.026441941037774086
0.67248666286468506 0.93794327974319458 0.030084049329161644
0.74681967496871948 0.92092019319534302 0.035752732306718826
0.82134485244750977 0.9022059440612793 0.036129612475633621
0.8903314471244812 0.88400310277938843 0.037087846547365189
0.9475436806678772 0.86672604084014893 0.045957032591104507
0.98764681816101074 0.84877932071685791 0.061613135039806366
1 0.83169728517532349 0.086653739213943481
1 0.81399452686309814 0.12901698052883148
1 0.79311966896057129 0.18201036751270294
0.6177484393119812 0.99986952543258667 0.00090225820895284414
0.63937121629714966 1 0.0022944582160562277
0.67514181137084961 0.99901044368743896 0.0027988508809357882
0.72251999378204346 0.99478656053543091 0.0037066142540425062
0.77653557062149048 0.98715806007385254 0.007308032363653183
0.83524143695831299 0.97545468807220459 0.00994847621768713
0.89510923624038696 0.96031743288040161 0.0070150638930499554
0.94783198833465576 0.94546377658843994 0.004893074743449688
0.98484212160110474 0.93221902847290039 0.0088358111679553986
0.9990084171295166 0.91910159587860107 0.01760418526828289
1 0.90475922822952271 0.036759335547685623
1 0.88947093486785889 0.082902483642101288
1 0.87188249826431274 0.14808650314807892
0.77266591787338257 1 0
0.79103976488113403 1 0
0.81785553693771362 1 0
0.85127443075180054 1 0
0.88951510190963745 1 0
0.93240439891815186 0.99982064962387085 0
0.97344589233398438 0.99743258953094482 0
0.99584013223648071 0.99231833219528198 0
1 0.98655140399932861 0
1 0.97954070568084717 8.8860004325397313e-05
1 0.96980232000350952 0.0014582016738131642
1 0.95775949954986572 0.024786451831459999
1 0.94347506761550903 0.092500872910022736
0.0092169521376490593 0.015317520126700401 0.09620647132396698
0.033804800361394882 0.0091923736035823822 0.093146607279777527
0.071685940027236938 0.0032045103143900633 0.090166322886943817
0.11638675630092621 0.0010638218373060226 0.085619144141674042
0.17039152979850769 0.00048843084368854761 0.079692050814628601
0.23832578957080841 0.0005741344066336751 0.073046907782554626
0.32452064752578735 0.0010206035804003477 0.065993770956993103
0.42504897713661194 0.00044301350135356188 0.058836992830038071
0.52759057283401489 0.00054589065257459879 0.052157353609800339
0.6189495325088501 0.0020616268739104271 0.047752812504768372
0.69366174936294556 0.007614778820425272 0.046907462179660797
0.75557839870452881 0.015438738279044628 0.050387512892484665
0.80904752016067505 0.017453631386160851 0.05899231880903244
0.030653500929474831 0.072152093052864075 0.10724476724863052
0.056237135082483292 0.059539958834648132 0.10545676946640015
0.095377378165721893 0.043547194451093674 0.10412437468767166
0.14310677349567413 0.029102982953190804 0.10050330311059952
0.19843955338001251 0.018912147730588913 0.09449169784784317
0.26586642861366272 0.010506828315556049 0.087140761315822601
0.35051020979881287 0.0017535639926791191 0.07969067245721817
0.44884714484214783 0 0.072553373873233795
0.54922562837600708 0 0.06584274023771286
0.63937997817993164 0 0.06089966744184494
0.71358400583267212 0.00011014751362381503 0.059106685221195221
0.77444112300872803 0.003491629846394062 0.061796974390745163
0.82706248760223389 0.006251869723200798 0.071752019226551056
0.069773457944393158 0.1388782411813736 0.1191309317946434
0.090463392436504364 0.12898112833499908 0.11788830906152725
0.12217257916927338 0.11520125716924667 0.11695189774036407
0.16799603402614594 0.095573604106903076 0.11388356983661652
0.22639432549476624 0.074018411338329315 0.108426533639431
0.29746168851852417 0.051818158477544785 0.10138660669326782
0.38256371021270752 0.026678496971726418 0.094085738062858582
0.47849687933921814 0.0067513110116124153 0.086988396942615509
0.57593810558319092 0.00042138193384744227 0.080426283180713654
0.66389757394790649 0 0.075331442058086395
0.73781067132949829 0 0.074038140475749969
0.79832965135574341 3.8894953036106017e-07 0.077920325100421906
0.85008847713470459 9.7237380032311194e-06 0.089637398719787598
0.10102137923240662 0.22097013890743256 0.13458046317100525
0.12204709649085999 0.21266002953052521 0.13319356739521027
0.15189878642559052 0.20276375114917755 0.13175295293331146
0.19561934471130371 0.18677541613578796 0.12851856648921967
0.25768318772315979 0.16316027939319611 0.12344188243150711
0.33408370614051819 0.13365350663661957 0.11647331714630127
0.42207139730453491 0.09824930876493454 0.10924223065376282
0.51723611354827881 0.06240660697221756 0.10230278968811035
0.61192470788955688 0.033450450748205185 0.095928490161895752
0.69750308990478516 0.01333796139806509 0.091460391879081726
0.77046912908554077 0.0029043310787528753 0.091799296438694
0.83065557479858398 2.9620002806041157e-06 0.098950915038585663
0.88066887855529785 0 0.11364713311195374
0.095867633819580078 0.32980513572692871 0.14982350170612335
0.12609118223190308 0.32026621699333191 0.14788763225078583
0.16632571816444397 0.31230989098548889 0.14620746672153473
0.22058312594890594 0.30013146996498108 0.14362330734729767
0.29191619157791138 0.27890050411224365 0.13910670578479767
0.37606081366539001 0.24912473559379578 0.13213405013084412
0.46836006641387939 0.2113926112651825 0.12478057295084
0.56432318687438965 0.1694784015417099 0.1183454617857933
0.65711182355880737 0.12946011126041412 0.11270805448293686
0.7406611442565918 0.093688294291496277 0.10945111513137817
0.81223922967910767 0.059060487896203995 0.1123981699347496
0.87078201770782471 0.02591654472053051 0.12273326516151428
0.91831427812576294 0.0069905598647892475 0.14080843329429626
0.069595620036125183 0.46191143989562988 0.15906310081481934
0.112862229347229 0.45096144080162048 0.15667934715747833
0.17011828720569611 0.44369876384735107 0.15543420612812042
0.24180102348327637 0.43460234999656677 0.15352560579776764
0.32742154598236084 0.41567397117614746 0.14989390969276428
0.42127421498298645 0.38659572601318359 0.14386333525180817
0.51818931102752686 0.35268878936767578 0.13753378391265869
0.61486172676086426 0.31434959173202515 0.13234619796276093
0.70662862062454224 0.27285623550415039 0.12827149033546448
0.78914511203765869 0.23087768256664276 0.12715679407119751
0.85976994037628174 0.18520902097225189 0.13258631527423859
0.91584318876266479 0.13416749238967896 0.14597271382808685
0.95780909061431885 0.090397931635379791 0.16781972348690033
