assets/lut/films print kodak 2383 constlmap.cube
# Created by: G'MIC (https://gmic.eu)
TITLE "kodak_2383_constlmap"
# LUT size
LUT_3D_SIZE 7
# Data domain
DOMAIN_MIN 0.0 0.0 0.0
DOMAIN_MAX 1.0 1.0 1.0
# LUT data points
0.012074878439307213 0.01227244921028614 0.016717933118343353
0.055382642894983292 0.02900003083050251 0.023566301912069321
0.15458562970161438 0.055547211319208145 0.016528215259313583
0.34344086050987244 0.094628229737281799 0.0097834868356585503
0.49240994453430176 0.12188614159822464 0.0064145703800022602
0.56492525339126587 0.13874363899230957 0.016113370656967163
0.60292178392410278 0.14616492390632629 0.018402503803372383
0.014877050183713436 0.050463836640119553 0.040087398141622543
0.053663082420825958 0.066243670880794525 0.039977610111236572
0.17948640882968903 0.093406453728675842 0.033305764198303223
0.39467376470565796 0.14231468737125397 0.028830539435148239
0.55199164152145386 0.17008453607559204 0.020549848675727844
0.6304314136505127 0.17930437624454498 0.015740653499960899
0.65204322338104248 0.1889234185218811 0.022783197462558746
0.031747795641422272 0.1307634562253952 0.080881528556346893
0.038744639605283737 0.14874853193759918 0.065703190863132477
0.22398647665977478 0.2103712409734726 0.037765983492136002
0.4766271710395813 0.25987076759338379 0.030166236683726311
0.64556211233139038 0.28456935286521912 0.030638646334409714
0.72047233581542969 0.31128618121147156 0.02329222671687603
0.74707484245300293 0.32863140106201172 0.02217419259250164
0.023369239643216133 0.26474398374557495 0.14016199111938477
0.032485406845808029 0.30255258083343506 0.12895330786705017
0.23979827761650085 0.39672774076461792 0.052132520824670792
0.5697324275970459 0.4755585789680481 0.024526365101337433
0.76739531755447388 0.51812022924423218 0.016021952033042908
0.83359062671661377 0.53577625751495361 0.024724340066313744
0.85602885484695435 0.55520069599151611 0.016042238101363182
0.022025913000106812 0.38266006112098694 0.18714481592178345
0.019116375595331192 0.43602102994918823 0.17049525678157806
0.24243423342704773 0.55924242734909058 0.02571939118206501
0.63648241758346558 0.67209690809249878 0.011058837175369263
0.84220600128173828 0.72253364324569702 0.056928671896457672
0.91654837131500244 0.74124282598495483 0.073355972766876221
0.93478530645370483 0.74556761980056763 0.060485631227493286
0.019632061943411827 0.43469628691673279 0.20720064640045166
0.015877129510045052 0.50337493419647217 0.18064801394939423
0.25757637619972229 0.62245208024978638 0.021102664992213249
0.66772615909576416 0.74380332231521606 0.019256306812167168
0.87442857027053833 0.80244868993759155 0.077796801924705505
0.94824546575546265 0.81995862722396851 0.10054992884397507
0.96796578168869019 0.8258059024810791 0.10060665756464005
0.0042091966606676579 0.48418578505516052 0.22177310287952423
0.040811456739902496 0.58180910348892212 0.14365400373935699
0.3531949520111084 0.67941451072692871 0.011745871976017952
0.6961137056350708 0.7763906717300415 0.03004506416618824
0.88514029979705811 0.82711160182952881 0.073960743844509125
0.96908444166183472 0.85147500038146973 0.098301202058792114
0.99045014381408691 0.85561120510101318 0.10891789197921753
0.011770181357860565 0.024872679263353348 0.057058852165937424
0.051394667476415634 0.032122310250997543 0.060023542493581772
0.17927758395671844 0.055674266070127487 0.068455517292022705
0.3728783130645752 0.06610068678855896 0.042911291122436523
0.53248822689056396 0.069876968860626221 0.019003400579094887
0.59957218170166016 0.083187565207481384 0.022929321974515915
0.63921511173248291 0.076997824013233185 0.040867313742637634
0.021408500149846077 0.059062927961349487 0.067880623042583466
0.060540758073329926 0.069881975650787354 0.075510896742343903
0.19856241345405579 0.098307937383651733 0.078425467014312744
0.41628891229629517 0.13255020976066589 0.071921341121196747
0.58481478691101074 0.1418675035238266 0.062320411205291748
0.66386067867279053 0.12690263986587524 0.038686387240886688
0.69801068305969238 0.13358144462108612 0.031870942562818527
0.037798997014760971 0.14372098445892334 0.11162218451499939
0.077031813561916351 0.16325737535953522 0.11165639758110046
0.21598057448863983 0.21621032059192657 0.10193782299757004
0.4944465160369873 0.27274176478385925 0.11190085113048553
0.67105394601821899 0.28225541114807129 0.10229894518852234
0.75515365600585938 0.29059365391731262 0.055796947330236435
0.7955440878868103 0.30827897787094116 0.013745925389230251
0.048077676445245743 0.28280556201934814 0.18033549189567566
0.10176177322864532 0.31334084272384644 0.1766573041677475
0.23238901793956757 0.40211451053619385 0.12833157181739807
0.57904303073883057 0.49349701404571533 0.13522300124168396
0.77789545059204102 0.53280556201934814 0.13018810749053955
0.8627738356590271 0.5447121262550354 0.03120625764131546
0.89466720819473267 0.57902741432189941 0.014986449852585793
0.042507771402597427 0.39092901349067688 0.22563835978507996
0.085804328322410583 0.44889414310455322 0.22417813539505005
0.21688324213027954 0.57223600149154663 0.1334226131439209
0.63475459814071655 0.6835181713104248 0.13906013965606689
0.85388076305389404 0.73678684234619141 0.16689319908618927
0.93380117416381836 0.75741666555404663 0.12364168465137482
0.96136331558227539 0.77252578735351562 0.087598897516727448
0.010030753910541534 0.44522732496261597 0.25138717889785767
0.036514881998300552 0.51643925905227661 0.24587699770927429
0.19402302801609039 0.64572763442993164 0.10681804269552231
0.66933196783065796 0.76409709453582764 0.10412109643220901
0.89165782928466797 0.82106375694274902 0.14778502285480499
0.96545755863189697 0.83693969249725342 0.15865303575992584
0.99082797765731812 0.84648072719573975 0.12065734714269638
0.034418892115354538 0.50865131616592407 0.31138741970062256
0.015693275257945061 0.60313445329666138 0.29950925707817078
0.24182106554508209 0.71629756689071655 0.17051112651824951
0.69831806421279907 0.811320960521698 0.14012312889099121
0.92412656545639038 0.86023533344268799 0.097671657800674438
0.98593324422836304 0.87117582559585571 0.1963096410036087
0.9996604323387146 0.87427753210067749 0.26109611988067627
0.0057734171859920025 0.04605325311422348 0.12877801060676575
0.052359547466039658 0.03255075216293335 0.15629199147224426
0.17085811495780945 0.038364768028259277 0.18119749426841736
0.38359686732292175 0.037497978657484055 0.19434638321399689
0.54614818096160889 0.03288128599524498 0.18996363878250122
0.62015867233276367 0.042772598564624786 0.19073943793773651
0.65227687358856201 0.044482048600912094 0.20763666927814484
0.025574836879968643 0.085688650608062744 0.14882965385913849
0.044674698263406754 0.081446088850498199 0.17979460954666138
0.18827664852142334 0.10464774072170258 0.20741963386535645
0.43584424257278442 0.12356862425804138 0.21883103251457214
0.62247854471206665 0.10859941691160202 0.20820195972919464
0.70331472158432007 0.071921765804290771 0.21170288324356079
0.73924511671066284 0.055146206170320511 0.21522603929042816
0.043999526649713516 0.16831563413143158 0.19273872673511505
0.090379588305950165 0.18304668366909027 0.2048284113407135
0.21770106256008148 0.22305139899253845 0.24750535190105438
0.51847600936889648 0.27593514323234558 0.26734137535095215
0.73303437232971191 0.26127356290817261 0.23510745167732239
0.81330949068069458 0.26351648569107056 0.22957143187522888
0.83932304382324219 0.27960038185119629 0.2232954353094101
0.0553627610206604 0.30902972817420959 0.26785799860954285
0.1259256899356842 0.34544774889945984 0.28430020809173584
0.29059049487113953 0.4357306957244873 0.31178653240203857
0.58449810743331909 0.52422630786895752 0.32240277528762817
0.832305908203125 0.55495929718017578 0.27902981638908386
0.92255055904388428 0.56002539396286011 0.22648955881595612
0.95229583978652954 0.59690898656845093 0.19566640257835388
0.041956372559070587 0.42856684327125549 0.33325785398483276
0.12186111509799957 0.48490175604820251 0.35402113199234009
0.25243708491325378 0.6173710823059082 0.34609466791152954
0.62993925809860229 0.73560065031051636 0.32541778683662415
0.87658417224884033 0.77822208404541016 0.36519044637680054
0.97462183237075806 0.79295909404754639 0.28016242384910583
0.99807041883468628 0.81195765733718872 0.28190746903419495
0.023432563990354538 0.48360750079154968 0.37436464428901672
0.059418980032205582 0.55210703611373901 0.39835810661315918
0.14285609126091003 0.69213640689849854 0.35573500394821167
0.64841824769973755 0.81632691621780396 0.31981608271598816
0.91892886161804199 0.86874175071716309 0.29789102077484131
0.98695319890975952 0.87724673748016357 0.36817029118537903
1 0.88031148910522461 0.38983979821205139
0.02175801619887352 0.56238257884979248 0.46439686417579651
0.045903388410806656 0.628612220287323 0.47603282332420349
0.13073667883872986 0.74539780616760254 0.47444573044776917
0.66367673873901367 0.85432469844818115 0.43747413158416748
0.91846168041229248 0.90426504611968994 0.42860662937164307
0.99437373876571655 0.91643738746643066 0.48188111186027527
1 0.91284209489822388 0.52068614959716797
0.014433378353714943 0.11058279126882553 0.23452778160572052
0.027822606265544891 0.046950187534093857 0.30101776123046875
0.17040987312793732 0.024007221683859825 0.34639289975166321
0.38790449500083923 0.042770911008119583 0.37131607532501221
0.55617165565490723 0.042731162160634995 0.38327115774154663
0.63545864820480347 0.038828488439321518 0.38914206624031067
0.66819041967391968 0.046621255576610565 0.40481254458427429
0.027019904926419258 0.14804987609386444 0.26353940367698669
0.051044732332229614 0.13398982584476471 0.2961280345916748
0.17819532752037048 0.11424870043992996 0.38394001126289368
0.44359242916107178 0.13842745125293732 0.41457554697990417
0.63141947984695435 0.12903347611427307 0.42735150456428528
0.71598523855209351 0.066560767590999603 0.43721276521682739
0.75034093856811523 0.056530401110649109 0.45442336797714233
0.044690825045108795 0.22070789337158203 0.32026880979537964
0.096060872077941895 0.2383364737033844 0.34258186817169189
0.20735539495944977 0.26144066452980042 0.43939974904060364
0.52402794361114502 0.29815405607223511 0.49642661213874817
0.73527175188064575 0.27581396698951721 0.5034559965133667
0.82193940877914429 0.26328209042549133 0.51024913787841797
0.84712260961532593 0.2936127781867981 0.52307212352752686
0.058447565883398056 0.37074154615402222 0.41928845643997192
0.14476867020130157 0.40897801518440247 0.45200908184051514
0.31420224905014038 0.48219761252403259 0.5073094367980957
0.58903545141220093 0.56835001707077026 0.57515072822570801
0.82881039381027222 0.59636217355728149 0.57806253433227539
0.91603994369506836 0.60745334625244141 0.5787426233291626
0.94799256324768066 0.63229167461395264 0.58796608448028564
0.041305974125862122 0.49086597561836243 0.49282702803611755
0.1331944614648819 0.54376029968261719 0.52920347452163696
0.27702251076698303 0.6633075475692749 0.58793157339096069
0.59976410865783691 0.78950130939483643 0.60893398523330688
0.87801837921142578 0.83025568723678589 0.6220710277557373
0.97405695915222168 0.84440869092941284 0.62370413541793823
0.9944121241569519 0.85752880573272705 0.6343652606010437
0.005881620105355978 0.55104738473892212 0.54509431123733521
0.029850350692868233 0.61350494623184204 0.58413732051849365
0.14762663841247559 0.73460966348648071 0.63707053661346436
0.59751415252685547 0.8692505955696106 0.65386474132537842
0.88785243034362793 0.91617083549499512 0.65135788917541504
0.97979450225830078 0.92775648832321167 0.68347752094268799
0.99838322401046753 0.93279802799224854 0.70000284910202026
0.0085346745327115059 0.60880511999130249 0.60811537504196167
0.020514603704214096 0.6867249608039856 0.65934592485427856
0.053659327328205109 0.792397141456604 0.70178210735321045
0.61448746919631958 0.89784115552902222 0.71794432401657104
0.88757079839706421 0.94392579793930054 0.72339874505996704
0.98395103216171265 0.95862728357315063 0.7371528148651123
0.9998481273651123 0.95921987295150757 0.76464104652404785
0.0062949685379862785 0.15511427819728851 0.30988636612892151
0.011702234856784344 0.13320650160312653 0.3624260425567627
0.16602377593517303 0.036188192665576935 0.47151017189025879
0.39073193073272705 0.048918467015028 0.50418317317962646
0.56837981939315796 0.057252187281847 0.52287983894348145
0.6470102071762085 0.038944080471992493 0.53310871124267578
0.68329602479934692 0.035508561879396439 0.54665464162826538
0.013581817969679832 0.19587293267250061 0.35748264193534851
0.021631741896271706 0.18826377391815186 0.38680857419967651
0.16434118151664734 0.10904420167207718 0.53037941455841064
0.44750902056694031 0.1376718282699585 0.56920719146728516
0.6383863091468811 0.14483880996704102 0.58618056774139404
0.72032952308654785 0.095832958817481995 0.59664040803909302
0.76017355918884277 0.053107555955648422 0.62203103303909302
0.0051786983385682106 0.27316704392433167 0.43097987771034241
0.050634570419788361 0.28653103113174438 0.46271243691444397
0.14152808487415314 0.26715603470802307 0.61462020874023438
0.51547753810882568 0.29759970307350159 0.68973106145858765
0.74000585079193115 0.29566380381584167 0.69972038269042969
0.81936162710189819 0.27458080649375916 0.70417720079421997
0.85470330715179443 0.30341222882270813 0.72310435771942139
0.031204508617520332 0.41710770130157471 0.53460872173309326
0.1225411519408226 0.45152503252029419 0.56979799270629883
0.27041915059089661 0.5278434157371521 0.67036944627761841
0.56169015169143677 0.59157681465148926 0.77905237674713135
0.81658405065536499 0.6196020245552063 0.79048287868499756
0.91008549928665161 0.62874197959899902 0.79483944177627563
0.94309788942337036 0.65574795007705688 0.81003743410110474
0.021459572017192841 0.53675830364227295 0.61381447315216064
0.13613776862621307 0.59068453311920166 0.65652251243591309
0.29889330267906189 0.7022826075553894 0.7437821626663208
0.57998800277709961 0.81938755512237549 0.82555782794952393
0.86349678039550781 0.86088699102401733 0.84381461143493652
0.96514642238616943 0.87495273351669312 0.84665906429290771
0.99014401435852051 0.88828694820404053 0.85284537076950073
0.018490450456738472 0.59398448467254639 0.65707546472549438
0.061864979565143585 0.65218979120254517 0.70631003379821777
0.12835399806499481 0.77026897668838501 0.79418885707855225
0.54004144668579102 0.89777988195419312 0.85954588651657104
0.86940056085586548 0.94714128971099854 0.87113338708877563
0.97264659404754639 0.96067196130752563 0.87574619054794312
0.99610239267349243 0.9637138843536377 0.88705819845199585
0.022425109520554543 0.64496606588363647 0.7025146484375
0.049956213682889938 0.71670413017272949 0.76695829629898071
0.037193655967712402 0.81581974029541016 0.84346258640289307
0.57705056667327881 0.92014384269714355 0.89007389545440674
0.8657563328742981 0.96568572521209717 0.89668291807174683
0.97182303667068481 0.98190492391586304 0.90176016092300415
0.99624848365783691 0.98442745208740234 0.91673612594604492
0.00025999778881669044 0.17829480767250061 0.35989770293235779
0.013286261819303036 0.16380897164344788 0.40344172716140747
0.15613006055355072 0.037359632551670074 0.53292322158813477
0.40173685550689697 0.023544430732727051 0.57841050624847412
0.57723480463027954 0.0556655153632164 0.59939122200012207
0.66055548191070557 0.062095925211906433 0.60807168483734131
0.69063538312911987 0.058316953480243683 0.61921721696853638
0.0018411524360999465 0.22341623902320862 0.41060948371887207
0.0027646832168102264 0.21597433090209961 0.4437415599822998
0.16220849752426147 0.064421482384204865 0.61693114042282104
0.46195197105407715 0.072820328176021576 0.66996490955352783
0.6520506739616394 0.091251567006111145 0.68046098947525024
0.73312962055206299 0.10252238065004349 0.68829262256622314
0.77359884977340698 0.077106356620788574 0.71341657638549805
0.0034550237469375134 0.30604994297027588 0.49048909544944763
0.0048203561455011368 0.31941670179367065 0.53207278251647949
0.10590797662734985 0.28746813535690308 0.67920833826065063
0.51632678508758545 0.292692631483078 0.78064441680908203
0.73364663124084473 0.27399155497550964 0.79088759422302246
0.82316935062408447 0.27367359399795532 0.79771345853805542
0.85677897930145264 0.30757012963294983 0.81476819515228271
0.0082717742770910263 0.44214120507240295 0.59417915344238281
0.042233902961015701 0.47296231985092163 0.63448113203048706
0.11196444928646088 0.53513318300247192 0.76872068643569946
0.54157954454421997 0.59713184833526611 0.87451010942459106
0.81033706665039062 0.62071734666824341 0.8901667594909668
0.9063408374786377 0.62631338834762573 0.89151620864868164
0.93717128038406372 0.66098493337631226 0.90329170227050781
0.012669268064200878 0.56658565998077393 0.67517733573913574
0.091161824762821198 0.60779464244842529 0.71358942985534668
0.21465288102626801 0.71918070316314697 0.82076084613800049
0.5368722677230835 0.82876187562942505 0.92288172245025635
0.84808766841888428 0.86655038595199585 0.94115430116653442
0.95607513189315796 0.88047510385513306 0.94516444206237793
0.98079389333724976 0.88021916151046753 0.94314593076705933
0.015510918572545052 0.61573272943496704 0.70606535673141479
0.055172476917505264 0.67054992914199829 0.75802433490753174
0.13682025671005249 0.78304988145828247 0.85576111078262329
0.52616888284683228 0.90374565124511719 0.94349426031112671
0.86089020967483521 0.9577755331993103 0.96162480115890503
0.96594917774200439 0.97212153673171997 0.96350693702697754
0.9950374960899353 0.97672861814498901 0.96853768825531006
0.024328988045454025 0.66295593976974487 0.75038701295852661
0.024925965815782547 0.729198157787323 0.81042492389678955
0.074326023459434509 0.82022970914840698 0.88878864049911499
0.54531019926071167 0.92668646574020386 0.95538896322250366
0.85340625047683716 0.97389304637908936 0.96929275989532471
0.96420395374298096 0.9882742166519165 0.97194355726242065
0.99274897575378418 0.99167871475219727 0.97138428688049316
0.0016329896170645952 0.18620263040065765 0.38488563895225525
0.0075498693622648716 0.18369118869304657 0.43370911478996277
0.164920374751091 0.041645139455795288 0.58268797397613525
0.43390735983848572 0.036382414400577545 0.64619272947311401
0.6079639196395874 0.06024455651640892 0.65516597032546997
0.68865185976028442 0.070013724267482758 0.66061073541641235
0.73495626449584961 0.072816543281078339 0.68967270851135254
7.9345700214616954e-05 0.2407037615776062 0.44165939092636108
0.0110523896291852 0.23508401215076447 0.47601720690727234
0.14836089313030243 0.094843737781047821 0.67010259628295898
0.47592031955718994 0.096688456833362579 0.73085933923721313
0.68170559406280518 0.08784116804599762 0.7463875412940979
0.76306670904159546 0.097824916243553162 0.75256305932998657
0.80056118965148926 0.078506708145141602 0.77001714706420898
0.00053998164366930723 0.30976542830467224 0.50560063123703003
0.0039369473233819008 0.32757914066314697 0.55931806564331055
0.091276220977306366 0.31508532166481018 0.7049674391746521
0.51860421895980835 0.32710587978363037 0.81671619415283203
0.74520003795623779 0.31943595409393311 0.83379596471786499
0.83868896961212158 0.33081766963005066 0.84639310836791992
0.86821991205215454 0.35942742228507996 0.85634297132492065
0.00083875469863414764 0.45538192987442017 0.61352616548538208
0.0040330775082111359 0.48625358939170837 0.66574633121490479
0.030835753306746483 0.54944181442260742 0.79946208000183105
0.52809470891952515 0.61129343509674072 0.90292459726333618
0.80815637111663818 0.63303381204605103 0.92191213369369507
0.90603911876678467 0.64397233724594116 0.92809861898422241
0.93734586238861084 0.6707645058631897 0.93570727109909058
0.018889527767896652 0.57058733701705933 0.68914258480072021
0.0080197053030133247 0.61904525756835938 0.73738545179367065
0.028791643679141998 0.71982103586196899 0.84450292587280273
0.49288922548294067 0.82769650220870972 0.9530373215675354
0.84642535448074341 0.86862397193908691 0.97118288278579712
0.95321071147918701 0.87722837924957275 0.97668880224227905
0.9821399450302124 0.89213091135025024 0.97879511117935181
0.019570309668779373 0.61995524168014526 0.71819698810577393
0.017304947599768639 0.67897570133209229 0.77353876829147339
0.057170327752828598 0.78307074308395386 0.87068486213684082
0.47809159755706787 0.90691256523132324 0.96914815902709961
0.8505403995513916 0.95708596706390381 0.98724687099456787
0.96639025211334229 0.97477680444717407 0.99287897348403931
0.99406325817108154 0.97864413261413574 0.99449700117111206
0.0068975859321653843 0.66888618469238281 0.76236385107040405
0.0061626210808753967 0.73330432176589966 0.82151657342910767
0.038529191166162491 0.82633709907531738 0.90642136335372925
0.52624869346618652 0.92632603645324707 0.97374945878982544
0.83789753913879395 0.97393763065338135 0.99056851863861084
0.95924216508865356 0.99101513624191284 0.99471348524093628
0.99548608064651489 0.99548953771591187 0.99487018585205078
