assets/lut/films negative color fuji superia hg 1600.cube
# Created by: G'MIC (https://gmic.eu)
TITLE "fuji_superia_hg_1600"
# LUT size
LUT_3D_SIZE 13
# Data domain
DOMAIN_MIN 0.0 0.0 0.0
DOMAIN_MAX 1.0 1.0 1.0
# LUT data points
0.10125157982110977 0.092122741043567657 0.089543841779232025
0.16755250096321106 0.090735055506229401 0.092899084091186523
0.21956278383731842 0.088598273694515228 0.094924360513687134
0.27105244994163513 0.080890417098999023 0.099196188151836395
0.33090785145759583 0.069098450243473053 0.095752120018005371
0.39666423201560974 0.054265100508928299 0.09418119490146637
0.46614742279052734 0.044025078415870667 0.098756678402423859
0.54268550872802734 0.044354338198900223 0.09208456426858902
0.61576825380325317 0.041253574192523956 0.085487499833106995
0.69123321771621704 0.063185885548591614 0.077302433550357819
0.75724327564239502 0.083207495510578156 0.076720595359802246
0.82225233316421509 0.10067527741193771 0.07153918594121933
0.88890451192855835 0.11344372481107712 0.057922378182411194
0.14599065482616425 0.16857016086578369 0.12969139218330383
0.18772459030151367 0.16943100094795227 0.13097359240055084
0.23656937479972839 0.17036283016204834 0.12997008860111237
0.29183840751647949 0.16912484169006348 0.13076043128967285
0.35355660319328308 0.16472148895263672 0.13091418147087097
0.41945558786392212 0.15429301559925079 0.13127334415912628
0.48847874999046326 0.14255613088607788 0.13141115009784698
0.55490148067474365 0.11473672837018967 0.13003769516944885
0.61596035957336426 0.075262375175952911 0.12675756216049194
0.67981785535812378 0.061659060418605804 0.11855172365903854
0.74435997009277344 0.071609020233154297 0.11049310863018036
0.81114768981933594 0.090467549860477448 0.099052131175994873
0.88154393434524536 0.11117134988307953 0.083709165453910828
0.17470362782478333 0.22175294160842896 0.15775805711746216
0.20730665326118469 0.22537386417388916 0.15750601887702942
0.25010031461715698 0.22574137151241302 0.15693840384483337
0.30544561147689819 0.22556371986865997 0.15734845399856567
0.3690706193447113 0.22512698173522949 0.15849390625953674
0.43685778975486755 0.22151170670986176 0.15943381190299988
0.5082554817199707 0.21680715680122375 0.1577414870262146
0.57776999473571777 0.20048797130584717 0.15588864684104919
0.63945502042770386 0.16647915542125702 0.15475320816040039
0.69327938556671143 0.12858790159225464 0.15035234391689301
0.74256604909896851 0.092369109392166138 0.14070972800254822
0.80031353235244751 0.081667296588420868 0.12693558633327484
0.868080735206604 0.090678133070468903 0.1113455519080162
0.19655612111091614 0.28219479322433472 0.18149039149284363
0.22507122159004211 0.28375944495201111 0.18139703571796417
0.26495093107223511 0.28248116374015808 0.18283785879611969
0.31964385509490967 0.28130972385406494 0.18399617075920105
0.38390332460403442 0.28049799799919128 0.18495279550552368
0.45263820886611938 0.27965855598449707 0.18507979810237885
0.52486562728881836 0.27698758244514465 0.18395534157752991
0.59695017337799072 0.26897591352462769 0.18262515962123871
0.66322410106658936 0.25418463349342346 0.18172019720077515
0.71820962429046631 0.2245672345161438 0.17863787710666656
0.75956028699874878 0.16767986118793488 0.17068381607532501
0.80545884370803833 0.11999369412660599 0.15866245329380035
0.85798650979995728 0.081030689179897308 0.14424262940883636
0.22217927873134613 0.35020780563354492 0.2063228040933609
0.24799123406410217 0.34972751140594482 0.20814701914787292
0.28487116098403931 0.34884777665138245 0.21054749190807343
0.33830329775810242 0.3485511839389801 0.21188302338123322
0.40262183547019958 0.35021960735321045 0.21135424077510834
0.47242999076843262 0.35129362344741821 0.21054095029830933
0.54501032829284668 0.34704554080963135 0.20989198982715607
0.61655789613723755 0.33986341953277588 0.20923836529254913
0.68285208940505981 0.32931286096572876 0.20876295864582062
0.74092346429824829 0.311777263879776 0.20645196735858917
0.79079389572143555 0.27909919619560242 0.2005283534526825
0.83400630950927734 0.22304984927177429 0.19046047329902649
0.86994916200637817 0.13475655019283295 0.17693737149238586
0.25367757678031921 0.42483830451965332 0.23534612357616425
0.27821558713912964 0.42475488781929016 0.237452432513237
0.31320047378540039 0.42482191324234009 0.23991763591766357
0.36389189958572388 0.42658540606498718 0.24053041636943817
0.42679432034492493 0.42950439453125 0.23974297940731049
0.49644550681114197 0.4306277334690094 0.2388991117477417
0.56817078590393066 0.42753398418426514 0.23831678926944733
0.63770020008087158 0.41936102509498596 0.23808808624744415
0.70221835374832153 0.40788993239402771 0.23769283294677734
0.76151102781295776 0.39564207196235657 0.23538610339164734
0.81590640544891357 0.37452250719070435 0.22979326546192169
0.86262881755828857 0.32601210474967957 0.21942982077598572
0.90240150690078735 0.25215807557106018 0.20666204392910004
0.28882637619972229 0.50350064039230347 0.26874914765357971
0.31306296586990356 0.50266367197036743 0.27006825804710388
0.34681710600852966 0.50492745637893677 0.27147126197814941
0.3946898877620697 0.507080078125 0.27172490954399109
0.45505890250205994 0.51065927743911743 0.27134373784065247
0.52323591709136963 0.51329785585403442 0.27070024609565735
0.59309083223342896 0.51202261447906494 0.27044478058815002
0.65992903709411621 0.50541156530380249 0.27065190672874451
0.72247445583343506 0.49645897746086121 0.26993873715400696
0.78142678737640381 0.48729664087295532 0.26719534397125244
0.83703184127807617 0.47009080648422241 0.26076504588127136
0.88832265138626099 0.43375295400619507 0.25009122490882874
0.93518590927124023 0.38140749931335449 0.23843121528625488
0.32635331153869629 0.5785641074180603 0.3055565357208252
0.34980151057243347 0.57868856191635132 0.30600219964981079
0.38177195191383362 0.58026760816574097 0.30689400434494019
0.42708799242973328 0.58314913511276245 0.3069712221622467
0.48500928282737732 0.58721071481704712 0.30646616220474243
0.5505058765411377 0.59075027704238892 0.30616843700408936
0.61768263578414917 0.59181314706802368 0.30637282133102417
0.68192493915557861 0.58873015642166138 0.30676603317260742
0.74249976873397827 0.58496594429016113 0.3057401180267334
0.80084347724914551 0.58192664384841919 0.30214026570320129
0.85761809349060059 0.57110089063644409 0.29501116275787354
0.91177952289581299 0.54468041658401489 0.28452333807945251
0.96336638927459717 0.50571739673614502 0.27428159117698669
0.36697143316268921 0.64682388305664062 0.34518390893936157
0.38904842734336853 0.64810878038406372 0.34578606486320496
0.41806024312973022 0.64955347776412964 0.34665173292160034
0.46065327525138855 0.65264886617660522 0.34636780619621277
0.5159183144569397 0.65642476081848145 0.34526845812797546
0.57752531766891479 0.6599801778793335 0.34484118223190308
0.64090585708618164 0.66214287281036377 0.34546992182731628
0.70247954130172729 0.66224509477615356 0.34589135646820068
0.76131922006607056 0.66312646865844727 0.3443012535572052
0.8189663290977478 0.66409039497375488 0.33995187282562256
0.87601536512374878 0.66067880392074585 0.3326086699962616
0.93211621046066284 0.64486187696456909 0.32333984971046448
0.98452979326248169 0.61820769309997559 0.31489846110343933
0.41090202331542969 0.71036094427108765 0.38810279965400696
0.43206501007080078 0.71207934617996216 0.38856244087219238
0.45874360203742981 0.71438884735107422 0.38903185725212097
0.49788045883178711 0.71752959489822388 0.38865944743156433
0.54853546619415283 0.72099959850311279 0.38768896460533142
0.6051325798034668 0.72419726848602295 0.38718020915985107
0.66366297006607056 0.72663438320159912 0.38759523630142212
0.72183793783187866 0.72843420505523682 0.38789337873458862
0.77845913171768188 0.73120385408401489 0.38560724258422852
0.83465772867202759 0.7340582013130188 0.38065400719642639
0.89171707630157471 0.73352956771850586 0.37444841861724854
0.94933438301086426 0.72647726535797119 0.36762738227844238
0.99514555931091309 0.70952898263931274 0.36111009120941162
0.45595291256904602 0.77283310890197754 0.43592387437820435
0.4774756133556366 0.77496635913848877 0.43607723712921143
0.50346082448959351 0.77789372205734253 0.43616947531700134
0.53870803117752075 0.78121054172515869 0.43465292453765869
0.58314234018325806 0.78460365533828735 0.43336328864097595
0.63343334197998047 0.78788918256759644 0.4322303831577301
0.68635892868041992 0.79086965322494507 0.43238344788551331
0.7399522066116333 0.79336488246917725 0.4321819543838501
0.79345232248306274 0.79601722955703735 0.42978185415267944
0.84777301549911499 0.7981109619140625 0.42576035857200623
0.90418022871017456 0.79897278547286987 0.42174899578094482
0.96273958683013916 0.79532700777053833 0.41768980026245117
0.99936360120773315 0.78564262390136719 0.41281223297119141
0.49945560097694397 0.83721977472305298 0.48926073312759399
0.52195209264755249 0.83958184719085693 0.48761117458343506
0.54747670888900757 0.84282487630844116 0.48563763499259949
0.57929259538650513 0.84652620553970337 0.48371624946594238
0.61829280853271484 0.85021680593490601 0.48196354508399963
0.66249865293502808 0.85386359691619873 0.48043236136436462
0.70974165201187134 0.85745531320571899 0.48020833730697632
0.75860089063644409 0.86071622371673584 0.4800146222114563
0.80872267484664917 0.86349064111709595 0.47838947176933289
0.86043405532836914 0.86576712131500244 0.47661104798316956
0.91491222381591797 0.86747974157333374 0.47569540143013
0.97286665439605713 0.86613303422927856 0.47426208853721619
1 0.86059719324111938 0.46899652481079102
0.53988015651702881 0.90533852577209473 0.54363232851028442
0.56351190805435181 0.9075998067855835 0.54060286283493042
0.58870691061019897 0.91104763746261597 0.53705900907516479
0.61827588081359863 0.91499179601669312 0.53427112102508545
0.65315073728561401 0.91913872957229614 0.53191143274307251
0.69243794679641724 0.92339402437210083 0.53074264526367188
0.73494690656661987 0.92770838737487793 0.53023034334182739
0.77979326248168945 0.93179118633270264 0.5302925705909729
0.82640790939331055 0.93567472696304321 0.53066366910934448
0.87562465667724609 0.93927156925201416 0.5314452052116394
0.92772740125656128 0.94259703159332275 0.53333711624145508
0.98249858617782593 0.94316154718399048 0.53237169981002808
1 0.93895548582077026 0.52591204643249512
0.089083574712276459 0.10091085731983185 0.14550790190696716
0.15131355822086334 0.099568895995616913 0.14825877547264099
0.20422133803367615 0.094103842973709106 0.14838984608650208
0.2601223886013031 0.091226436197757721 0.14990441501140594
0.32179692387580872 0.08148067444562912 0.14811064302921295
0.3855145275592804 0.062655478715896606 0.14559553563594818
0.45439925789833069 0.049676619470119476 0.14602349698543549
0.52713382244110107 0.040993351489305496 0.14314165711402893
0.60016363859176636 0.040340065956115723 0.13809208571910858
0.6716044545173645 0.053455907851457596 0.13357275724411011
0.73727071285247803 0.071756310760974884 0.13292402029037476
0.80291390419006348 0.090086154639720917 0.12596064805984497
0.8702467679977417 0.10311487317085266 0.110228531062603
0.13601359724998474 0.1711735874414444 0.17139998078346252
0.17834310233592987 0.17470502853393555 0.17404928803443909
0.224048912525177 0.1718946248292923 0.17350205779075623
0.27943634986877441 0.16969114542007446 0.17312632501125336
0.34230953454971313 0.16648317873477936 0.17151474952697754
0.41010645031929016 0.16086944937705994 0.17071226239204407
0.48061409592628479 0.15124005079269409 0.17059798538684845
0.5473828911781311 0.12469659000635147 0.17076919972896576
0.61197298765182495 0.096413709223270416 0.16853220760822296
0.67142689228057861 0.073998332023620605 0.16384120285511017
0.73088222742080688 0.070909850299358368 0.15752387046813965
0.79536879062652588 0.084442183375358582 0.14660161733627319
0.86429727077484131 0.10254622995853424 0.13119921088218689
0.16240221261978149 0.22399719059467316 0.19183510541915894
0.19359345734119415 0.2265600860118866 0.19176724553108215
0.23602578043937683 0.22289597988128662 0.19220428168773651
0.29156956076622009 0.22092634439468384 0.19230258464813232
0.35648033022880554 0.22386734187602997 0.19234409928321838
0.42658990621566772 0.22474749386310577 0.19252792000770569
0.49914067983627319 0.2201627790927887 0.19158218801021576
0.57052630186080933 0.2061910480260849 0.19063569605350494
0.6354295015335083 0.18010610342025757 0.18998445570468903
0.68644493818283081 0.13637559115886688 0.18723614513874054
0.73486828804016113 0.09954129159450531 0.17976158857345581
0.79063761234283447 0.085111804306507111 0.16726921498775482
0.85449492931365967 0.086051657795906067 0.15266545116901398
0.18253976106643677 0.28317046165466309 0.21083495020866394
0.20893898606300354 0.28353619575500488 0.21028493344783783
0.2498396635055542 0.28043189644813538 0.21265114843845367
0.30552002787590027 0.27917000651359558 0.214316725730896
0.37122568488121033 0.28119716048240662 0.214774489402771
0.44220694899559021 0.28275901079177856 0.2144702672958374
0.51648330688476562 0.2793489396572113 0.21381993591785431
0.59034121036529541 0.27110165357589722 0.21308523416519165
0.65687090158462524 0.2550845742225647 0.21275241672992706
0.71012008190155029 0.22251826524734497 0.21066024899482727
0.75448936223983765 0.17502580583095551 0.20388051867485046
0.79974567890167236 0.12604761123657227 0.192242830991745
0.84995687007904053 0.082911066710948944 0.17846596240997314
0.20945456624031067 0.34962067008018494 0.23369862139225006
0.23384103178977966 0.34940525889396667 0.23476706445217133
0.27143579721450806 0.34844893217086792 0.23744706809520721
0.32536324858665466 0.34860894083976746 0.23924316465854645
0.39059776067733765 0.35152029991149902 0.23910045623779297
0.46214959025382996 0.35292962193489075 0.23828722536563873
0.53718763589859009 0.3488919734954834 0.2381192147731781
0.61082154512405396 0.34035137295722961 0.23808634281158447
0.67750710248947144 0.32981908321380615 0.23799231648445129
0.73465406894683838 0.31236600875854492 0.23628887534141541
0.7839055061340332 0.27947697043418884 0.23025014996528625
0.82703149318695068 0.22055123746395111 0.21898388862609863
0.86716967821121216 0.14489981532096863 0.20571857690811157
0.24346016347408295 0.42366564273834229 0.2608705461025238
0.2663198709487915 0.42475488781929016 0.26263290643692017
0.30130824446678162 0.42543917894363403 0.26545867323875427
0.35251915454864502 0.42812648415565491 0.26664429903030396
0.41599833965301514 0.43079802393913269 0.26652252674102783
0.48721402883529663 0.43196997046470642 0.26649084687232971
0.5609326958656311 0.4287707507610321 0.26648762822151184
0.63236057758331299 0.42135462164878845 0.26649308204650879
0.69765877723693848 0.41205167770385742 0.26636636257171631
0.75616991519927979 0.40037518739700317 0.26436325907707214
0.80978250503540039 0.37726584076881409 0.2584432065486908
0.85849577188491821 0.33216354250907898 0.24650490283966064
0.90150761604309082 0.26410737633705139 0.23344044387340546
0.27966806292533875 0.50187695026397705 0.29352560639381409
0.30280706286430359 0.50216633081436157 0.2947266697883606
0.33628270030021667 0.50561106204986572 0.2964898943901062
0.38447993993759155 0.50905978679656982 0.29717093706130981
0.44565635919570923 0.51226550340652466 0.29745039343833923
0.51484805345535278 0.51347446441650391 0.29769712686538696
0.58609259128570557 0.51255375146865845 0.2979176938533783
0.65450066328048706 0.50822371244430542 0.29822447896003723
0.71763855218887329 0.50093579292297363 0.29778373241424561
0.77604466676712036 0.49153974652290344 0.29519563913345337
0.83183646202087402 0.47413179278373718 0.28855195641517639
0.88532799482345581 0.44085732102394104 0.27710819244384766
0.93391871452331543 0.3904825747013092 0.26536595821380615
0.31838783621788025 0.57716464996337891 0.32994851469993591
0.34165680408477783 0.57816976308822632 0.33024382591247559
0.37355524301528931 0.58069944381713867 0.33097353577613831
0.41890633106231689 0.58412426710128784 0.33133348822593689
0.47689935564994812 0.58746427297592163 0.33139553666114807
0.54288488626480103 0.58986389636993408 0.33162206411361694
0.61067694425582886 0.59076166152954102 0.33217516541481018
0.67598479986190796 0.59046953916549683 0.33280348777770996
0.73730844259262085 0.58697915077209473 0.33208796381950378
0.79552578926086426 0.58257710933685303 0.32868406176567078
0.85319554805755615 0.57148164510726929 0.3212243914604187
0.90970844030380249 0.54774302244186401 0.31029227375984192
0.96218067407608032 0.51007676124572754 0.30053991079330444
0.36100786924362183 0.64535039663314819 0.36796921491622925
0.38291367888450623 0.64661729335784912 0.36830386519432068
0.4123881459236145 0.64874660968780518 0.36869332194328308
0.45466548204421997 0.65165501832962036 0.36878395080566406
0.50903141498565674 0.65480995178222656 0.36847707629203796
0.57058221101760864 0.65796411037445068 0.36845451593399048
0.63401353359222412 0.660564124584198 0.36940312385559082
0.69595015048980713 0.66224086284637451 0.37009546160697937
0.75542712211608887 0.66288715600967407 0.36919420957565308
0.81363785266876221 0.66340094804763794 0.36474093794822693
0.87204670906066895 0.65883159637451172 0.35746604204177856
0.93063116073608398 0.64445871114730835 0.34779495000839233
0.98398703336715698 0.61764240264892578 0.33977454900741577
0.40669813752174377 0.70796000957489014 0.40776705741882324
0.42770001292228699 0.70964252948760986 0.40882644057273865
0.45442900061607361 0.71189028024673462 0.41009539365768433
0.49290004372596741 0.71459382772445679 0.41014260053634644
0.54247790575027466 0.71748930215835571 0.40911585092544556
0.59857004880905151 0.72062605619430542 0.40859463810920715
0.65667164325714111 0.72368746995925903 0.40959903597831726
0.71433848142623901 0.72669678926467896 0.41046261787414551
0.7712218165397644 0.72961407899856567 0.40867245197296143
0.82832568883895874 0.73192471265792847 0.40406754612922668
0.88660275936126709 0.73175036907196045 0.39781889319419861
0.94552481174468994 0.72467315196990967 0.39103162288665771
0.99413841962814331 0.70761072635650635 0.38535371422767639
0.45345202088356018 0.76912474632263184 0.45214623212814331
0.47383233904838562 0.77134299278259277 0.45374396443367004
0.49886235594749451 0.77400857210159302 0.45546725392341614
0.53311121463775635 0.77694755792617798 0.45484140515327454
0.57661575078964233 0.77985239028930664 0.45373418927192688
0.6262742280960083 0.78306335210800171 0.45298126339912415
0.67854231595993042 0.78671360015869141 0.45349195599555969
0.73163586854934692 0.79011732339859009 0.4538835883140564
0.78538161516189575 0.79292774200439453 0.45155394077301025
0.84036821126937866 0.7952309250831604 0.44713494181632996
0.89791524410247803 0.79666954278945923 0.44313755631446838
0.95725107192993164 0.79439771175384521 0.43968603014945984
0.99847173690795898 0.78457987308502197 0.43586072325706482
0.49677243828773499 0.83331668376922607 0.50410711765289307
0.51799064874649048 0.83542346954345703 0.50424736738204956
0.54216158390045166 0.83831137418746948 0.50400859117507935
0.5728575587272644 0.84156030416488647 0.50292980670928955
0.61071503162384033 0.8449520468711853 0.50182199478149414
0.6541866660118103 0.84865915775299072 0.50099402666091919
0.70094460248947144 0.85264736413955688 0.50096505880355835
0.74925017356872559 0.85652107000350952 0.50086718797683716
0.79972964525222778 0.85971248149871826 0.49930694699287415
0.85234206914901733 0.86195075511932373 0.49665284156799316
0.90825933218002319 0.86460250616073608 0.49536904692649841
0.96738523244857788 0.86470335721969604 0.49375629425048828
0.99995261430740356 0.85890436172485352 0.48979425430297852
0.53645682334899902 0.90168112516403198 0.55833178758621216
0.55889832973480225 0.90358078479766846 0.55663013458251953
0.58268463611602783 0.90645033121109009 0.55486172437667847
0.6111869215965271 0.90996289253234863 0.55309385061264038
0.64469051361083984 0.91385763883590698 0.55153399705886841
0.68313044309616089 0.91834664344787598 0.55092400312423706
0.72518044710159302 0.92296892404556274 0.5509028434753418
0.76974791288375854 0.92756235599517822 0.55091392993927002
0.81661152839660645 0.93184000253677368 0.55081695318222046
0.86701375246047974 0.93566799163818359 0.55062341690063477
0.92100989818572998 0.93878048658370972 0.55093014240264893
0.97856003046035767 0.93983298540115356 0.54948067665100098
1 0.93624085187911987 0.54519760608673096
0.082824647426605225 0.10363082587718964 0.18174341320991516
0.14177441596984863 0.10352533310651779 0.18353326618671417
0.19346512854099274 0.098577834665775299 0.18451152741909027
0.24863451719284058 0.088527768850326538 0.18544617295265198
0.31163525581359863 0.084258422255516052 0.18537737429141998
0.37498709559440613 0.066741734743118286 0.18412953615188599
0.44406941533088684 0.052873827517032623 0.18325693905353546
0.51764726638793945 0.048263400793075562 0.18201324343681335
0.59035533666610718 0.049418475478887558 0.17964647710323334
0.65923488140106201 0.056518569588661194 0.17706365883350372
0.72383010387420654 0.066683374345302582 0.1745436042547226
0.78854572772979736 0.080609627068042755 0.16749604046344757
0.85521745681762695 0.093335218727588654 0.15478530526161194
0.12725993990898132 0.17164923250675201 0.20600779354572296
0.16972698271274567 0.17679214477539062 0.20713193714618683
0.21442519128322601 0.17341652512550354 0.20703679323196411
0.26909837126731873 0.16917435824871063 0.20667663216590881
0.33242782950401306 0.167735755443573 0.20614245533943176
0.39977899193763733 0.16067910194396973 0.20594362914562225
0.46932566165924072 0.14722655713558197 0.20594595372676849
0.53900158405303955 0.12982113659381866 0.20594774186611176
0.60587143898010254 0.11203421652317047 0.20421674847602844
0.66476362943649292 0.089141771197319031 0.20101994276046753
0.71956002712249756 0.070416197180747986 0.19591127336025238
0.78043270111083984 0.073027893900871277 0.18656276166439056
0.84791606664657593 0.088447391986846924 0.17344996333122253
0.15208297967910767 0.22580716013908386 0.2251100093126297
0.18361745774745941 0.22717086970806122 0.22468741238117218
0.22530418634414673 0.22331662476062775 0.22535432875156403
0.2810761034488678 0.22182811796665192 0.22536881268024445
0.34673100709915161 0.22571305930614471 0.22543990612030029
0.41738948225975037 0.22562295198440552 0.2254377156496048
0.48922783136367798 0.21777923405170441 0.22529652714729309
0.56084614992141724 0.2049151211977005 0.22524718940258026
0.62683123350143433 0.18527786433696747 0.22405512630939484
0.67929172515869141 0.14611026644706726 0.22115704417228699
0.72418934106826782 0.097943834960460663 0.21492615342140198
0.77623260021209717 0.072917640209197998 0.20466811954975128
0.83886778354644775 0.070934295654296875 0.19199468195438385
0.16938918828964233 0.28449738025665283 0.24418237805366516
0.19605773687362671 0.28410136699676514 0.24315014481544495
0.23782002925872803 0.28107047080993652 0.24499499797821045
0.29459869861602783 0.28068810701370239 0.24664625525474548
0.36147332191467285 0.28413039445877075 0.24730107188224792
0.43352210521697998 0.28542163968086243 0.24736317992210388
0.50814330577850342 0.28021451830863953 0.24704347550868988
0.58187758922576904 0.27126032114028931 0.24605470895767212
0.64813381433486938 0.25624901056289673 0.24543915688991547
0.70161521434783936 0.22489859163761139 0.24311362206935883
0.74589043855667114 0.17659665644168854 0.23721286654472351
0.78889286518096924 0.1212969496846199 0.22674734890460968
0.83673834800720215 0.071716248989105225 0.21431271731853485
0.1938374936580658 0.35058721899986267 0.26603847742080688
0.21891273558139801 0.35071247816085815 0.26647692918777466
0.25868213176727295 0.3503957986831665 0.26900017261505127
0.31442710757255554 0.35143676400184631 0.27104812860488892
0.38096866011619568 0.3540918231010437 0.27154254913330078
0.45354229211807251 0.35516262054443359 0.27132561802864075
0.52931094169616699 0.34992069005966187 0.27146720886230469
0.60310578346252441 0.34154662489891052 0.27084603905677795
