assets/lut/films negative color lomography redscale 100.cube
# Created by: G'MIC (https://gmic.eu)
TITLE "lomography_redscale_100"
# LUT size
LUT_3D_SIZE 13
# Data domain
DOMAIN_MIN 0.0 0.0 0.0
DOMAIN_MAX 1.0 1.0 1.0
# LUT data points
0.01759420707821846 0.0046698478981852531 0.0033894558437168598
0.061198949813842773 0.0094850128516554832 0.0087563162669539452
0.11116048693656921 0.013801110908389091 0.02043558843433857
0.16226042807102203 0.020293202251195908 0.037835229188203812
0.22354888916015625 0.030124738812446594 0.06274539977312088
0.29640749096870422 0.041884731501340866 0.096242897212505341
0.37864327430725098 0.054551173001527786 0.13445000350475311
0.46065399050712585 0.067423440515995026 0.17020945250988007
0.53776025772094727 0.079957745969295502 0.20163664221763611
0.60795682668685913 0.090260103344917297 0.22935718297958374
0.67011910676956177 0.096049919724464417 0.25332885980606079
0.72637224197387695 0.097170434892177582 0.27385839819908142
0.78304606676101685 0.096394680440425873 0.29178687930107117
0.019146474078297615 0.0260288305580616 0.0087339514866471291
0.052387252449989319 0.031386774033308029 0.012332512065768242
0.096092537045478821 0.03637225553393364 0.020204028114676476
0.14772157371044159 0.043855585157871246 0.03407452255487442
0.20703257620334625 0.054384313523769379 0.056727048009634018
0.27886813879013062 0.066632829606533051 0.08980993926525116
0.36433896422386169 0.07979302853345871 0.12934876978397369
0.45180407166481018 0.093380019068717957 0.16786640882492065
0.53404861688613892 0.10682184249162674 0.20211349427700043
0.60746264457702637 0.11783991754055023 0.2318461537361145
0.66955339908599854 0.12333756685256958 0.25745093822479248
0.72385299205780029 0.12380921840667725 0.27927801012992859
0.77983081340789795 0.12371956557035446 0.29859134554862976
0.029421234503388405 0.054204452782869339 0.013502068817615509
0.054203316569328308 0.058672092854976654 0.015598760917782784
0.091317407786846161 0.064227387309074402 0.020990453660488129
0.14193952083587646 0.071229569613933563 0.032075393944978714
0.20015782117843628 0.080639734864234924 0.053113900125026703
0.27096131443977356 0.092946521937847137 0.085259139537811279
0.3566364049911499 0.10638643056154251 0.12494791299104691
0.4470427930355072 0.12030533701181412 0.16503904759883881
0.53269279003143311 0.13390719890594482 0.20131710171699524
0.60773646831512451 0.14474451541900635 0.23280702531337738
0.67036151885986328 0.15038055181503296 0.26001051068305969
0.72407406568527222 0.15154415369033813 0.28373226523399353
0.77909296751022339 0.15325689315795898 0.30483701825141907
0.043325118720531464 0.089625537395477295 0.018414277583360672
0.061894763261079788 0.093050986528396606 0.020540738478302956
0.089221671223640442 0.098580196499824524 0.026016728952527046
0.13524201512336731 0.104947529733181 0.036319881677627563
0.19507800042629242 0.11308231949806213 0.054681006819009781
0.26635539531707764 0.12542268633842468 0.084818534553050995
0.35421046614646912 0.13907071948051453 0.12324996292591095
0.44710493087768555 0.15303263068199158 0.16331811249256134
0.53465491533279419 0.16664101183414459 0.20105639100074768
0.61183083057403564 0.17732726037502289 0.23406149446964264
0.67635023593902588 0.18358452618122101 0.26275715231895447
0.73150002956390381 0.18702986836433411 0.28845328092575073
0.78759574890136719 0.19151589274406433 0.31179997324943542
0.057909272611141205 0.13286538422107697 0.026619765907526016
0.073227658867835999 0.13587193191051483 0.028923483565449715
0.09593634307384491 0.14109548926353455 0.034239210188388824
0.13204079866409302 0.14764668047428131 0.044284924864768982
0.186539426445961 0.1563289612531662 0.060685716569423676
0.26131322979927063 0.16799406707286835 0.087742149829864502
0.3531261682510376 0.1819504052400589 0.12396660447120667
0.44884350895881653 0.19677078723907471 0.1640927642583847
0.53943264484405518 0.21038559079170227 0.20274297893047333
0.61970126628875732 0.22125290334224701 0.23701535165309906
0.68806517124176025 0.22882452607154846 0.26703029870986938
0.74720025062561035 0.23495690524578094 0.29460084438323975
0.80752027034759521 0.24291171133518219 0.31991761922836304
0.06213848665356636 0.1884954422712326 0.038546722382307053
0.074415735900402069 0.19182500243186951 0.039983652532100677
0.093937501311302185 0.19620242714881897 0.043305624276399612
0.12348268926143646 0.20210908353328705 0.05062529444694519
0.17045353353023529 0.21086470782756805 0.065316639840602875
0.24957908689975739 0.2220766693353653 0.090364791452884674
0.347238689661026 0.23723146319389343 0.12538944184780121
0.44742780923843384 0.25373247265815735 0.16547019779682159
0.5433422327041626 0.26779243350028992 0.20531775057315826
0.62886309623718262 0.27871459722518921 0.241726353764534
0.70169979333877563 0.28719830513000488 0.27360829710960388
0.7666364312171936 0.2954113781452179 0.30246785283088684
0.83159995079040527 0.3055722713470459 0.32927307486534119
0.046710699796676636 0.26105508208274841 0.053014852106571198
0.05450013279914856 0.26372638344764709 0.053358100354671478
0.066024944186210632 0.26690572500228882 0.053633205592632294
0.086474217474460602 0.27126950025558472 0.056439958512783051
0.12971594929695129 0.27844968438148499 0.066576562821865082
0.21559286117553711 0.28866511583328247 0.088807336986064911
0.32658159732818604 0.30406782031059265 0.12280566990375519
0.43922516703605652 0.32198390364646912 0.164407879114151
0.54428517818450928 0.33721843361854553 0.20742557942867279
0.63688242435455322 0.34870293736457825 0.24681161344051361
0.71585536003112793 0.35743182897567749 0.28100347518920898
0.78599995374679565 0.3663279116153717 0.31132817268371582
0.85588663816452026 0.37775248289108276 0.33955207467079163
0.021039746701717377 0.34472393989562988 0.068345092236995697
0.023840392008423805 0.34687361121177673 0.067963771522045135
0.028763610869646072 0.3480684757232666 0.064923077821731567
0.04129810631275177 0.34981587529182434 0.062447790056467056
0.078359045088291168 0.35470157861709595 0.06653130054473877
0.16414067149162292 0.36354491114616394 0.083559386432170868
0.28720360994338989 0.37831729650497437 0.11577857285737991
0.41846594214439392 0.39726853370666504 0.15937015414237976
0.53824752569198608 0.4151943027973175 0.20665453374385834
0.64168453216552734 0.42810171842575073 0.25065797567367554
0.72809106111526489 0.43653666973114014 0.28787842392921448
0.80302286148071289 0.44551524519920349 0.31995844841003418
0.87747573852539062 0.45737746357917786 0.35011419653892517
0.002184310695156455 0.43044325709342957 0.081776700913906097
0.0021882001310586929 0.43275406956672668 0.081191167235374451
0.0031755184754729271 0.43214601278305054 0.075744941830635071
0.0078819273039698601 0.43192312121391296 0.068459495902061462
0.033847421407699585 0.43396815657615662 0.066350050270557404
0.10346449166536331 0.44092592597007751 0.076000332832336426
0.22111417353153229 0.45493429899215698 0.10339841991662979
0.36919370293617249 0.47530937194824219 0.14760446548461914
0.51424247026443481 0.49631503224372864 0.20008666813373566
0.63769066333770752 0.51158469915390015 0.25048592686653137
0.73586940765380859 0.52100855112075806 0.29269373416900635
0.81583571434020996 0.53050297498703003 0.32721048593521118
0.89733850955963135 0.54135262966156006 0.36026525497436523
0 0.51325064897537231 0.091538026928901672
0 0.51547670364379883 0.091735541820526123
0 0.51526510715484619 0.086045689880847931
0 0.51406592130661011 0.074797295033931732
0.0033209857065230608 0.5142558217048645 0.06559009850025177
0.03533795103430748 0.51796835660934448 0.066061504185199738
0.12635922431945801 0.52868586778640747 0.084057018160820007
0.28042119741439819 0.54797738790512085 0.12480451166629791
0.45911860466003418 0.57023614645004272 0.18183635175228119
0.61838680505752563 0.58956420421600342 0.2428445965051651
0.73671948909759521 0.60364812612533569 0.29382079839706421
0.82575154304504395 0.61443608999252319 0.33336091041564941
0.91464054584503174 0.62503784894943237 0.370240718126297
0 0.59518194198608398 0.10072635114192963
0.00068078131880611181 0.59749472141265869 0.10223489254713058
0.0012653126614168286 0.59829884767532349 0.096485763788223267
4.1243609302910045e-05 0.59790784120559692 0.08237852156162262
0 0.59683358669281006 0.067415960133075714
0.0007217107922770083 0.5967409610748291 0.057828266173601151
0.030448524281382561 0.60147958993911743 0.062723152339458466
0.16459289193153381 0.6163182258605957 0.094109341502189636
0.3613373339176178 0.63798046112060547 0.150090292096138
0.56322646141052246 0.66215521097183228 0.22190482914447784
0.71909260749816895 0.68265432119369507 0.28743040561676025
0.82409632205963135 0.69609153270721436 0.33563876152038574
0.92464637756347656 0.7080608606338501 0.37839913368225098
0 0.67810487747192383 0.11226484924554825
0.0030108282808214426 0.68105137348175049 0.11190678924322128
0.0087461434304714203 0.68340349197387695 0.10540176182985306
0.004819922149181366 0.68443351984024048 0.091017782688140869
8.6286956502590328e-05 0.6837468147277832 0.07322423905134201
0 0.68214231729507446 0.057744476944208145
0.0019483229843899608 0.68340897560119629 0.052392609417438507
0.066402792930603027 0.69235795736312866 0.065212324261665344
0.19557181000709534 0.70784670114517212 0.098620377480983734
0.3865039050579071 0.73067247867584229 0.16405877470970154
0.64248567819595337 0.7598268985748291 0.25927633047103882
0.80652844905853271 0.77946674823760986 0.3293120265007019
0.92636525630950928 0.79340684413909912 0.38184377551078796
0 0.76170003414154053 0.12596236169338226
0.00066112441709265113 0.76556521654129028 0.12215515971183777
0.0051702163182199001 0.7689557671546936 0.11373530328273773
0.0060727884992957115 0.77181929349899292 0.098924063146114349
0.00065816246205940843 0.77255827188491821 0.079497858881950378
0 0.77153736352920532 0.060236971825361252
0.00035977832158096135 0.77224045991897583 0.046423263847827911
0.0043098898604512215 0.77491313219070435 0.033803228288888931
0.014577663503587246 0.77864879369735718 0.027407238259911537
0.069408297538757324 0.79149550199508667 0.055895652621984482
0.34312602877616882 0.82415372133255005 0.16211307048797607
0.67800682783126831 0.85883021354675293 0.2848074734210968
0.89013242721557617 0.88314050436019897 0.36850225925445557
0.02779834158718586 0.012237189337611198 0.020878002047538757
0.07642798125743866 0.018024144694209099 0.027396932244300842
0.12901800870895386 0.024085460230708122 0.037141852080821991
0.18094882369041443 0.031490683555603027 0.050911411643028259
0.24084104597568512 0.041267082095146179 0.071965701878070831
0.31185445189476013 0.052727971225976944 0.1021604984998703
0.39164787530899048 0.065039694309234619 0.13865160942077637
0.47206240892410278 0.077875830233097076 0.17464831471443176
0.54753100872039795 0.090481027960777283 0.20670579373836517
0.61574685573577881 0.10146953910589218 0.23483024537563324
0.67609775066375732 0.10833421349525452 0.25902733206748962
0.73098301887512207 0.10928687453269958 0.27926766872406006
0.78545361757278442 0.10668738931417465 0.29652971029281616
0.030733773484826088 0.035008061677217484 0.026601783931255341
0.066789634525775909 0.039870947599411011 0.031242147088050842
0.11306294798851013 0.045876491814851761 0.037838984280824661
0.16522100567817688 0.054313480854034424 0.047837935388088226
0.22520022094249725 0.064688079059123993 0.065437674522399902
0.29697242379188538 0.076947681605815887 0.095017515122890472
0.37922099232673645 0.089654587209224701 0.13413901627063751
0.46427717804908752 0.10288247466087341 0.17274364829063416
0.54413801431655884 0.11597082018852234 0.20701481401920319
0.61491680145263672 0.12687927484512329 0.23663546144962311
0.67544049024581909 0.13321094214916229 0.26202145218849182
0.72923010587692261 0.13408131897449493 0.28345665335655212
0.78282159566879272 0.13299842178821564 0.30216071009635925
0.039437912404537201 0.064125627279281616 0.031991217285394669
0.064909867942333221 0.068045943975448608 0.034094538539648056
0.10431496053934097 0.073327049612998962 0.039100091904401779
0.1563832014799118 0.080441460013389587 0.04765503853559494
0.21671813726425171 0.090113483369350433 0.063015282154083252
0.28825384378433228 0.10254740715026855 0.091622188687324524
0.3720645010471344 0.11559590697288513 0.13182638585567474
0.46036848425865173 0.12892219424247742 0.17146584391593933
0.54347687959671021 0.14179864525794983 0.20665346086025238
0.61612361669540405 0.15222316980361938 0.23753350973129272
0.67701882123947144 0.15816305577754974 0.26414269208908081
0.73024922609329224 0.16021014750003815 0.2870541512966156
0.7839391827583313 0.16155765950679779 0.30738568305969238
0.052958440035581589 0.10027507692575455 0.038458012044429779
0.072203494608402252 0.10286121815443039 0.040042892098426819
0.10201477259397507 0.10766215622425079 0.044869709759950638
0.14762113988399506 0.11392096430063248 0.052988059818744659
0.20928257703781128 0.12215525656938553 0.066793225705623627
0.28268000483512878 0.13442409038543701 0.09284655749797821
0.36963146924972534 0.14763018488883972 0.1306656152009964
0.46079531311988831 0.16084054112434387 0.17041215300559998
0.5463486909866333 0.17342928051948547 0.2073073536157608
0.62095266580581665 0.1837892085313797 0.2392648309469223
0.68344271183013916 0.19016703963279724 0.26682531833648682
0.73773676156997681 0.19386968016624451 0.29128140211105347
0.79297208786010742 0.19858421385288239 0.31353262066841125
0.066545374691486359 0.14383035898208618 0.048411231487989426
0.082728877663612366 0.14579059183597565 0.049601253122091293
0.1048240065574646 0.15033203363418579 0.054036758840084076
0.13995227217674255 0.15696114301681519 0.061656322330236435
0.19798128306865692 0.16509190201759338 0.073822066187858582
0.27590486407279968 0.17657594382762909 0.096844613552093506
0.36788251996040344 0.18996742367744446 0.13165511190891266
0.46277540922164917 0.20350222289562225 0.17167080938816071
0.55157363414764404 0.21629795432090759 0.20949436724185944
0.62898415327072144 0.22678643465042114 0.24246995151042938
0.69472402334213257 0.23434774577617645 0.27123540639877319
0.75209087133407593 0.2404274195432663 0.29721459746360779
0.81046080589294434 0.2481410801410675 0.32139348983764648
0.068871334195137024 0.20000903308391571 0.06072673574090004
0.08211950957775116 0.20159298181533813 0.060973372310400009
0.099782668054103851 0.20528757572174072 0.06319243460893631
0.12829940021038055 0.2112400084733963 0.06800505518913269
0.1809622198343277 0.2195025235414505 0.078613102436065674
0.26259350776672363 0.23075908422470093 0.099288865923881531
0.36032000184059143 0.24535799026489258 0.13237053155899048
0.46045574545860291 0.26058053970336914 0.17249642312526703
0.55499285459518433 0.27373933792114258 0.21201799809932709
0.63782447576522827 0.28423544764518738 0.24690869450569153
0.70833665132522583 0.2923140823841095 0.27734336256980896
0.77060002088546753 0.29997974634170532 0.30464926362037659
0.83293473720550537 0.30960306525230408 0.33050310611724854
0.053649108856916428 0.27072060108184814 0.074403010308742523
0.060980163514614105 0.27263423800468445 0.073227211833000183
0.071974493563175201 0.27519184350967407 0.072242125868797302
0.09458942711353302 0.27940404415130615 0.072860240936279297
0.14469680190086365 0.28615656495094299 0.079349100589752197
0.23236015439033508 0.29648265242576599 0.096921764314174652
0.34054559469223022 0.31256228685379028 0.12840327620506287
0.45019543170928955 0.33016029000282288 0.16989240050315857
0.55460792779922485 0.34415885806083679 0.2128530740737915
0.64560413360595703 0.3549540638923645 0.25156843662261963
0.72255009412765503 0.36281386017799377 0.2845008373260498
0.79008036851882935 0.37060904502868652 0.31321823596954346
0.85682594776153564 0.38132104277610779 0.34060943126678467
0.028802534565329552 0.3518756628036499 0.087586484849452972
0.02940317802131176 0.35427814722061157 0.085534624755382538
0.032871965318918228 0.3557058572769165 0.081414349377155304
0.047823153436183929 0.35731026530265808 0.077297300100326538
0.091888859868049622 0.36170738935470581 0.078680925071239471
0.18090473115444183 0.37088611721992493 0.091186583042144775
0.30215197801589966 0.38700389862060547 0.12034393101930618
0.4305674135684967 0.40652769804000854 0.16370855271816254
0.54871129989624023 0.42351776361465454 0.21174255013465881
0.65054106712341309 0.43589243292808533 0.25536558032035828
0.73546671867370605 0.44255352020263672 0.29176008701324463
0.80824929475784302 0.45016071200370789 0.32240766286849976
0.87957853078842163 0.46109020709991455 0.35119390487670898
0.0080129289999604225 0.43567019701004028 0.098442330956459045
0.0052701164968311787 0.43870913982391357 0.09610283374786377
0.0041740569286048412 0.43910309672355652 0.089846685528755188
0.0087537281215190887 0.4384760856628418 0.081241801381111145
0.037154581397771835 0.44077220559120178 0.076945483684539795
0.11132945865392685 0.44868695735931396 0.08332621306180954
0.2351338267326355 0.46454310417175293 0.10748434811830521
0.38732472062110901 0.48564469814300537 0.15096302330493927
0.52926194667816162 0.50616240501403809 0.20462487637996674
0.64711201190948486 0.52070224285125732 0.25555506348609924
0.74272614717483521 0.52806663513183594 0.29670929908752441
0.82210159301757812 0.53515100479125977 0.33014419674873352
0.89928519725799561 0.54515963792800903 0.36159756779670715
0.00029703776817768812 0.51783674955368042 0.10631390661001205
7.8986677181092091e-06 0.52041029930114746 0.10428586602210999
0 0.52049142122268677 0.097431853413581848
0 0.51941627264022827 0.086142838001251221
0.002782484982162714 0.51992857456207275 0.075869522988796234
0.037190545350313187 0.52477079629898071 0.073421269655227661
0.13856562972068787 0.53680801391601562 0.088403664529323578
0.2993716299533844 0.55705052614212036 0.12738734483718872
0.4741215705871582 0.57888495922088623 0.18497686088085175
0.62585562467575073 0.59745007753372192 0.24737797677516937
0.74027657508850098 0.61030060052871704 0.29671105742454529
0.82996302843093872 0.61944425106048584 0.33462619781494141
0.91521024703979492 0.62878602743148804 0.37045300006866455
0.00043224261025898159 0.59916359186172485 0.11579360812902451
0.0039864634163677692 0.60146230459213257 0.11463674157857895
0.0031819362193346024 0.60207819938659668 0.10813584923744202
0.00011086557788075879 0.60157376527786255 0.095406912267208099
0 0.6008601188659668 0.079753085970878601
0.00097792386077344418 0.60112756490707397 0.067046821117401123
0.03789081797003746 0.60691481828689575 0.06820455938577652
0.17363417148590088 0.62173593044281006 0.095540113747119904
0.36979213356971741 0.64295512437820435 0.15160241723060608
0.56990891695022583 0.66688317060470581 0.22653958201408386
0.72297066450119019 0.68786728382110596 0.29003742337226868
0.82740503549575806 0.7008059024810791 0.33536523580551147
0.92260253429412842 0.71157377958297729 0.37694552540779114
0.00092502665938809514 0.68222558498382568 0.13254128396511078
0.010295359417796135 0.68488645553588867 0.13051806390285492
0.014953284524381161 0.6866462230682373 0.12425810843706131
0.0063003688119351864 0.6873319149017334 0.11068639159202576
5.3615196520695463e-05 0.68622344732284546 0.091284193098545074
0 0.68385344743728638 0.069503158330917358
0.0010815788991749287 0.68452548980712891 0.055910762399435043
0.053356632590293884 0.69332849979400635 0.063138298690319061
0.20167939364910126 0.7110324501991272 0.10063576698303223
0.41273072361946106 0.73599505424499512 0.17307086288928986
0.64589810371398926 0.76402556896209717 0.26073923707008362
0.80523675680160522 0.78347867727279663 0.32808557152748108
0.92329847812652588 0.79723197221755981 0.38036403059959412
7.7371034421958029e-05 0.76639246940612793 0.15522263944149017
0.0053000357002019882 0.76977646350860596 0.15079739689826965
0.013356272131204605 0.77264243364334106 0.14237374067306519
0.0092731546610593796 0.77459889650344849 0.12737852334976196
0.00015738992078695446 0.77416419982910156 0.104572594165802
0 0.77135241031646729 0.075518772006034851
0 0.76979297399520874 0.047164961695671082
0.00039295869646593928 0.7722550630569458 0.027390798553824425
0.018006134778261185 0.780742347240448 0.028872067108750343
0.11313361674547195 0.7990533709526062 0.073399096727371216
0.38839641213417053 0.83093339204788208 0.17542482912540436
0.679618239402771 0.86214983463287354 0.28514224290847778
0.88156533241271973 0.88456445932388306 0.36599588394165039
0.040599193423986435 0.021115051582455635 0.046918876469135284
0.090873584151268005 0.026662610471248627 0.052889671176671982
0.14228302240371704 0.034076105803251266 0.060265544801950455
0.19580253958702087 0.04277445375919342 0.070649318397045135
0.25680789351463318 0.052926920354366302 0.086735039949417114
0.32748898863792419 0.063944019377231598 0.11151359230279922
0.40518510341644287 0.075679123401641846 0.14368180930614471
0.48370784521102905 0.087860539555549622 0.17776532471179962
0.55757135152816772 0.10020286589860916 0.20995037257671356
0.62414979934692383 0.11135620623826981 0.2388976663351059
0.6829906702041626 0.11903280764818192 0.26383161544799805
0.7365298867225647 0.12029882520437241 0.28427344560623169
0.78926116228103638 0.11699289083480835 0.30082288384437561
0.043265055865049362 0.045371904969215393 0.052938617765903473
0.079909846186637878 0.05115160346031189 0.056408930569887161
0.12652899324893951 0.057670757174491882 0.062146220356225967
0.18080440163612366 0.065963521599769592 0.069438546895980835
0.24242518842220306 0.076624847948551178 0.081598661839962006
0.31439054012298584 0.088485971093177795 0.10466276854276657
0.3952605128288269 0.100568987429142 0.13935981690883636
0.47778776288032532 0.1130639910697937 0.17577870190143585
0.5551459789276123 0.12528906762599945 0.20925869047641754
0.62355822324752808 0.13590651750564575 0.23965749144554138
0.68277442455291748 0.14283187687397003 0.26560837030410767
0.73552078008651733 0.14417600631713867 0.28725585341453552
0.78796267509460449 0.14291606843471527 0.30537942051887512
0.051880884915590286 0.07471899688243866 0.059264134615659714
0.076322190463542938 0.07959042489528656 0.060881432145833969
0.11748898029327393 0.084541961550712585 0.066131383180618286
0.17086862027645111 0.091801002621650696 0.072479113936424255
0.23261672258377075 0.10233360528945923 0.08162398636341095
0.30598166584968567 0.11469858139753342 0.1024225726723671
0.38924935460090637 0.12732276320457458 0.1376708447933197
0.47516605257987976 0.13958951830863953 0.17527496814727783
0.55537623167037964 0.15126925706863403 0.20927901566028595
0.62543463706970215 0.16104079782962799 0.24046561121940613
0.68493944406509399 0.16719932854175568 0.26704797148704529
0.73779881000518799 0.16970172524452209 0.28975182771682739
0.79060906171798706 0.17114563286304474 0.30934956669807434
0.064750134944915771 0.11196642369031906 0.067298784852027893
0.084611870348453522 0.11460050940513611 0.06831417977809906
0.11530695855617523 0.11910557746887207 0.072721309959888458
0.16098116338253021 0.12568801641464233 0.07871556282043457
0.22365806996822357 0.13465413451194763 0.08770269900560379
0.30035009980201721 0.14714132249355316 0.10573475807905197
0.38744470477104187 0.1600479930639267 0.13710322976112366
0.47656047344207764 0.17181999981403351 0.17573204636573792
0.55899631977081299 0.18305175006389618 0.21147669851779938
0.63073205947875977 0.19260081648826599 0.24309055507183075
0.69171619415283203 0.19917023181915283 0.27024471759796143
0.74563217163085938 0.2032705694437027 0.29395037889480591
0.79990279674530029 0.20802721381187439 0.31554406881332397
0.076944924890995026 0.15697810053825378 0.078238151967525482
0.09499359130859375 0.15817224979400635 0.078573979437351227
0.11844887584447861 0.1622464507818222 0.081622958183288574
0.15367130935192108 0.16910442709922791 0.086578115820884705
0.21319115161895752 0.1772749274969101 0.095102973282337189
0.2932814359664917 0.18898516893386841 0.11156074702739716
0.38577592372894287 0.20153920352458954 0.14084364473819733
