assets/lut/films print fuji 3510 constlmap.cube
# Created by: G'MIC (https://gmic.eu)
TITLE "fuji_3510_constlmap"
# LUT size
LUT_3D_SIZE 5
# Data domain
DOMAIN_MIN 0.0 0.0 0.0
DOMAIN_MAX 1.0 1.0 1.0
# LUT data points
0.016899572685360909 0.014306625351309776 0.013158655725419521
0.083220824599266052 0.038239497691392899 0.022256558761000633
0.31950736045837402 0.077471338212490082 0.0066172732040286064
0.4825538694858551 0.092932052910327911 0.012286676093935966
0.55002009868621826 0.10141525417566299 0.012316236272454262
0.013891571201384068 0.11633101850748062 0.06136736273765564
0.093080021440982819 0.13291043043136597 0.049631740897893906
0.40498098731040955 0.18954025208950043 0.013231539167463779
0.60027545690536499 0.20878568291664124 0.0071368496865034103
0.66260832548141479 0.23433098196983337 0.013195950537919998
0.016082897782325745 0.28875637054443359 0.1379038542509079
0.04431769996881485 0.3303675651550293 0.077246017754077911
0.49571508169174194 0.43658262491226196 0.0086100706830620766
0.73370188474655151 0.47623774409294128 0.028322780504822731
0.80100065469741821 0.50607168674468994 0.0092734843492507935
0.018216885626316071 0.43316355347633362 0.19407583773136139
0.044292047619819641 0.51148194074630737 0.11227327585220337
0.57341575622558594 0.66334360837936401 0.0094799567013978958
0.8361627459526062 0.72838073968887329 0.045357901602983475
0.91698646545410156 0.75045603513717651 0.060833815485239029
0.0090521564707159996 0.50603657960891724 0.24120707809925079
0.13102371990680695 0.62447738647460938 0.091115109622478485
0.64144444465637207 0.76126140356063843 0.019651524722576141
0.90010488033294678 0.81245261430740356 0.080633513629436493
0.96918946504592896 0.82622480392456055 0.10755233466625214
0.013994838111102581 0.032218486070632935 0.091131292283535004
0.089738123118877411 0.043725211173295975 0.10258329659700394
0.365805983543396 0.048074595630168915 0.10946857184171677
0.55901932716369629 0.03740277886390686 0.11297933757305145
0.62434899806976318 0.040574092417955399 0.10607279092073441
0.0089789591729640961 0.13637201488018036 0.14438436925411224
0.12068177759647369 0.15163394808769226 0.14580230414867401
0.45348736643791199 0.19695934653282166 0.14737862348556519
0.70118904113769531 0.17071446776390076 0.11105895787477493
0.77942752838134766 0.17359215021133423 0.097818292677402496
0.015976686030626297 0.32760098576545715 0.23081502318382263
0.16078738868236542 0.38131767511367798 0.2411724179983139
0.54903680086135864 0.4930577278137207 0.21789413690567017
0.83413839340209961 0.52378159761428833 0.16893850266933441
0.91297042369842529 0.53634083271026611 0.060861729085445404
0.0085211209952831268 0.49031329154968262 0.3373144268989563
0.090059421956539154 0.57189428806304932 0.30574885010719299
0.60917514562606812 0.74576175212860107 0.20676040649414062
0.91745525598526001 0.80020427703857422 0.25475373864173889
0.9926455020904541 0.81843781471252441 0.16425718367099762
0.0069921603426337242 0.57491528987884521 0.42618206143379211
0.011235450394451618 0.68820440769195557 0.42338111996650696
0.63654905557632446 0.83187156915664673 0.3580317497253418
0.96095103025436401 0.88617104291915894 0.33400285243988037
0.99941223859786987 0.8891526460647583 0.4314253032207489
0.0057463105767965317 0.10305216163396835 0.2519707977771759
0.091597549617290497 0.048983614891767502 0.32087147235870361
0.39543527364730835 0.056595597416162491 0.35555064678192139
0.59431850910186768 0.049338441342115402 0.36913055181503296
0.65848100185394287 0.039096668362617493 0.38700705766677856
0.0090293586254119873 0.20328685641288757 0.32534205913543701
0.12032361328601837 0.21074469387531281 0.37800753116607666
0.47782832384109497 0.23815827071666718 0.45388332009315491
0.7391543984413147 0.18923230469226837 0.46986943483352661
0.80564504861831665 0.17722171545028687 0.48987221717834473
0.013361388817429543 0.41540476679801941 0.46371716260910034
0.22038246691226959 0.47440141439437866 0.50857579708099365
0.56597793102264404 0.56208628416061401 0.57531756162643433
0.87464845180511475 0.58576983213424683 0.57130271196365356
0.93736225366592407 0.61164546012878418 0.58498573303222656
0.0075024920515716076 0.58034825325012207 0.56261646747589111
0.12414465844631195 0.65615284442901611 0.60581386089324951
0.56147307157516479 0.83695137500762939 0.65077871084213257
0.94054651260375977 0.88983935117721558 0.66419363021850586
0.99665755033493042 0.89974242448806763 0.67359501123428345
0 0.66152632236480713 0.65846627950668335
0.0018347047735005617 0.76078599691390991 0.71662682294845581
0.57238101959228516 0.89447695016860962 0.75465887784957886
0.94103658199310303 0.94892698526382446 0.75887906551361084
0.99997305870056152 0.95471417903900146 0.7881048321723938
0.013061074540019035 0.17200194299221039 0.35226482152938843
0.084564939141273499 0.056848801672458649 0.48522293567657471
0.41032710671424866 0.066607348620891571 0.54754912853240967
0.61920046806335449 0.068285085260868073 0.566905677318573
0.68265515565872192 0.040842693299055099 0.58466267585754395
0.0014143401058390737 0.26560807228088379 0.46359509229660034
0.059309538453817368 0.24776637554168701 0.56150108575820923
0.5001034140586853 0.22567921876907349 0.71100294589996338
0.75255966186523438 0.20283506810665131 0.71930032968521118
0.81761336326599121 0.18291763961315155 0.73895812034606934
0.015509601682424545 0.47728979587554932 0.61414748430252075
0.1423279345035553 0.51932239532470703 0.67226910591125488
0.54120010137557983 0.60157996416091919 0.83436822891235352
0.86733818054199219 0.62070822715759277 0.85584437847137451
0.93320250511169434 0.64423805475234985 0.86619663238525391
0.0043832217343151569 0.63103771209716797 0.70504742860794067
0.14700360596179962 0.7121894359588623 0.77625292539596558
0.51880395412445068 0.8783765435218811 0.90491956472396851
0.92333310842514038 0.9325750470161438 0.92095381021499634
0.99497276544570923 0.94277077913284302 0.92710202932357788
0.020533528178930283 0.69469475746154785 0.76341956853866577
0.028933431953191757 0.79036164283752441 0.84777730703353882
0.516471266746521 0.92334896326065063 0.93650263547897339
0.92145460844039917 0.98015767335891724 0.95370447635650635
0.99411725997924805 0.98682892322540283 0.95300507545471191
0 0.20745280385017395 0.41193988919258118
0.069902859628200531 0.0872064009308815 0.56775641441345215
0.44917136430740356 0.044065825641155243 0.66198825836181641
0.6752932071685791 0.078756563365459442 0.68183451890945435
0.73547369241714478 0.074114434421062469 0.69805741310119629
0 0.30719232559204102 0.51912027597427368
0.0063782036304473877 0.29544785618782043 0.62434870004653931
0.50392168760299683 0.26314839720726013 0.79883503913879395
0.77704936265945435 0.23302829265594482 0.81980049610137939
0.83855587244033813 0.25096690654754639 0.8309929370880127
0 0.49063685536384583 0.64733296632766724
0.010047269053757191 0.53982651233673096 0.73665130138397217
0.51026207208633423 0.62186479568481445 0.90701645612716675
0.86550581455230713 0.64086931943893433 0.92808336019515991
0.93526923656463623 0.65921956300735474 0.93524158000946045
0.0039215688593685627 0.64315521717071533 0.73688513040542603
0.053404323756694794 0.72504144906997681 0.81435370445251465
0.4429200291633606 0.88752549886703491 0.96016836166381836
0.92012685537338257 0.94187033176422119 0.98393303155899048
0.99011808633804321 0.94706636667251587 0.98419946432113647
0.0183895044028759 0.69475579261779785 0.77600502967834473
0.010191165842115879 0.79554367065429688 0.86854654550552368
0.48043075203895569 0.92631053924560547 0.96851533651351929
0.91644930839538574 0.98493736982345581 0.9901009202003479
0.99543017148971558 0.99574238061904907 0.99453878402709961
