assets/lut/films negative color agfa vista 200.cube
# Created by: G'MIC (https://gmic.eu)
TITLE "agfa_vista_200"
# LUT size
LUT_3D_SIZE 5
# Data domain
DOMAIN_MIN 0.0 0.0 0.0
DOMAIN_MAX 1.0 1.0 1.0
# LUT data points
0.016545629128813744 0.012198145501315594 0.008561273105442524
0.17703555524349213 0.010109112598001957 0.0022297129034996033
0.50239419937133789 0.01216334942728281 8.2936006947420537e-05
0.78607946634292603 0 0
0.98293405771255493 0 0
0.078323423862457275 0.23788802325725555 0.068693317472934723
0.22746759653091431 0.22075827419757843 0.049583166837692261
0.5556570291519165 0.18791098892688751 0.017315059900283813
0.81655585765838623 0.12683054804801941 0.0011602962622419
0.98891353607177734 0.024642257019877434 0
0.039101246744394302 0.59282344579696655 0.13930860161781311
0.30092564225196838 0.58480292558670044 0.12457700073719025
0.63541698455810547 0.56775546073913574 0.090471215546131134
0.88060194253921509 0.53769129514694214 0.061728339642286301
1 0.46759769320487976 0.03618583083152771
0.33860084414482117 0.82225662469863892 0.19424313306808472
0.49005633592605591 0.81613564491271973 0.17912952601909637
0.71584004163742065 0.81377983093261719 0.15796981751918793
0.93012112379074097 0.80694037675857544 0.14380568265914917
0.99988937377929688 0.78299945592880249 0.087805412709712982
0.61593043804168701 0.99473041296005249 0.30183589458465576
0.69554686546325684 0.98680490255355835 0.29844233393669128
0.81767040491104126 0.98112946748733521 0.29654726386070251
0.97693330049514771 0.97596615552902222 0.26540911197662354
1 0.97296816110610962 0.19356615841388702
0.0061726737767457962 0.0080644199624657631 0.12157754600048065
0.14010819792747498 0.0022013196721673012 0.10883953422307968
0.47552308440208435 0.0015980888856574893 0.060255445539951324
0.76287782192230225 0.00031738280085846782 0.022442582994699478
0.97608190774917603 0 0.0029301811009645462
0.05112871527671814 0.20826447010040283 0.20691759884357452
0.19433563947677612 0.19340233504772186 0.19445119798183441
0.52458304166793823 0.16300024092197418 0.15410846471786499
0.78712272644042969 0.10001850873231888 0.11296823620796204
0.98351609706878662 0.017260277643799782 0.056390754878520966
0.016010209918022156 0.58553481101989746 0.31420746445655823
0.23955832421779633 0.57295244932174683 0.299826979637146
0.60045111179351807 0.55846798419952393 0.26665616035461426
0.84984409809112549 0.52871412038803101 0.23650524020195007
0.99748915433883667 0.44627878069877625 0.19187946617603302
0.24928003549575806 0.82575958967208862 0.40780776739120483
0.42594635486602783 0.81895953416824341 0.39826586842536926
0.67421507835388184 0.81605279445648193 0.37836691737174988
0.88332170248031616 0.80678892135620117 0.36228212714195251
1 0.77486330270767212 0.31824466586112976
0.58059263229370117 0.99333757162094116 0.50294500589370728
0.65405571460723877 0.98808294534683228 0.49868068099021912
0.77656906843185425 0.98505574464797974 0.49218744039535522
0.93872994184494019 0.98183339834213257 0.46941745281219482
1 0.97650891542434692 0.41870468854904175
0 0 0.3516843318939209
0.095348373055458069 0 0.34282070398330688
0.42734572291374207 0 0.30426543951034546
0.71991169452667236 0.013039323501288891 0.26999649405479431
0.93472343683242798 0.0091044260188937187 0.2370033860206604
0.0023827047552913427 0.15946653485298157 0.45602822303771973
0.12886318564414978 0.14573374390602112 0.44696173071861267
0.4655783474445343 0.10606899112462997 0.40821331739425659
0.72958678007125854 0.055032078176736832 0.37083888053894043
0.93390929698944092 0.00056924257660284638 0.32279542088508606
0 0.55677169561386108 0.56836962699890137
0.1149212121963501 0.55624479055404663 0.56417554616928101
0.5358702540397644 0.53451335430145264 0.53298085927963257
0.78785288333892822 0.49173977971076965 0.50312912464141846
0.98611986637115479 0.3898160457611084 0.46306926012039185
0.1018492579460144 0.82271921634674072 0.65419316291809082
0.30375760793685913 0.81755393743515015 0.64790803194046021
0.61461323499679565 0.81228214502334595 0.62409365177154541
0.82506608963012695 0.80145108699798584 0.60761010646820068
0.99902164936065674 0.77211844921112061 0.5793110728263855
0.49214228987693787 0.99124747514724731 0.71419459581375122
0.57136756181716919 0.98802036046981812 0.70437753200531006
0.70997017621994019 0.98817449808120728 0.6936345100402832
0.88377362489700317 0.98708462715148926 0.67870926856994629
1 0.97973185777664185 0.64374655485153198
0 0 0.58931434154510498
0.042507469654083252 0.0003492766700219363 0.59004056453704834
0.34308052062988281 0.0027710709255188704 0.55701088905334473
0.67077994346618652 0 0.51790958642959595
0.89135217666625977 0 0.49260446429252625
0 0.073265314102172852 0.67177611589431763
0.07358849048614502 0.054601438343524933 0.65606212615966797
0.38896316289901733 0.024330109357833862 0.61751264333724976
0.67766165733337402 0.0016662747366353869 0.58176612854003906
0.88529574871063232 0 0.54525238275527954
0.00017774992738850415 0.50227105617523193 0.77099394798278809
0.059873811900615692 0.49009472131729126 0.75372505187988281
0.4836728572845459 0.46667438745498657 0.71961909532546997
0.74052214622497559 0.4068511426448822 0.6853485107421875
0.94110238552093506 0.28745979070663452 0.64759701490402222
0.022761385887861252 0.8127748966217041 0.83764320611953735
0.20398713648319244 0.80564731359481812 0.82676571607589722
0.55712181329727173 0.79763394594192505 0.80377018451690674
0.78196114301681519 0.78145122528076172 0.78370863199234009
0.98373126983642578 0.74909961223602295 0.7600741982460022
0.37613639235496521 0.9930722713470459 0.8833954930305481
0.49995625019073486 0.99197953939437866 0.8756873607635498
0.65985840559005737 0.99130016565322876 0.86404836177825928
0.83798521757125854 0.99002641439437866 0.85139721632003784
0.99835103750228882 0.98447096347808838 0.82633072137832642
0 5.834242983837612e-05 0.77993369102478027
0.026079887524247169 0.010547548532485962 0.77032822370529175
0.2951185405254364 0.012022983282804489 0.73451507091522217
0.63073450326919556 0 0.68918997049331665
0.8564448356628418 0 0.65312141180038452
0 0 0.82479333877563477
0.038974851369857788 0 0.81143152713775635
0.30805295705795288 0 0.77504861354827881
0.62050354480743408 0 0.73178571462631226
0.84241318702697754 0 0.69704550504684448
0.0035371817648410797 0.34092003107070923 0.91224175691604614
0.0093126632273197174 0.32019108533859253 0.89737904071807861
0.41349661350250244 0.27549228072166443 0.8561980128288269
0.68102514743804932 0.19632367789745331 0.81684571504592896
0.87987828254699707 0.06283143162727356 0.77524399757385254
0 0.7650984525680542 0.98217421770095825
0.028222611173987389 0.76317387819290161 0.97470200061798096
0.48137405514717102 0.74692773818969727 0.95164209604263306
0.73865962028503418 0.72702902555465698 0.92551505565643311
0.95386934280395508 0.68009090423583984 0.90047609806060791
0.2583262026309967 0.98444056510925293 1
0.3388572633266449 0.98772227764129639 0.999980628490448
0.57214915752410889 0.98897498846054077 0.99883013963699341
0.78718167543411255 0.98361974954605103 0.99256801605224609
0.97736644744873047 0.97714412212371826 0.97714471817016602
