assets/lut/films print kodak 2393 constlclip.cube
# Created by: G'MIC (https://gmic.eu)
TITLE "kodak_2393_constlclip"
# LUT size
LUT_3D_SIZE 7
# Data domain
DOMAIN_MIN 0.0 0.0 0.0
DOMAIN_MAX 1.0 1.0 1.0
# LUT data points
0.012323028407990932 0.025246579200029373 0.026682790368795395
0.045128408819437027 0.035160843282938004 0.020496249198913574
0.13762985169887543 0.047890368849039078 0.0059746238403022289
0.29911753535270691 0.086157031357288361 0.009652530774474144
0.43497666716575623 0.10565553605556488 0.012455674819648266
0.50414937734603882 0.11380696296691895 0.017011590301990509
0.53710454702377319 0.11834170669317245 0.016510054469108582
0.012644150294363499 0.047890800982713699 0.03577149286866188
0.039912503212690353 0.070704728364944458 0.032123923301696777
0.15386398136615753 0.090663060545921326 0.0094596417620778084
0.34270980954170227 0.13018777966499329 0.003857780946418643
0.5054057240486145 0.14784498512744904 0.0074655269272625446
0.57931321859359741 0.16384454071521759 0.011292940005660057
0.60073477029800415 0.17351770401000977 0.016927562654018402
0.0057872249744832516 0.10737005621194839 0.064006701111793518
0.012029550969600677 0.12984338402748108 0.03889942541718483
0.18729962408542633 0.19109621644020081 0.011230902746319771
0.4335997998714447 0.24570032954216003 0.0022718391846865416
0.60455948114395142 0.27391302585601807 0.0096170315518975258
0.66817522048950195 0.28201639652252197 0.022318238392472267
0.6965298056602478 0.29889816045761108 0.01313807163387537
0.0098118055611848831 0.21114547550678253 0.1097346767783165
0.0072733862325549126 0.26511883735656738 0.091797053813934326
0.21231326460838318 0.3624747097492218 0.021353224292397499
0.5447198748588562 0.45673966407775879 0.0083921393379569054
0.72537833452224731 0.4955177903175354 0.011208059266209602
0.78977471590042114 0.50561696290969849 0.015898805111646652
0.82656091451644897 0.53615987300872803 0.0079357968643307686
0.0042740767821669579 0.31317552924156189 0.15178987383842468
0.025453411042690277 0.39471226930618286 0.13529585301876068
0.25823605060577393 0.52054202556610107 0.016852255910634995
0.62691390514373779 0.64274054765701294 0.0054351808503270149
0.82241737842559814 0.69356924295425415 0.023432862013578415
0.89609807729721069 0.71380949020385742 0.038654431700706482
0.91301560401916504 0.71612751483917236 0.051345765590667725
0.0051031825132668018 0.3635217547416687 0.17145046591758728
0.022491678595542908 0.45944267511367798 0.14883445203304291
0.27819997072219849 0.5839688777923584 0.016891494393348694
0.65368866920471191 0.70504647493362427 0.0078141605481505394
0.8543124794960022 0.77055323123931885 0.058499772101640701
0.93797510862350464 0.79202747344970703 0.076474748551845551
0.95303577184677124 0.79222959280014038 0.081487603485584259
0.0077188527211546898 0.45102024078369141 0.20101262629032135
0.05079326406121254 0.55217605829238892 0.087887629866600037
0.37421724200248718 0.65227389335632324 0.0105857253074646
0.6833418607711792 0.74429535865783691 0.011588302440941334
0.86641955375671387 0.79760551452636719 0.063749201595783234
0.95726633071899414 0.82347404956817627 0.089027151465415955
0.97718507051467896 0.83090734481811523 0.10076015442609787
0.0047928453423082829 0.03367200493812561 0.05239327996969223
0.040266778320074081 0.036723688244819641 0.053683396428823471
0.15298430621623993 0.030621832236647606 0.036645282059907913
0.32123354077339172 0.017433734610676765 0.012839642353355885
0.4803321361541748 0.05678926408290863 0.024629944935441017
0.53677302598953247 0.058976355940103531 0.023950360715389252
0.56894409656524658 0.052988838404417038 0.030211489647626877
0.013120254501700401 0.067048497498035431 0.066768020391464233
0.033878866583108902 0.072454996407032013 0.073801018297672272
0.17655046284198761 0.090668395161628723 0.043201804161071777
0.40010717511177063 0.08119596540927887 0.019877729937434196
0.55555588006973267 0.092689812183380127 0.02492808923125267
0.62669110298156738 0.10169104486703873 0.019983014091849327
0.65447503328323364 0.12273154407739639 0.022047707810997963
0.014016932807862759 0.11176178604364395 0.086715623736381531
0.011521792039275169 0.14425021409988403 0.085375778377056122
0.19103299081325531 0.20251482725143433 0.042335167527198792
0.48648181557655334 0.23810839653015137 0.0087016681209206581
0.66294783353805542 0.2461942732334137 0.0075004426762461662
0.72558635473251343 0.25585547089576721 0.011226878501474857
0.75604665279388428 0.27756556868553162 0.011080842465162277
0.010116427205502987 0.23229573667049408 0.15565629303455353
0.0066392784938216209 0.29298591613769531 0.1347612589597702
0.19069817662239075 0.39230775833129883 0.026393426582217216
0.57284533977508545 0.47532239556312561 0.0077011855319142342
0.76153618097305298 0.50515651702880859 0.012986127287149429
0.83858168125152588 0.52409964799880981 0.0070998994633555412
0.87478488683700562 0.55352485179901123 0.019826147705316544
0.017702110111713409 0.33275330066680908 0.20110310614109039
0.013034611009061337 0.41332966089248657 0.18132512271404266
0.15704043209552765 0.55054330825805664 0.024176130071282387
0.62788766622543335 0.66753673553466797 0.0066520990803837776
0.84902608394622803 0.71689414978027344 0.03259836882352829
0.92632389068603516 0.73351222276687622 0.038274187594652176
0.94356918334960938 0.73702824115753174 0.051430750638246536
0.0034715090878307819 0.3896428644657135 0.22494255006313324
0.021958384662866592 0.48051607608795166 0.22030451893806458
0.17582771182060242 0.62189763784408569 0.038461305201053619
0.65366727113723755 0.74362647533416748 0.024927176535129547
0.88041675090789795 0.79644620418548584 0.050186891108751297
0.96530777215957642 0.8160020112991333 0.064955994486808777
0.98144173622131348 0.82309538125991821 0.082360208034515381
0.010727257467806339 0.48637798428535461 0.30669853091239929
0.015849050134420395 0.59318047761917114 0.30784833431243896
0.23139986395835876 0.70384913682937622 0.20058691501617432
0.68229150772094727 0.79610294103622437 0.12071673572063446
0.90426039695739746 0.84052520990371704 0.11209020018577576
0.99033010005950928 0.85733681917190552 0.11844096332788467
0.99686127901077271 0.86310040950775146 0.23413868248462677
0.0044522155076265335 0.054864473640918732 0.097275599837303162
0.023563893511891365 0.034830175340175629 0.13104118406772614
0.13125279545783997 0.0083349337801337242 0.1482073962688446
0.33261334896087646 0.0075684040784835815 0.1661769300699234
0.48868295550346375 0.020717157050967216 0.17771609127521515
0.56126582622528076 0.028733361512422562 0.17656996846199036
0.59104722738265991 0.015607212670147419 0.1831476092338562
0.012163783423602581 0.085576854646205902 0.12091059982776642
0.013744608499109745 0.088137365877628326 0.16028468310832977
0.17109118402004242 0.084725759923458099 0.19039575755596161
0.41452008485794067 0.044582337141036987 0.20407019555568695
0.58740854263305664 0.019957927986979485 0.18666793406009674
0.66362857818603516 0.01245568972080946 0.20120157301425934
0.69940352439880371 0.015241570770740509 0.21633072197437286
0.013123920187354088 0.15412920713424683 0.17576733231544495
0.0047119292430579662 0.16296935081481934 0.18740274012088776
0.17575739324092865 0.22683753073215485 0.22743582725524902
0.50615108013153076 0.25706571340560913 0.24103078246116638
0.70436060428619385 0.23679523169994354 0.22330094873905182
0.77948713302612305 0.21107633411884308 0.21408842504024506
0.81143015623092651 0.25138550996780396 0.20915356278419495
0.015265565365552902 0.27678894996643066 0.24774789810180664
0.011827311478555202 0.32980909943580627 0.25959098339080811
0.11996331065893173 0.42984142899513245 0.27593567967414856
0.58678096532821655 0.51971685886383057 0.2566276490688324
0.81779736280441284 0.54025602340698242 0.22283299267292023
0.89626377820968628 0.53917372226715088 0.23039618134498596
0.93157279491424561 0.57937610149383545 0.23144349455833435
0.017882194370031357 0.38605818152427673 0.31161385774612427
0.020457787439227104 0.4646114706993103 0.32608827948570251
0.077156543731689453 0.59523355960845947 0.30817949771881104
0.62745487689971924 0.72406363487243652 0.24901822209358215
0.89701884984970093 0.76523888111114502 0.14685402810573578
0.98517775535583496 0.78212767839431763 0.13834433257579803
0.99513167142868042 0.78830170631408691 0.18874789774417877
0.011682367883622646 0.43876150250434875 0.35300332307815552
0.028295239433646202 0.52378660440444946 0.38239637017250061
0.060154333710670471 0.66646754741668701 0.36344641447067261
0.63057869672775269 0.80049419403076172 0.32277515530586243
0.90235835313796997 0.85063797235488892 0.26417356729507446
0.9944646954536438 0.86562144756317139 0.25980332493782043
1 0.87155830860137939 0.34869384765625
0.0058055054396390915 0.54501938819885254 0.45590388774871826
0.0092947566881775856 0.61847752332687378 0.46830955147743225
0.12991458177566528 0.7395625114440918 0.47693246603012085
0.64578592777252197 0.8412061333656311 0.47282558679580688
0.89528137445449829 0.88644963502883911 0.44576525688171387
0.99112719297409058 0.89938724040985107 0.41970887780189514
1 0.90571361780166626 0.49845683574676514
0.006591796875 0.096372373402118683 0.18141789734363556
0.010480483993887901 0.080255098640918732 0.21334214508533478
0.13023723661899567 0.0076871537603437901 0.29834866523742676
0.35691535472869873 0.006845526397228241 0.34246939420700073
0.50156229734420776 0.016132833436131477 0.35325136780738831
0.57663577795028687 0.036981560289859772 0.36140954494476318
0.62037193775177002 0.018095413222908974 0.37926295399665833
0.0042435592040419579 0.13603049516677856 0.22917540371417999
0.0027038424741476774 0.1285974532365799 0.27914226055145264
0.16171443462371826 0.07548186182975769 0.38213449716567993
0.42324694991111755 0.033247645944356918 0.41244816780090332
0.59305334091186523 0.014875075779855251 0.41190138459205627
0.67518168687820435 0.015496871434152126 0.43003854155540466
0.70590484142303467 0.023235157132148743 0.43768957257270813
0.003218542318791151 0.2135295569896698 0.2987467348575592
0.0040046991780400276 0.22763043642044067 0.33575743436813354
0.11289361864328384 0.24143601953983307 0.45361149311065674
0.49298968911170959 0.27500054240226746 0.49054449796676636
0.70398342609405518 0.26629969477653503 0.50559347867965698
0.78708726167678833 0.25088915228843689 0.50721734762191772
0.82057517766952515 0.27850818634033203 0.49623709917068481
0.016176261007785797 0.34055289626121521 0.38534387946128845
0.0043546189554035664 0.39594718813896179 0.43991443514823914
0.047244023531675339 0.48010766506195068 0.52416574954986572
0.54515606164932251 0.55733257532119751 0.56434613466262817
0.81451934576034546 0.58025151491165161 0.5687706470489502
0.89659929275512695 0.58949083089828491 0.56381726264953613
0.93015635013580322 0.61774265766143799 0.57293665409088135
0.013830027543008327 0.45861577987670898 0.4626808762550354
0.0046694888733327389 0.52351003885269165 0.51569223403930664
0.010758373886346817 0.64762550592422485 0.57527941465377808
0.58072519302368164 0.77490824460983276 0.59762918949127197
0.86850816011428833 0.81711089611053467 0.59132939577102661
0.95809698104858398 0.81304371356964111 0.59271454811096191
0.98768484592437744 0.83378750085830688 0.60273748636245728
0.009322446770966053 0.50629305839538574 0.50079548358917236
0.0069550159387290478 0.59658187627792358 0.57171571254730225
0.008469914086163044 0.71843522787094116 0.62351512908935547
0.57380515336990356 0.84884792566299438 0.65001291036605835
0.88055187463760376 0.90172106027603149 0.6534619927406311
0.97614121437072754 0.91296613216400146 0.64448410272598267
0.9965745210647583 0.91873073577880859 0.66453129053115845
0.0016217101365327835 0.59875744581222534 0.59645825624465942
0.0042503806762397289 0.68209171295166016 0.65390890836715698
0.053068004548549652 0.77971768379211426 0.69354665279388428
0.60433810949325562 0.88313376903533936 0.72096496820449829
0.86976689100265503 0.92769044637680054 0.72501015663146973
0.97716033458709717 0.9436190128326416 0.72053831815719604
0.99942445755004883 0.94876128435134888 0.74445867538452148
0.0027437696699053049 0.133138507604599 0.25577959418296814
0.0075268317013978958 0.11503544449806213 0.3049684464931488
0.12429802119731903 0.017281072214245796 0.41596478223800659
0.3626495897769928 0.014119047671556473 0.45766276121139526
0.51486110687255859 0.02822895348072052 0.47710466384887695
0.60127836465835571 0.032557737082242966 0.48956316709518433
0.63830912113189697 0.026034874841570854 0.50925743579864502
0.0020907532889395952 0.17489302158355713 0.31263387203216553
0.0037816066760569811 0.17554275691509247 0.35378479957580566
0.14023053646087646 0.030054757371544838 0.5197148323059082
0.4279518723487854 0.01673584058880806 0.55867928266525269
0.61358004808425903 0.015546223148703575 0.5708736777305603
0.69490987062454224 0.016032679006457329 0.58298909664154053
0.73073405027389526 0.015281632542610168 0.60792446136474609
0.0052020056173205376 0.26312938332557678 0.38915911316871643
0.004017519298940897 0.27090644836425781 0.44353184103965759
0.078649677336215973 0.26527652144432068 0.59243768453598022
0.48009279370307922 0.27098184823989868 0.66094374656677246
0.71198749542236328 0.28094315528869629 0.68767458200454712
0.80253654718399048 0.24985490739345551 0.69521898031234741
0.8238750696182251 0.27559974789619446 0.69631308317184448
0.01465313509106636 0.39224451780319214 0.49542257189750671
0.025213534012436867 0.43829375505447388 0.55625420808792114
0.017675915732979774 0.51082712411880493 0.68209755420684814
0.53396928310394287 0.5957794189453125 0.76376241445541382
0.81187188625335693 0.61835402250289917 0.78299212455749512
0.89767765998840332 0.62117445468902588 0.77906972169876099
0.92882978916168213 0.65222126245498657 0.7772027850151062
0.020305648446083069 0.51057380437850952 0.57817375659942627
0.009057631716132164 0.57677620649337769 0.63955461978912354
0.015116328373551369 0.68344980478286743 0.7331809401512146
0.54341113567352295 0.81511932611465454 0.81438213586807251
0.85700589418411255 0.85657626390457153 0.83211970329284668
0.95164865255355835 0.8630448579788208 0.82882720232009888
0.98512637615203857 0.87831252813339233 0.81945359706878662
0.017413869500160217 0.55668526887893677 0.61751312017440796
0.029320301488041878 0.63992232084274292 0.68681222200393677
0.012359932996332645 0.75424975156784058 0.77717077732086182
0.51796311140060425 0.88311368227005005 0.84128648042678833
0.86258155107498169 0.93535643815994263 0.85906940698623657
0.9761044979095459 0.95201855897903442 0.84819656610488892
0.99479776620864868 0.94934231042861938 0.85083198547363281
0.011605162173509598 0.62506437301635742 0.68330365419387817
0.0093617904931306839 0.7115059494972229 0.75691074132919312
0.024793736636638641 0.80697137117385864 0.82829266786575317
0.56225228309631348 0.91010832786560059 0.87934684753417969
0.84767979383468628 0.95478540658950806 0.88795709609985352
0.96571469306945801 0.97267228364944458 0.88959616422653198
0.99422389268875122 0.97811001539230347 0.89653998613357544
0.0010412029223516583 0.15850691497325897 0.305815190076828
0.0073144650086760521 0.15633942186832428 0.34049910306930542
0.127025306224823 0.025449415668845177 0.47704499959945679
0.35424017906188965 0.021454814821481705 0.51840329170227051
0.53335165977478027 0.042579531669616699 0.54788041114807129
0.61185991764068604 0.046994198113679886 0.55809801816940308
0.64598435163497925 0.047048050910234451 0.57482081651687622
0.00027429917827248573 0.20389516651630402 0.36522701382637024
0.0039124283939599991 0.21052056550979614 0.4157615602016449
0.13096262514591217 0.037898536771535873 0.60007238388061523
0.42807906866073608 0.021239036694169044 0.64689594507217407
0.62375766038894653 0.019770469516515732 0.66607081890106201
0.70379006862640381 0.027624750509858131 0.67171812057495117
0.73737490177154541 0.021437730640172958 0.69056254625320435
0.00049685308476909995 0.28431174159049988 0.44548779726028442
0.0023628533817827702 0.29363402724266052 0.50044316053390503
0.081562519073486328 0.2829490602016449 0.65068554878234863
0.47632697224617004 0.27341380715370178 0.75544458627700806
0.71939241886138916 0.25397127866744995 0.78277230262756348
0.80660581588745117 0.2459728866815567 0.78434532880783081
0.83083546161651611 0.29596903920173645 0.79532712697982788
0.0083688627928495407 0.41181081533432007 0.54803979396820068
0.0092951757833361626 0.46117815375328064 0.61538386344909668
0.025735309347510338 0.52336251735687256 0.75718867778778076
0.51357376575469971 0.60384726524353027 0.86026233434677124
0.80234712362289429 0.62656193971633911 0.88136154413223267
0.89245408773422241 0.63468009233474731 0.87689155340194702
0.92503124475479126 0.66377025842666626 0.88344061374664307
0.0064686494879424572 0.53727710247039795 0.63803350925445557
0.023495977744460106 0.59221899509429932 0.69669759273529053
0.036155056208372116 0.70802241563796997 0.81027185916900635
0.51824420690536499 0.82503068447113037 0.9125746488571167
0.84685641527175903 0.86767935752868652 0.93464905023574829
0.94413644075393677 0.88013070821762085 0.93786823749542236
0.97604221105575562 0.88917428255081177 0.93678039312362671
0.010907505638897419 0.57903420925140381 0.66934025287628174
0.013425071723759174 0.66104167699813843 0.7426953911781311
0.02291380986571312 0.7681470513343811 0.84116744995117188
0.50191515684127808 0.90178763866424561 0.93770468235015869
0.85270446538925171 0.95004820823669434 0.9498637318611145
0.96083188056945801 0.96481209993362427 0.94990301132202148
0.99396568536758423 0.97442543506622314 0.96160966157913208
0.027698397636413574 0.63969892263412476 0.72329378128051758
0.013693297281861305 0.71656322479248047 0.79334115982055664
0.015183796174824238 0.81618005037307739 0.88307005167007446
0.53966617584228516 0.92274242639541626 0.94906914234161377
0.8456462025642395 0.96720355749130249 0.95590299367904663
0.95398825407028198 0.97915279865264893 0.95431315898895264
0.98909330368041992 0.98554664850234985 0.95477980375289917
0 0.17772726714611053 0.33900123834609985
0.00056050618877634406 0.18189074099063873 0.38197648525238037
0.14083781838417053 0.019947411492466927 0.54582291841506958
0.38545751571655273 0.018446844071149826 0.58391439914703369
0.56149399280548096 0.033673770725727081 0.605926513671875
0.64464461803436279 0.038692161440849304 0.62263792753219604
0.68007743358612061 0.049535997211933136 0.63947540521621704
0 0.224159836769104 0.3916466236114502
0 0.23589301109313965 0.44106408953666687
0.1328141987323761 0.080772832036018372 0.64451509714126587
0.45445376634597778 0.061213936656713486 0.71422660350799561
0.65155547857284546 0.035302646458148956 0.72228330373764038
0.72862577438354492 0.018502553924918175 0.73075604438781738
0.76362967491149902 0.036170944571495056 0.74978446960449219
0.00015869140042923391 0.30991563200950623 0.47769254446029663
0.0068866806104779243 0.33361715078353882 0.55017316341400146
0.088106043636798859 0.3139139711856842 0.68305224180221558
0.49479100108146667 0.30679821968078613 0.79966074228286743
0.71792131662368774 0.3064194917678833 0.82221603393554688
0.81286478042602539 0.30543571710586548 0.82869112491607666
0.84270220994949341 0.34512719511985779 0.839427649974823
0.0091179190203547478 0.42614051699638367 0.57170933485031128
0.018442848697304726 0.47848972678184509 0.63964325189590454
0.015836423262953758 0.53657037019729614 0.7736440896987915
0.50519478321075439 0.61106985807418823 0.89349919557571411
0.79403990507125854 0.64235758781433105 0.91284114122390747
0.89779919385910034 0.64864397048950195 0.9183356761932373
0.92771846055984497 0.67595666646957397 0.92601686716079712
0.027525613084435463 0.53702723979949951 0.64843684434890747
0.017859231680631638 0.6019519567489624 0.71607726812362671
0.023998215794563293 0.70894664525985718 0.83583015203475952
0.48217478394508362 0.82732415199279785 0.9456404447555542
0.83653515577316284 0.86086571216583252 0.9625554084777832
0.94872784614562988 0.88619816303253174 0.971274733543396
0.97462832927703857 0.88848769664764404 0.97094285488128662
0.021495265886187553 0.58776223659515381 0.68662750720977783
0.014109442941844463 0.65601611137390137 0.74970555305480957
0.032400079071521759 0.77546864748001099 0.86172962188720703
0.47519692778587341 0.90577572584152222 0.96360772848129272
0.8465731143951416 0.95426315069198608 0.98086708784103394
0.95027214288711548 0.96030509471893311 0.98088759183883667
0.9877350926399231 0.97420936822891235 0.98689001798629761
0.021021584048867226 0.65095239877700806 0.74081164598464966
0.040677253156900406 0.72484767436981201 0.80882859230041504
0.021121589466929436 0.81631696224212646 0.89639019966125488
0.5259699821472168 0.92476701736450195 0.97017163038253784
0.84066343307495117 0.97024333477020264 0.98255705833435059
0.94628787040710449 0.98266726732254028 0.98458069562911987
0.98766237497329712 0.99268823862075806 0.99101763963699341
