assets/lut/films colorslide kodak kodachrome 64.cube
# Created by: G'MIC (https://gmic.eu)
TITLE "kodak_kodachrome_64"
# LUT size
LUT_3D_SIZE 5
# Data domain
DOMAIN_MIN 0.0 0.0 0.0
DOMAIN_MAX 1.0 1.0 1.0
# LUT data points
0.018864694982767105 0.018112482503056526 0.016627084463834763
0.21449968218803406 0.034844417124986649 0.012313499115407467
0.5729479193687439 0.070968568325042725 0.0074981837533414364
0.79921674728393555 0.087968729436397552 0.00078409234993159771
0.98515087366104126 0.12125341594219208 0.00030629776301793754
0.10720407962799072 0.25246816873550415 0.11822140216827393
0.31044238805770874 0.26764720678329468 0.11350025981664658
0.62340593338012695 0.2832292914390564 0.097541451454162598
0.84491646289825439 0.26350376009941101 0.069628126919269562
0.99499070644378662 0.21912248432636261 0.033787552267313004
0.22887469828128815 0.56945854425430298 0.27917325496673584
0.4465181827545166 0.58570468425750732 0.27315863966941833
0.6912497878074646 0.61128443479537964 0.26192581653594971
0.90462416410446167 0.62232202291488647 0.23362749814987183
1 0.61951196193695068 0.19847223162651062
0.46285772323608398 0.77570950984954834 0.46953770518302917
0.54751360416412354 0.7826848030090332 0.47786056995391846
0.71800655126571655 0.80019611120223999 0.46987944841384888
0.91361290216445923 0.82042866945266724 0.44654026627540588
1 0.83493214845657349 0.4227449893951416
0.59604018926620483 0.96454280614852905 0.64615792036056519
0.65524643659591675 0.97128945589065552 0.6449815034866333
0.77483892440795898 0.98404133319854736 0.63879454135894775
0.92865270376205444 0.99101942777633667 0.62856125831604004
0.99903231859207153 0.99465882778167725 0.61717230081558228
0.002286514500156045 0.006811867468059063 0.12783728539943695
0.17188633978366852 0.016652753576636314 0.12856490910053253
0.53182941675186157 0.039210002869367599 0.11025236546993256
0.76230251789093018 0.057972148060798645 0.092723503708839417
0.94706672430038452 0.090141505002975464 0.06519114226102829
0.057507071644067764 0.22394236922264099 0.26702001690864563
0.2549055814743042 0.23871539533138275 0.26372039318084717
0.5646737813949585 0.25412753224372864 0.2536608874797821
0.78499269485473633 0.23838278651237488 0.22563746571540833
0.95250338315963745 0.19997045397758484 0.18311220407485962
0.14933234453201294 0.53922921419143677 0.42828962206840515
0.37775781750679016 0.54979521036148071 0.43757885694503784
0.625507652759552 0.57147353887557983 0.42839744687080383
0.83174389600753784 0.58373504877090454 0.41805377602577209
0.99531924724578857 0.56984049081802368 0.37343910336494446
0.42200252413749695 0.75758004188537598 0.56653851270675659
0.50988847017288208 0.76459145545959473 0.57311636209487915
0.68132603168487549 0.7808648943901062 0.56117451190948486
0.8705107569694519 0.7989770770072937 0.55334323644638062
0.9999854564666748 0.807090163230896 0.53757911920547485
0.56727355718612671 0.95650273561477661 0.7012026309967041
0.63110768795013428 0.96154642105102539 0.70059043169021606
0.75301671028137207 0.9758683443069458 0.69913351535797119
0.91933417320251465 0.98721975088119507 0.69737064838409424
1 0.99653226137161255 0.68354684114456177
0 0 0.33900386095046997
0.11373506486415863 9.6938192655215971e-06 0.33756187558174133
0.43132606148719788 0.0070537789724767208 0.33397883176803589
0.65659123659133911 0.0029182285070419312 0.32536789774894714
0.83394944667816162 0.017651725560426712 0.30784726142883301
0.022396625950932503 0.18733835220336914 0.45470753312110901
0.19745033979415894 0.20278504490852356 0.45237186551094055
0.48985490202903748 0.22115369141101837 0.44579046964645386
0.699654221534729 0.19184015691280365 0.42917165160179138
0.85054689645767212 0.12761394679546356 0.39476814866065979
0.092659071087837219 0.51067155599594116 0.57916939258575439
0.34193965792655945 0.52683347463607788 0.57827430963516235
0.56842672824859619 0.54642421007156372 0.5752723217010498
0.7782624363899231 0.55486440658569336 0.56410199403762817
0.95147234201431274 0.53218787908554077 0.54490023851394653
0.37920430302619934 0.73481398820877075 0.68226325511932373
0.47084259986877441 0.74159926176071167 0.68298304080963135
0.63577353954315186 0.75825196504592896 0.67864727973937988
0.82234299182891846 0.77379363775253296 0.6742929220199585
0.98713606595993042 0.78024530410766602 0.66208797693252563
0.53892791271209717 0.9435884952545166 0.79129981994628906
0.59720528125762939 0.94359660148620605 0.79099154472351074
0.71674239635467529 0.95969408750534058 0.78936660289764404
0.87845319509506226 0.97768664360046387 0.78922098875045776
1 0.98755890130996704 0.78334730863571167
0 0 0.48466378450393677
0.068322516977787018 0 0.48745203018188477
0.3676096498966217 4.2006548028439283e-05 0.48239010572433472
0.59413528442382812 0 0.48418787121772766
0.76564246416091919 0 0.46225985884666443
0.013767646625638008 0.16920889914035797 0.59498393535614014
0.17371110618114471 0.19061878323554993 0.58733326196670532
0.44793665409088135 0.19557292759418488 0.58237630128860474
0.64533048868179321 0.15894982218742371 0.56881254911422729
0.78935456275939941 0.096537314355373383 0.53717756271362305
0.10865388810634613 0.49458888173103333 0.70052933692932129
0.30758851766586304 0.50795793533325195 0.70420420169830322
0.52554935216903687 0.52288818359375 0.70072931051254272
0.7267494797706604 0.5326957106590271 0.69433856010437012
0.88511711359024048 0.51324677467346191 0.67759531736373901
0.33820077776908875 0.71804130077362061 0.79271239042282104
0.43515437841415405 0.72519004344940186 0.79101932048797607
0.59619778394699097 0.73776113986968994 0.78872013092041016
0.77656453847885132 0.75034493207931519 0.78800809383392334
0.95121085643768311 0.75658631324768066 0.78164327144622803
0.50842070579528809 0.93210554122924805 0.89012932777404785
0.56348514556884766 0.93586713075637817 0.89146363735198975
0.67974835634231567 0.94855386018753052 0.89086735248565674
0.83917754888534546 0.96682947874069214 0.88879215717315674
0.99903279542922974 0.97604399919509888 0.88491642475128174
0.00032866233959794044 0.00023006364062894136 0.57327806949615479
0.06318124383687973 0.00012135224824305624 0.58045697212219238
0.34620720148086548 0.00066393683664500713 0.56348025798797607
0.56046795845031738 0.0011777391191571951 0.5717206597328186
0.72667950391769409 3.2866235414985567e-05 0.55403995513916016
0.01722482405602932 0.15753047168254852 0.67157459259033203
0.17278395593166351 0.18038603663444519 0.67027634382247925
0.42583903670310974 0.18406447768211365 0.6653326153755188
0.62079226970672607 0.15906132757663727 0.65664827823638916
0.76252233982086182 0.087110750377178192 0.62630999088287354
0.12082578241825104 0.48136544227600098 0.78482824563980103
0.29550787806510925 0.49629229307174683 0.78761732578277588
0.50107711553573608 0.51135343313217163 0.78635585308074951
0.69783252477645874 0.51636892557144165 0.77471643686294556
0.86307144165039062 0.47760266065597534 0.75976991653442383
0.32313239574432373 0.70316475629806519 0.87609612941741943
0.4152253270149231 0.71026921272277832 0.86979854106903076
0.57254880666732788 0.72280627489089966 0.8737984299659729
0.7476346492767334 0.73260480165481567 0.86899882555007935
0.91598987579345703 0.73564481735229492 0.86842244863510132
0.49871644377708435 0.92063802480697632 0.97025054693222046
0.5492061972618103 0.92362308502197266 0.97294408082962036
0.66021871566772461 0.93239313364028931 0.97490042448043823
0.80861109495162964 0.9482230544090271 0.97781157493591309
0.98576688766479492 0.96713614463806152 0.98137372732162476
