assets/lut/films negative color kodak elite color 400.cube
# Created by: G'MIC (https://gmic.eu)
TITLE "kodak_elite_color_400"
# LUT size
LUT_3D_SIZE 7
# Data domain
DOMAIN_MIN 0.0 0.0 0.0
DOMAIN_MAX 1.0 1.0 1.0
# LUT data points
0.031476728618144989 0.02277030237019062 0.017591439187526703
0.12375551462173462 0.0074559380300343037 0.021243629977107048
0.24474264681339264 0.0050965403206646442 0.023875681683421135
0.39169061183929443 0.0066987280733883381 0.024249566718935966
0.56646716594696045 0.0079808700829744339 0.022398211061954498
0.74357998371124268 0.014866353943943977 0.021438494324684143
0.9156067967414856 0.0066070258617401123 0.011811140924692154
0.095348283648490906 0.13751915097236633 0.047505158931016922
0.16992869973182678 0.11985970288515091 0.048482093960046768
0.28506472706794739 0.090801447629928589 0.046871602535247803
0.4295385479927063 0.063205629587173462 0.048644587397575378
0.5975719690322876 0.040800686925649643 0.048294126987457275
0.76467543840408325 0.023002924397587776 0.039140544831752777
0.92675298452377319 0.00011402204836485907 0.016267230734229088
0.15916754305362701 0.27242395281791687 0.085780546069145203
0.22337950766086578 0.26306197047233582 0.085436515510082245
0.33253735303878784 0.24422828853130341 0.082685448229312897
0.4778188169002533 0.20737579464912415 0.081727288663387299
0.63825875520706177 0.15064992010593414 0.07438996434211731
0.79386067390441895 0.08117377758026123 0.058432277292013168
0.945057213306427 0.00145721435546875 0.031214365735650063
0.23697017133235931 0.44152680039405823 0.10704009234905243
0.2937263548374176 0.43922415375709534 0.11510045826435089
0.39864945411682129 0.42668634653091431 0.10992392897605896
0.53466856479644775 0.39998587965965271 0.10734742134809494
0.68336683511734009 0.35575664043426514 0.096905305981636047
0.83140462636947632 0.27043184638023376 0.076820597052574158
0.97112417221069336 0.12527933716773987 0.051313541829586029
0.35661405324935913 0.62790000438690186 0.11715622246265411
0.40061807632446289 0.62717169523239136 0.11991999298334122
0.48994946479797363 0.61870962381362915 0.10625173896551132
0.60254329442977905 0.60271406173706055 0.11751949787139893
0.73052573204040527 0.57546204328536987 0.11329318583011627
0.86517179012298584 0.52614313364028931 0.094936296343803406
0.98973625898361206 0.43396779894828796 0.063454650342464447
0.51179748773574829 0.79783529043197632 0.098561078310012817
0.54450142383575439 0.795052170753479 0.091034457087516785
0.60584670305252075 0.7917826771736145 0.074965775012969971
0.68621945381164551 0.7843669056892395 0.077911794185638428
0.78788506984710693 0.76888501644134521 0.0726790651679039
0.90192711353302002 0.7422754168510437 0.066342912614345551
0.99785429239273071 0.69057744741439819 0.037074893712997437
0.69518822431564331 0.95603054761886597 0.036492306739091873
0.71016037464141846 0.95411652326583862 0.037269279360771179
0.74340158700942993 0.9537702202796936 0.0205116868019104
0.79467684030532837 0.95042818784713745 0.0033328037243336439
0.86718517541885376 0.94534236192703247 0.00062758504645898938
0.95348465442657471 0.93534362316131592 9.9092372693121433e-05
1 0.90808582305908203 0
0.013345351442694664 0.038710486143827438 0.11936649680137634
0.10393983125686646 0.018923919647932053 0.11877438426017761
0.23145334422588348 0.0058386856690049171 0.12159785628318787
0.38541242480278015 0.0034266004804521799 0.1149078831076622
0.56577396392822266 0.0071228179149329662 0.10185772925615311
0.74656057357788086 0.013353236019611359 0.085790149867534637
0.91867208480834961 0.0055470336228609085 0.048131741583347321
0.080809317529201508 0.156076580286026 0.13993921875953674
0.14526861906051636 0.14342112839221954 0.14062279462814331
0.26723015308380127 0.11208982020616531 0.14231410622596741
0.41950660943984985 0.080553792417049408 0.13959109783172607
0.59286922216415405 0.051238879561424255 0.13382777571678162
0.76417559385299683 0.028260624036192894 0.11560278385877609
0.92580735683441162 0.0041585587896406651 0.075567685067653656
0.14765304327011108 0.2926023006439209 0.16583649814128876
0.20159512758255005 0.28445708751678467 0.16909162700176239
0.31442701816558838 0.26015165448188782 0.1691344678401947
0.4663427472114563 0.22076721489429474 0.16591468453407288
0.6309390664100647 0.1661049872636795 0.16205601394176483
0.7903512716293335 0.087823979556560516 0.14650839567184448
0.94274735450744629 0.0043555614538490772 0.11027378588914871
0.21776905655860901 0.45853793621063232 0.18283817172050476
0.27128833532333374 0.45442748069763184 0.19121870398521423
0.38010028004646301 0.43979230523109436 0.18999066948890686
0.52373868227005005 0.41245663166046143 0.18777269124984741
0.67789679765701294 0.3690161406993866 0.17952047288417816
0.82860344648361206 0.28183957934379578 0.16218137741088867
0.97012948989868164 0.14558570086956024 0.13570742309093475
0.3340899646282196 0.63516348600387573 0.19832175970077515
0.38095507025718689 0.63393193483352661 0.20438303053379059
0.4732380211353302 0.62704634666442871 0.19376535713672638
0.59100306034088135 0.61204975843429565 0.19970330595970154
0.72437143325805664 0.58597385883331299 0.19293981790542603
0.86144542694091797 0.53769755363464355 0.17429012060165405
0.98689967393875122 0.44519490003585815 0.14487908780574799
0.49269190430641174 0.7987523078918457 0.21378743648529053
0.52839988470077515 0.79509806632995605 0.21262229979038239
0.59130585193634033 0.79424995183944702 0.19632531702518463
0.67430084943771362 0.78784984350204468 0.19525519013404846
0.77844494581222534 0.77448105812072754 0.19020070135593414
0.89389771223068237 0.74638956785202026 0.15828725695610046
0.99233698844909668 0.69732558727264404 0.11330753564834595
0.68187296390533447 0.95385110378265381 0.19491992890834808
0.69959449768066406 0.9503362774848938 0.19632092118263245
0.73103207349777222 0.9517703652381897 0.17833474278450012
0.78110456466674805 0.95178592205047607 0.15920215845108032
0.85222655534744263 0.94974112510681152 0.14562486112117767
0.93389701843261719 0.93974918127059937 0.088326394557952881
0.99691653251647949 0.92068499326705933 0.010801472701132298
0.0050293714739382267 0.056836489588022232 0.22376163303852081
0.077248185873031616 0.040028590708971024 0.22498932480812073
0.2065095454454422 0.01723022386431694 0.22985696792602539
0.37208032608032227 0.0050502102822065353 0.22743919491767883
0.55853605270385742 0.00012009564670734107 0.21872623264789581
0.74391341209411621 0 0.20242354273796082
0.91668272018432617 0 0.16475394368171692
0.056048285216093063 0.18018209934234619 0.24780821800231934
0.12131416797637939 0.1676095724105835 0.25232434272766113
0.24131353199481964 0.13927778601646423 0.25561666488647461
0.40269675850868225 0.10368256270885468 0.25401270389556885
0.58271276950836182 0.050012893974781036 0.24965661764144897
0.76036745309829712 0.010408364236354828 0.23657874763011932
0.92562490701675415 0 0.2016102522611618
0.10577521473169327 0.31248912215232849 0.27727019786834717
0.1536148339509964 0.30566346645355225 0.28152316808700562
0.27938783168792725 0.2827410101890564 0.28368750214576721
0.44428148865699768 0.25107672810554504 0.28255903720855713
0.6179460883140564 0.18577529489994049 0.28130033612251282
0.78446882963180542 0.096052639186382294 0.27161517739295959
0.94193434715270996 0.0053893146105110645 0.24244304001331329
0.16358914971351624 0.47775736451148987 0.30498465895652771
0.21685072779655457 0.4735201895236969 0.30948808789253235
0.34261193871498108 0.45875370502471924 0.31182992458343506
0.50103437900543213 0.43603497743606567 0.31092226505279541
0.66446644067764282 0.39217445254325867 0.30784985423088074
0.8194771409034729 0.30781963467597961 0.29780375957489014
0.96727830171585083 0.16950644552707672 0.27366849780082703
0.28165361285209656 0.64796441793441772 0.33351340889930725
0.33571413159370422 0.64629548788070679 0.33796298503875732
0.44029408693313599 0.63901400566101074 0.33823034167289734
0.56885236501693726 0.62448728084564209 0.33885049819946289
0.70922279357910156 0.59867417812347412 0.3340359628200531
0.8489987850189209 0.55165272951126099 0.32234716415405273
0.98363685607910156 0.46236184239387512 0.29401740431785583
0.45863711833953857 0.80413764715194702 0.35932269692420959
0.49896630644798279 0.80183613300323486 0.36476662755012512
0.56776833534240723 0.79861801862716675 0.36157125234603882
0.65651994943618774 0.79155880212783813 0.36346155405044556
0.76341968774795532 0.78191167116165161 0.35989838838577271
0.88101327419281006 0.75700885057449341 0.34044501185417175
0.9927935004234314 0.70565062761306763 0.30306306481361389
0.66726410388946533 0.95799541473388672 0.3635120689868927
0.68568891286849976 0.95550906658172607 0.36917224526405334
0.71777713298797607 0.95490461587905884 0.36363101005554199
0.76910614967346191 0.95359116792678833 0.36203175783157349
0.84178107976913452 0.95470136404037476 0.3555895984172821
0.92989754676818848 0.94596105813980103 0.32173281908035278
0.99951976537704468 0.92251777648925781 0.24520628154277802
0.0026964524295181036 0.080533631145954132 0.34295821189880371
0.048135824501514435 0.065423198044300079 0.34571874141693115
0.1666567474603653 0.040797438472509384 0.35280629992485046
0.34731835126876831 0.016034010797739029 0.35905119776725769
0.54389959573745728 0.00044908709242008626 0.35847264528274536
0.73163294792175293 0 0.34795960783958435
0.90817320346832275 0 0.32617983222007751
0.024601401761174202 0.21046078205108643 0.37665912508964539
0.071927763521671295 0.19917717576026917 0.38027697801589966
0.19781038165092468 0.17405524849891663 0.38571092486381531
0.37526381015777588 0.13320145010948181 0.39107966423034668
0.56561553478240967 0.067157983779907227 0.39151129126548767
0.7480018138885498 0.012544804252684116 0.38569527864456177
0.91886091232299805 0 0.36628752946853638
0.043448027223348618 0.33877226710319519 0.41503453254699707
0.076018780469894409 0.33362480998039246 0.417562335729599
0.22302059829235077 0.31141644716262817 0.42203187942504883
0.41066792607307434 0.28074005246162415 0.42610976099967957
0.59569990634918213 0.21694560348987579 0.42641738057136536
0.77112042903900146 0.12610356509685516 0.42431256175041199
0.93535101413726807 0.021027194336056709 0.40877002477645874
0.07959437370300293 0.49974095821380615 0.45051327347755432
0.12238093465566635 0.49784919619560242 0.45346206426620483
0.27694180607795715 0.48352929949760437 0.45779666304588318
0.46305549144744873 0.46208581328392029 0.46078106760978699
0.6376110315322876 0.42181870341300964 0.46199184656143188
0.80265897512435913 0.34149280190467834 0.45916566252708435
0.95799034833908081 0.20929263532161713 0.4449087381362915
0.20065826177597046 0.66290777921676636 0.48523589968681335
0.25448986887931824 0.66342204809188843 0.49055331945419312
0.38871797919273376 0.65641170740127563 0.49281814694404602
0.53455483913421631 0.64234930276870728 0.49546569585800171
0.68391615152359009 0.62180650234222412 0.49546518921852112
0.83338862657546997 0.57748651504516602 0.49034145474433899
0.97733378410339355 0.48500490188598633 0.47153666615486145
0.4071037769317627 0.81507545709609985 0.5164758563041687
0.45541071891784668 0.8135802149772644 0.52375483512878418
0.53696084022521973 0.80892139673233032 0.52640706300735474
0.63189977407455444 0.80159890651702881 0.52920794486999512
0.74378341436386108 0.79575854539871216 0.52888709306716919
0.86764335632324219 0.77561789751052856 0.52093243598937988
0.98996126651763916 0.72282212972640991 0.4951498806476593
0.65061354637145996 0.96650964021682739 0.53098201751708984
0.67216211557388306 0.96730601787567139 0.53702032566070557
0.70400428771972656 0.96474575996398926 0.53859430551528931
0.75539892911911011 0.95950263738632202 0.5402647852897644
0.82956671714782715 0.96207743883132935 0.53801137208938599
0.92042243480682373 0.9562496542930603 0.52464741468429565
0.99938464164733887 0.93004107475280762 0.47919031977653503
0 0.13732464611530304 0.48199030756950378
0.015269679948687553 0.11025739461183548 0.48651221394538879
0.11273076385259628 0.078357398509979248 0.49224156141281128
0.30771413445472717 0.047639466822147369 0.50389909744262695
0.52103352546691895 0.012331615202128887 0.51009160280227661
0.71457743644714355 0.00083616666961461306 0.50628119707107544
0.8973921537399292 0 0.49342256784439087
0.001059423666447401 0.25295153260231018 0.52123183012008667
0.020620742812752724 0.24361012876033783 0.52655172348022461
0.13034713268280029 0.22008086740970612 0.53270214796066284
0.32485523819923401 0.18292541801929474 0.53980159759521484
0.53519779443740845 0.1205616369843483 0.54555594921112061
0.72910940647125244 0.052836533635854721 0.54582041501998901
0.90742683410644531 0 0.53666609525680542
0.0014425240224227309 0.3762931227684021 0.56239926815032959
0.013811193406581879 0.37143582105636597 0.56503450870513916
0.14190733432769775 0.35437458753585815 0.57038825750350952
0.35240048170089722 0.32597890496253967 0.57636785507202148
0.55741822719573975 0.27135604619979858 0.58183294534683228
0.74992424249649048 0.17754416167736053 0.58418631553649902
0.92218726873397827 0.045355044305324554 0.57745939493179321
0.0077767614275217056 0.52811968326568604 0.59656381607055664
0.010584304109215736 0.52880007028579712 0.59893840551376343
0.15787342190742493 0.51708179712295532 0.60366290807723999
0.40176638960838318 0.49579453468322754 0.61090874671936035
0.59905862808227539 0.46342915296554565 0.61590325832366943
0.77987027168273926 0.39878425002098083 0.61530297994613647
0.94341027736663818 0.26467049121856689 0.60812342166900635
0.10733816027641296 0.68296468257904053 0.62998479604721069
0.12578344345092773 0.68454241752624512 0.63415497541427612
0.27218317985534668 0.6775672435760498 0.63839548826217651
0.46971595287322998 0.66516584157943726 0.64329648017883301
0.64886665344238281 0.64937347173690796 0.64808201789855957
0.81135076284408569 0.61241120100021362 0.64714157581329346
0.9636838436126709 0.51966148614883423 0.63580459356307983
0.33297470211982727 0.82776796817779541 0.66519081592559814
0.38391095399856567 0.82498830556869507 0.67013722658157349
0.48134660720825195 0.82209795713424683 0.6732056736946106
0.59183269739151001 0.81738787889480591 0.67584562301635742
0.7160908579826355 0.81114417314529419 0.67996090650558472
0.84945648908615112 0.79192048311233521 0.68007922172546387
0.9820975661277771 0.73739320039749146 0.6649479866027832
0.62754321098327637 0.97331386804580688 0.6890217661857605
0.66100883483886719 0.9727623462677002 0.69037133455276489
0.69081997871398926 0.97236114740371704 0.69139748811721802
0.73704737424850464 0.97053319215774536 0.69329744577407837
0.81179302930831909 0.96978962421417236 0.69589203596115112
0.90415424108505249 0.96555447578430176 0.69267714023590088
0.99543142318725586 0.9431489109992981 0.66762036085128784
0.0020180945284664631 0.18193355202674866 0.61945223808288574
0.0028883542399853468 0.16785645484924316 0.62461501359939575
0.059541020542383194 0.14186961948871613 0.6304936408996582
0.23152880370616913 0.10342764854431152 0.64115983247756958
0.47170776128768921 0.054022487252950668 0.64998984336853027
0.69265651702880859 0.018724987283349037 0.65351957082748413
0.88904613256454468 0 0.64907252788543701
0.0013276194222271442 0.30576387047767639 0.65558969974517822
0.0032686120830476284 0.29982858896255493 0.66135168075561523
0.065631300210952759 0.27691516280174255 0.66712242364883423
0.23474723100662231 0.24324166774749756 0.67521947622299194
0.477821946144104 0.18613459169864655 0.68407326936721802
0.70475691556930542 0.10424788296222687 0.69112932682037354
0.89667671918869019 0.002593799727037549 0.69050425291061401
0 0.424051433801651 0.69189912080764771
0.00017727122758515179 0.41881406307220459 0.69656938314437866
0.059273678809404373 0.40554243326187134 0.70200121402740479
0.24595116078853607 0.38421213626861572 0.70847892761230469
0.49760505557060242 0.33947303891181946 0.7166019082069397
0.7228427529335022 0.24807995557785034 0.72425311803817749
0.90654093027114868 0.092566519975662231 0.72724264860153198
0.0018599566537886858 0.56544411182403564 0.72366577386856079
0 0.56539291143417358 0.72621828317642212
0.032166529446840286 0.55774486064910889 0.73150813579559326
0.28802928328514099 0.54034626483917236 0.73993170261383057
0.5440526008605957 0.51349520683288574 0.74781495332717896
0.74835926294326782 0.45607280731201172 0.75198811292648315
0.92317855358123779 0.32867255806922913 0.75232917070388794
0.049477595835924149 0.70930486917495728 0.75641977787017822
0.028637321665883064 0.7112194299697876 0.75738030672073364
0.13509088754653931 0.7056925892829895 0.76374632120132446
0.36589619517326355 0.69376778602600098 0.76971912384033203
0.5900377631187439 0.6792910099029541 0.77748501300811768
0.7727167010307312 0.65004473924636841 0.77954375743865967
0.93808341026306152 0.56824922561645508 0.77656364440917969
0.20855508744716644 0.84365177154541016 0.79369485378265381
0.22762718796730042 0.84420424699783325 0.79465442895889282
0.3739205002784729 0.84070563316345215 0.79973477125167847
0.51939910650253296 0.8336712121963501 0.80251282453536987
0.66471034288406372 0.82594746351242065 0.80774188041687012
0.8131633996963501 0.81214070320129395 0.81031352281570435
0.96109068393707275 0.76720857620239258 0.80555438995361328
0.57741677761077881 0.97698122262954712 0.82520848512649536
0.60616886615753174 0.97790908813476562 0.82299816608428955
0.64088910818099976 0.97829532623291016 0.82665836811065674
0.70185750722885132 0.97607028484344482 0.82967448234558105
0.77986520528793335 0.97586500644683838 0.83446907997131348
0.88172811269760132 0.97403973340988159 0.83787572383880615
0.99178457260131836 0.95408409833908081 0.82776570320129395
0.0014661302557215095 0.26064687967300415 0.74472939968109131
4.1647519537946209e-05 0.24389946460723877 0.74831801652908325
0.0036348230205476284 0.22273954749107361 0.7552419900894165
0.13743329048156738 0.18419855833053589 0.76461833715438843
0.40441325306892395 0.11389363557100296 0.77512598037719727
0.65547257661819458 0.06348884105682373 0.78510361909866333
0.87036663293838501 0.0083374623209238052 0.78869843482971191
0.00075148040195927024 0.37436941266059875 0.77594619989395142
0 0.36960753798484802 0.77916055917739868
0.002052112715318799 0.34843608736991882 0.78487294912338257
0.122313492000103 0.31898984313011169 0.79445523023605347
0.39515990018844604 0.26307719945907593 0.80524551868438721
0.66044431924819946 0.17445257306098938 0.81733471155166626
0.87302178144454956 0.039350666105747223 0.82439827919006348
0 0.48388612270355225 0.80798804759979248
0 0.48137632012367249 0.81110364198684692
0 0.47088155150413513 0.81607717275619507
0.085308536887168884 0.45250457525253296 0.82332515716552734
0.39548704028129578 0.41434973478317261 0.83369427919387817
0.66924476623535156 0.34936171770095825 0.84567636251449585
0.87744462490081787 0.19504287838935852 0.85425209999084473
0.0027798223309218884 0.61269080638885498 0.83813250064849854
0 0.61266446113586426 0.83963203430175781
0 0.60829728841781616 0.84509330987930298
0.065144076943397522 0.59685146808624268 0.85216087102890015
0.41972208023071289 0.57235598564147949 0.86310791969299316
0.68412309885025024 0.53527748584747314 0.87203162908554077
0.88663005828857422 0.42345187067985535 0.8792845606803894
0.014053808525204659 0.74427640438079834 0.8697168231010437
0 0.74548232555389404 0.87085556983947754
0.017636451870203018 0.74113434553146362 0.87782257795333862
0.21405020356178284 0.73297923803329468 0.88424676656723022
0.48073047399520874 0.72142177820205688 0.89357101917266846
0.70423877239227295 0.69952189922332764 0.90069824457168579
0.89595425128936768 0.62836247682571411 0.90689492225646973
0.02971281111240387 0.8659743070602417 0.91126900911331177
0.016936179250478745 0.8670005202293396 0.91062623262405396
0.21261841058731079 0.86361747980117798 0.91780191659927368
0.40307024121284485 0.86084538698196411 0.92077606916427612
0.58168447017669678 0.85631245374679565 0.92778885364532471
0.75123012065887451 0.84475505352020264 0.93494665622711182
0.92194873094558716 0.80444812774658203 0.94260770082473755
0.40886035561561584 0.98329633474349976 0.95140361785888672
0.42293053865432739 0.98385095596313477 0.94994539022445679
0.54541867971420288 0.98568195104598999 0.9549984335899353
0.63125455379486084 0.98860388994216919 0.95797759294509888
0.72914218902587891 0.9904252290725708 0.964458167552948
0.84560191631317139 0.9892619252204895 0.97346830368041992
0.97792285680770874 0.97591942548751831 0.97742635011672974
