assets/lut/films colorslide fuji provia 400x.cube
# Created by: G'MIC (https://gmic.eu)
TITLE "fuji_provia_400x"
# LUT size
LUT_3D_SIZE 7
# Data domain
DOMAIN_MIN 0.0 0.0 0.0
DOMAIN_MAX 1.0 1.0 1.0
# LUT data points
0.044027261435985565 0.039701364934444427 0.036773756146430969
0.20344007015228271 0.037265434861183167 0.03309318795800209
0.38281029462814331 0.028792437165975571 0.033827360719442368
0.58529090881347656 0.028532169759273529 0.031132178381085396
0.78151720762252808 0.025120066478848457 0.028920147567987442
0.93951469659805298 0.016041833907365799 0.01038462296128273
1 0.012950941920280457 0
0.092649735510349274 0.20073318481445312 0.084853559732437134
0.20131810009479523 0.19424994289875031 0.080331869423389435
0.37920185923576355 0.18446080386638641 0.077945679426193237
0.59253966808319092 0.17547956109046936 0.074366487562656403
0.80017262697219849 0.16054190695285797 0.066942639648914337
0.95561331510543823 0.1392534077167511 0.042086776345968246
1 0.12753601372241974 0.0033536574337631464
0.074425972998142242 0.37917327880859375 0.13482026755809784
0.17451827228069305 0.374217689037323 0.12919542193412781
0.37883481383323669 0.36746090650558472 0.12681841850280762
0.60916566848754883 0.35884362459182739 0.11805973201990128
0.81965047121047974 0.34750109910964966 0.10196694731712341
0.98118329048156738 0.32486182451248169 0.077999874949455261
1 0.30514228343963623 0.035577438771724701
0.010445942170917988 0.56242281198501587 0.15277397632598877
0.13140825927257538 0.55952626466751099 0.14166733622550964
0.38091051578521729 0.55409395694732666 0.14296126365661621
0.62698030471801758 0.54620689153671265 0.14139895141124725
0.82903569936752319 0.54150295257568359 0.12787316739559174
0.98922884464263916 0.52821779251098633 0.10464532673358917
1 0.50950175523757935 0.067529074847698212
0.00029637952684424818 0.70739030838012695 0.11256527155637741
0.10918187350034714 0.70232850313186646 0.12471248954534531
0.3899783194065094 0.69647765159606934 0.12763001024723053
0.64966166019439697 0.69186276197433472 0.13088199496269226
0.85504579544067383 0.68786996603012085 0.12486816197633743
0.99592071771621704 0.6801835298538208 0.10425382107496262
0.99851906299591064 0.66886359453201294 0.06433289498090744
0 0.83948588371276855 0.019968833774328232
0.10186073184013367 0.8297581672668457 0.051028560847043991
0.41135603189468384 0.8238987922668457 0.062280017882585526
0.68150448799133301 0.82151871919631958 0.058150243014097214
0.88599413633346558 0.81586945056915283 0.070672236382961273
0.99994313716888428 0.81112891435623169 0.051903218030929565
1 0.8088948130607605 0.0087968716397881508
0 0.98896390199661255 0
0.016580440104007721 0.98346716165542603 0
0.21253582835197449 0.9799734354019165 3.2866235414985567e-05
0.62307095527648926 0.97947186231613159 0
0.88076043128967285 0.97430497407913208 0
0.99910134077072144 0.97263437509536743 0
1 0.97824627161026001 0
0.028598500415682793 0.021058609709143639 0.13970789313316345
0.17397134006023407 0.023849561810493469 0.13607072830200195
0.35141122341156006 0.0095765357837080956 0.13484489917755127
0.55482012033462524 0.014093137346208096 0.12247087061405182
0.74404633045196533 0.015602994710206985 0.11038028448820114
0.90334218740463257 0.0078463982790708542 0.086026944220066071
1 0.0039909961633384228 0.039373256266117096
0.07070218026638031 0.17956845462322235 0.1778988242149353
0.18018446862697601 0.1748976856470108 0.17296525835990906
0.35364595055580139 0.15998242795467377 0.1713477224111557
0.56367033720016479 0.14936421811580658 0.16319993138313293
0.76148933172225952 0.13003261387348175 0.14925917983055115
0.91474175453186035 0.10286078602075577 0.12040017545223236
0.99829649925231934 0.090593971312046051 0.076510831713676453
0.057422127574682236 0.36662778258323669 0.22057232260704041
0.15598292648792267 0.364349365234375 0.21159513294696808
0.35618177056312561 0.35503095388412476 0.20941425859928131
0.58513832092285156 0.34400913119316101 0.20066440105438232
0.78505241870880127 0.32893770933151245 0.18344423174858093
0.94494974613189697 0.30303576588630676 0.15692791342735291
0.99971026182174683 0.2739003598690033 0.11838751286268234
0.0061416774988174438 0.55350124835968018 0.24333180487155914
0.093105465173721313 0.55438756942749023 0.2318478524684906
0.34622398018836975 0.54588204622268677 0.23225417733192444
0.60072582960128784 0.54030197858810425 0.23007678985595703
0.79582375288009644 0.53597134351730347 0.21177458763122559
0.96753239631652832 0.52282357215881348 0.18614278733730316
1 0.49710521101951599 0.14977166056632996
0 0.70024967193603516 0.24129453301429749
0.050964027643203735 0.69813400506973267 0.24339224398136139
0.3480202853679657 0.69197505712509155 0.23942592740058899
0.62116545438766479 0.68872189521789551 0.24379880726337433
0.81257212162017822 0.68560445308685303 0.22923764586448669
0.98088532686233521 0.67557913064956665 0.1897718608379364
0.99991345405578613 0.66415727138519287 0.13545741140842438
0 0.82742363214492798 0.19910825788974762
0.030745996162295341 0.82448238134384155 0.20464488863945007
0.34756177663803101 0.82022875547409058 0.18707920610904694
0.63753700256347656 0.81953948736190796 0.20340856909751892
0.83684307336807251 0.81757336854934692 0.18798613548278809
0.99378633499145508 0.81166154146194458 0.13934870064258575
0.9999203085899353 0.80532550811767578 0.082029663026332855
0.0003512214170768857 0.98292595148086548 0.031006727367639542
0.022337939590215683 0.98172557353973389 0.050296679139137268
0.25989845395088196 0.97935980558395386 0.039548479020595551
0.60729146003723145 0.98073762655258179 0.023716870695352554
0.8654550313949585 0.97799158096313477 0.02804768830537796
0.99998056888580322 0.9775015115737915 0.0028221129905432463
1 0.97702205181121826 0
0.020384874194860458 0.0069812252186238766 0.24681372940540314
0.14357507228851318 0.0077210222370922565 0.24653936922550201
0.31625580787658691 0.0075547164306044579 0.24502386152744293
0.51702499389648438 0.010036812163889408 0.23657143115997314
0.69614821672439575 0.0065090106800198555 0.2253953218460083
0.85463732481002808 0.00058023788733407855 0.20070807635784149
0.99313479661941528 0.0036734787281602621 0.15891221165657043
0.055603671818971634 0.14950369298458099 0.28449192643165588
0.14862947165966034 0.14199657738208771 0.28198033571243286
0.3221975564956665 0.13286051154136658 0.28577661514282227
0.52578639984130859 0.12113159894943237 0.27980044484138489
0.70799499750137329 0.095676124095916748 0.26712837815284729
0.8643723726272583 0.067041628062725067 0.24185024201869965
0.98843908309936523 0.068409144878387451 0.2038329690694809
0.040010787546634674 0.3423139750957489 0.33050045371055603
0.13159829378128052 0.33850666880607605 0.32908439636230469
0.33107414841651917 0.3291378915309906 0.33242374658584595
0.54546022415161133 0.31803649663925171 0.32526019215583801
0.72945261001586914 0.29943028092384338 0.31234437227249146
0.89354580640792847 0.27451044321060181 0.28980708122253418
0.99848943948745728 0.25201472640037537 0.25568327307701111
4.3083641685370822e-06 0.53751343488693237 0.36723363399505615
0.054444961249828339 0.53930032253265381 0.36793690919876099
0.29737228155136108 0.53247606754302979 0.36825895309448242
0.55097669363021851 0.5274665355682373 0.36621609330177307
0.73596906661987305 0.52037662267684937 0.35773813724517822
0.90043383836746216 0.50762021541595459 0.33647239208221436
0.99632668495178223 0.48380175232887268 0.29900407791137695
0 0.68857091665267944 0.39356744289398193
0.017665937542915344 0.68958711624145508 0.39412140846252441
0.28025668859481812 0.68449097871780396 0.39489278197288513
0.55998456478118896 0.68078404664993286 0.39716851711273193
0.74251508712768555 0.67557609081268311 0.39279335737228394
0.92275518178939819 0.66692113876342773 0.36709693074226379
0.99995118379592896 0.65609246492385864 0.31820270419120789
1.8280627045896836e-05 0.82070320844650269 0.40247049927711487
0.0026487014256417751 0.81971925497055054 0.39590248465538025
0.23310340940952301 0.81373989582061768 0.40239131450653076
0.55427199602127075 0.81121170520782471 0.39884123206138611
0.75366103649139404 0.80804800987243652 0.3981424868106842
0.93466776609420776 0.80494970083236694 0.36528384685516357
1 0.79484575986862183 0.31444546580314636
0.00023453656467609107 0.98167890310287476 0.28045380115509033
0.00018235748575534672 0.98110216856002808 0.27651989459991455
0.14494103193283081 0.97520208358764648 0.29716464877128601
0.49950608611106873 0.97432440519332886 0.2726513147354126
0.77125900983810425 0.97142982482910156 0.26663464307785034
0.96695059537887573 0.97278511524200439 0.20414891839027405
1 0.9729689359664917 0.099785812199115753
0.010642526671290398 2.6927275030175224e-05 0.35583725571632385
0.1195887103676796 0.00064445944735780358 0.3574463427066803
0.2838435173034668 0.0039526545442640781 0.35845711827278137
0.47722917795181274 0.0047289980575442314 0.35549089312553406
0.64556586742401123 0.0025096668396145105 0.35125383734703064
0.79403609037399292 0 0.33623221516609192
0.94385278224945068 0 0.30309244990348816
0.031136995181441307 0.10724418610334396 0.39883643388748169
0.12474119663238525 0.10334224253892899 0.40004897117614746
0.29238238930702209 0.092121556401252747 0.40294134616851807
0.4830780029296875 0.077399082481861115 0.40145918726921082
0.64903539419174194 0.06551063060760498 0.39494460821151733
0.7939378023147583 0.037465039640665054 0.37931394577026367
0.93772321939468384 0.032792799174785614 0.35006716847419739
0.033196259289979935 0.30140870809555054 0.44940292835235596
0.11763604730367661 0.29808583855628967 0.45316725969314575
0.30387476086616516 0.28593394160270691 0.4557243287563324
0.50406080484390259 0.2705351710319519 0.45217582583427429
0.66729474067687988 0.25683978199958801 0.44578054547309875
0.82092481851577759 0.2322501540184021 0.43415826559066772
0.96531760692596436 0.20326484739780426 0.4105389416217804
0 0.51267141103744507 0.49692079424858093
0.020378261804580688 0.51829075813293457 0.50290185213088989
0.27015817165374756 0.50997060537338257 0.50193315744400024
0.50770539045333862 0.50099903345108032 0.49912545084953308
0.67531061172485352 0.49076017737388611 0.49942272901535034
0.83242583274841309 0.48039025068283081 0.49050551652908325
0.98382449150085449 0.45217978954315186 0.46650123596191406
0 0.67216438055038452 0.53418105840682983
0.0033692154102027416 0.67566549777984619 0.53932458162307739
0.23905579745769501 0.671733558177948 0.5359383225440979
0.5051649808883667 0.66818892955780029 0.53448700904846191
0.67571014165878296 0.65936183929443359 0.53773081302642822
0.84766858816146851 0.65331757068634033 0.53104513883590698
0.99511802196502686 0.64021521806716919 0.50642400979995728
0.00056806078646332026 0.81235027313232422 0.55672377347946167
0 0.8115270733833313 0.56328290700912476
0.14834876358509064 0.80614233016967773 0.56400471925735474
0.48477023839950562 0.80528616905212402 0.56057149171829224
0.67606568336486816 0.80018001794815063 0.56215882301330566
0.84825342893600464 0.79712486267089844 0.55212879180908203
0.99727869033813477 0.78946000337600708 0.51369845867156982
0.00052741554100066423 0.98121839761734009 0.51690995693206787
0 0.9773029088973999 0.51622158288955688
0.032733649015426636 0.96942412853240967 0.52159750461578369
0.37791794538497925 0.97006314992904663 0.51484853029251099
0.64522379636764526 0.97082221508026123 0.51392453908920288
0.85634762048721313 0.96743261814117432 0.49720951914787292
0.99835753440856934 0.96176868677139282 0.41771742701530457
0.022999214008450508 0 0.45096766948699951
0.12790787220001221 0 0.45622295141220093
0.27859821915626526 0 0.46077296137809753
0.44632411003112793 0.00024659399059601128 0.46401685476303101
0.59920936822891235 0.00080533494474366307 0.46674469113349915
0.73787182569503784 0.0010081571526825428 0.46462911367416382
0.88184374570846558 0 0.43884092569351196
0.041458547115325928 0.044545821845531464 0.49432137608528137
0.13742953538894653 0.041939664632081985 0.49745187163352966
0.28801482915878296 0.035267084836959839 0.50147569179534912
0.45140847563743591 0.027955852448940277 0.503631591796875
0.5992928147315979 0.031394448131322861 0.50362354516983032
0.73417043685913086 0.018053017556667328 0.49664884805679321
0.87706053256988525 0.0064848656766116619 0.47403326630592346
0.054660975933074951 0.24245204031467438 0.54700982570648193
0.15320540964603424 0.2298334538936615 0.5487942099571228
0.3091583251953125 0.2177073061466217 0.55100560188293457
0.47679820656776428 0.20885665714740753 0.55078274011611938
0.62099921703338623 0.20214816927909851 0.54865574836730957
0.75806856155395508 0.18203812837600708 0.54258185625076294
0.9037054181098938 0.15312051773071289 0.52582782506942749
0.0015390134649351239 0.48223486542701721 0.59963744878768921
0.090471290051937103 0.47808754444122314 0.60000741481781006
0.2970823347568512 0.47341647744178772 0.60075289011001587
0.4896824061870575 0.46642822027206421 0.60046166181564331
0.64160794019699097 0.45390507578849792 0.59951704740524292
0.78345942497253418 0.44031247496604919 0.59586280584335327
0.93924164772033691 0.40956792235374451 0.58350181579589844
0 0.65559399127960205 0.64055478572845459
0.031979773193597794 0.65527302026748657 0.64022129774093628
0.27297434210777283 0.65003091096878052 0.6400415301322937
0.48640686273574829 0.64587587118148804 0.64071446657180786
0.63955789804458618 0.64162832498550415 0.64048057794570923
0.79535758495330811 0.63457125425338745 0.63905847072601318
0.96519404649734497 0.6210448145866394 0.62722384929656982
0 0.80738300085067749 0.67626523971557617
0.0048672244884073734 0.80522483587265015 0.67579203844070435
0.19555060565471649 0.7980383038520813 0.66773277521133423
0.44697484374046326 0.79159718751907349 0.66949003934860229
0.62814801931381226 0.79100120067596436 0.6729552149772644
0.79620420932769775 0.78573012351989746 0.67141544818878174
0.98136013746261597 0.77760320901870728 0.65179091691970825
0 0.97956377267837524 0.67583096027374268
0 0.97846132516860962 0.6740487813949585
0.030229397118091583 0.96946465969085693 0.67031764984130859
0.30926871299743652 0.96613413095474243 0.66751432418823242
0.5611116886138916 0.97320395708084106 0.67006373405456543
0.78108233213424683 0.96953862905502319 0.66710108518600464
0.98706430196762085 0.95353001356124878 0.63223707675933838
0.058830097317695618 0 0.53341633081436157
0.15705686807632446 0 0.54149490594863892
0.29267644882202148 0.0028597514610737562 0.54833471775054932
0.43917357921600342 0.0033595515415072441 0.55320388078689575
0.5738222599029541 0 0.55704331398010254
0.7035408616065979 0 0.55584073066711426
0.84178000688552856 0 0.53636497259140015
0.077058382332324982 0.00050114648183807731 0.56961476802825928
0.16457413136959076 0.0019092634320259094 0.57322967052459717
0.29769763350486755 0.0017001432133838534 0.57861995697021484
0.43806234002113342 0.00056143366964533925 0.58241581916809082
0.56844413280487061 0.00010172525799134746 0.58452975749969482
0.695273756980896 0 0.5809861421585083
0.83298236131668091 0 0.56410044431686401
0.12091714888811111 0.15219037234783173 0.61703979969024658
0.20100925862789154 0.14531314373016357 0.617878258228302
0.32619091868400574 0.1333514004945755 0.62097769975662231
0.46331852674484253 0.11792764067649841 0.62299710512161255
0.5889817476272583 0.1057659387588501 0.62312126159667969
0.71345454454421997 0.090892255306243896 0.61950010061264038
0.85257136821746826 0.066520124673843384 0.60616058111190796
0.10587523132562637 0.42541688680648804 0.67585307359695435
0.19325493276119232 0.41872233152389526 0.67476171255111694
0.34586933255195618 0.4147026538848877 0.67712831497192383
0.49354603886604309 0.40258431434631348 0.67938917875289917
0.62283754348754883 0.38802051544189453 0.67942166328430176
0.74812132120132446 0.36670231819152832 0.67766678333282471
0.89642989635467529 0.33681035041809082 0.66965138912200928
0.058521449565887451 0.62866842746734619 0.725350022315979
0.1367289125919342 0.62570804357528687 0.72311532497406006
0.32851323485374451 0.62280267477035522 0.72637271881103516
0.48721817135810852 0.61652255058288574 0.72875630855560303
0.62509119510650635 0.61009079217910767 0.72878849506378174
0.76534581184387207 0.60443794727325439 0.72935348749160767
0.92943185567855835 0.58997273445129395 0.72392338514328003
0.016527855768799782 0.79380887746810913 0.76981222629547119
0.080758340656757355 0.79076319932937622 0.76792001724243164
0.27112552523612976 0.78214722871780396 0.76351583003997803
0.46166455745697021 0.77173101902008057 0.76377946138381958
0.61350923776626587 0.7717244029045105 0.76729226112365723
0.76657748222351074 0.76360762119293213 0.76782822608947754
0.95233070850372314 0.7581978440284729 0.75989162921905518
0 0.97039520740509033 0.78499895334243774
0.0035685969050973654 0.97500431537628174 0.78756195306777954
0.11594142764806747 0.96916347742080688 0.78653997182846069
0.31021705269813538 0.96337711811065674 0.78963768482208252
0.51846027374267578 0.96851950883865356 0.7951894998550415
0.73605453968048096 0.96134835481643677 0.79225152730941772
0.96573913097381592 0.95178711414337158 0.77567064762115479
0.11264808475971222 0 0.61126494407653809
0.20138788223266602 0 0.6206933856010437
0.31788691878318787 0.0010017395252361894 0.62810933589935303
0.44385722279548645 0 0.63135915994644165
0.56538856029510498 0 0.63327866792678833
0.6887199878692627 0 0.63063526153564453
0.82289689779281616 0 0.617573082447052
0.14427363872528076 0 0.64023399353027344
0.20854505896568298 0 0.64391440153121948
0.31685367226600647 0 0.64944338798522949
0.43766891956329346 0 0.65293091535568237
0.55518501996994019 0 0.65547752380371094
0.67734038829803467 0 0.6548340916633606
0.81290620565414429 0 0.64605045318603516
0.21365927159786224 0.02312144823372364 0.68126463890075684
0.26102977991104126 0.039698641747236252 0.68232190608978271
0.34904047846794128 0.026901828125119209 0.68593621253967285
0.45842024683952332 0.0070250565186142921 0.68722546100616455
0.5672118067741394 0.0020252901595085859 0.6884915828704834
0.68813371658325195 0.0021471211221069098 0.69050973653793335
0.82372123003005981 0.00020105698786210269 0.68406796455383301
0.26238536834716797 0.31191736459732056 0.74606835842132568
0.30806303024291992 0.2978823184967041 0.7448999285697937
0.39217957854270935 0.29183307290077209 0.74692791700363159
0.50070220232009888 0.27835389971733093 0.74893003702163696
0.60750192403793335 0.25618076324462891 0.75007671117782593
0.72250884771347046 0.23803004622459412 0.75261878967285156
0.85750263929367065 0.18248976767063141 0.74335724115371704
0.22989155352115631 0.56872642040252686 0.8059430718421936
0.29308381676673889 0.57235562801361084 0.8075370192527771
0.39488309621810913 0.56290233135223389 0.80891484022140503
0.50467872619628906 0.5550607442855835 0.81086128950119019
0.62275224924087524 0.54260575771331787 0.81353968381881714
0.7485654354095459 0.53282523155212402 0.81642657518386841
0.89844620227813721 0.50587469339370728 0.81310689449310303
0.11161673814058304 0.75069183111190796 0.85974502563476562
0.19688951969146729 0.75005155801773071 0.86506408452987671
0.35688331723213196 0.74562424421310425 0.86172771453857422
0.48969870805740356 0.73924452066421509 0.86329072713851929
0.6158139705657959 0.73456466197967529 0.86805742979049683
0.74911749362945557 0.72782039642333984 0.87094753980636597
0.92663323879241943 0.71960580348968506 0.87813985347747803
0.00032438390189781785 0.93333077430725098 0.88712131977081299
0.032256331294775009 0.93682312965393066 0.90138471126556396
0.17758795619010925 0.94469678401947021 0.90428382158279419
0.30091765522956848 0.95450752973556519 0.91560953855514526
0.51268875598907471 0.94623523950576782 0.92593282461166382
0.70601916313171387 0.94407492876052856 0.93176907300949097
0.94237989187240601 0.9454914927482605 0.94161731004714966
