assets/lut/films negative color agfa vista 200.cube
# Created by: G'MIC (https://gmic.eu)
TITLE "agfa_vista_200"
# LUT size
LUT_3D_SIZE 7
# Data domain
DOMAIN_MIN 0.0 0.0 0.0
DOMAIN_MAX 1.0 1.0 1.0
# LUT data points
0.016545629128813744 0.012198145501315594 0.008561273105442524
0.10050645470619202 0.0098537970334291458 0.0056681316345930099
0.27692076563835144 0.0099251391366124153 0.00055099185556173325
0.50239419937133789 0.01216334942728281 8.2936006947420537e-05
0.70547229051589966 0.0022304011508822441 0.00057751522399485111
0.85747724771499634 0 0
0.98293405771255493 0 0
0.064692027866840363 0.1351306140422821 0.044454328715801239
0.12879417836666107 0.12459368258714676 0.033219866454601288
0.30986052751541138 0.11208441108465195 0.017004663124680519
0.53294622898101807 0.096998877823352814 0.0056217568926513195
0.72190123796463013 0.064926087856292725 0.0012169034453108907
0.86785578727722168 0.012300633825361729 0
0.9842536449432373 0 0
0.055612675845623016 0.36015278100967407 0.094127640128135681
0.15470871329307556 0.35364457964897156 0.086471617221832275
0.35603374242782593 0.33822086453437805 0.067658565938472748
0.58106935024261475 0.31321755051612854 0.041222695261240005
0.76361083984375 0.27931410074234009 0.013242309913039207
0.9103018045425415 0.22493407130241394 0.0053162220865488052
0.99597728252410889 0.13934981822967529 0.0053365970961749554
0.039101246744394302 0.59282344579696655 0.13930860161781311
0.19302059710025787 0.5860602855682373 0.12779565155506134
0.41769015789031982 0.57985121011734009 0.11423121392726898
0.63541698455810547 0.56775546073913574 0.090471215546131134
0.80423730611801147 0.54871684312820435 0.070056915283203125
0.95163518190383911 0.52339452505111694 0.05047118291258812
1 0.46759769320487976 0.03618583083152771
0.22644247114658356 0.75489723682403564 0.16944088041782379
0.33555680513381958 0.75139683485031128 0.15713633596897125
0.5118948221206665 0.7454724907875061 0.13924281299114227
0.69128435850143433 0.74242925643920898 0.12055590748786926
0.84600698947906494 0.74111360311508179 0.12348439544439316
0.97914820909500122 0.72132235765457153 0.10429815948009491
1 0.70173680782318115 0.074403874576091766
0.43773272633552551 0.88568115234375 0.22744329273700714
0.50974434614181519 0.88110905885696411 0.22040656208992004
0.61729860305786133 0.87347328662872314 0.21212391555309296
0.74229562282562256 0.87623018026351929 0.20497620105743408
0.87453585863113403 0.87816452980041504 0.19503460824489594
0.98323756456375122 0.86386364698410034 0.15637603402137756
0.99995142221450806 0.85339230298995972 0.11129437386989594
0.61593043804168701 0.99473041296005249 0.30183589458465576
0.66564846038818359 0.99007242918014526 0.29791668057441711
0.72998291254043579 0.98261159658432007 0.30018752813339233
0.81767040491104126 0.98112946748733521 0.29654726386070251
0.92590641975402832 0.98036688566207886 0.28105396032333374
0.99951910972595215 0.97394287586212158 0.24279473721981049
1 0.97296816110610962 0.19356615841388702
0.0085813188925385475 0.0080142747610807419 0.070794142782688141
0.080951780080795288 0.003875672584399581 0.065503515303134918
0.25619068741798401 0.0029354020953178406 0.047790031880140305
0.48666557669639587 0.0050036562606692314 0.02241731621325016
0.68953144550323486 0.00032528149313293397 0.0056506884284317493
0.84872031211853027 0 0
0.98022425174713135 0 0
0.045973833650350571 0.11507751047611237 0.1164478212594986
0.11044915765523911 0.1066267117857933 0.10881026089191437
0.29244774580001831 0.095110572874546051 0.089777849614620209
0.51643508672714233 0.083522886037826538 0.064245767891407013
0.70625466108322144 0.053219486027956009 0.043558306992053986
0.8579784631729126 0.0093611022457480431 0.017830014228820801
0.9831663966178894 0 0.00081003224477171898
0.046589765697717667 0.3488248884677887 0.1760922372341156
0.11073216795921326 0.3449135422706604 0.16820935904979706
0.33355170488357544 0.326861172914505 0.14936454594135284
0.56567800045013428 0.30497324466705322 0.12123875319957733
0.74784022569656372 0.26802331209182739 0.093520551919937134
0.89161038398742676 0.21146649122238159 0.069510787725448608
0.9923393726348877 0.13838955760002136 0.045010153204202652
0.030755840241909027 0.58998703956604004 0.24035333096981049
0.1531568318605423 0.58336210250854492 0.22827765345573425
0.38803565502166748 0.57298654317855835 0.21251977980136871
0.61747461557388306 0.56319135427474976 0.18746384978294373
0.79253721237182617 0.54757201671600342 0.16741915047168732
0.9281928539276123 0.51861053705215454 0.14450494945049286
0.99662113189697266 0.45743203163146973 0.11373168230056763
0.18250492215156555 0.75841665267944336 0.29469713568687439
0.292337566614151 0.75407487154006958 0.28391367197036743
0.48544245958328247 0.74652481079101562 0.26892399787902832
0.66929709911346436 0.74565380811691284 0.25093090534210205
0.82314646244049072 0.74255049228668213 0.24536044895648956
0.95733141899108887 0.72535961866378784 0.22349868714809418
1 0.69640815258026123 0.18982315063476562
0.3983447253704071 0.88847649097442627 0.36037662625312805
0.4747849702835083 0.88488411903381348 0.35451188683509827
0.59287554025650024 0.87706828117370605 0.34557074308395386
0.72036075592041016 0.87675070762634277 0.3366985023021698
0.84948521852493286 0.87682735919952393 0.32643744349479675
0.97327786684036255 0.86513864994049072 0.29749846458435059
1 0.85123544931411743 0.26172512769699097
0.59726107120513916 0.99430555105209351 0.43088984489440918
0.64352524280548096 0.99048823118209839 0.42849445343017578
0.70902925729751587 0.98542678356170654 0.42638334631919861
0.7950170636177063 0.98386257886886597 0.42192450165748596
0.90080642700195312 0.98203963041305542 0.40772253274917603
0.9952506422996521 0.97687292098999023 0.37659212946891785
1 0.97535926103591919 0.33601516485214233
0.001206820597872138 0.0046231439337134361 0.18914347887039185
0.051091630011796951 0.0039036320522427559 0.18117460608482361
0.22414959967136383 7.9884252045303583e-05 0.16409148275852203
0.46096301078796387 0 0.1259961873292923
0.66567277908325195 0.0026665481273084879 0.099160149693489075
0.82571780681610107 0.0048750634305179119 0.074118472635746002
0.96663582324981689 0.00024912218214012682 0.052150126546621323
0.03299834206700325 0.096074499189853668 0.24856570363044739
0.09376060962677002 0.088410064578056335 0.24399639666080475
0.26121503114700317 0.074961103498935699 0.22782580554485321
0.48382329940795898 0.054329503327608109 0.19482699036598206
0.67475032806396484 0.03221537172794342 0.16736334562301636
0.82841402292251587 0.0042109619826078415 0.13686133921146393
0.96540021896362305 0 0.10054875165224075
0.021232934668660164 0.32282614707946777 0.32294982671737671
0.097579151391983032 0.3188663125038147 0.31857168674468994
0.30440631508827209 0.3026481568813324 0.30180472135543823
0.53238344192504883 0.27457556128501892 0.27426275610923767
0.71289312839508057 0.23389880359172821 0.24711751937866211
0.8586888313293457 0.17121921479701996 0.21726401150226593
0.97968900203704834 0.095180362462997437 0.18173281848430634
0.0026471007149666548 0.57574677467346191 0.39786356687545776
0.096610218286514282 0.57341897487640381 0.39420005679130554
0.33987653255462646 0.56258678436279297 0.37995007634162903
0.58011072874069214 0.55369460582733154 0.35753276944160461
0.75474196672439575 0.53131473064422607 0.33731934428215027
0.89973181486129761 0.49831795692443848 0.31659531593322754
0.998035728931427 0.43578669428825378 0.28766909241676331
0.10065989941358566 0.75553566217422485 0.46336039900779724
0.20061445236206055 0.75246119499206543 0.46154054999351501
0.43199265003204346 0.74616307020187378 0.44950023293495178
0.62823665142059326 0.74351364374160767 0.43212854862213135
0.77841085195541382 0.73252272605895996 0.42119100689888
0.92472964525222778 0.7193329930305481 0.4071756899356842
1 0.68693941831588745 0.37616840004920959
0.32103121280670166 0.88464128971099854 0.52229344844818115
0.39333814382553101 0.88178920745849609 0.51969808340072632
0.54363948106765747 0.87708663940429688 0.51033949851989746
0.68015265464782715 0.87777936458587646 0.50104618072509766
0.80650836229324341 0.87612950801849365 0.49242448806762695
0.94301044940948486 0.86695241928100586 0.47961673140525818
1 0.85017162561416626 0.4460238516330719
0.55897438526153564 0.99176496267318726 0.57656699419021606
0.5965772271156311 0.98891425132751465 0.5732235312461853
0.66723144054412842 0.98638367652893066 0.56809216737747192
0.75426238775253296 0.98634791374206543 0.5635797381401062
0.86166089773178101 0.98569071292877197 0.5535241961479187
0.97638505697250366 0.98267680406570435 0.5350496768951416
1 0.97819036245346069 0.49995511770248413
0 0 0.3516843318939209
0.031316883862018585 0 0.3473125696182251
0.188214510679245 0 0.33391454815864563
0.42734572291374207 0 0.30426543951034546
0.63934296369552612 0.0042775021865963936 0.27882039546966553
0.79392164945602417 0.019604073837399483 0.26093575358390808
0.93472343683242798 0.0091044260188937187 0.2370033860206604
0.0014680151361972094 0.066445156931877136 0.41862362623214722
0.049278318881988525 0.060586906969547272 0.41471225023269653
0.21356041729450226 0.046207010746002197 0.39930754899978638
0.44322019815444946 0.027213571593165398 0.37017568945884705
0.63937950134277344 0.01232039462774992 0.3456803560256958
0.78973627090454102 0.00062577490461990237 0.32316356897354126
0.92882376909255981 0 0.28954467177391052
0.00018717447528615594 0.28633081912994385 0.49516326189041138
0.041581097990274429 0.28364747762680054 0.49349543452262878
0.25815349817276001 0.26231402158737183 0.47729581594467163
0.49218535423278809 0.23158398270606995 0.44949418306350708
0.67311578989028931 0.19042769074440002 0.42404678463935852
0.81831079721450806 0.13189989328384399 0.39667445421218872
0.94651263952255249 0.056142382323741913 0.36434769630432129
0 0.55677169561386108 0.56836962699890137
0.014564992859959602 0.55973631143569946 0.56964421272277832
0.26933199167251587 0.54892551898956299 0.55469465255737305
0.5358702540397644 0.53451335430145264 0.53298085927963257
0.7122158408164978 0.5086662769317627 0.51417338848114014
0.86105144023895264 0.46714913845062256 0.49239993095397949
0.98611986637115479 0.3898160457611084 0.46306926012039185
0.019591612741351128 0.75066697597503662 0.62948834896087646
0.09041982889175415 0.74941706657409668 0.63165849447250366
0.36454319953918457 0.74499499797821045 0.61456477642059326
0.58577460050582886 0.73822575807571411 0.59737014770507812
0.73922622203826904 0.724689781665802 0.58527123928070068
0.88626551628112793 0.71309852600097656 0.57292228937149048
0.99816936254501343 0.67730629444122314 0.54754376411437988
0.22413338720798492 0.88466966152191162 0.67559248208999634
0.29893019795417786 0.88139015436172485 0.67428064346313477
0.49286565184593201 0.87909018993377686 0.66066688299179077
0.64110308885574341 0.87868386507034302 0.64901244640350342
0.77084577083587646 0.87594258785247803 0.63886529207229614
0.90697658061981201 0.86874616146087646 0.62785738706588745
0.99970310926437378 0.85390657186508179 0.60513043403625488
0.49214228987693787 0.99124747514724731 0.71419459581375122
0.53242784738540649 0.98911899328231812 0.70920199155807495
0.61522102355957031 0.98676061630249023 0.69930827617645264
0.70997017621994019 0.98817449808120728 0.6936345100402832
0.82291680574417114 0.9886595606803894 0.68564456701278687
0.94309455156326294 0.98390942811965942 0.66969901323318481
1 0.97973185777664185 0.64374655485153198
0 0 0.51506012678146362
0.0091287354007363319 0 0.51613277196884155
0.13672901690006256 0 0.50935417413711548
0.37203595042228699 0.00021158854360692203 0.48132976889610291
0.59919124841690063 0.0011610143119469285 0.45409432053565979
0.76537531614303589 0.0038367926608771086 0.43865644931793213
0.90378683805465698 0.0021125792991369963 0.42336520552635193
0 0.029939031228423119 0.57507157325744629
0.012427535839378834 0.021158002316951752 0.57145786285400391
0.15546584129333496 0.010834068991243839 0.5568663477897644
0.3894609808921814 0.0029206369072198868 0.5295758843421936
0.6009749174118042 6.5822227043099701e-05 0.50498759746551514
0.75998222827911377 0 0.48488566279411316
0.896240234375 0 0.46029791235923767
3.6561254091793671e-05 0.2235005795955658 0.64484995603561401
0.017119493335485458 0.21692527830600739 0.63723963499069214
0.19861990213394165 0.19549332559108734 0.617290198802948
0.44589579105377197 0.16327503323554993 0.58868563175201416
0.63625425100326538 0.12973226606845856 0.56606221199035645
0.78158187866210938 0.073035880923271179 0.54033112525939941
0.91058343648910522 0.01202660333365202 0.51090937852859497
4.6673944780195598e-06 0.53201174736022949 0.71229404211044312
0.0040925717912614346 0.52373141050338745 0.70653265714645386
0.21622700989246368 0.51469510793685913 0.68859016895294189
0.4976474940776825 0.49312284588813782 0.66503238677978516
0.67947280406951904 0.46334129571914673 0.64305239915847778
0.82736891508102417 0.41727918386459351 0.62185549736022949
0.95685666799545288 0.32731404900550842 0.59350055456161499
0.0011487923329696059 0.74455952644348145 0.76277697086334229
0.050085209310054779 0.73940759897232056 0.75915557146072388
0.30325251817703247 0.73038184642791748 0.74286335706710815
0.54805713891983032 0.71814733743667603 0.72354781627655029
0.70765334367752075 0.70547157526016235 0.70897257328033447
0.85868334770202637 0.69519305229187012 0.69468897581100464
0.98815125226974487 0.65970224142074585 0.67389816045761108
0.1300627589225769 0.88817101716995239 0.79780048131942749
0.23323012888431549 0.88475793600082397 0.79618459939956665
0.44100949168205261 0.88180136680603027 0.78412908315658569
0.60322773456573486 0.87827342748641968 0.76974225044250488
0.7375684380531311 0.87426769733428955 0.75825172662734985
0.87649047374725342 0.8628305196762085 0.74645024538040161
0.99341356754302979 0.8470495343208313 0.72915375232696533
0.40408563613891602 0.99408090114593506 0.83024734258651733
0.47235429286956787 0.99222952127456665 0.82587736845016479
0.57230901718139648 0.98989689350128174 0.8150559663772583
0.67577630281448364 0.99067461490631104 0.80807387828826904
0.79113167524337769 0.99104464054107666 0.80162328481674194
0.91257047653198242 0.98750835657119751 0.78788912296295166
0.99980378150939941 0.98310351371765137 0.76804250478744507
0 0 0.65788531303405762
0.0018921646988019347 0.0010017395252361894 0.65835750102996826
0.097690746188163757 0.011958268471062183 0.65024483203887939
0.32050436735153198 0.0095112072303891182 0.6227232813835144
0.56030076742172241 1.5557981896563433e-05 0.59233492612838745
0.73820728063583374 0 0.57148653268814087
0.87975114583969116 0 0.55078977346420288
0 0.0021972805261611938 0.70110082626342773
0.0053940718062222004 0.00096212647622451186 0.696277916431427
0.11145001649856567 2.5431314497836865e-05 0.68329167366027832
0.33002430200576782 0 0.65608090162277222
0.55808275938034058 0 0.6278918981552124
0.73008650541305542 0 0.60538846254348755
0.86929965019226074 0 0.58308959007263184
0.0036395504139363766 0.13872024416923523 0.75572055578231812
0.021675258874893188 0.12876942753791809 0.74529588222503662
0.16374862194061279 0.10787060111761093 0.72544831037521362
0.39854636788368225 0.081713885068893433 0.69722843170166016
0.59769922494888306 0.047980349510908127 0.67221462726593018
0.74763184785842896 0.0068569406867027283 0.64591038227081299
0.88016486167907715 0 0.62284189462661743
0.0014183194143697619 0.46275794506072998 0.82332026958465576
2.9620001441799104e-05 0.45551607012748718 0.81350016593933105
0.15584452450275421 0.44550496339797974 0.79497981071472168
0.46766504645347595 0.4243430495262146 0.7697264552116394
0.65160644054412842 0.38746351003646851 0.74608486890792847
0.79540443420410156 0.31982377171516418 0.72094225883483887
0.92445403337478638 0.23248356580734253 0.69590073823928833
0 0.71764522790908813 0.87357455492019653
0.004818635992705822 0.70878440141677856 0.86374682188034058
0.23531727492809296 0.70213186740875244 0.85147875547409058
0.51684600114822388 0.7012336254119873 0.83354228734970093
0.68389689922332764 0.68456012010574341 0.81705617904663086
0.83616858720779419 0.6611863374710083 0.80007106065750122
0.96843278408050537 0.61502963304519653 0.78103047609329224
0.079108700156211853 0.87511152029037476 0.90357100963592529
0.14738480746746063 0.87377279996871948 0.89987665414810181
0.35408118367195129 0.87183761596679688 0.89091390371322632
0.56002885103225708 0.86866676807403564 0.878204345703125
0.70914942026138306 0.86340582370758057 0.86541616916656494
0.85377949476242065 0.85307091474533081 0.85443079471588135
0.98014521598815918 0.83229762315750122 0.83920466899871826
0.35363304615020752 0.99010145664215088 0.93494224548339844
0.41902774572372437 0.99059510231018066 0.93088620901107788
0.51846176385879517 0.99283212423324585 0.92420667409896851
0.63794779777526855 0.99157190322875977 0.91767317056655884
0.7609865665435791 0.98837411403656006 0.91041886806488037
0.88577067852020264 0.98740100860595703 0.89839917421340942
0.99453568458557129 0.98391115665435791 0.8807525634765625
0 5.834242983837612e-05 0.77993369102478027
0.0034390916116535664 0.0024410472251474857 0.77483463287353516
0.078059792518615723 0.022762224078178406 0.76290333271026611
0.2951185405254364 0.012022983282804489 0.73451507091522217
0.53764992952346802 0 0.70226395130157471
0.71229195594787598 0 0.67723661661148071
0.8564448356628418 0 0.65312141180038452
0 0 0.80871284008026123
0.00063650094671174884 0 0.80229592323303223
0.070129662752151489 0 0.78982234001159668
0.27937394380569458 0 0.76218163967132568
0.51881116628646851 0 0.73036879301071167
0.6985364556312561 0 0.70447832345962524
0.84332519769668579 0 0.68193048238754272
0.00032061408273875713 0.023236144334077835 0.84580779075622559
0.012242560274899006 0.017026863992214203 0.83833515644073486
0.12590666115283966 0.010498899966478348 0.82105636596679688
0.34543570876121521 0.0034820258151739836 0.79293310642242432
0.5509488582611084 0.00015175015141721815 0.76526778936386108
0.71067619323730469 0 0.73871654272079468
0.84741771221160889 0 0.71612942218780518
0.0035371817648410797 0.34092003107070923 0.91224175691604614
0 0.32559224963188171 0.904457688331604
0.1089736670255661 0.30845168232917786 0.88636386394500732
0.41349661350250244 0.27549228072166443 0.8561980128288269
0.6047440767288208 0.23670729994773865 0.8308258056640625
0.75345176458358765 0.15782436728477478 0.80367481708526611
0.87987828254699707 0.06283143162727356 0.77524399757385254
0 0.65670084953308105 0.96560245752334595
0 0.65620279312133789 0.9609447717666626
0.13853806257247925 0.64880955219268799 0.94902223348617554
0.4662509560585022 0.63635706901550293 0.92721676826477051
0.64490705728530884 0.60961896181106567 0.90601235628128052
0.80516302585601807 0.5769580602645874 0.88607418537139893
0.93932664394378662 0.5136101245880127 0.86389845609664917
0.020275205373764038 0.85307961702346802 0.99315023422241211
0.016791669651865959 0.85477691888809204 0.99124014377593994
0.21855852007865906 0.84955793619155884 0.98560577630996704
0.49578002095222473 0.84322690963745117 0.97333240509033203
0.66953831911087036 0.83312517404556274 0.9562077522277832
0.82545900344848633 0.82546830177307129 0.94569951295852661
0.95951664447784424 0.79810702800750732 0.93001002073287964
0.2583262026309967 0.98444056510925293 1
0.29369613528251648 0.98675423860549927 1
0.40661129355430603 0.98893135786056519 0.99984347820281982
0.57214915752410889 0.98897498846054077 0.99883013963699341
0.71840143203735352 0.98526936769485474 0.99523657560348511
0.85418540239334106 0.98177707195281982 0.98956060409545898
0.97736644744873047 0.97714412212371826 0.97714471817016602
