assets/lut/films print fuji 3510 constlmap.cube
# Created by: G'MIC (https://gmic.eu)
TITLE "fuji_3510_constlmap"
# LUT size
LUT_3D_SIZE 7
# Data domain
DOMAIN_MIN 0.0 0.0 0.0
DOMAIN_MAX 1.0 1.0 1.0
# LUT data points
0.016899572685360909 0.014306625351309776 0.013158655725419521
0.042451448738574982 0.027513496577739716 0.018678387627005577
0.14745764434337616 0.049354106187820435 0.020963063463568687
0.31950736045837402 0.077471338212490082 0.0066172732040286064
0.43948453664779663 0.089179858565330505 0.0068618776276707649
0.51212644577026367 0.095354937016963959 0.013098384253680706
0.55002009868621826 0.10141525417566299 0.012316236272454262
0.021286608651280403 0.072609394788742065 0.039922166615724564
0.049728766083717346 0.080059006810188293 0.039895601570606232
0.17409650981426239 0.10067141801118851 0.033775299787521362
0.36784493923187256 0.13627529144287109 0.017125671729445457
0.5056341290473938 0.15227477252483368 0.010004379786550999
0.58340030908584595 0.16300864517688751 0.013921116478741169
0.61645251512527466 0.17640088498592377 0.021256031468510628
0.0084448270499706268 0.16367414593696594 0.084804192185401917
0.016859764233231544 0.17215299606323242 0.071194790303707123
0.20152148604393005 0.21637384593486786 0.027361193671822548
0.43828535079956055 0.25888139009475708 0.013686744496226311
0.59166556596755981 0.27782425284385681 0.017325965687632561
0.67481625080108643 0.29517439007759094 0.019303474575281143
0.71135270595550537 0.31328728795051575 0.0075446185655891895
0.016082897782325745 0.28875637054443359 0.1379038542509079
0.0091379499062895775 0.30663123726844788 0.12265904992818832
0.19885668158531189 0.37388300895690918 0.015554046258330345
0.49571508169174194 0.43658262491226196 0.0086100706830620766
0.67585313320159912 0.46780839562416077 0.024589717388153076
0.76143276691436768 0.47736924886703491 0.029922425746917725
0.80100065469741821 0.50607168674468994 0.0092734843492507935
0.018527805805206299 0.40133297443389893 0.18284513056278229
0.0089663788676261902 0.42795285582542419 0.16072356700897217
0.19720505177974701 0.52216130495071411 0.023629222065210342
0.55592989921569824 0.61270886659622192 0.0072769313119351864
0.75585800409317017 0.6530490517616272 0.028797119855880737
0.84755390882492065 0.67275863885879517 0.024701915681362152
0.88326197862625122 0.69290578365325928 0.030857386067509651
0.023909850046038628 0.45140475034713745 0.20035561919212341
0.018918594345450401 0.5009884238243103 0.17448854446411133
0.23293571174144745 0.60052967071533203 0.020492345094680786
0.58553755283355713 0.69470155239105225 0.010105851106345654
0.79411399364471436 0.74991351366043091 0.039503689855337143
0.89855867624282837 0.77094453573226929 0.071311667561531067
0.92906415462493896 0.78047698736190796 0.075310587882995605
0.0090521564707159996 0.50603657960891724 0.24120707809925079
0.043525006622076035 0.57661586999893188 0.17911699414253235
0.3322242796421051 0.67401343584060669 0.031789727509021759
0.64144444465637207 0.76126140356063843 0.019651524722576141
0.85316187143325806 0.8152318000793457 0.065078839659690857
0.92557966709136963 0.8082546591758728 0.085270509123802185
0.96918946504592896 0.82622480392456055 0.10755233466625214
0.01877746544778347 0.029778379946947098 0.061275586485862732
0.048181213438510895 0.037384003400802612 0.057561598718166351
0.15892277657985687 0.049749951809644699 0.053882941603660583
0.3495672345161438 0.050872355699539185 0.044332809746265411
0.49400332570075989 0.06599947065114975 0.04525921493768692
0.5703161358833313 0.049209009855985641 0.035203326493501663
0.61303567886352539 0.048940859735012054 0.03174939751625061
0.017106300219893456 0.085955522954463959 0.089613683521747589
0.056709140539169312 0.086723670363426208 0.079449504613876343
0.20360422134399414 0.11141688376665115 0.071107544004917145
0.40903171896934509 0.13630317151546478 0.067236430943012238
0.55993151664733887 0.14388905465602875 0.060476683080196381
0.64904725551605225 0.11953242868185043 0.034035027027130127
0.6870155930519104 0.13285127282142639 0.028735486790537834
0.012953021563589573 0.17646290361881256 0.12219760566949844
0.048895306885242462 0.1872575581073761 0.11311518400907516
0.23042751848697662 0.23289401829242706 0.093530498445034027
0.46747159957885742 0.26472106575965881 0.091245405375957489
0.65050590038299561 0.2840975821018219 0.069034561514854431
0.74232912063598633 0.28288060426712036 0.045006487518548965
0.78129780292510986 0.30520099401473999 0.017134962603449821
0.017341194674372673 0.30325999855995178 0.17835952341556549
0.070714913308620453 0.32778313755989075 0.17772263288497925
0.21905207633972168 0.40406036376953125 0.12226501107215881
0.53333008289337158 0.47295889258384705 0.12661238014698029
0.73313665390014648 0.49964621663093567 0.10507052391767502
0.83407467603683472 0.50576877593994141 0.063527047634124756
0.87444454431533813 0.52915042638778687 0.015093500725924969
0.015931373462080956 0.43156489729881287 0.25254654884338379
0.048028070479631424 0.46010944247245789 0.22787170112133026
0.23369115591049194 0.56883984804153442 0.13328242301940918
0.58983308076858521 0.65485858917236328 0.14288443326950073
0.80255699157714844 0.69980359077453613 0.16209961473941803
0.91100382804870605 0.72147011756896973 0.11355246603488922
0.94484305381774902 0.73418205976486206 0.060874700546264648
0.013025665655732155 0.48511862754821777 0.28624671697616577
0.019500313326716423 0.53180074691772461 0.26806700229644775
0.15797407925128937 0.65095764398574829 0.1300509124994278
0.61288392543792725 0.74956858158111572 0.059648714959621429
0.85921680927276611 0.80148422718048096 0.093106485903263092
0.95891112089157104 0.82032960653305054 0.12158485502004623
0.98601144552230835 0.82677155733108521 0.11728779226541519
0.0070281084626913071 0.56411516666412354 0.3591046929359436
0.014901569113135338 0.62384974956512451 0.3485444188117981
0.23956432938575745 0.72672080993652344 0.26600450277328491
0.64388155937194824 0.80740803480148315 0.21001379191875458
0.89048808813095093 0.8530200719833374 0.15226446092128754
0.98690569400787354 0.86621665954589844 0.22611220180988312
0.99636656045913696 0.86860889196395874 0.31311577558517456
0.0091474642977118492 0.038349885493516922 0.14890143275260925
0.046948947012424469 0.037967279553413391 0.16412746906280518
0.17686593532562256 0.050140216946601868 0.17838099598884583
0.37605741620063782 0.047676566988229752 0.18774411082267761
0.52633404731750488 0.041188318282365799 0.19237853586673737
0.60401779413223267 0.029800236225128174 0.19810323417186737
0.63562464714050293 0.038070231676101685 0.20092865824699402
0.0040805591270327568 0.10523585975170135 0.17679496109485626
0.050800487399101257 0.10925322771072388 0.19499713182449341
0.21018116176128387 0.12617617845535278 0.20996406674385071
0.43455314636230469 0.15211288630962372 0.22639088332653046
0.60616528987884521 0.13768264651298523 0.22976657748222351
0.70280355215072632 0.084343791007995605 0.2108025848865509
0.74317753314971924 0.054109849035739899 0.22371931374073029
0.0026152366772294044 0.20763179659843445 0.22525075078010559
0.074503369629383087 0.21826241910457611 0.23447874188423157
0.24789224565029144 0.26111236214637756 0.2638554573059082
0.5071035623550415 0.29556363821029663 0.27364698052406311
0.71521931886672974 0.28522062301635742 0.24943007528781891
0.80920332670211792 0.27811786532402039 0.24234451353549957
0.84358227252960205 0.30272012948989868 0.25466379523277283
0.012182393111288548 0.35430219769477844 0.29961976408958435
0.09120071679353714 0.37849035859107971 0.31670930981636047
0.29541832208633423 0.44997185468673706 0.34009450674057007
0.56097733974456787 0.51595425605773926 0.33219236135482788
0.79785549640655518 0.53988534212112427 0.30643519759178162
0.9044804573059082 0.54703813791275024 0.24605944752693176
0.93285089731216431 0.55874866247177124 0.26780396699905396
0.0097290938720107079 0.4783858060836792 0.36868712306022644
0.089924953877925873 0.51123166084289551 0.37826064229011536
0.23500032722949982 0.62722718715667725 0.3520662784576416
0.60151970386505127 0.72448384761810303 0.34444847702980042
0.84887295961380005 0.76359707117080688 0.37126579880714417
0.97217124700546265 0.7800484299659729 0.2932075560092926
0.99220824241638184 0.79205691814422607 0.30346468091011047
0.0052233226597309113 0.54205453395843506 0.43503871560096741
0.030985260382294655 0.58657240867614746 0.43921920657157898
0.082505710422992706 0.70651251077651978 0.42210662364959717
0.5999763011932373 0.8154289722442627 0.37209364771842957
0.88664513826370239 0.86110484600067139 0.36189839243888855
0.98182082176208496 0.87219047546386719 0.39920371770858765
0.99933725595474243 0.87732148170471191 0.42382514476776123
0.0040291729383170605 0.59644222259521484 0.50508826971054077
0.0087196948006749153 0.66651237010955811 0.53248715400695801
0.11267794668674469 0.76448941230773926 0.52731436491012573
0.61686617136001587 0.85480344295501709 0.5085148811340332
0.88407987356185913 0.89680612087249756 0.48815310001373291
0.99280577898025513 0.91304498910903931 0.520843505859375
1 0.91225457191467285 0.56489437818527222
0.0057463105767965317 0.10305216163396835 0.2519707977771759
0.031958740204572678 0.054994262754917145 0.30360546708106995
0.18656231462955475 0.053974706679582596 0.33571833372116089
0.39543527364730835 0.056595597416162491 0.35555064678192139
0.54310023784637451 0.05766785517334938 0.36698621511459351
0.6249229907989502 0.050371192395687103 0.37582710385322571
0.65848100185394287 0.039096668362617493 0.38700705766677856
0.010428708977997303 0.16118977963924408 0.2921263575553894
0.052485015243291855 0.15434917807579041 0.32465046644210815
0.20773802697658539 0.14783310890197754 0.39573284983634949
0.45114365220069885 0.17535047233104706 0.41823306679725647
0.62640488147735596 0.1627107560634613 0.42753782868385315
0.72098666429519653 0.098458744585514069 0.43614441156387329
0.76284527778625488 0.05024057999253273 0.45383784174919128
0.0062547572888433933 0.26582762598991394 0.36842375993728638
0.082293927669525146 0.28236415982246399 0.38990131020545959
0.23544229567050934 0.29628089070320129 0.46813267469406128
0.5126950740814209 0.31999754905700684 0.49935442209243774
0.73248970508575439 0.31320637464523315 0.50712579488754272
0.81956154108047485 0.30772003531455994 0.5144537091255188
0.84989422559738159 0.31994384527206421 0.52350181341171265
0.013361388817429543 0.41540476679801941 0.46371716260910034
0.11117212474346161 0.44022417068481445 0.48163443803787231
0.32372820377349854 0.50067228078842163 0.52716141939163208
0.56597793102264404 0.56208628416061401 0.57531756162643433
0.81063759326934814 0.58874857425689697 0.58050554990768433
0.90686875581741333 0.59232604503631592 0.57220375537872314
0.93736225366592407 0.61164546012878418 0.58498573303222656
0.0079109342768788338 0.5433916449546814 0.53386670351028442
0.11281859129667282 0.57487410306930542 0.55481088161468506
0.27853915095329285 0.67742127180099487 0.60407298803329468
0.5704963207244873 0.77953767776489258 0.62381064891815186
0.85919082164764404 0.82225954532623291 0.634482741355896
0.96713697910308838 0.83409744501113892 0.62943249940872192
0.99408626556396484 0.84316515922546387 0.63313275575637817
0.0046363379806280136 0.60478889942169189 0.5895194411277771
0.014770058915019035 0.64179807901382446 0.61279332637786865
0.10253089666366577 0.75596672296524048 0.66289687156677246
0.54987156391143799 0.86539775133132935 0.68135315179824829
0.86932277679443359 0.9126240611076355 0.68147081136703491
0.98122161626815796 0.92647916078567505 0.69430828094482422
0.99827229976654053 0.92783582210540771 0.71200013160705566
0 0.66152632236480713 0.65846627950668335
0.00050496117910370231 0.71540141105651855 0.69545739889144897
0.024069258943200111 0.81234568357467651 0.73937869071960449
0.57238101959228516 0.89447695016860962 0.75465887784957886
0.86064523458480835 0.93752127885818481 0.75601136684417725
0.98261803388595581 0.95516836643218994 0.76435571908950806
0.99997305870056152 0.95471417903900146 0.7881048321723938
0.01191386766731739 0.15528956055641174 0.32427152991294861
0.017418939620256424 0.10592799633741379 0.38588574528694153
0.19319415092468262 0.046688709408044815 0.47015416622161865
0.40467119216918945 0.061710506677627563 0.49855872988700867
0.56096786260604858 0.075074829161167145 0.51004141569137573
0.64245367050170898 0.042359102517366409 0.51904308795928955
0.67251843214035034 0.034780718386173248 0.53053700923919678
0.0039975633844733238 0.21142183244228363 0.39204365015029907
0.033183228224515915 0.20156362652778625 0.42480248212814331
0.19055186212062836 0.14387862384319305 0.557597815990448
0.46560502052307129 0.16938929259777069 0.5860634446144104
0.64396107196807861 0.17512260377407074 0.5976109504699707
0.73433196544647217 0.11605615168809891 0.61137759685516357
0.77440810203552246 0.057815849781036377 0.63568711280822754
0.0038414450827986002 0.31579917669296265 0.48048338294029236
0.035977337509393692 0.31627011299133301 0.50346791744232178
0.18433663249015808 0.30219793319702148 0.64559882879257202
0.51968884468078613 0.32825395464897156 0.69793939590454102
0.73113030195236206 0.3244953453540802 0.70720988512039185
0.82497918605804443 0.30341947078704834 0.71159249544143677
0.85444033145904541 0.33171442151069641 0.71876388788223267
0.023732444271445274 0.46541807055473328 0.58401811122894287
0.095565691590309143 0.48292312026023865 0.60425817966461182
0.27647632360458374 0.53988802433013916 0.68345725536346436
0.54808366298675537 0.59389966726303101 0.77586805820465088
0.80361658334732056 0.61133235692977905 0.78661435842514038
0.90540438890457153 0.61210846900939941 0.7940019965171814
0.93467044830322266 0.64012491703033447 0.80227619409561157
0.0063569908961653709 0.58888071775436401 0.65431946516036987
0.1176937147974968 0.62407249212265015 0.68236434459686279
0.29972904920578003 0.71310383081436157 0.75343316793441772
0.55470407009124756 0.81738758087158203 0.82891488075256348
0.84551137685775757 0.85418945550918579 0.84258544445037842
0.96015799045562744 0.86245191097259521 0.8450809121131897
0.98780602216720581 0.87454771995544434 0.84875392913818359
0.012400563806295395 0.6399267315864563 0.69041365385055542
0.031539391726255417 0.68101853132247925 0.72700858116149902
0.10706906765699387 0.78393954038619995 0.80640238523483276
0.50812751054763794 0.89783954620361328 0.87131327390670776
0.85244667530059814 0.94537150859832764 0.87989568710327148
0.97331345081329346 0.95913600921630859 0.8853263258934021
0.99823969602584839 0.96089553833007812 0.89258706569671631
0.0053392746485769749 0.67751044034957886 0.73356431722640991
0.0082575632259249687 0.74662524461746216 0.79153603315353394
0.018530078232288361 0.83572614192962646 0.8636210560798645
0.53436088562011719 0.91905158758163452 0.90212732553482056
0.84661239385604858 0.96178346872329712 0.90675860643386841
0.97168552875518799 0.97973471879959106 0.91345220804214478
0.99628609418869019 0.98169273138046265 0.92315316200256348
0.013127360492944717 0.1837492436170578 0.37462404370307922
0.018152154982089996 0.16462588310241699 0.41460353136062622
0.19693684577941895 0.040963072329759598 0.54989892244338989
0.4179975688457489 0.055298838764429092 0.58664405345916748
0.58079034090042114 0.075684584677219391 0.59730899333953857
0.66343981027603149 0.06867671012878418 0.6118890643119812
0.6926693320274353 0.053237151354551315 0.62088227272033691
0.00035967360599897802 0.23947983980178833 0.44866949319839478
0.0070066563785076141 0.23875804245471954 0.48350119590759277
0.18741755187511444 0.12693485617637634 0.65685296058654785
0.47959473729133606 0.13214753568172455 0.70092612504959106
0.66494834423065186 0.13929328322410583 0.70903700590133667
0.75030517578125 0.11566012352705002 0.71672552824020386
0.78554993867874146 0.079415187239646912 0.73351019620895386
8.6526306404266506e-05 0.33768311142921448 0.53466272354125977
0.0092607839033007622 0.34590840339660645 0.56639754772186279
0.13186754286289215 0.33316886425018311 0.72562026977539062
0.51303601264953613 0.34457552433013916 0.79884785413742065
0.73803472518920898 0.33568668365478516 0.80997484922409058
0.83069902658462524 0.3252163827419281 0.81487667560577393
0.85896164178848267 0.34224036335945129 0.82454878091812134
0.0033988205250352621 0.48046162724494934 0.63020354509353638
0.04398968443274498 0.50055718421936035 0.65985232591629028
0.12579521536827087 0.55604296922683716 0.78082853555679321
0.52199220657348633 0.60737091302871704 0.87680625915527344
0.79417133331298828 0.62729126214981079 0.89244973659515381
0.9057648777961731 0.62851923704147339 0.89571499824523926
0.93312907218933105 0.64972662925720215 0.90391844511032104
0.0023574379738420248 0.60777771472930908 0.70151221752166748
0.080807887017726898 0.63606292009353638 0.73397952318191528
0.20480139553546906 0.7342674732208252 0.83343255519866943
0.51273071765899658 0.83006864786148071 0.9228816032409668
0.83037650585174561 0.86624974012374878 0.94323122501373291
0.95255494117736816 0.87551426887512207 0.94594401121139526
0.98002159595489502 0.87586969137191772 0.94423449039459229
0.023208273574709892 0.65324360132217407 0.73114955425262451
0.041302550584077835 0.69868415594100952 0.77453070878982544
0.087664283812046051 0.80037254095077515 0.86581283807754517
0.4789583683013916 0.90786063671112061 0.94671809673309326
0.83398014307022095 0.95803141593933105 0.96275186538696289
0.96733242273330688 0.9738050103187561 0.96776038408279419
0.99503594636917114 0.97686767578125 0.96817141771316528
0.010027104057371616 0.69734770059585571 0.77455896139144897
0.017915643751621246 0.75228965282440186 0.82445645332336426
0.036744210869073868 0.83920019865036011 0.90070801973342896
0.50712698698043823 0.92551785707473755 0.95697993040084839
0.83714693784713745 0.97087174654006958 0.96843993663787842
0.96686655282974243 0.9899824857711792 0.97967934608459473
0.99285036325454712 0.98919719457626343 0.96878820657730103
0 0.20745280385017395 0.41193988919258118
0.0076267318800091743 0.19764626026153564 0.46092116832733154
0.2062431275844574 0.027580305933952332 0.6335253119468689
0.44917136430740356 0.044065825641155243 0.66198825836181641
0.62582105398178101 0.071286655962467194 0.68220984935760498
0.71305173635482788 0.083196945488452911 0.69891870021820068
0.73547369241714478 0.074114434421062469 0.69805741310119629
0 0.27107000350952148 0.487343430519104
0.0042164972983300686 0.2662045955657959 0.51864087581634521
0.16757798194885254 0.16711653769016266 0.70756596326828003
0.49146991968154907 0.17016550898551941 0.76481282711029053
0.69375079870223999 0.14324569702148438 0.78005421161651611
0.78080457448959351 0.083044432103633881 0.78096842765808105
0.8110230565071106 0.15364067256450653 0.79625284671783447
0 0.3577619194984436 0.55952024459838867
0 0.36769244074821472 0.60217243432998657
0.11500632762908936 0.36620029807090759 0.76515686511993408
0.51076769828796387 0.37290754914283752 0.83651083707809448
0.74468374252319336 0.37630632519721985 0.8546142578125
0.84365534782409668 0.36512061953544617 0.86148464679718018
0.86990487575531006 0.38280853629112244 0.8678203821182251
0 0.49063685536384583 0.64733296632766724
0.0059119728393852711 0.51580989360809326 0.6864587664604187
0.022368906065821648 0.56875485181808472 0.82054412364959717
0.51026207208633423 0.62186479568481445 0.90701645612716675
0.78587931394577026 0.63989013433456421 0.92364341020584106
0.90261191129684448 0.64385133981704712 0.93036800622940063
0.93526923656463623 0.65921956300735474 0.93524158000946045
0.0033513687085360289 0.61380654573440552 0.72069114446640015
0.016627278178930283 0.64885300397872925 0.75651335716247559
0.052168887108564377 0.74165266752243042 0.85585886240005493
0.45690163969993591 0.83508074283599854 0.95159250497817993
0.82424390316009521 0.87204986810684204 0.9699743390083313
0.95005840063095093 0.88270419836044312 0.97541624307632446
0.9809301495552063 0.8904457688331604 0.97720974683761597
0.0021934658288955688 0.65805542469024658 0.74345129728317261
0.028113212436437607 0.70959651470184326 0.79244619607925415
0.043987873941659927 0.80435419082641602 0.88084328174591064
0.4455249011516571 0.91052544116973877 0.96402883529663086
0.83426970243453979 0.96070379018783569 0.98483818769454956
0.95996946096420288 0.97536540031433105 0.98862820863723755
0.9923250675201416 0.97520279884338379 0.98706322908401489
0.0183895044028759 0.69475579261779785 0.77600502967834473
0.0092050442472100258 0.75537234544754028 0.83108276128768921
0.025379300117492676 0.84240126609802246 0.91301912069320679
0.48043075203895569 0.92631053924560547 0.96851533651351929
0.82542043924331665 0.97220408916473389 0.98434692621231079
0.95515722036361694 0.99012410640716553 0.9921872615814209
0.99543017148971558 0.99574238061904907 0.99453878402709961
