assets/lut/films negative color kodak elite color 200.cube
# Created by: G'MIC (https://gmic.eu)
TITLE "kodak_elite_color_200"
# LUT size
LUT_3D_SIZE 5
# Data domain
DOMAIN_MIN 0.0 0.0 0.0
DOMAIN_MAX 1.0 1.0 1.0
# LUT data points
0.024932067841291428 0.024241099134087563 0.026249829679727554
0.17740853130817413 0.028946731239557266 0.04037812352180481
0.39084753394126892 0.046649858355522156 0.05393320694565773
0.68110531568527222 0.079012580215930939 0.083359859883785248
0.95513361692428589 0.13820795714855194 0.12043166905641556
0.10515055805444717 0.16346167027950287 0.043527252972126007
0.2066284716129303 0.16917857527732849 0.049215368926525116
0.41937136650085449 0.18790750205516815 0.063347429037094116
0.70306658744812012 0.21976235508918762 0.095089465379714966
0.96684819459915161 0.27605211734771729 0.14264290034770966
0.14423388242721558 0.35564365983009338 0.031515441834926605
0.24722069501876831 0.36304882168769836 0.037975549697875977
0.47535255551338196 0.37577563524246216 0.048565119504928589
0.74186605215072632 0.39914143085479736 0.076919659972190857
0.98009765148162842 0.43993932008743286 0.11473215371370316
0.23839244246482849 0.55988121032714844 0.001052422565408051
0.35523790121078491 0.5599370002746582 0.0002790114376693964
0.56767970323562622 0.56600856781005859 0.0084210261702537537
0.81120872497558594 0.5731615424156189 0.020195022225379944
0.99795049428939819 0.59310764074325562 0.035706941038370132
0.45807743072509766 0.71566969156265259 0.0040324041619896889
0.53397279977798462 0.71288055181503296 0.018920479342341423
0.69526869058609009 0.71204531192779541 0.015796631574630737
0.89831501245498657 0.70972049236297607 0.0091017633676528931
1 0.70755624771118164 0
0.038233257830142975 0.057623531669378281 0.18650777637958527
0.1881905198097229 0.069410018622875214 0.20229260623455048
0.40707117319107056 0.083098858594894409 0.22176475822925568
0.68933671712875366 0.11951271444559097 0.25067722797393799
0.95258188247680664 0.179610475897789 0.28747773170471191
0.11155823618173599 0.19686231017112732 0.19749784469604492
0.20774391293525696 0.20723997056484222 0.20678284764289856
0.42377135157585144 0.22395633161067963 0.2249121367931366
0.70649397373199463 0.25665387511253357 0.25444337725639343
0.96273267269134521 0.3187357485294342 0.29604852199554443
0.11517604440450668 0.39110308885574341 0.17485925555229187
0.23738613724708557 0.39601212739944458 0.18540708720684052
0.4719521701335907 0.41206398606300354 0.20187652111053467
0.74236679077148438 0.44043740630149841 0.23249804973602295
0.9784160852432251 0.48954564332962036 0.27860724925994873
0.23905390501022339 0.58967292308807373 0.084815502166748047
0.35730177164077759 0.59145635366439819 0.08710816502571106
0.56955480575561523 0.6037982702255249 0.10352442413568497
0.80826199054718018 0.61935710906982422 0.13461391627788544
0.99529814720153809 0.648964524269104 0.19072872400283813
0.49504977464675903 0.71019035577774048 0
0.5591234564781189 0.71314805746078491 0
0.71823370456695557 0.70990848541259766 0
0.91150331497192383 0.71393561363220215 0.00029063504189252853
0.999980628490448 0.71201616525650024 0.0018509658984839916
0.051276788115501404 0.10476687550544739 0.38644698262214661
0.19567839801311493 0.10983364284038544 0.39824885129928589
0.4216817319393158 0.13395786285400391 0.42513898015022278
0.69734424352645874 0.17123599350452423 0.4531901478767395
0.95253968238830566 0.23530964553356171 0.48904258012771606
0.1063799262046814 0.24545210599899292 0.42197731137275696
0.20924375951290131 0.25538018345832825 0.43424415588378906
0.43758475780487061 0.27187436819076538 0.45618534088134766
0.71124088764190674 0.30240103602409363 0.48192489147186279
0.95726710557937622 0.36677366495132446 0.5177772045135498
0.093834206461906433 0.45645573735237122 0.44629454612731934
0.22707253694534302 0.45736739039421082 0.45884314179420471
0.47530964016914368 0.47198054194450378 0.47348347306251526
0.73776626586914062 0.49516075849533081 0.4985688328742981
0.968822181224823 0.54310458898544312 0.53673923015594482
0.16349416971206665 0.67586922645568848 0.42289978265762329
0.31223508715629578 0.67898869514465332 0.43432188034057617
0.54378688335418701 0.69038361310958862 0.45473876595497131
0.78343534469604492 0.70071262121200562 0.47554966807365417
0.98518264293670654 0.72742384672164917 0.51983880996704102
0.49179941415786743 0.76539498567581177 0.10765369236469269
0.56173276901245117 0.76354867219924927 0.095592856407165527
0.71365082263946533 0.7653232216835022 0.12486400455236435
0.88886749744415283 0.77998930215835571 0.17376504838466644
1 0.80361878871917725 0.29246437549591064
0.063531778752803802 0.15733624994754791 0.62362957000732422
0.20983153581619263 0.16713680326938629 0.63280302286148071
0.44084581732749939 0.18007788062095642 0.65380018949508667
0.7096291184425354 0.19969876110553741 0.67724609375
0.95255839824676514 0.25911930203437805 0.70371967554092407
0.091179683804512024 0.29260265827178955 0.67758172750473022
0.22664570808410645 0.29966917634010315 0.68461120128631592
0.46179854869842529 0.31124940514564514 0.70011073350906372
0.72211253643035889 0.3375793993473053 0.71726310253143311
0.9536435604095459 0.39446693658828735 0.74092280864715576
0.086919210851192474 0.50651794672012329 0.72037404775619507
0.24088159203529358 0.5135379433631897 0.72616970539093018
0.49113923311233521 0.52337545156478882 0.7383047342300415
0.7400052547454834 0.54184955358505249 0.74762409925460815
0.95701009035110474 0.58408260345458984 0.7682950496673584
0.14542640745639801 0.74915361404418945 0.74219006299972534
0.30646839737892151 0.75227224826812744 0.74769812822341919
0.54152601957321167 0.75646817684173584 0.75258618593215942
0.76929908990859985 0.76763272285461426 0.76837754249572754
0.96812254190444946 0.7917104959487915 0.78887462615966797
0.42682170867919922 0.89667820930480957 0.63778400421142578
0.50008440017700195 0.89791291952133179 0.65376943349838257
0.65388017892837524 0.89780575037002563 0.65729838609695435
0.8367159366607666 0.90191727876663208 0.68089509010314941
0.99541974067687988 0.91821324825286865 0.72456878423690796
0.11056581139564514 0.20937968790531158 0.82939094305038452
0.26566857099533081 0.20474757254123688 0.83566015958786011
0.48613426089286804 0.21617689728736877 0.8508104681968689
0.73093479871749878 0.22421440482139587 0.87117868661880493
0.96019947528839111 0.27022063732147217 0.89740538597106934
0.18668647110462189 0.29412841796875 0.8722798228263855
0.30856174230575562 0.30292284488677979 0.87638288736343384
0.51878237724304199 0.32073631882667542 0.88441324234008789
0.75274121761322021 0.34432333707809448 0.89473646879196167
0.96612054109573364 0.39913353323936462 0.91520369052886963
0.22752250730991364 0.51956272125244141 0.91539990901947021
0.34644398093223572 0.5255160927772522 0.91704845428466797
0.55438083410263062 0.53467118740081787 0.92015331983566284
0.77414262294769287 0.548636794090271 0.92139261960983276
0.96721237897872925 0.59768104553222656 0.93818908929824829
0.30557018518447876 0.78386050462722778 0.94862520694732666
0.41408252716064453 0.78467178344726562 0.94774115085601807
0.60146129131317139 0.79004204273223877 0.94833207130432129
0.79230600595474243 0.79587703943252563 0.95200073719024658
0.96973592042922974 0.82235085964202881 0.96439629793167114
0.49329906702041626 0.97677314281463623 0.95908313989639282
0.54462182521820068 0.97426164150238037 0.95633184909820557
0.68166512250900269 0.97316282987594604 0.94855755567550659
0.83545494079589844 0.97555673122406006 0.96269899606704712
0.98470538854598999 0.98365533351898193 0.98193967342376709
