assets/lut/films negative color kodak elite 100 xpro.cube
# Created by: G'MIC (https://gmic.eu)
TITLE "kodak_elite_100_xpro"
# LUT size
LUT_3D_SIZE 7
# Data domain
DOMAIN_MIN 0.0 0.0 0.0
DOMAIN_MAX 1.0 1.0 1.0
# LUT data points
0.023949597030878067 0.010049019940197468 0.003523463848978281
0.10808961093425751 0.012955773621797562 0.0020018634386360645
0.22738195955753326 0.022340273484587669 0.0070844013243913651
0.40782642364501953 0.030912451446056366 0.013669361360371113
0.64567512273788452 0.058845371007919312 0.025337085127830505
0.84326541423797607 0.091279961168766022 0.024129291996359825
0.98263591527938843 0.12895429134368896 0.0031266903970390558
0.073077917098999023 0.084214620292186737 0.0057116937823593616
0.13195852935314178 0.094329535961151123 0.006030393298715353
0.25243577361106873 0.10894477367401123 0.010476819239556789
0.42191627621650696 0.13291007280349731 0.01778208464384079
0.66257667541503906 0.17139081656932831 0.030402239412069321
0.86013698577880859 0.21846802532672882 0.035296689718961716
0.98890334367752075 0.26875421404838562 0.013935732655227184
0.096987254917621613 0.26339367032051086 0.0066911885514855385
0.1379643976688385 0.27415940165519714 0.0093157747760415077
0.2854495644569397 0.28819927573204041 0.013340146280825138
0.46446654200553894 0.31458023190498352 0.018792305141687393
0.7078976035118103 0.34483462572097778 0.026222214102745056
0.88490873575210571 0.39185559749603271 0.029025927186012268
0.99333876371383667 0.43208912014961243 0.01357218436896801
0.029553970322012901 0.48538875579833984 0.010194023139774799
0.12527917325496674 0.48863056302070618 0.014520862139761448
0.31116357445716858 0.4949151873588562 0.018327675759792328
0.52975344657897949 0.51431077718734741 0.021627059206366539
0.7569425106048584 0.53976291418075562 0.023879840970039368
0.90818661451339722 0.56779396533966064 0.024690186604857445
0.99532061815261841 0.59449797868728638 0.0092292185872793198
0.12202941626310349 0.66151124238967896 0.015226087532937527
0.22718805074691772 0.66245973110198975 0.00968907680362463
0.41215664148330688 0.66529971361160278 0.013218434527516365
0.62038040161132812 0.67777681350708008 0.02313557080924511
0.80303925275802612 0.69497090578079224 0.021108575165271759
0.93589764833450317 0.711464524269104 0.019199356436729431
1 0.72589373588562012 0.0022888632956892252
0.34119376540184021 0.7888144850730896 2.5281718990299851e-05
0.42604255676269531 0.79026317596435547 0
0.56803107261657715 0.79274499416351318 0
0.72283941507339478 0.80162972211837769 0.0087653361260890961
0.85724806785583496 0.81032824516296387 0.010745149105787277
0.96744841337203979 0.81697148084640503 0.0048654745332896709
1 0.82489365339279175 2.154182038793806e-05
0.60630506277084351 0.88142943382263184 0
0.66079747676849365 0.88471275568008423 0
0.74238204956054688 0.88750261068344116 0
0.83589696884155273 0.89348948001861572 0
0.9299701452255249 0.8943028450012207 0
0.99845707416534424 0.89365452527999878 0
1 0.89888232946395874 0
0.01975097693502903 0.013688554987311363 0.02290363609790802
0.098809577524662018 0.018856856971979141 0.026057867333292961
0.21635091304779053 0.028813514858484268 0.030667742714285851
0.39171251654624939 0.040723614394664764 0.040951404720544815
0.64262986183166504 0.069945886731147766 0.057074721902608871
0.84802371263504028 0.10391929745674133 0.058003012090921402
0.98349738121032715 0.14469106495380402 0.035484477877616882
0.065954692661762238 0.096981674432754517 0.029202720150351524
0.11959092319011688 0.10406307131052017 0.030763333663344383
0.24007566273212433 0.12076257169246674 0.038049690425395966
0.41720491647720337 0.14400705695152283 0.048338405787944794
0.66389113664627075 0.18101371824741364 0.060982514172792435
0.86334007978439331 0.23366858065128326 0.063434988260269165
0.98926931619644165 0.29194790124893188 0.039757315069437027
0.082811065018177032 0.27764356136322021 0.034881547093391418
0.12463080883026123 0.28972136974334717 0.035173408687114716
0.2665083110332489 0.30201935768127441 0.040652960538864136
0.45840340852737427 0.32779628038406372 0.048957645893096924
0.70757472515106201 0.35637527704238892 0.056902896612882614
0.88264924287796021 0.40412265062332153 0.0533713698387146
0.99537855386734009 0.44980958104133606 0.032928809523582458
0.031348045915365219 0.49173638224601746 0.036564592272043228
0.10400176793336868 0.50035262107849121 0.03814404085278511
0.29151514172554016 0.5088798999786377 0.042403876781463623
0.51400649547576904 0.52769631147384644 0.047737870365381241
0.75077646970748901 0.5501331090927124 0.047665584832429886
0.9094119668006897 0.5740044116973877 0.040978047996759415
0.99918645620346069 0.59817785024642944 0.015858160331845284
0.094839103519916534 0.66742360591888428 0.031345278024673462
0.18747371435165405 0.67052501440048218 0.038940250873565674
0.38492101430892944 0.67655485868453979 0.032092779874801636
0.60742521286010742 0.68916553258895874 0.03702792152762413
0.79839962720870972 0.70478790998458862 0.029792755842208862
0.93386125564575195 0.71774518489837646 0.025345431640744209
1 0.73107278347015381 0.0029392167925834656
0.31512558460235596 0.79408031702041626 0.0043500564061105251
0.40113106369972229 0.79605263471603394 0.0051775015890598297
0.55369454622268677 0.80018752813339233 0.0069423899985849857
0.71888655424118042 0.80959939956665039 0.028407946228981018
0.85447102785110474 0.81848514080047607 0.01364262867718935
0.95728439092636108 0.82434260845184326 0.0044890008866786957
0.99969470500946045 0.83330100774765015 0.0046183718368411064
0.61292111873626709 0.88636475801467896 0.0034187766723334789
0.657723069190979 0.888103187084198 0
0.73397481441497803 0.89119786024093628 0.0030100655276328325
0.83029305934906006 0.8960869312286377 0.033056430518627167
0.92205214500427246 0.89605903625488281 0.025701964274048805
0.99087667465209961 0.89390569925308228 0.0014791002031415701
1 0.90190804004669189 0
0.010129457339644432 0.021308509632945061 0.078222848474979401
0.07889990508556366 0.027796726673841476 0.083404228091239929
0.20501202344894409 0.038786929100751877 0.084642939269542694
0.39323326945304871 0.054239474236965179 0.096413105726242065
0.64230126142501831 0.084011152386665344 0.1061999723315239
0.84411722421646118 0.11594224721193314 0.10491889715194702
0.97836238145828247 0.1600814014673233 0.082220710813999176
0.054218217730522156 0.11257608234882355 0.097227416932582855
0.10511073470115662 0.12157290428876877 0.10072461515665054
0.22421415150165558 0.13776418566703796 0.10659217089414597
0.40929657220840454 0.16633850336074829 0.11278647929430008
0.66041094064712524 0.20482124388217926 0.11558559536933899
0.8608701229095459 0.24753423035144806 0.11326498538255692
0.98764258623123169 0.30637961626052856 0.082882001996040344
0.068363219499588013 0.29862552881240845 0.12143907696008682
0.093377865850925446 0.31140264868736267 0.11839961260557175
0.23789437115192413 0.32407656311988831 0.12385587394237518
0.44157606363296509 0.35135161876678467 0.12516613304615021
0.69699037075042725 0.38321611285209656 0.12412392348051071
0.88071495294570923 0.41967281699180603 0.10974008589982986
0.99455231428146362 0.4638245701789856 0.077479645609855652
0.012185025960206985 0.51247942447662354 0.13275566697120667
0.050983026623725891 0.521614670753479 0.1290154755115509
0.24876463413238525 0.53139698505401611 0.13285975158214569
0.49634730815887451 0.54897499084472656 0.13779403269290924
0.73890119791030884 0.56831061840057373 0.13103805482387543
0.90310937166213989 0.59088724851608276 0.10935282707214355
0.99692374467849731 0.61517554521560669 0.063798613846302032
0.030673546716570854 0.6865699291229248 0.16426862776279449
0.10797815024852753 0.69117617607116699 0.15769140422344208
0.31665167212486267 0.6973872184753418 0.15323248505592346
0.5816643238067627 0.70875340700149536 0.15925195813179016
0.78319990634918213 0.72171175479888916 0.14706709980964661
0.92781621217727661 0.73263716697692871 0.11848167330026627
0.99916601181030273 0.74554353952407837 0.049665831029415131
0.21385151147842407 0.81544005870819092 0.19214685261249542
0.33731463551521301 0.81729990243911743 0.19785000383853912
0.50766158103942871 0.82025420665740967 0.18969927728176117
0.69041609764099121 0.82912260293960571 0.20270863175392151
0.83188372850418091 0.83851391077041626 0.16999882459640503
0.94853687286376953 0.84419369697570801 0.1214987188577652
0.99902951717376709 0.84619128704071045 0.036377672106027603
0.58553856611251831 0.90427678823471069 0.23271109163761139
0.63238668441772461 0.90810388326644897 0.22965042293071747
0.7031325101852417 0.90758001804351807 0.23106569051742554
0.79879629611968994 0.91204941272735596 0.2486126720905304
0.89528268575668335 0.91199219226837158 0.20534639060497284
0.97556477785110474 0.90840715169906616 0.12483026832342148
0.99945122003555298 0.90525394678115845 0.0043228748254477978
0.007080078125 0.03743082657456398 0.2045290470123291
0.054980453103780746 0.048078157007694244 0.21384228765964508
0.17792364954948425 0.055401939898729324 0.21568173170089722
0.37499162554740906 0.076124347746372223 0.22767108678817749
0.62922447919845581 0.10123887658119202 0.22100193798542023
0.83509677648544312 0.13660703599452972 0.20793002843856812
0.97451454401016235 0.19386905431747437 0.15974612534046173
0.038378309458494186 0.14442251622676849 0.2526257336139679
0.081198796629905701 0.15409399569034576 0.25322100520133972
0.18832345306873322 0.16992679238319397 0.25970667600631714
0.38715967535972595 0.19769537448883057 0.26285961270332336
0.64550614356994629 0.2322155237197876 0.26400977373123169
0.8485831618309021 0.27654334902763367 0.24305270612239838
0.98308330774307251 0.34034812450408936 0.18696020543575287
0.019643520936369896 0.33808180689811707 0.30054816603660583
0.02611866407096386 0.34726622700691223 0.30252867937088013
0.16769076883792877 0.36145702004432678 0.31142017245292664
0.40152877569198608 0.38640236854553223 0.31323319673538208
0.67421656847000122 0.4175628125667572 0.30732566118240356
0.86426424980163574 0.45796653628349304 0.27782142162322998
0.98962944746017456 0.49459794163703918 0.22357413172721863
7.880715565988794e-05 0.54907792806625366 0.36586648225784302
0.0010045070666819811 0.55386519432067871 0.3690212070941925
0.13590382039546967 0.56483930349349976 0.37190008163452148
0.43442189693450928 0.58323365449905396 0.3792787492275238
0.70283442735671997 0.60155206918716431 0.37067034840583801
0.87584084272384644 0.6240154504776001 0.3376457691192627
0.99019545316696167 0.64692890644073486 0.26605504751205444
0 0.71856594085693359 0.44646927714347839
0.0086884889751672745 0.72268450260162354 0.44253087043762207
0.15615978837013245 0.72959280014038086 0.44733259081840515
0.51368778944015503 0.74214833974838257 0.45388486981391907
0.74166667461395264 0.75661849975585938 0.44787842035293579
0.89213389158248901 0.76445108652114868 0.40754726529121399
0.9932977557182312 0.77285993099212646 0.31364592909812927
0.042462531477212906 0.85141515731811523 0.53177136182785034
0.1957632303237915 0.85206085443496704 0.52224153280258179
0.3988686203956604 0.85562479496002197 0.52250498533248901
0.63323509693145752 0.86320203542709351 0.5322498083114624
0.78160077333450317 0.8710932731628418 0.52186602354049683
0.90940946340560913 0.87446856498718262 0.48438775539398193
0.98952740430831909 0.87351757287979126 0.35663518309593201
0.48644357919692993 0.93530905246734619 0.58284783363342285
0.54537028074264526 0.93725478649139404 0.57986235618591309
0.63986027240753174 0.93634450435638428 0.57449114322662354
0.74246335029602051 0.94219303131103516 0.57334476709365845
0.84650766849517822 0.94473910331726074 0.54830020666122437
0.94427502155303955 0.93964916467666626 0.50273388624191284
0.99710571765899658 0.93321549892425537 0.35716533660888672
0.0028901193290948868 0.072024159133434296 0.44299459457397461
0.033646244555711746 0.082485020160675049 0.44660770893096924
0.1374022364616394 0.09160410612821579 0.44273102283477783
0.32523751258850098 0.11756635457277298 0.46839225292205811
0.59741777181625366 0.14164917171001434 0.45820930600166321
0.81523889303207397 0.17785854637622833 0.43840935826301575
0.95709478855133057 0.22630117833614349 0.36374363303184509
0.0072807311080396175 0.18511150777339935 0.51885390281677246
0.041089404374361038 0.19641867280006409 0.52125406265258789
0.12396584451198578 0.21424619853496552 0.52696019411087036
0.33462786674499512 0.24336083233356476 0.53671139478683472
0.60222727060317993 0.2809007465839386 0.5398259162902832
0.82106876373291016 0.32864102721214294 0.52172338962554932
0.96129906177520752 0.38641411066055298 0.44662705063819885
0.0043309079483151436 0.38310205936431885 0.58590024709701538
0.009519524872303009 0.3922971785068512 0.58789050579071045
0.032771464437246323 0.41113537549972534 0.59711253643035889
0.31875354051589966 0.43407395482063293 0.60902541875839233
0.62158817052841187 0.46469682455062866 0.60742378234863281
0.82586520910263062 0.5006374716758728 0.59093844890594482
0.96134668588638306 0.54260057210922241 0.52990680932998657
0.00084427476394921541 0.59055030345916748 0.64111477136611938
0.00034332275390625 0.59297329187393188 0.63875049352645874
0.025467127561569214 0.60208380222320557 0.64701753854751587
0.30905696749687195 0.6197047233581543 0.66009443998336792
0.64506590366363525 0.64213263988494873 0.66466039419174194
0.83177429437637329 0.66537362337112427 0.66019469499588013
0.95915108919143677 0.69082337617874146 0.60421961545944214
0 0.75228828191757202 0.68825227022171021
0 0.7564738392829895 0.69372206926345825
0.059979218989610672 0.76334649324417114 0.7004125714302063
0.40816411375999451 0.77269536256790161 0.7106967568397522
0.68711495399475098 0.78801208734512329 0.72056818008422852
0.84417557716369629 0.80163240432739258 0.70862728357315063
0.95812386274337769 0.81576442718505859 0.6690070629119873
0.0034741121344268322 0.87590670585632324 0.73953700065612793
0.075196057558059692 0.87993961572647095 0.74420785903930664
0.26856216788291931 0.88657546043395996 0.75123882293701172
0.55953675508499146 0.89173060655593872 0.76255446672439575
0.72937345504760742 0.89956390857696533 0.76598942279815674
0.86449241638183594 0.90811449289321899 0.75710928440093994
0.95905804634094238 0.91254544258117676 0.70723861455917358
0.34971559047698975 0.95588678121566772 0.78218799829483032
0.45493870973587036 0.95738756656646729 0.78418678045272827
0.5760071873664856 0.95942461490631104 0.79043853282928467
0.69744151830673218 0.96615129709243774 0.79541921615600586
0.80411839485168457 0.97272753715515137 0.79480493068695068
0.90302097797393799 0.97368782758712769 0.78863632678985596
0.98278766870498657 0.97056001424789429 0.72392278909683228
0 0.11397292464971542 0.69378292560577393
0.0058336444199085236 0.1244545578956604 0.69373637437820435
0.091753177344799042 0.13159275054931641 0.69094717502593994
0.27747678756713867 0.15416276454925537 0.70813226699829102
0.55061715841293335 0.18812939524650574 0.72668731212615967
0.78539395332336426 0.23232480883598328 0.73625558614730835
0.93142449855804443 0.28310438990592957 0.69545990228652954
0.0029997134115546942 0.23220053315162659 0.7338871955871582
0.012170843780040741 0.24413324892520905 0.74349445104598999
0.056929837912321091 0.26311135292053223 0.75081276893615723
0.26477429270744324 0.28953760862350464 0.76561123132705688
0.56005233526229858 0.33319705724716187 0.78214341402053833
0.79241633415222168 0.38585042953491211 0.79303199052810669
0.93382376432418823 0.44066214561462402 0.7529137134552002
0.0057326969690620899 0.4323810338973999 0.77344709634780884
0.013220499269664288 0.43532860279083252 0.7747381329536438
0.0010627596639096737 0.45332551002502441 0.78150898218154907
0.20400367677211761 0.47835731506347656 0.79541999101638794
0.56546247005462646 0.51051992177963257 0.80917423963546753
0.79593110084533691 0.55119806528091431 0.81791716814041138
0.93473511934280396 0.59380018711090088 0.80296546220779419
0.0092165181413292885 0.62646698951721191 0.79830408096313477
0.0025777479168027639 0.62627565860748291 0.79915517568588257
0 0.63333946466445923 0.8073614239692688
0.18119490146636963 0.65331238508224487 0.82314050197601318
0.58926033973693848 0.67827039957046509 0.84228426218032837
0.79883080720901489 0.70433813333511353 0.85308021306991577
0.93332588672637939 0.73004603385925293 0.83705216646194458
0 0.77685600519180298 0.82254338264465332
0 0.77999812364578247 0.82778483629226685
0.0025216944050043821 0.78462523221969604 0.83623653650283813
0.25591620802879333 0.79705989360809326 0.85275864601135254
0.6372753381729126 0.81440204381942749 0.86857300996780396
0.81141668558120728 0.82924026250839233 0.87629204988479614
0.93212175369262695 0.84683740139007568 0.86795508861541748
0.015351777896285057 0.88998657464981079 0.85324889421463013
0.0077947578392922878 0.89545303583145142 0.85652011632919312
0.099978670477867126 0.90071505308151245 0.86547350883483887
0.47145280241966248 0.90868520736694336 0.88273406028747559
0.69500625133514404 0.91997396945953369 0.894195556640625
0.83552682399749756 0.92775613069534302 0.89737260341644287
0.9363170862197876 0.93535864353179932 0.89461886882781982
0.28421860933303833 0.96903932094573975 0.88834035396575928
0.34104129672050476 0.97031784057617188 0.88929158449172974
0.47646814584732056 0.97091317176818848 0.8994935154914856
0.65345007181167603 0.97794932126998901 0.91082918643951416
0.77691018581390381 0.98391687870025635 0.91878890991210938
0.87134408950805664 0.9875800609588623 0.92296159267425537
0.96037822961807251 0.98783731460571289 0.91126132011413574
0 0.1410319060087204 0.83330565690994263
0.0026511845644563437 0.14758813381195068 0.83539313077926636
0.059317212551832199 0.16505800187587738 0.84562182426452637
0.22152231633663177 0.1908346563577652 0.86456066370010376
0.50184553861618042 0.22526715695858002 0.88556748628616333
0.7610744833946228 0.27505838871002197 0.90623950958251953
0.91276639699935913 0.33263471722602844 0.89115864038467407
0.00023351931304205209 0.28203693032264709 0.8567659854888916
0.00044575112406164408 0.28780022263526917 0.85780054330825806
0.0076622008346021175 0.30882689356803894 0.87168532609939575
0.16387295722961426 0.337932288646698 0.88838297128677368
0.49806118011474609 0.37457373738288879 0.90617835521697998
0.76295590400695801 0.4312288761138916 0.9308241605758667
0.911773681640625 0.49401211738586426 0.92019307613372803
0.0015954410191625357 0.46975085139274597 0.87475544214248657
0.00044085932313464582 0.47826597094535828 0.87196534872055054
0 0.48962700366973877 0.88294976949691772
0.058700621128082275 0.51680511236190796 0.89526885747909546
0.48138347268104553 0.54198932647705078 0.91679173707962036
0.76055634021759033 0.58431077003479004 0.93831938505172729
0.91177576780319214 0.63382762670516968 0.93844020366668701
0 0.64642184972763062 0.89118701219558716
0 0.65202218294143677 0.88985627889633179
0 0.65985345840454102 0.89616119861602783
0.043253924697637558 0.67966729402542114 0.90880942344665527
0.5030592679977417 0.7036205530166626 0.93384581804275513
0.76381707191467285 0.72961831092834473 0.95311516523361206
0.91123223304748535 0.75791782140731812 0.95311456918716431
0 0.78839433193206787 0.90358096361160278
0 0.79380381107330322 0.90480554103851318
0 0.79897457361221313 0.91279584169387817
0.1141691654920578 0.81437337398529053 0.92641854286193848
0.55592375993728638 0.83397024869918823 0.94845110177993774
0.77906817197799683 0.84972953796386719 0.96456342935562134
0.91120105981826782 0.86690360307693481 0.96831697225570679
0.00043632657616399229 0.90248632431030273 0.91325908899307251
2.7286305339657702e-05 0.90581178665161133 0.91671568155288696
0.027551343664526939 0.90782278776168823 0.9275888204574585
0.23891523480415344 0.91775894165039062 0.94477653503417969
0.61406230926513672 0.93163567781448364 0.95941728353500366
0.80371582508087158 0.94203627109527588 0.97121459245681763
0.91790235042572021 0.95208078622817993 0.98019760847091675
0.17523409426212311 0.98494082689285278 0.9433283805847168
0.20891618728637695 0.9840666651725769 0.94786739349365234
0.33903318643569946 0.98005753755569458 0.96033698320388794
0.51726830005645752 0.98587441444396973 0.97477060556411743
0.71229344606399536 0.99121254682540894 0.98398518562316895
0.84680849313735962 0.9962039589881897 0.9887118935585022
0.95296245813369751 0.9968864917755127 0.99193108081817627
