assets/lut/films negative color kodak elite 100 xpro.cube
# Created by: G'MIC (https://gmic.eu)
TITLE "kodak_elite_100_xpro"
# LUT size
LUT_3D_SIZE 5
# Data domain
DOMAIN_MIN 0.0 0.0 0.0
DOMAIN_MAX 1.0 1.0 1.0
# LUT data points
0.023949597030878067 0.010049019940197468 0.003523463848978281
0.15676587820053101 0.018488490954041481 0.0047207851894199848
0.40782642364501953 0.030912451446056366 0.013669361360371113
0.75367683172225952 0.074972040951251984 0.027245195582509041
0.98263591527938843 0.12895429134368896 0.0031266903970390558
0.10543057322502136 0.16171638667583466 0.0060541639104485512
0.19685626029968262 0.18003399670124054 0.0095138102769851685
0.44261988997459412 0.2157457172870636 0.018129849806427956
0.78774189949035645 0.27583587169647217 0.032450161874294281
0.99120861291885376 0.34815061092376709 0.015432305634021759
0.029553970322012901 0.48538875579833984 0.010194023139774799
0.21155175566673279 0.48998346924781799 0.016574889421463013
0.52975344657897949 0.51431077718734741 0.021627059206366539
0.8413732647895813 0.55442780256271362 0.025069441646337509
0.99532061815261841 0.59449797868728638 0.0092292185872793198
0.22174391150474548 0.73091650009155273 0.007507713045924902
0.39590317010879517 0.7316739559173584 0.00033093622187152505
0.67221492528915405 0.74429208040237427 0.019054757431149483
0.89668965339660645 0.76294940710067749 0.014335557818412781
1 0.77879106998443604 0.00049739162204787135
0.60630506277084351 0.88142943382263184 0
0.69848084449768066 0.88582158088684082 0
0.83589696884155273 0.89348948001861572 0
0.97418171167373657 0.89347320795059204 0
1 0.89888232946395874 0
0.015311566181480885 0.01727263443171978 0.043215643614530563
0.14209580421447754 0.026953514665365219 0.048572227358818054
0.39182838797569275 0.046201698482036591 0.062448345124721527
0.75790178775787354 0.093887656927108765 0.08064105361700058
0.9813157320022583 0.15158532559871674 0.056243926286697388
0.083535455167293549 0.18375286459922791 0.061795312911272049
0.17532670497894287 0.20482359826564789 0.063864372670650482
0.43408864736557007 0.23767033219337463 0.075962379574775696
0.78786587715148926 0.29382282495498657 0.084868304431438446
0.991737961769104 0.37802815437316895 0.054871384054422379
0.024375945329666138 0.4995691180229187 0.071971133351325989
0.16715629398822784 0.5131945013999939 0.071826368570327759
0.50525909662246704 0.53700196743011475 0.079848483204841614
0.83598977327346802 0.56988179683685303 0.070004001259803772
0.99870997667312622 0.60417264699935913 0.030397616326808929
0.15580624341964722 0.74324327707290649 0.067411072552204132
0.34039837121963501 0.7479407787322998 0.073674358427524567
0.65320038795471191 0.76205241680145264 0.07719922810792923
0.8887016773223877 0.77856487035751343 0.046962365508079529
1 0.79042530059814453 0.0081034339964389801
0.60783118009567261 0.89235967397689819 0.078679434955120087
0.68067926168441772 0.89510691165924072 0.056719191372394562
0.81876271963119507 0.90188753604888916 0.11674526333808899
0.95263713598251343 0.90010690689086914 0.057482417672872543
0.99995261430740356 0.90291368961334229 0
0.007080078125 0.03743082657456398 0.2045290470123291
0.10557533800601959 0.050776463001966476 0.21199296414852142
0.37499162554740906 0.076124347746372223 0.22767108678817749
0.74402898550033569 0.11712253093719482 0.21419130265712738
0.97451454401016235 0.19386905431747437 0.15974612534046173
0.040622487664222717 0.23178917169570923 0.27249261736869812
0.11134069412946701 0.2487674355506897 0.27853244543075562
0.39507797360420227 0.28325244784355164 0.28376609086990356
0.77084898948669434 0.34006085991859436 0.27796632051467896
0.98634403944015503 0.41791972517967224 0.20277377963066101
7.880715565988794e-05 0.54907792806625366 0.36586648225784302
0.034820929169654846 0.5582040548324585 0.3695417046546936
0.43442189693450928 0.58323365449905396 0.3792787492275238
0.79833114147186279 0.61253929138183594 0.35313194990158081
0.99019545316696167 0.64692890644073486 0.26605504751205444
0.0014393825549632311 0.78998589515686035 0.49128538370132446
0.12585113942623138 0.79452097415924072 0.48608264327049255
0.5764966607093811 0.80651670694351196 0.49738708138465881
0.83325684070587158 0.82111948728561401 0.47392380237579346
0.99245315790176392 0.82637017965316772 0.3368988037109375
0.48644357919692993 0.93530905246734619 0.58284783363342285
0.58678853511810303 0.93633174896240234 0.5785834789276123
0.74246335029602051 0.94219303131103516 0.57334476709365845
0.89807206392288208 0.94181877374649048 0.52604961395263672
0.99710571765899658 0.93321549892425537 0.35716533660888672
0.00075528013985604048 0.09571373462677002 0.58387863636016846
0.054815284907817841 0.10723140835762024 0.5782654881477356
0.30129536986351013 0.13697056472301483 0.59852951765060425
0.69920057058334351 0.18533775210380554 0.60391151905059814
0.94343715906143188 0.25234571099281311 0.53042912483215332
0.0044989492744207382 0.30082306265830994 0.66749578714370728
0.017784597352147102 0.32075944542884827 0.67660069465637207
0.29164615273475647 0.35705962777137756 0.69624584913253784
0.71034437417984009 0.41842728853225708 0.70204198360443115
0.94641005992889404 0.49214500188827515 0.64878183603286743
0.0051897834055125713 0.61015969514846802 0.73130065202713013
9.2046400823164731e-05 0.61337733268737793 0.73343390226364136
0.23811322450637817 0.63825613260269165 0.75455367565155029
0.72759592533111572 0.67446386814117432 0.77285552024841309
0.9438176155090332 0.71125119924545288 0.74086958169937134
0 0.8296927809715271 0.78594875335693359
0.0049314461648464203 0.8373645544052124 0.79556816816329956
0.44214129447937012 0.84624582529067993 0.81623870134353638
0.766898512840271 0.86533510684967041 0.82608640193939209
0.94347119331359863 0.88371193408966064 0.80667924880981445
0.32214581966400146 0.96186405420303345 0.84519261121749878
0.46491065621376038 0.9646531343460083 0.84926408529281616
0.68309205770492554 0.97348558902740479 0.86258399486541748
0.8403363823890686 0.98195332288742065 0.86825484037399292
0.97313117980957031 0.98091250658035278 0.83752018213272095
0 0.1410319060087204 0.83330565690994263
0.021166633814573288 0.15498979389667511 0.83925968408584595
0.22152231633663177 0.1908346563577652 0.86456066370010376
0.64798521995544434 0.24758125841617584 0.89639675617218018
0.91276639699935913 0.33263471722602844 0.89115864038467407
0.0014763775980100036 0.37295728921890259 0.86553323268890381
0 0.38602644205093384 0.87141072750091553
0.10656549781560898 0.42577090859413147 0.89198315143585205
0.64553117752075195 0.48051208257675171 0.92252260446548462
0.91135388612747192 0.56720161437988281 0.92919313907623291
0 0.64642184972763062 0.89118701219558716
0 0.65420746803283691 0.89236915111541748
0.043253924697637558 0.67966729402542114 0.90880942344665527
0.65880018472671509 0.71634376049041748 0.94492882490158081
0.91123223304748535 0.75791782140731812 0.95311456918716431
0 0.84844321012496948 0.90839111804962158
0 0.85409176349639893 0.91473388671875
0.16538913547992706 0.86996209621429443 0.93542945384979248
0.70604842901229858 0.89340460300445557 0.96086442470550537
0.91281700134277344 0.91355985403060913 0.97457230091094971
0.17523409426212311 0.98494082689285278 0.9433283805847168
0.25845354795455933 0.98189830780029297 0.95256859064102173
0.51726830005645752 0.98587441444396973 0.97477060556411743
0.78769731521606445 0.99310845136642456 0.98664063215255737
0.95296245813369751 0.9968864917755127 0.99193108081817627
