assets/lut/films colorslide polaroid 690.cube
# Created by: G'MIC (https://gmic.eu)
TITLE "polaroid_690"
# LUT size
LUT_3D_SIZE 7
# Data domain
DOMAIN_MIN 0.0 0.0 0.0
DOMAIN_MAX 1.0 1.0 1.0
# LUT data points
0.045175887644290924 0.055202394723892212 0.05071645975112915
0.1084650531411171 0.051180940121412277 0.052129693329334259
0.25659003853797913 0.015446756035089493 0.054548375308513641
0.47176378965377808 0 0.04911905899643898
0.69596743583679199 0.00028159946668893099 0.034127701073884964
0.87879639863967896 0 0.0080141406506299973
0.99584859609603882 0 0
0.038586247712373734 0.12096406519412994 0.057216569781303406
0.12913332879543304 0.13147801160812378 0.049436531960964203
0.32485276460647583 0.12701115012168884 0.037352003157138824
0.55914926528930664 0.053233545273542404 0.028197240084409714
0.7623145580291748 0.0040011536329984665 0.014100437983870506
0.92164230346679688 9.1403140686452389e-05 0.002278301864862442
0.99967795610427856 0.00011488970631035045 0
0.0067078233696520329 0.29495489597320557 0.016887364909052849
0.12769611179828644 0.29662349820137024 0.013932441361248493
0.35400724411010742 0.33144161105155945 0.002951648086309433
0.62829631567001343 0.35650300979614258 7.1626549470238388e-05
0.83596503734588623 0.35648977756500244 0.00041695390245877206
0.96239829063415527 0.31971308588981628 0
0.99980765581130981 0.28629696369171143 2.0225375919835642e-05
0.00014935662329662591 0.49511119723320007 0
0.098322443664073944 0.48843768239021301 0
0.32539564371109009 0.50518357753753662 0
0.58269882202148438 0.54937064647674561 0
0.80896198749542236 0.58658748865127563 0
0.95835620164871216 0.60687875747680664 0
1 0.60998409986495972 0.013676871545612812
0.047786474227905273 0.66513574123382568 0
0.11515416204929352 0.66888135671615601 0.00029871324659325182
0.32395520806312561 0.66519349813461304 0
0.55819225311279297 0.68876457214355469 0
0.76451283693313599 0.71757411956787109 0.0023111379705369473
0.92925769090652466 0.73372042179107666 0
0.99989569187164307 0.74193882942199707 0.0071688485331833363
0.27003884315490723 0.80121558904647827 0
0.31244447827339172 0.80341875553131104 0
0.4472050666809082 0.79829984903335571 0
0.61172282695770264 0.80508565902709961 0
0.76884108781814575 0.82022321224212646 0
0.90567231178283691 0.83655935525894165 0
0.99511653184890747 0.85158085823059082 0.0021374721545726061
0.52573674917221069 0.94095349311828613 0.18403659760951996
0.55293041467666626 0.9393506646156311 0.17176643013954163
0.62080258131027222 0.93397074937820435 0.12653140723705292
0.70832830667495728 0.93946361541748047 0.11638028174638748
0.80353730916976929 0.94790452718734741 0.12162692844867706
0.89550590515136719 0.95966935157775879 0.147438645362854
0.98608136177062988 0.9748690128326416 0.16645552217960358
0.034707490354776382 0.058642636984586716 0.12296434491872787
0.11866080760955811 0.058948680758476257 0.13376781344413757
0.26382780075073242 0.022384284064173698 0.12927277386188507
0.46635031700134277 0.0011509016621857882 0.12605315446853638
0.67149341106414795 0.013345531187951565 0.1202516108751297
0.86068034172058105 0.0042616301216185093 0.093885131180286407
0.99519675970077515 0.0028668423183262348 0.055913198739290237
0.034817967563867569 0.12921471893787384 0.1438031792640686
0.14026586711406708 0.13814033567905426 0.14904399216175079
0.32479596138000488 0.12077558785676956 0.14800144731998444
0.54613256454467773 0.041197847574949265 0.14362302422523499
0.73728001117706299 0.00049516267608851194 0.11951196938753128
0.9063534140586853 0 0.087252266705036163
0.99876135587692261 0.00019193162734154612 0.066498957574367523
0.0076651927083730698 0.31608903408050537 0.1586974710226059
0.14091160893440247 0.31747442483901978 0.15148434042930603
0.37336522340774536 0.33576926589012146 0.13542231917381287
0.63553333282470703 0.35153737664222717 0.13270100951194763
0.82641637325286865 0.32771465182304382 0.13517268002033234
0.95626819133758545 0.27053540945053101 0.096862584352493286
1 0.24551115930080414 0.05314287543296814
0 0.53048884868621826 0.13266263902187347
0.085049211978912354 0.51931434869766235 0.10477181524038315
0.34717652201652527 0.51739746332168579 0.083869442343711853
0.59395104646682739 0.56137561798095703 0.037449438124895096
0.8127448558807373 0.59065407514572144 0.052220378071069717
0.95757603645324707 0.60761338472366333 0.13268458843231201
1 0.59790027141571045 0.17576079070568085
0.0036722819786518812 0.69413399696350098 0.081495113670825958
0.10253822803497314 0.68862754106521606 0.039796236902475357
0.34202983975410461 0.67601877450942993 0.035168353468179703
0.56375777721405029 0.69663232564926147 0.026418333873152733
0.76954132318496704 0.72028416395187378 0.012209619395434856
0.92506122589111328 0.73261481523513794 0.03708241879940033
0.99823766946792603 0.74196350574493408 0.17068444192409515
0.25330588221549988 0.81626015901565552 0.066795065999031067
0.32278820872306824 0.81001824140548706 0.066121071577072144
0.45337796211242676 0.80070823431015015 0.032514818012714386
0.61139953136444092 0.80261629819869995 0.010453108698129654
0.76867049932479858 0.81604301929473877 0.017008254304528236
0.90357297658920288 0.83346498012542725 0.031937409192323685
0.99610376358032227 0.84816068410873413 0.12491671741008759
0.51596057415008545 0.94588947296142578 0.31073281168937683
0.54994362592697144 0.94264668226242065 0.29207310080528259
0.61116117238998413 0.93738389015197754 0.24511967599391937
0.70040786266326904 0.93988716602325439 0.24254588782787323
0.79937291145324707 0.9467160701751709 0.22700798511505127
0.88974404335021973 0.96076935529708862 0.26606011390686035
0.97721976041793823 0.97287470102310181 0.28640612959861755
8.6167283370741643e-06 0.062622547149658203 0.30694267153739929
0.078505180776119232 0.049907222390174866 0.34031280875205994
0.32189798355102539 0.0048759761266410351 0.37420755624771118
0.51080882549285889 0.0009871538495644927 0.32662683725357056
0.67644739151000977 0.0052690096199512482 0.29311063885688782
0.84543067216873169 0.003157252911478281 0.27900239825248718
0.99001926183700562 0.0028407226782292128 0.23568418622016907
0.00011662502220133319 0.1362929493188858 0.3244989812374115
0.10646186023950577 0.14497625827789307 0.35149875283241272
0.3619874119758606 0.14299421012401581 0.3920682966709137
0.5434451699256897 0.069971643388271332 0.34628885984420776
0.70945954322814941 0.00063662062166258693 0.31159588694572449
0.87704277038574219 0 0.2738499641418457
0.99729388952255249 0.0024709363933652639 0.22447678446769714
0.0037512835115194321 0.32874324917793274 0.37446671724319458
0.15170399844646454 0.34199029207229614 0.38791611790657043
0.39787796139717102 0.3577638566493988 0.40312159061431885
0.61432099342346191 0.32580196857452393 0.38307502865791321
0.78341841697692871 0.24021199345588684 0.33746558427810669
0.92615205049514771 0.13924166560173035 0.29110628366470337
0.998363196849823 0.099226020276546478 0.2495439350605011
8.6167283370741643e-06 0.57005900144577026 0.4053293764591217
0.11624608933925629 0.56527972221374512 0.40236270427703857
0.37809136509895325 0.55727696418762207 0.38269388675689697
0.61564338207244873 0.5854451060295105 0.37451434135437012
0.82022935152053833 0.60484951734542847 0.39916101098060608
0.94425302743911743 0.59565716981887817 0.40393933653831482
0.99947381019592285 0.56715697050094604 0.35771706700325012
0.0023457994684576988 0.71920675039291382 0.36997509002685547
0.11766248196363449 0.71489447355270386 0.35811623930931091
0.3620859682559967 0.6982496976852417 0.33115777373313904
0.56963580846786499 0.70348024368286133 0.31807431578636169
0.77651262283325195 0.72741693258285522 0.33045110106468201
0.92020434141159058 0.7391694188117981 0.36957213282585144
0.99669104814529419 0.75029373168945312 0.46787145733833313
0.23701542615890503 0.82420021295547485 0.35565245151519775
0.32268688082695007 0.81951284408569336 0.35303393006324768
0.45015096664428711 0.81188172101974487 0.31978270411491394
0.60110104084014893 0.80675095319747925 0.28163063526153564
0.76085829734802246 0.81892597675323486 0.30821946263313293
0.89634096622467041 0.83511847257614136 0.33566993474960327
0.99078464508056641 0.85061764717102051 0.39960086345672607
0.49494817852973938 0.94379043579101562 0.47087791562080383
0.53379130363464355 0.9444316029548645 0.45806175470352173
0.59145665168762207 0.94125163555145264 0.44094100594520569
0.68149048089981079 0.93876892328262329 0.40240561962127686
0.78727823495864868 0.94626259803771973 0.40803459286689758
0.88326573371887207 0.96026444435119629 0.43732881546020508
0.97107654809951782 0.97294431924819946 0.45304930210113525
0.0021857018582522869 0.061516378074884415 0.56286716461181641
0.010016153566539288 0.037629518657922745 0.58153074979782104
0.32672914862632751 0.0039880787953734398 0.63620513677597046
0.62779766321182251 0 0.65423828363418579
0.76883798837661743 0 0.5783693790435791
0.88589322566986084 0 0.52473539113998413
0.99111735820770264 0.002237596781924367 0.48659157752990723
0 0.14944016933441162 0.56727695465087891
0.034380309283733368 0.15538962185382843 0.59176343679428101
0.37945976853370667 0.14663016796112061 0.64939302206039429
0.63628804683685303 0.10023875534534454 0.65781289339065552
0.77428221702575684 0.049007713794708252 0.59252357482910156
0.8877829909324646 0.016504654660820961 0.52729493379592896
0.99341106414794922 0.021432554349303246 0.4898717999458313
0.00069408043054863811 0.31645673513412476 0.57068485021591187
0.082778275012969971 0.32545268535614014 0.58553141355514526
0.39310431480407715 0.3574245274066925 0.63192802667617798
0.6380237340927124 0.3849930465221405 0.65536010265350342
0.77308493852615356 0.32518795132637024 0.58755111694335938
0.89604759216308594 0.17882877588272095 0.52363449335098267
0.99462932348251343 0.011437061242759228 0.45282596349716187
0.0018067752243950963 0.56215447187423706 0.6096804141998291
0.174455925822258 0.56643062829971313 0.61447697877883911
0.41376340389251709 0.57719904184341431 0.62317633628845215
0.62520414590835571 0.60420733690261841 0.64173620939254761
0.78490829467773438 0.56671178340911865 0.61484938859939575
0.91283327341079712 0.49426373839378357 0.55401599407196045
0.99661850929260254 0.40307843685150146 0.47780677676200867
0.1890576034784317 0.73813259601593018 0.62232226133346558
0.30841559171676636 0.74286788702011108 0.6255793571472168
0.44972780346870422 0.73738944530487061 0.61867547035217285
0.6085810661315918 0.73051935434341431 0.60147678852081299
0.77333903312683105 0.73682022094726562 0.60419154167175293
0.91053003072738647 0.75506919622421265 0.65015667676925659
0.99295198917388916 0.74879306554794312 0.65384197235107422
0.33964100480079651 0.83632296323776245 0.60774260759353638
0.37932440638542175 0.83463925123214722 0.60291838645935059
0.48323029279708862 0.83082097768783569 0.58989554643630981
0.60145467519760132 0.81824874877929688 0.55198580026626587
0.74306219816207886 0.82021957635879517 0.5365062952041626
0.88292187452316284 0.83911401033401489 0.56734907627105713
0.97823339700698853 0.85967350006103516 0.62576335668563843
0.49319353699684143 0.94640934467315674 0.64967399835586548
0.52068996429443359 0.94789820909500122 0.63632845878601074
0.5804518461227417 0.94836336374282837 0.62317180633544922
0.65445011854171753 0.94051188230514526 0.58731549978256226
0.75627619028091431 0.94252055883407593 0.56819933652877808
0.86401504278182983 0.9605744481086731 0.5982624888420105
0.95855820178985596 0.97516053915023804 0.62476003170013428
0 0.047869261354207993 0.77721989154815674
0.01568928174674511 0.022440921515226364 0.78884404897689819
0.3626808226108551 0.004705376923084259 0.81078678369522095
0.64758503437042236 0.0051931794732809067 0.84431612491607666
0.84079641103744507 0.022703073918819427 0.8431059718132019
0.93791484832763672 0.00018346449360251427 0.78513425588607788
0.99536502361297607 0.013231329619884491 0.72756141424179077
0 0.16877548396587372 0.77687782049179077
0.04301968589425087 0.16496555507183075 0.78892582654953003
0.38777554035186768 0.15221178531646729 0.80978775024414062
0.65950340032577515 0.16041696071624756 0.84560710191726685
0.84274208545684814 0.18399296700954437 0.84465515613555908
0.92924648523330688 0.1330353319644928 0.78306615352630615
0.99609208106994629 0.15443576872348785 0.72665470838546753
0 0.3285805881023407 0.76285421848297119
0.080719262361526489 0.33254358172416687 0.77106684446334839
0.41083595156669617 0.35842114686965942 0.79536652565002441
0.65066230297088623 0.41219362616539001 0.83035218715667725
0.82562702894210815 0.4492487907409668 0.8375738263130188
0.91114532947540283 0.40127623081207275 0.77398085594177246
0.99408811330795288 0.30499535799026489 0.71811175346374512
0 0.52228289842605591 0.74681574106216431
0.094120696187019348 0.51831120252609253 0.7453504204750061
0.37662935256958008 0.54490584135055542 0.76369202136993408
0.61470955610275269 0.59473896026611328 0.79813069105148315
0.79203182458877563 0.64166891574859619 0.82232558727264404
0.88345575332641602 0.57452470064163208 0.76178550720214844
0.98836249113082886 0.42716148495674133 0.68661081790924072
0.21752378344535828 0.73440366983413696 0.78181618452072144
0.33410888910293579 0.73347395658493042 0.77920466661453247
0.48865297436714172 0.73350429534912109 0.78591239452362061
0.64171254634857178 0.73990041017532349 0.79750525951385498
0.77238285541534424 0.74749523401260376 0.80217212438583374
0.88335734605789185 0.72709500789642334 0.78831201791763306
0.98400753736495972 0.65688997507095337 0.72118574380874634
0.49330601096153259 0.8480154275894165 0.80378514528274536
0.52857422828674316 0.84538167715072632 0.80110514163970947
0.58817803859710693 0.84539425373077393 0.79966902732849121
0.66943943500518799 0.84310537576675415 0.79384750127792358
0.75930774211883545 0.84039837121963501 0.77578401565551758
0.8703155517578125 0.84819620847702026 0.7784193754196167
0.96300208568572998 0.87372148036956787 0.81560391187667847
0.56620931625366211 0.95512181520462036 0.81335920095443726
0.58127981424331665 0.95319825410842896 0.80814313888549805
0.61852270364761353 0.95325273275375366 0.79986745119094849
0.67183095216751099 0.95043408870697021 0.78352248668670654
0.74324071407318115 0.95030736923217773 0.76130872964859009
0.84496676921844482 0.96424871683120728 0.75784695148468018
0.94326817989349365 0.97617840766906738 0.78323900699615479
0.058180671185255051 0.073903009295463562 0.92639350891113281
0.20505408942699432 0.065093003213405609 0.92609548568725586
0.45372471213340759 0.050581645220518112 0.92506390810012817
0.66774392127990723 0.043908603489398956 0.94134831428527832
0.84566181898117065 0.16927267611026764 0.95450210571289062
0.95871263742446899 0.24301016330718994 0.94852477312088013
1 0.23700153827667236 0.91290068626403809
0.12746825814247131 0.20113219320774078 0.92418932914733887
0.2483459860086441 0.19870719313621521 0.92621403932571411
0.47733193635940552 0.18923705816268921 0.92873740196228027
0.67447954416275024 0.22492128610610962 0.94193369150161743
0.84312629699707031 0.33934468030929565 0.9543946385383606
0.94959729909896851 0.38457667827606201 0.94637632369995117
0.99999171495437622 0.35703146457672119 0.91076427698135376
0.12628068029880524 0.35771378874778748 0.90871137380599976
0.24980068206787109 0.36611270904541016 0.91432774066925049
0.47543632984161377 0.38349753618240356 0.91870498657226562
0.66586297750473022 0.43304923176765442 0.92745089530944824
0.82232844829559326 0.52486848831176758 0.94222027063369751
0.92800956964492798 0.55886852741241455 0.93939113616943359
0.99532341957092285 0.51211392879486084 0.90710031986236572
0.033267077058553696 0.51355987787246704 0.8775056004524231
0.19346641004085541 0.52608668804168701 0.88427728414535522
0.4055725634098053 0.5424303412437439 0.89083689451217651
0.63745802640914917 0.59639257192611694 0.91056591272354126
0.80291008949279785 0.6655164361000061 0.93342286348342896
0.90326577425003052 0.68228566646575928 0.93221789598464966
0.97473371028900146 0.63599628210067749 0.89686769247055054
0.097960963845252991 0.70208287239074707 0.87697452306747437
0.24465304613113403 0.70370423793792725 0.87634813785552979
0.39349547028541565 0.69436842203140259 0.8752138614654541
0.58516854047775269 0.707111656665802 0.88280338048934937
0.76465463638305664 0.74228334426879883 0.90700036287307739
0.89002841711044312 0.78088033199310303 0.92338281869888306
0.95555621385574341 0.73151892423629761 0.8892204761505127
0.49041256308555603 0.83954155445098877 0.89611589908599854
0.51885056495666504 0.83779114484786987 0.89259093999862671
0.59395021200180054 0.84011185169219971 0.90063738822937012
0.68397444486618042 0.84162813425064087 0.90196436643600464
0.78000169992446899 0.84869736433029175 0.90720516443252563
0.87011134624481201 0.86744529008865356 0.91503679752349854
0.95138084888458252 0.84177523851394653 0.89814627170562744
0.66590034961700439 0.96068656444549561 0.91705882549285889
0.67264282703399658 0.95723038911819458 0.91511338949203491
0.69804555177688599 0.95834064483642578 0.91406863927841187
0.7439262866973877 0.96166658401489258 0.91503894329071045
0.79739153385162354 0.965534508228302 0.91120725870132446
0.84725558757781982 0.96685123443603516 0.89237093925476074
0.93010538816452026 0.98034334182739258 0.90227603912353516
0.47410589456558228 0.25158941745758057 0.99729800224304199
0.52861738204956055 0.24849821627140045 0.99763190746307373
0.6138957142829895 0.26975980401039124 0.9954909086227417
0.73430711030960083 0.30566999316215515 0.99628233909606934
0.84783327579498291 0.38337451219558716 0.99853956699371338
0.93742078542709351 0.49398067593574524 0.99943274259567261
0.99606037139892578 0.55379021167755127 0.99565333127975464
0.48470255732536316 0.34117290377616882 0.99869006872177124
0.5301201343536377 0.34171614050865173 0.99847912788391113
0.62095707654953003 0.3541901707649231 0.99754291772842407
0.73576170206069946 0.39852613210678101 0.99766141176223755
0.84165012836456299 0.46712693572044373 0.99816650152206421
0.92472118139266968 0.57152539491653442 0.99773281812667847
0.99248522520065308 0.60587894916534424 0.99427664279937744
0.49894922971725464 0.48045733571052551 0.99422800540924072
0.53697860240936279 0.49326935410499573 0.99405950307846069
0.6220242977142334 0.5078924298286438 0.99471575021743774
0.73005968332290649 0.54736900329589844 0.99474620819091797
0.82955771684646606 0.59629076719284058 0.99392181634902954
0.91431862115859985 0.66060400009155273 0.99526482820510864
0.98823374509811401 0.67653423547744751 0.9922325611114502
0.46423959732055664 0.62095004320144653 0.98740744590759277
0.50444519519805908 0.62162560224533081 0.98700308799743652
0.60065817832946777 0.63498121500015259 0.98791813850402832
0.72211998701095581 0.66245883703231812 0.98984229564666748
0.82398873567581177 0.69385868310928345 0.99026596546173096
0.90908026695251465 0.7436031699180603 0.99149245023727417
0.9792291522026062 0.75187957286834717 0.98863667249679565
0.39999905228614807 0.7322043776512146 0.97721773386001587
0.46314951777458191 0.7292599081993103 0.97690361738204956
0.5308835506439209 0.72458076477050781 0.97909677028656006
0.67569929361343384 0.7385210394859314 0.97847384214401245
0.80171239376068115 0.76230579614639282 0.98020362854003906
0.90305429697036743 0.81721997261047363 0.99078738689422607
0.96839910745620728 0.82490521669387817 0.98809349536895752
0.55403620004653931 0.8452988862991333 0.97018873691558838
0.56592082977294922 0.8427128791809082 0.96944350004196167
0.61074453592300415 0.83982151746749878 0.97243160009384155
0.6886603832244873 0.8410646915435791 0.9708983302116394
0.76780879497528076 0.83857709169387817 0.96403658390045166
0.86997151374816895 0.86782443523406982 0.97768306732177734
0.94894862174987793 0.90596634149551392 0.97962278127670288
0.67976540327072144 0.9648166298866272 0.97493326663970947
0.69573050737380981 0.96582871675491333 0.9773181676864624
0.71681827306747437 0.96881604194641113 0.97554373741149902
0.75726538896560669 0.97128772735595703 0.97984915971755981
0.80990087985992432 0.97434931993484497 0.97570598125457764
0.86522769927978516 0.97847789525985718 0.97642010450363159
0.93303757905960083 0.98862218856811523 0.97974777221679688
