assets/lut/films print fuji 3510 constlclip.cube
# Created by: G'MIC (https://gmic.eu)
TITLE "fuji_3510_constlclip"
# LUT size
LUT_3D_SIZE 5
# Data domain
DOMAIN_MIN 0.0 0.0 0.0
DOMAIN_MAX 1.0 1.0 1.0
# LUT data points
0.018483748659491539 0.021254595369100571 0.015903279185295105
0.084630914032459259 0.04547901451587677 0.023322910070419312
0.31699943542480469 0.070102795958518982 0.0039495727978646755
0.48896452784538269 0.094517305493354797 0.0081250360235571861
0.55051857233047485 0.10663999617099762 0.012718604877591133
0.013194529339671135 0.10925405472517014 0.060889299958944321
0.10485851764678955 0.13406959176063538 0.048476949334144592
0.40113827586174011 0.17374403774738312 0.0070403153076767921
0.59926766157150269 0.21548394858837128 0.01055221538990736
0.65826356410980225 0.22995862364768982 0.019205549731850624
0.016397558152675629 0.27432462573051453 0.13464163243770599
0.035841774195432663 0.32654383778572083 0.073516666889190674
0.47973358631134033 0.43324059247970581 0.0046370862983167171
0.71352469921112061 0.45638686418533325 0.012824459001421928
0.78485065698623657 0.47781068086624146 0.026721131056547165
0.030034847557544708 0.42958632111549377 0.19173702597618103
0.043708112090826035 0.5109369158744812 0.11652709543704987
0.54744791984558105 0.65880674123764038 0.0053523792885243893
0.84422880411148071 0.72744607925415039 0.045866139233112335
0.90130215883255005 0.73506921529769897 0.047742161899805069
0.011203227564692497 0.51299452781677246 0.24351939558982849
0.074239514768123627 0.62784349918365479 0.08436400443315506
0.62867522239685059 0.75601965188980103 0.014992074109613895
0.90206295251846313 0.81360763311386108 0.043295677751302719
0.97510242462158203 0.82965868711471558 0.071486257016658783
0.02282644622027874 0.031750518828630447 0.09146302193403244
0.094911955296993256 0.051770798861980438 0.10427217930555344
0.37171044945716858 0.018202852457761765 0.097963415086269379
0.56407541036605835 0.01722768135368824 0.090932615101337433
0.62765514850616455 0.005687324795871973 0.10882186889648438
0.0078348349779844284 0.13077071309089661 0.14277319610118866
0.092795535922050476 0.15887056291103363 0.15152363479137421
0.47027227282524109 0.17787604033946991 0.13619056344032288
0.71343380212783813 0.15060111880302429 0.080592364072799683
0.77814888954162598 0.16142378747463226 0.10009764134883881
0.010871483013033867 0.32327455282211304 0.24091134965419769
0.020232660695910454 0.37897762656211853 0.20276536047458649
0.56171083450317383 0.48406121134757996 0.11333520710468292
0.85732227563858032 0.50561243295669556 0.053226247429847717
0.92103463411331177 0.52858841419219971 0.060700703412294388
0.028665579855442047 0.48347395658493042 0.31089052557945251
0.030904777348041534 0.56855255365371704 0.29826050996780396
0.60066622495651245 0.75401788949966431 0.07470596581697464
0.94841665029525757 0.80855810642242432 0.054035410284996033
0.99638098478317261 0.81985622644424438 0.098834797739982605
0.026318134739995003 0.57854825258255005 0.43518340587615967
0.0081886444240808487 0.694629967212677 0.42404186725616455
0.62574595212936401 0.82933676242828369 0.35882890224456787
0.96123486757278442 0.88516992330551147 0.30422589182853699
1 0.88987714052200317 0.40201318264007568
0.0060529070906341076 0.10574924200773239 0.26144140958786011
0.10535377264022827 0.010079222731292248 0.33694678544998169
0.39366409182548523 0.0051875393837690353 0.35137903690338135
0.60164397954940796 0.025708217173814774 0.36938139796257019
0.67117166519165039 0.013899246230721474 0.38784626126289368
0.0039215688593685627 0.20776982605457306 0.32795506715774536
0.059078410267829895 0.19379249215126038 0.40251567959785461
0.48846784234046936 0.20896168053150177 0.46618196368217468
0.73740708827972412 0.13729605078697205 0.46388542652130127
0.80764293670654297 0.17349801957607269 0.46878752112388611
0.015350476838648319 0.41031619906425476 0.45336741209030151
0.0090619707480072975 0.45880886912345886 0.50759178400039673
0.54842483997344971 0.55886602401733398 0.56371176242828369
0.86402910947799683 0.57502132654190063 0.55751508474349976
0.93476873636245728 0.60217392444610596 0.57611191272735596
0.0044090421870350838 0.57643115520477295 0.55712121725082397
0.018742984160780907 0.67383193969726562 0.60427510738372803
0.54892808198928833 0.83113032579421997 0.6310538649559021
0.94117861986160278 0.87720507383346558 0.63014000654220581
0.99428427219390869 0.89246034622192383 0.64453208446502686
0.0030289145652204752 0.64901798963546753 0.64649635553359985
0.007542299572378397 0.75795334577560425 0.70524436235427856
0.55936908721923828 0.89132165908813477 0.75216680765151978
0.93811953067779541 0.94663643836975098 0.74270999431610107
0.99899172782897949 0.9523201584815979 0.77021390199661255
0.010007102973759174 0.17075064778327942 0.35400652885437012
0.092653863131999969 0.020539974793791771 0.50212067365646362
0.40025222301483154 0.010317813605070114 0.55623507499694824
0.63035339117050171 0.031250540167093277 0.57608997821807861
0.68841463327407837 0.029860358685255051 0.58722043037414551
0.0039231842383742332 0.26405829191207886 0.46514767408370972
0.022696655243635178 0.23946656286716461 0.57490426301956177
0.48660683631896973 0.19123184680938721 0.71206784248352051
0.75991690158843994 0.15504229068756104 0.72564256191253662
0.82072973251342773 0.17573276162147522 0.74010920524597168
0.020680012181401253 0.46300521492958069 0.60190486907958984
0.023300649598240852 0.51098138093948364 0.68999564647674561
0.51191955804824829 0.59844887256622314 0.83618277311325073
0.86095273494720459 0.61774176359176636 0.84525847434997559
0.92381376028060913 0.61345618963241577 0.85116368532180786
0.021860430017113686 0.63309937715530396 0.7066836953163147
0.033771559596061707 0.71414494514465332 0.78102165460586548
0.4777163565158844 0.87591969966888428 0.90457034111022949
0.91843515634536743 0.92702281475067139 0.90765619277954102
0.99125391244888306 0.93873506784439087 0.92197805643081665
0.023409750312566757 0.68310737609863281 0.75311970710754395
0.028489520773291588 0.78484642505645752 0.84255802631378174
0.51139765977859497 0.92170840501785278 0.93509042263031006
0.92247527837753296 0.97980564832687378 0.95209348201751709
0.99292623996734619 0.98213076591491699 0.9488828182220459
0.0051782494410872459 0.21071609854698181 0.42297706007957458
0.075945161283016205 0.063590109348297119 0.58447331190109253
0.4492000937461853 0.020780406892299652 0.68197071552276611
0.66846519708633423 0.030798429623246193 0.67759054899215698
0.73941886425018311 0.025525650009512901 0.70327270030975342
0.0024933458771556616 0.30738562345504761 0.52406823635101318
0.0077035641297698021 0.28947287797927856 0.6251036524772644
0.48281729221343994 0.26385205984115601 0.79718679189682007
0.77931785583496094 0.23746591806411743 0.82283270359039307
0.840179443359375 0.25741273164749146 0.83115279674530029
0.021515641361474991 0.49206683039665222 0.6487230658531189
0.029068620875477791 0.5283430814743042 0.7389906644821167
0.49710837006568909 0.61319839954376221 0.90122503042221069
0.85190331935882568 0.64557832479476929 0.92259705066680908
0.9328426718711853 0.65962344408035278 0.93377149105072021
0.014287821017205715 0.63818442821502686 0.73164403438568115
0.015352376736700535 0.72330009937286377 0.81380569934844971
0.44099771976470947 0.88561356067657471 0.95991593599319458
0.91276216506958008 0.93429923057556152 0.98086488246917725
0.98819977045059204 0.944405198097229 0.98528945446014404
0.031262863427400589 0.70186251401901245 0.78311401605606079
0.012938061729073524 0.79510802030563354 0.86968249082565308
0.47810423374176025 0.92612498998641968 0.96970224380493164
0.91278201341629028 0.98496931791305542 0.99104869365692139
0.99101722240447998 0.99104487895965576 0.99405258893966675
