assets/lut/films print kodak 2383 constlclip.cube
# Created by: G'MIC (https://gmic.eu)
TITLE "kodak_2383_constlclip"
# LUT size
LUT_3D_SIZE 13
# Data domain
DOMAIN_MIN 0.0 0.0 0.0
DOMAIN_MAX 1.0 1.0 1.0
# LUT data points
0.0090910522267222404 0.01698647253215313 0.015975803136825562
0.03236033022403717 0.027618542313575745 0.018904367461800575
0.056634265929460526 0.037286557257175446 0.019332466647028923
0.086559146642684937 0.044987339526414871 0.016294995322823524
0.14622880518436432 0.05494314432144165 0.011891921982169151
0.24335913360118866 0.076828286051750183 0.014209313318133354
0.33939686417579651 0.091449171304702759 0.011789210140705109
0.4166017472743988 0.10189810395240784 0.01216424722224474
0.48007288575172424 0.11808373034000397 0.015903966501355171
0.52768975496292114 0.12676700949668884 0.017905620858073235
0.56776654720306396 0.13076338171958923 0.021173214539885521
0.58791017532348633 0.136744424700737 0.021977907046675682
0.60111546516418457 0.14267119765281677 0.020257972180843353
0.0090531595051288605 0.040889963507652283 0.029578443616628647
0.029617877677083015 0.049315135926008224 0.02986837737262249
0.058443810790777206 0.057538289576768875 0.030009429901838303
0.098742574453353882 0.065705440938472748 0.024666192010045052
0.16132111847400665 0.073865704238414764 0.015316518023610115
0.25850638747215271 0.091752521693706512 0.011873013339936733
0.36739692091941833 0.10845504701137543 0.0090502575039863586
0.4496704638004303 0.12017077207565308 0.011320809833705425
0.51412725448608398 0.13549242913722992 0.012665258720517159
0.55834048986434937 0.14290535449981689 0.014412000775337219
0.59072530269622803 0.1492980420589447 0.016833705827593803
0.6150510311126709 0.15698231756687164 0.017761664465069771
0.63379120826721191 0.16245707869529724 0.016182977706193924
0.010347223840653896 0.064528971910476685 0.043701697140932083
0.022379841655492783 0.074620790779590607 0.042089365422725677
0.058025240898132324 0.079312436282634735 0.041399054229259491
0.10933526605367661 0.08797888457775116 0.033762387931346893
0.17748783528804779 0.096027731895446777 0.018760232254862785
0.2786751389503479 0.11122915148735046 0.0080034593120217323
0.39512330293655396 0.13136802613735199 0.0079729268327355385
0.48509734869003296 0.15100379288196564 0.011581749655306339
0.55374497175216675 0.16343928873538971 0.012135359458625317
0.59066706895828247 0.16924044489860535 0.013423994183540344
0.61912482976913452 0.17770951986312866 0.016738995909690857
0.64568156003952026 0.18788221478462219 0.016110783442854881
0.66389721632003784 0.19325432181358337 0.015555587597191334
0.011016381904482841 0.087187238037586212 0.055935818701982498
0.012126084417104721 0.10113856196403503 0.054039105772972107
0.047882664948701859 0.10486245155334473 0.051361352205276489
0.11033681035041809 0.11644729971885681 0.042522653937339783
0.20063780248165131 0.13469445705413818 0.02270214632153511
0.31703779101371765 0.1599043607711792 0.0087670125067234039
0.43734633922576904 0.1838148832321167 0.010997772216796875
0.536274254322052 0.20580628514289856 0.017786541953682899
0.60006308555603027 0.20988261699676514 0.011516406200826168
0.63334321975708008 0.21047185361385345 0.0096310330554842949
0.65872323513031006 0.22139710187911987 0.017248250544071198
0.68168735504150391 0.23285330832004547 0.018347572535276413
0.69728797674179077 0.24031896889209747 0.01786511018872261
0.010344666428864002 0.12587383389472961 0.073891475796699524
0.0044805491343140602 0.14046365022659302 0.070354476571083069
0.023941144347190857 0.15881671011447906 0.057187456637620926
0.096927449107170105 0.17705665528774261 0.038874682039022446
0.22138345241546631 0.20076878368854523 0.021255103871226311
0.35986143350601196 0.23590950667858124 0.0075913076288998127
0.48141330480575562 0.26263082027435303 0.0095856906846165657
0.58691900968551636 0.28004616498947144 0.017320491373538971
0.649910569190979 0.27970772981643677 0.011322260834276676
0.67989581823348999 0.27639195322990417 0.011896200478076935
0.70554333925247192 0.28727418184280396 0.020972711965441704
0.72940558195114136 0.30627763271331787 0.023675596341490746
0.74742972850799561 0.32369846105575562 0.026727413758635521
0.0088903838768601418 0.1920960545539856 0.10466739535331726
0.0043387319892644882 0.21185885369777679 0.099242597818374634
0.00649286899715662 0.23244269192218781 0.075986199080944061
0.052959799766540527 0.25356796383857727 0.04285024106502533
0.21246683597564697 0.2934146523475647 0.020576881244778633
0.38352331519126892 0.3313906192779541 0.0060007283464074135
0.52752399444580078 0.36348170042037964 0.0037038316950201988
0.63686162233352661 0.37904983758926392 0.0037960426416248083
0.70435398817062378 0.38301822543144226 0.0065199160017073154
0.73346459865570068 0.38387849926948547 0.01501572597771883
0.76201605796813965 0.39129889011383057 0.017495816573500633
0.78906691074371338 0.41690415143966675 0.022367963567376137
0.80668419599533081 0.43671563267707825 0.01902497187256813
0.0078431377187371254 0.25994700193405151 0.13572409749031067
0.0069695715792477131 0.28328275680541992 0.12871839106082916
0.0062582278624176979 0.30676653981208801 0.11437317728996277
0.034326247870922089 0.3357851505279541 0.077386133372783661
0.18027679622173309 0.38607180118560791 0.020453149452805519
0.38545435667037964 0.43192180991172791 0.0092906728386878967
0.56307119131088257 0.47171205282211304 0.0027753792237490416
0.6808733344078064 0.49772334098815918 0.0047004399821162224
0.75519281625747681 0.50563687086105347 0.0094834417104721069
0.7916218638420105 0.50982773303985596 0.014210495166480541
0.82155674695968628 0.52399486303329468 0.012076987884938717
0.84637439250946045 0.54031246900558472 0.011646884493529797
0.86002695560455322 0.55843889713287354 0.012490455992519855
0.0078431377187371254 0.32131394743919373 0.16057302057743073
0.0077984081581234932 0.34812501072883606 0.15066249668598175
0.0077762529253959656 0.37500682473182678 0.13778761029243469
0.028413765132427216 0.41388028860092163 0.095482334494590759
0.17611558735370636 0.4761696457862854 0.017759928479790688
0.40171900391578674 0.52875494956970215 0.010617200285196304
0.58800184726715088 0.57499450445175171 0.0080335726961493492
0.7153438925743103 0.60866385698318481 0.010980583727359772
0.80018323659896851 0.62383079528808594 0.019303131848573685
0.84300690889358521 0.62887918949127197 0.026520747691392899
0.87097442150115967 0.63914185762405396 0.031250029802322388
0.89107578992843628 0.65362083911895752 0.029120635241270065
0.90499544143676758 0.66937446594238281 0.020776486024260521
0.0078929224982857704 0.37014645338058472 0.17921319603919983
0.0067982245236635208 0.40317240357398987 0.17335550487041473
0.0059826420620083809 0.43480753898620605 0.15759056806564331
0.036934737116098404 0.48078510165214539 0.10282830893993378
0.19495217502117157 0.5489305853843689 0.022421250119805336
0.43082964420318604 0.60811889171600342 0.013709992170333862
0.6308097243309021 0.66791343688964844 0.0065648844465613365
0.75651919841766357 0.69980061054229736 0.015626810491085052
0.83446604013442993 0.71385443210601807 0.036378748714923859
0.88480859994888306 0.72607243061065674 0.053220681846141815
0.90986210107803345 0.73508250713348389 0.059157412499189377
0.92490881681442261 0.74301373958587646 0.060858018696308136
0.93744373321533203 0.75143671035766602 0.06173502653837204
0.011137823574244976 0.40877965092658997 0.19440239667892456
0.018508581444621086 0.44297939538955688 0.18722257018089294
0.019418723881244659 0.47872465848922729 0.17291535437107086
0.039476208388805389 0.52673989534378052 0.11770942807197571
0.21441851556301117 0.59443444013595581 0.023495692759752274
0.46288576722145081 0.66350275278091431 0.021662693470716476
0.65089559555053711 0.71661323308944702 0.015816513448953629
0.77972447872161865 0.7497594952583313 0.030661070719361305
0.85425454378128052 0.76502907276153564 0.054477855563163757
0.90306347608566284 0.77767336368560791 0.069492235779762268
0.93047070503234863 0.78532630205154419 0.078169383108615875
0.94487100839614868 0.79153233766555786 0.082234926521778107
0.95647710561752319 0.79764145612716675 0.085579663515090942
0.016539525240659714 0.43400782346725464 0.20657607913017273
0.026899809017777443 0.47084265947341919 0.19583944976329803
0.038141511380672455 0.50663846731185913 0.18216578662395477
0.053136415779590607 0.5523865818977356 0.11982893198728561
0.22868905961513519 0.62032788991928101 0.023170815780758858
0.47591564059257507 0.68760091066360474 0.014631668105721474
0.65781128406524658 0.73819780349731445 0.016134867444634438
0.78700810670852661 0.7754022479057312 0.0404483862221241
0.86883240938186646 0.79572796821594238 0.064103312790393829
0.90699529647827148 0.80078476667404175 0.074869625270366669
0.93907076120376587 0.80839371681213379 0.084748648107051849
0.95709431171417236 0.81557565927505493 0.091648295521736145
0.96707326173782349 0.81980502605438232 0.094922639429569244
0.014781547710299492 0.45686993002891541 0.21605950593948364
0.017457086592912674 0.49788999557495117 0.20002000033855438
0.02135314978659153 0.53596693277359009 0.17393618822097778
0.058286029845476151 0.58000195026397705 0.11350452154874802
0.28203704953193665 0.64834427833557129 0.026715073734521866
0.49339216947555542 0.70624256134033203 0.018766665831208229
0.6701628565788269 0.75565546751022339 0.017784971743822098
0.79560494422912598 0.7918778657913208 0.041871853172779083
0.88355934619903564 0.8145136833190918 0.064715079963207245
0.92256265878677368 0.82224690914154053 0.076030120253562927
0.94810360670089722 0.8288503885269165 0.089745901525020599
0.96707755327224731 0.83548152446746826 0.099741719663143158
0.9762117862701416 0.83832430839538574 0.10451643913984299
0.016389435157179832 0.47761821746826172 0.22242943942546844
0.016757231205701828 0.53144729137420654 0.19621098041534424
0.030025407671928406 0.5828624963760376 0.14103040099143982
0.1012876033782959 0.626930832862854 0.054769597947597504
0.3401433527469635 0.68314707279205322 0.016382988542318344
0.53011268377304077 0.72917824983596802 0.017711354419589043
0.6926581859588623 0.77347582578659058 0.018966570496559143
0.8091508150100708 0.80630487203598022 0.049731668084859848
0.89706432819366455 0.82935577630996704 0.063511013984680176
0.94474565982818604 0.84107369184494019 0.078143730759620667
0.96306979656219482 0.84437090158462524 0.093371450901031494
0.97373896837234497 0.8463941216468811 0.11187896877527237
0.98791790008544922 0.85130846500396729 0.10966192185878754
0.01175263337790966 0.02220986969769001 0.037597328424453735
0.030048474669456482 0.028861371800303459 0.038451101630926132
0.05752316489815712 0.03823992982506752 0.038781650364398956
0.094793535768985748 0.047909978777170181 0.038238644599914551
0.15337151288986206 0.056802444159984589 0.035516314208507538
0.25079840421676636 0.063232436776161194 0.027674088254570961
0.35078054666519165 0.061156898736953735 0.012356238439679146
0.43344181776046753 0.06654655933380127 0.0069922502152621746
0.50106573104858398 0.08630477637052536 0.0098276324570178986
0.54947459697723389 0.11208640038967133 0.014770912006497383
0.57724970579147339 0.11566925048828125 0.020896058529615402
0.59921407699584961 0.11739077419042587 0.0218505859375
0.61746925115585327 0.12174335867166519 0.021798271685838699
0.0088077317923307419 0.044208616018295288 0.048814930021762848
0.026585882529616356 0.05100453644990921 0.048427760601043701
0.061681397259235382 0.060141813009977341 0.047820340842008591
0.11019783467054367 0.069564446806907654 0.043306209146976471
0.16874183714389801 0.077965743839740753 0.038268428295850754
0.27118110656738281 0.086394548416137695 0.028360823169350624
0.39029493927955627 0.089212588965892792 0.01307265367358923
0.46931147575378418 0.099351517856121063 0.011731734499335289
0.53194761276245117 0.11682456731796265 0.011159365996718407
0.57689148187637329 0.124985471367836 0.012465907260775566
0.60803341865539551 0.11899428814649582 0.015338059514760971
0.63197475671768188 0.12542541325092316 0.012740699574351311
0.65165126323699951 0.13646137714385986 0.013711652718484402
0.0073148692026734352 0.06801256537437439 0.060254517942667007
0.018939748406410217 0.074181638658046722 0.057825081050395966
0.059267561882734299 0.083906583487987518 0.057226698845624924
0.11780096590518951 0.094614647328853607 0.051829095929861069
0.18257804214954376 0.10205090045928955 0.042438313364982605
0.29092952609062195 0.11233248561620712 0.025688560679554939
0.42174077033996582 0.12410520762205124 0.0076727923005819321
0.50932580232620239 0.13507314026355743 0.012804697267711163
0.57446122169494629 0.14476490020751953 0.010976559482514858
0.61208683252334595 0.14873948693275452 0.011265953071415424
0.63727885484695435 0.15591795742511749 0.017381975427269936
0.66176146268844604 0.16582310199737549 0.01461582537740469
0.68073141574859619 0.16944307088851929 0.0096115265041589737
0.0058146007359027863 0.092664472758769989 0.070013232529163361
0.0098407967016100883 0.096581026911735535 0.065848559141159058
0.050544753670692444 0.10947265475988388 0.064351417124271393
0.11443892866373062 0.13060346245765686 0.058818668127059937
0.20084784924983978 0.14783276617527008 0.043362442404031754
0.32627931237220764 0.15540206432342529 0.01933726854622364
0.45642209053039551 0.17171598970890045 0.0080481432378292084
0.55723458528518677 0.18923081457614899 0.015543739311397076
0.62108969688415527 0.19678632915019989 0.014228761196136475
0.65509039163589478 0.19417643547058105 0.0090421335771679878
0.67506808042526245 0.20489005744457245 0.018973451107740402
0.69588285684585571 0.21835926175117493 0.021775998175144196
0.71709096431732178 0.2210695892572403 0.013248682953417301
0.0059048370458185673 0.13303506374359131 0.0870695561170578
0.0043334811925888062 0.13693292438983917 0.081154905259609222
0.030938122421503067 0.15867196023464203 0.071675829589366913
0.10017567127943039 0.18906229734420776 0.058723583817481995
0.21422481536865234 0.21262755990028381 0.03970089927315712
0.36068624258041382 0.22694762051105499 0.01251614186912775
0.4919486939907074 0.24855901300907135 0.0073342118412256241
0.59788388013839722 0.26985001564025879 0.016604000702500343
0.66419678926467896 0.27173712849617004 0.015974950045347214
0.69853425025939941 0.26824665069580078 0.012152937240898609
0.72511065006256104 0.27643638849258423 0.017335554584860802
0.74858742952346802 0.30435633659362793 0.021078402176499367
0.76791965961456299 0.31642192602157593 0.023324944078922272
0.0071588256396353245 0.19617572426795959 0.11763525754213333
0.0048651751130819321 0.2102063000202179 0.11318886280059814
0.0092037869617342949 0.23132066428661346 0.098750904202461243
0.052917961031198502 0.25993269681930542 0.064909003674983978
0.19941873848438263 0.29379525780677795 0.035705327987670898
0.38518306612968445 0.33218550682067871 0.0094991344958543777
0.536720871925354 0.36585626006126404 0.0041405470110476017
0.64624238014221191 0.38192299008369446 0.0067718354985117912
0.71565026044845581 0.37823078036308289 0.0069976355880498886
0.75185292959213257 0.38347449898719788 0.015650760382413864
0.78145009279251099 0.39151483774185181 0.016400011256337166
0.80616992712020874 0.4111689031124115 0.019573181867599487
0.82331091165542603 0.43176180124282837 0.020447256043553352
0.0078431377187371254 0.26333293318748474 0.14943966269493103
0.0052799750119447708 0.28426513075828552 0.1453339159488678
0.0062564774416387081 0.30748060345649719 0.13369041681289673
0.037715163081884384 0.34489330649375916 0.081526242196559906
0.17376708984375 0.39479702711105347 0.023366082459688187
0.39463871717453003 0.44112983345985413 0.0092897750437259674
0.57511913776397705 0.48390945792198181 0.0042284945957362652
0.69376200437545776 0.50402176380157471 0.003910483792424202
0.7652437686920166 0.50533962249755859 0.0042953789234161377
0.80845576524734497 0.51180356740951538 0.010918620973825455
0.83726119995117188 0.52861642837524414 0.012506282888352871
0.86096465587615967 0.54481154680252075 0.010090382769703865
0.87394994497299194 0.56032931804656982 0.01068115234375
0.0077828499488532543 0.32728978991508484 0.17474387586116791
0.006315313745290041 0.34969300031661987 0.16760514676570892
0.008753383532166481 0.37909957766532898 0.15405508875846863
0.014880969189107418 0.42654091119766235 0.094164662063121796
0.14502531290054321 0.48703202605247498 0.014827623963356018
0.40159457921981812 0.53869438171386719 0.0062198266386985779
0.59476536512374878 0.58663290739059448 0.0051192939281463623
0.73333883285522461 0.62154239416122437 0.0039203870110213757
0.81311535835266113 0.62820446491241455 0.0087275188416242599
0.85500955581665039 0.62518703937530518 0.020880606025457382
0.88082659244537354 0.64171445369720459 0.027343271300196648
0.90425229072570801 0.6622014045715332 0.023279376327991486
0.91730564832687378 0.67545521259307861 0.02318623848259449
0.0046372953802347183 0.38356119394302368 0.19330292940139771
0.0042080897837877274 0.40777760744094849 0.18644943833351135
0.0045267888344824314 0.44501259922981262 0.17221027612686157
0.0077340221032500267 0.4935147762298584 0.11241067945957184
0.14224092662334442 0.56204569339752197 0.015372361987829208
0.4338524341583252 0.62390732765197754 0.0051627662032842636
0.63253092765808105 0.67676824331283569 0.0061398972757160664
0.76788324117660522 0.71101409196853638 0.0157789196819067
0.84836035966873169 0.72407448291778564 0.034207616001367569
0.89169609546661377 0.72675549983978271 0.052656315267086029
0.91812658309936523 0.73696053028106689 0.059311393648386002
0.9350731372833252 0.74734878540039062 0.063786402344703674
0.94744902849197388 0.75679045915603638 0.06787465512752533
0.008676835335791111 0.42171871662139893 0.21084576845169067
0.010271244682371616 0.45065009593963623 0.20325987040996552
0.0093080708757042885 0.48856481909751892 0.19030739367008209
0.013530955649912357 0.53697109222412109 0.12987801432609558
0.14916381239891052 0.60782766342163086 0.014787397347390652
0.4500737190246582 0.67185348272323608 0.011699526570737362
0.65567600727081299 0.72572970390319824 0.011570978909730911
0.78894835710525513 0.75873827934265137 0.033144049346446991
0.86809909343719482 0.77576488256454468 0.060133796185255051
0.91383850574493408 0.78542298078536987 0.073341384530067444
0.93875217437744141 0.79023212194442749 0.07968546450138092
0.95451933145523071 0.79661458730697632 0.088602490723133087
0.96568143367767334 0.80316698551177979 0.093587018549442291
0.018215149641036987 0.44050872325897217 0.22564265131950378
0.025563318282365799 0.4747849702835083 0.21890999376773834
0.030472176149487495 0.51187556982040405 0.20704969763755798
0.029919372871518135 0.5614631175994873 0.1440088301897049
0.1650490015745163 0.63092577457427979 0.02071959525346756
0.4626460075378418 0.69533848762512207 0.012659125030040741
0.66311049461364746 0.74953997135162354 0.012759489007294178
0.79424822330474854 0.783835768699646 0.039184227585792542
0.87893134355545044 0.80356532335281372 0.066292345523834229
0.92207735776901245 0.81173723936080933 0.079558402299880981
0.95072096586227417 0.81873852014541626 0.090187147259712219
0.9682469367980957 0.82555115222930908 0.10121551156044006
0.97772020101547241 0.8295053243637085 0.10451791435480118
0.019968189299106598 0.4602171778678894 0.24103657901287079
0.027259377762675285 0.50171077251434326 0.23278261721134186
0.033037386834621429 0.53676837682723999 0.21523982286453247
0.028162069618701935 0.5877564549446106 0.14624552428722382
0.19702012836933136 0.66046017408370972 0.023932289332151413
0.48651596903800964 0.72058570384979248 0.016529710963368416
0.67041969299316406 0.76962137222290039 0.011095787398517132
0.79496860504150391 0.8005715012550354 0.029563948512077332
0.88821655511856079 0.82197874784469604 0.064331844449043274
0.93685168027877808 0.83231228590011597 0.078636273741722107
0.96204739809036255 0.83886837959289551 0.09560045599937439
0.97818732261657715 0.8448103666305542 0.11648647487163544
0.98689508438110352 0.84737092256546021 0.10916540026664734
0.032441575080156326 0.49333131313323975 0.26384150981903076
0.018021093681454659 0.54691755771636963 0.25580331683158875
0.022410254925489426 0.58989536762237549 0.22062760591506958
0.047304190695285797 0.63485527038574219 0.14061732590198517
0.25948905944824219 0.69695991277694702 0.031797163188457489
0.51460891962051392 0.74852567911148071 0.018370401114225388
0.69199031591415405 0.79024463891983032 0.025486141443252563
0.81221842765808105 0.81829839944839478 0.045426357537508011
0.90300989151000977 0.83733612298965454 0.060617037117481232
0.95727330446243286 0.85107690095901489 0.055390689522027969
0.97800195217132568 0.85634040832519531 0.087245285511016846
0.98538142442703247 0.85853195190429688 0.15591824054718018
0.99453932046890259 0.86195510625839233 0.16204263269901276
0.016954833641648293 0.026530470699071884 0.060403786599636078
0.027610793709754944 0.028964024037122726 0.060308106243610382
0.059755630791187286 0.03782985731959343 0.061228029429912567
0.10101321339607239 0.049716711044311523 0.065481685101985931
0.15602482855319977 0.059464741498231888 0.063247993588447571
0.25197914242744446 0.054876528680324554 0.0521378293633461
0.36868253350257874 0.032458405941724777 0.032157044857740402
0.46810019016265869 0.016557043418288231 0.01538346242159605
0.5275004506111145 0.021861821413040161 0.012851789593696594
0.5790095329284668 0.030164098367094994 0.015891773626208305
0.60566854476928711 0.046327240765094757 0.022870695218443871
0.62582731246948242 0.051473610103130341 0.016858268529176712
0.64073115587234497 0.047651000320911407 0.018686616793274879
0.010589120909571648 0.048260871320962906 0.071684695780277252
0.022950803861021996 0.052631858736276627 0.072824142873287201
0.063000746071338654 0.061613839119672775 0.072075724601745605
0.11520267277956009 0.070550866425037384 0.070386044681072235
0.17233845591545105 0.078039668500423431 0.067315869033336639
0.27301281690597534 0.076099604368209839 0.05605766549706459
0.40072134137153625 0.056245945394039154 0.040542855858802795
0.49841144680976868 0.039372790604829788 0.026406306773424149
0.56410121917724609 0.048269607126712799 0.014303917996585369
0.60676997900009155 0.055795945227146149 0.014228087849915028
0.63464325666427612 0.066943377256393433 0.016243010759353638
0.65458637475967407 0.071812815964221954 0.0090971700847148895
0.67268794775009155 0.077571779489517212 0.010283362120389938
0.0051522646099328995 0.072753831744194031 0.083261258900165558
0.015212055295705795 0.07767321914434433 0.086150288581848145
0.055981326848268509 0.088745221495628357 0.085951589047908783
0.11725662648677826 0.097944505512714386 0.08152606338262558
0.18398836255073547 0.10261994600296021 0.073377586901187897
0.29433533549308777 0.10779142379760742 0.057115562260150909
0.428325355052948 0.10542386770248413 0.038916256278753281
0.52675110101699829 0.08134334534406662 0.027398202568292618
0.6019102931022644 0.094370506703853607 0.011984851211309433
0.64405804872512817 0.10153275728225708 0.0094551835209131241
0.67060685157775879 0.1055874228477478 0.010700494982302189
0.68891781568527222 0.11875511705875397 0.0049492032267153263
0.70780092477798462 0.12045792490243912 0.0047955531626939774
0.0039215688593685627 0.10025313496589661 0.092227742075920105
0.0076962788589298725 0.10309624671936035 0.094020351767539978
0.044038616120815277 0.11919156461954117 0.094761207699775696
0.11237961798906326 0.13712579011917114 0.090539537370204926
0.20012892782688141 0.15012194216251373 0.078126616775989532
0.32917478680610657 0.15466335415840149 0.055902905762195587
0.46665731072425842 0.15649759769439697 0.033423509448766708
0.57474285364151001 0.15129755437374115 0.015596517361700535
0.64475655555725098 0.15757499635219574 0.0068467231467366219
0.68621611595153809 0.1583826094865799 0.0046555311419069767
0.71354985237121582 0.16036273539066315 0.0081154918298125267
0.72918963432312012 0.1684500128030777 0.011291952803730965
