assets/lut/films negative color agfa ultra color 100.cube
# Created by: G'MIC (https://gmic.eu)
TITLE "agfa_ultra_color_100"
# LUT size
LUT_3D_SIZE 7
# Data domain
DOMAIN_MIN 0.0 0.0 0.0
DOMAIN_MAX 1.0 1.0 1.0
# LUT data points
0.033487223088741302 0.024473331868648529 0.015675503760576248
0.098586633801460266 0.0069299135357141495 0.014226711355149746
0.19395530223846436 0.00089003617176786065 0.0075391731224954128
0.34807190299034119 0 0.0044053620658814907
0.54979944229125977 0.0014000238152220845 0.0051408056169748306
0.71351492404937744 0.0020046457648277283 0.00033946317853406072
0.83145290613174438 0.0034738876856863499 8.6346793978009373e-05
0.095006413757801056 0.15004520118236542 0.044581186026334763
0.1449924111366272 0.13006420433521271 0.041781853884458542
0.24625885486602783 0.082369484007358551 0.034358829259872437
0.40418091416358948 0.044517457485198975 0.026253823190927505
0.59948915243148804 0.005902518518269062 0.019022503867745399
0.76105087995529175 0 0.0062772715464234352
0.87562882900238037 0 0.0096360454335808754
0.1146947368979454 0.3408772349357605 0.086355037987232208
0.18299512565135956 0.32385990023612976 0.082360647618770599
0.30934202671051025 0.28601586818695068 0.070432804524898529
0.48473054170608521 0.22401748597621918 0.057192754000425339
0.67421883344650269 0.13801094889640808 0.040223784744739532
0.834053635597229 0.059362597763538361 0.031201606616377831
0.94610458612442017 0.031286485493183136 0.053759898990392685
0.10433781892061234 0.60332584381103516 0.091139249503612518
0.20929330587387085 0.59267210960388184 0.092811480164527893
0.38829925656318665 0.5555681586265564 0.082863315939903259
0.58592730760574341 0.50709152221679688 0.079809106886386871
0.77641677856445312 0.44087725877761841 0.069979727268218994
0.9281190037727356 0.36053586006164551 0.074260443449020386
0.99839907884597778 0.27129635214805603 0.10780180245637894
0.24510933458805084 0.82801204919815063 0.029936501756310463
0.33462297916412354 0.82473301887512207 0.050350908190011978
0.50901287794113159 0.78821665048599243 0.047258354723453522
0.69981342554092407 0.74770307540893555 0.055210143327713013
0.87404322624206543 0.69823116064071655 0.061304248869419098
0.99363100528717041 0.64318710565567017 0.087048642337322235
1 0.59326636791229248 0.13989384472370148
0.48664197325706482 0.97583878040313721 0.00083405739860609174
0.55633723735809326 0.96953868865966797 0.0060278200544416904
0.6825706958770752 0.94066822528839111 0.017244242131710052
0.82676917314529419 0.90498733520507812 0.024632757529616356
0.94906336069107056 0.86732864379882812 0.015081548132002354
1 0.83186900615692139 0.043086271733045578
1 0.79309803247451782 0.12119221687316895
0.77238994836807251 1 0
0.81959140300750732 1 0
0.89309597015380859 1 0
0.97401529550552368 0.99911403656005859 0
1 0.98893725872039795 0
1 0.97096151113510132 0
1 0.94385212659835815 0.037174612283706665
0.0092169521376490593 0.015317520126700401 0.09620647132396698
0.071685940027236938 0.0032045103143900633 0.090166322886943817
0.17039152979850769 0.00048843084368854761 0.079692050814628601
0.32452064752578735 0.0010206035804003477 0.065993770956993103
0.52759057283401489 0.00054589065257459879 0.052157353609800339
0.69366174936294556 0.007614778820425272 0.046907462179660797
0.80904752016067505 0.017453631386160851 0.05899231880903244
0.069773457944393158 0.1388782411813736 0.1191309317946434
0.12217257916927338 0.11520125716924667 0.11695189774036407
0.22639432549476624 0.074018411338329315 0.108426533639431
0.38256371021270752 0.026678496971726418 0.094085738062858582
0.57593810558319092 0.00042138193384744227 0.080426283180713654
0.73781067132949829 0 0.074038140475749969
0.85008847713470459 9.7237380032311194e-06 0.089637398719787598
0.095867633819580078 0.32980513572692871 0.14982350170612335
0.16632571816444397 0.31230989098548889 0.14620746672153473
0.29191619157791138 0.27890050411224365 0.13910670578479767
0.46836006641387939 0.2113926112651825 0.12478057295084
0.65711182355880737 0.12946011126041412 0.11270805448293686
0.81223922967910767 0.059060487896203995 0.1123981699347496
0.91831427812576294 0.0069905598647892475 0.14080843329429626
0.055232688784599304 0.60240793228149414 0.15516926348209381
0.18145784735679626 0.58475065231323242 0.15414777398109436
0.36727583408355713 0.55949515104293823 0.14897124469280243
0.56919330358505249 0.50413793325424194 0.14114964008331299
0.7569541335105896 0.43611082434654236 0.13876429200172424
0.9070478081703186 0.35379675030708313 0.14997783303260803
0.9911186695098877 0.25717705488204956 0.19252762198448181
0.17887856066226959 0.83045798540115356 0.10350684076547623
0.30054250359535217 0.81787139177322388 0.12154214829206467
0.48407739400863647 0.78668212890625 0.10765495896339417
0.68016958236694336 0.74340742826461792 0.1163439005613327
0.85603964328765869 0.69852334260940552 0.13817644119262695
0.98179596662521362 0.64695364236831665 0.17298617959022522
1 0.58680194616317749 0.23950245976448059
0.44570234417915344 0.97240346670150757 0.066667996346950531
0.52049714326858521 0.96573585271835327 0.086352452635765076
0.65277194976806641 0.93904447555541992 0.085426926612854004
0.80415940284729004 0.90413588285446167 0.089222915470600128
0.93744003772735596 0.86880356073379517 0.11399161815643311
0.99977749586105347 0.8317144513130188 0.15651664137840271
0.99997818470001221 0.79226171970367432 0.2538754940032959
0.7703012228012085 1 0.0049107722006738186
0.8125266432762146 1 0.0026859058998525143
0.87667524814605713 1 0.009955267421901226
0.96498650312423706 0.99653375148773193 0.0035890466533601284
0.99980521202087402 0.98669517040252686 0.014203269965946674
0.99991941452026367 0.97086262702941895 0.037357915192842484
0.99948799610137939 0.94411152601242065 0.1665911078453064
0.0034161736257374287 0.013531330041587353 0.18726040422916412
0.036939866840839386 0.004442297387868166 0.1845233142375946
0.14098013937473297 0 0.18076485395431519
0.30083990097045898 0 0.16655753552913666
0.50229865312576294 0 0.14657957851886749
0.66296964883804321 0.005066337063908577 0.14873458445072174
0.77478861808776855 0.0187644362449646 0.1710953563451767
0.050822224467992783 0.12245731800794601 0.22030593454837799
0.087254241108894348 0.09720553457736969 0.21870481967926025
0.19310958683490753 0.058776300400495529 0.21512210369110107
0.35253745317459106 0.0110639538615942 0.20297451317310333
0.54016762971878052 0 0.19002832472324371
0.69532448053359985 0 0.1912933737039566
0.80504930019378662 0 0.21375390887260437
0.074978217482566833 0.31472921371459961 0.26302459836006165
0.13169923424720764 0.29547792673110962 0.2593567967414856
0.25608184933662415 0.2573191225528717 0.25680968165397644
0.43443277478218079 0.19129209220409393 0.24579425156116486
0.61699604988098145 0.11709213256835938 0.2376960813999176
0.76282405853271484 0.050609514117240906 0.24270190298557281
0.86737245321273804 0.0033345241099596024 0.27022016048431396
0.014573280699551105 0.59009093046188354 0.30092045664787292
0.11824154108762741 0.57797688245773315 0.29631498456001282
0.30952349305152893 0.54349499940872192 0.29040437936782837
0.5296560525894165 0.48890632390975952 0.28085207939147949
0.71727102994918823 0.42361834645271301 0.27920657396316528
0.85893106460571289 0.34448587894439697 0.29213365912437439
0.96221429109573364 0.25391346216201782 0.32886260747909546
0.076882109045982361 0.83199822902679443 0.32023918628692627
0.21951879560947418 0.81188887357711792 0.31802257895469666
0.41504734754562378 0.78474068641662598 0.30561596155166626
0.62792336940765381 0.74118846654891968 0.30222049355506897
0.80777102708816528 0.69654661417007446 0.31444177031517029
0.94031000137329102 0.64527124166488647 0.33761465549468994
0.9999396800994873 0.58619970083236694 0.38625645637512207
0.35648122429847717 0.97741526365280151 0.314157634973526
0.44403350353240967 0.96247994899749756 0.31537958979606628
0.57892757654190063 0.94864362478256226 0.31844043731689453
0.7344214916229248 0.91667360067367554 0.3212924599647522
0.88309866189956665 0.88042247295379639 0.33714047074317932
0.99128729104995728 0.83974921703338623 0.36204046010971069
1 0.79418361186981201 0.42736205458641052
0.7334638237953186 1 0.20584717392921448
0.76133257150650024 0.99956291913986206 0.20837409794330597
0.80990570783615112 1 0.23377309739589691
0.89116644859313965 0.99996805191040039 0.23702481389045715
0.97601085901260376 0.99540144205093384 0.25259286165237427
0.99992924928665161 0.98028993606567383 0.29370376467704773
0.99994468688964844 0.95037394762039185 0.38304844498634338
0.0001962250389624387 0.0048269233666360378 0.32288926839828491
0.0071726781316101551 0 0.32498559355735779
0.10013234615325928 0 0.32316380739212036
0.26343327760696411 0 0.31348919868469238
0.45657637715339661 0 0.29964527487754822
0.61713486909866333 0.0034015730489045382 0.29843860864639282
0.73022419214248657 0.024288956075906754 0.31320157647132874
0.020554754883050919 0.10227642953395844 0.37389016151428223
0.040944583714008331 0.071250304579734802 0.3706342875957489
0.14243203401565552 0.033935725688934326 0.3658546507358551
0.30678457021713257 0.0027039172127842903 0.35598525404930115
0.48865580558776855 0 0.34594425559043884
0.63683867454528809 0 0.347341388463974
0.74482154846191406 0.0005918166134506464 0.36478093266487122
0.037388265132904053 0.29188543558120728 0.43205243349075317
0.08483104407787323 0.26736330986022949 0.42764085531234741
0.20185220241546631 0.2288534939289093 0.41970467567443848
0.38084813952445984 0.16095364093780518 0.41050192713737488
0.55892562866210938 0.078665927052497864 0.40301680564880371
0.69701600074768066 0.025167472660541534 0.40417665243148804
0.80183148384094238 4.5955883251735941e-05 0.42117831110954285
0.0036389369051903486 0.57578581571578979 0.48664942383766174
0.05482768639922142 0.55695176124572754 0.48155036568641663
0.24083012342453003 0.51636320352554321 0.47548544406890869
0.46747231483459473 0.46614578366279602 0.4685291051864624
0.65477544069290161 0.39753878116607666 0.46245777606964111
0.79196012020111084 0.31590723991394043 0.46502691507339478
0.90289843082427979 0.21172033250331879 0.48526078462600708
0.012037210166454315 0.8195030689239502 0.53187316656112671
0.094256214797496796 0.80595391988754272 0.52841264009475708
0.31863442063331604 0.77278763055801392 0.51762431859970093
0.56033813953399658 0.73248285055160522 0.51198351383209229
0.73674744367599487 0.69268143177032471 0.51429200172424316
0.87006843090057373 0.63557916879653931 0.52564352750778198
0.9848325252532959 0.57886713743209839 0.54825824499130249
0.23477479815483093 0.97094225883483887 0.5546499490737915
0.31733688712120056 0.96764165163040161 0.54800200462341309
0.48862180113792419 0.93708854913711548 0.54170149564743042
0.65762007236480713 0.91246527433395386 0.54218214750289917
0.80189782381057739 0.88296663761138916 0.54623889923095703
0.92733883857727051 0.8430943489074707 0.55597019195556641
0.99991780519485474 0.79464119672775269 0.58552420139312744
0.64603894948959351 1 0.50337731838226318
0.66846084594726562 1 0.50425213575363159
0.72797530889511108 1 0.5031733512878418
0.80448991060256958 1 0.50416409969329834
0.90254491567611694 0.99877023696899414 0.50715148448944092
0.99040776491165161 0.98592221736907959 0.5267103910446167
1 0.9565892219543457 0.57027959823608398
0 0 0.49720817804336548
0 0 0.49551600217819214
0.056561443954706192 0 0.49335566163063049
0.2108922004699707 0 0.48358246684074402
0.40394943952560425 3.1115962428884814e-06 0.46453455090522766
0.56840330362319946 0.0076743033714592457 0.45411750674247742
0.68683618307113647 0.025108367204666138 0.45630121231079102
0.00073511461960151792 0.066406428813934326 0.5546271800994873
0.0028788996860384941 0.040257547050714493 0.5489305853843689
0.079685509204864502 0.010331007651984692 0.54204535484313965
0.24357341229915619 6.4924650359898806e-05 0.52572393417358398
0.42739129066467285 0 0.50750249624252319
0.57688170671463013 0 0.50005334615707397
0.69142317771911621 0.00073113536927849054 0.50581401586532593
0.0080760885030031204 0.2422749400138855 0.61087465286254883
0.042582284659147263 0.22079037129878998 0.60838735103607178
0.14608818292617798 0.17654283344745636 0.5986558198928833
0.32439899444580078 0.11074573546648026 0.58036452531814575
0.49940377473831177 0.042194291949272156 0.56115567684173584
0.63487941026687622 0.012739608064293861 0.5524742603302002
0.74575138092041016 0 0.55677199363708496
0 0.52931100130081177 0.66445034742355347
0.023392023518681526 0.52134734392166138 0.66110056638717651
0.17980712652206421 0.48327192664146423 0.65245574712753296
0.41295662522315979 0.42569664120674133 0.64001661539077759
0.5986284613609314 0.35247012972831726 0.62355607748031616
0.73397672176361084 0.28075489401817322 0.61291772127151489
0.84599089622497559 0.17307405173778534 0.61459219455718994
0 0.80145514011383057 0.70570355653762817
0.012281634844839573 0.78776133060455322 0.70631951093673706
0.23607818782329559 0.76099097728729248 0.69502651691436768
0.50053858757019043 0.72027599811553955 0.68435919284820557
0.67862039804458618 0.67521476745605469 0.67573028802871704
0.81876838207244873 0.62708353996276855 0.66887402534484863
0.94012707471847534 0.5550990104675293 0.6732945442199707
0.068180441856384277 0.97525149583816528 0.73211055994033813
0.20434452593326569 0.96236622333526611 0.72560495138168335
0.39886313676834106 0.93448156118392944 0.72119951248168945
0.58661246299743652 0.9125702977180481 0.71403658390045166
0.7398759126663208 0.87910133600234985 0.70914804935455322
0.87877368927001953 0.84305816888809204 0.70529711246490479
0.99086999893188477 0.79338407516479492 0.71447396278381348
0.53584557771682739 1 0.71920037269592285
0.57647150754928589 1 0.71392041444778442
0.64504063129425049 1 0.70947825908660889
0.72807896137237549 1 0.70251739025115967
0.83888190984725952 0.99966073036193848 0.70048534870147705
0.9565814733505249 0.99033474922180176 0.70505183935165405
1 0.96414190530776978 0.72207587957382202
0 0 0.65559083223342896
0 0 0.65238648653030396
0.030603745952248573 0 0.64718461036682129
0.17202812433242798 0.0016513001173734665 0.63435035943984985
0.36031785607337952 0.0086406487971544266 0.60890984535217285
0.52323228120803833 0.019459743052721024 0.59046411514282227
0.65213912725448608 0.014801354147493839 0.58431017398834229
0.00026779173640534282 0.0081794885918498039 0.70747780799865723
0 0.0029762566555291414 0.70150285959243774
0.034398157149553299 0.00024563659098930657 0.69062572717666626
0.18725627660751343 0 0.66793358325958252
0.36954802274703979 0 0.64320129156112671
0.52087771892547607 2.9320810881472426e-06 0.62712365388870239
0.64844661951065063 0 0.62357306480407715
0.010619159787893295 0.16469743847846985 0.75045716762542725
0.013343467377126217 0.15104959905147552 0.74718087911605835
0.10273220390081406 0.108237624168396 0.73523277044296265
0.2762967050075531 0.053995095193386078 0.71033865213394165
0.44284412264823914 0.011667453683912754 0.68502479791641235
0.57125395536422729 0.004365868866443634 0.67096859216690063
0.68907493352890015 0 0.66631841659545898
0.001111827208660543 0.46714204549789429 0.80062985420227051
0.0099600246176123619 0.45810151100158691 0.79622799158096313
0.15128766000270844 0.41849178075790405 0.78412693738937378
0.39091119170188904 0.35999426245689392 0.76430350542068481
0.55631554126739502 0.28533759713172913 0.74379414319992065
0.67994296550750732 0.22283841669559479 0.72955238819122314
0.78685730695724487 0.12511298060417175 0.72017508745193481
0 0.76289951801300049 0.84253180027008057
0.018527699634432793 0.76045972108840942 0.83905678987503052
0.2188122570514679 0.73218023777008057 0.82814508676528931
0.47359409928321838 0.68790143728256226 0.81284564733505249
0.63918650150299072 0.64482575654983521 0.80081009864807129
0.77694559097290039 0.59281426668167114 0.79010343551635742
0.89659446477890015 0.51200854778289795 0.78068214654922485
0.079267553985118866 0.94848638772964478 0.86871969699859619
0.19796749949455261 0.94543421268463135 0.86378568410873413
0.38042923808097839 0.92213046550750732 0.8575739860534668
0.55260121822357178 0.8986632227897644 0.84743082523345947
0.69535952806472778 0.8681718111038208 0.84134918451309204
0.83255493640899658 0.83066332340240479 0.83228462934494019
0.95523583889007568 0.78499770164489746 0.82998412847518921
0.49244952201843262 0.99979716539382935 0.872142493724823
0.52119678258895874 1 0.86678826808929443
0.58986377716064453 1 0.86072927713394165
0.67652368545532227 1 0.855194091796875
0.78170359134674072 0.9996219277381897 0.85424625873565674
0.89991915225982666 0.99322342872619629 0.85182833671569824
0.99527573585510254 0.97304821014404297 0.85504353046417236
0 0 0.78301358222961426
0.00026604146114550531 0 0.77857375144958496
0.046121858060359955 0 0.76840674877166748
0.1735147088766098 0 0.75102674961090088
0.34805440902709961 0.0018485274631530046 0.72853624820709229
0.4973067045211792 0.010286698117852211 0.71021634340286255
0.62854111194610596 0.001273420755751431 0.7014087438583374
0.0013751310762017965 0 0.82507514953613281
0.0017166287871077657 0 0.81818747520446777
0.046870674937963486 0 0.8028184175491333
0.16959211230278015 0 0.77989327907562256
0.33561250567436218 2.7106789275421761e-05 0.75686872005462646
0.47849336266517639 0.0016486074309796095 0.7391587495803833
0.6131594181060791 0 0.73189961910247803
0.016284748911857605 0.057628542184829712 0.86159747838973999
0.028547503054141998 0.047939002513885498 0.85580682754516602
0.11133979260921478 0.016275668516755104 0.83919572830200195
0.24783401191234589 0.0016803217586129904 0.81520885229110718
0.39252755045890808 0.0005814495962113142 0.79305577278137207
0.51060467958450317 2.2738588086212985e-05 0.7747265100479126
0.63723993301391602 0 0.76608496904373169
0.0090955700725317001 0.35228648781776428 0.907573401927948
0.034437965601682663 0.33991718292236328 0.90237849950790405
0.18874135613441467 0.29145315289497375 0.88796550035476685
0.37909415364265442 0.24029025435447693 0.8683236837387085
0.51140373945236206 0.17879429459571838 0.84814345836639404
0.62102657556533813 0.085222057998180389 0.82890492677688599
0.72118651866912842 0.017120540142059326 0.81209421157836914
0.010044082999229431 0.69727945327758789 0.95397680997848511
0.065789394080638885 0.68393915891647339 0.9490973949432373
0.26736381649971008 0.65607911348342896 0.93815344572067261
0.47755450010299683 0.60981875658035278 0.92328143119812012
0.61019760370254517 0.56409752368927002 0.90835821628570557
0.73681819438934326 0.50572043657302856 0.89319634437561035
0.84894853830337524 0.42069521546363831 0.87628316879272461
0.15396474301815033 0.9231305718421936 0.9814753532409668
0.23353564739227295 0.91419398784637451 0.97985994815826416
0.38684386014938354 0.89234697818756104 0.97241568565368652
0.53849142789840698 0.86467462778091431 0.96205347776412964
0.66940838098526001 0.83325088024139404 0.95494401454925537
0.80050361156463623 0.79931002855300903 0.94346088171005249
0.91984719038009644 0.75135552883148193 0.93383008241653442
0.46242406964302063 1 0.98780345916748047
0.4959016740322113 1 0.98781156539916992
0.56532907485961914 1 0.98355406522750854
0.65149205923080444 0.99995565414428711 0.97981727123260498
0.75231313705444336 0.99638020992279053 0.97927570343017578
0.86568444967269897 0.98815280199050903 0.9752160906791687
0.97345972061157227 0.96930879354476929 0.9727175235748291
