assets/lut/films colorslide fuji provia 400f.cube
# Created by: G'MIC (https://gmic.eu)
TITLE "fuji_provia_400f"
# LUT size
LUT_3D_SIZE 7
# Data domain
DOMAIN_MIN 0.0 0.0 0.0
DOMAIN_MAX 1.0 1.0 1.0
# LUT data points
0.019682072103023529 0.014344547875225544 0.011526219546794891
0.10491599142551422 0.011476404964923859 0.00064791511977091432
0.26719331741333008 0.018570275977253914 0
0.44965368509292603 0.031896539032459259 0
0.61324018239974976 0.04481525719165802 0
0.75358164310455322 0.063956424593925476 0
0.88279128074645996 0.079996354877948761 0.00018475102842785418
0.082265816628932953 0.14510257542133331 0.082610458135604858
0.15111744403839111 0.13129860162734985 0.059080339968204498
0.30831250548362732 0.12073053419589996 0.02155374176800251
0.47681882977485657 0.10924078524112701 0.003573054913431406
0.62152278423309326 0.076553031802177429 0
0.74925792217254639 0.066667430102825165 0
0.86596071720123291 0.058108162134885788 0.00027304256218485534
0.14147657155990601 0.35015001893043518 0.20224273204803467
0.21658991277217865 0.34534534811973572 0.18090686202049255
0.3712921142578125 0.32901740074157715 0.1413428783416748
0.52795916795730591 0.30563607811927795 0.09948248416185379
0.65811616182327271 0.24073897302150726 0.055771473795175552
0.76877540349960327 0.17020779848098755 0.021388828754425049
0.86086171865463257 0.059741225093603134 1.7233456674148329e-05
0.23241384327411652 0.53693658113479614 0.31803596019744873
0.31412819027900696 0.54088526964187622 0.30642551183700562
0.44526749849319458 0.53851568698883057 0.28232374787330627
0.58491724729537964 0.52973979711532593 0.24949471652507782
0.71287655830383301 0.49707105755805969 0.21100613474845886
0.82503581047058105 0.4369012713432312 0.16616314649581909
0.90471357107162476 0.26652801036834717 0.087753370404243469
0.36358451843261719 0.6984480619430542 0.43191042542457581
0.42245778441429138 0.69938951730728149 0.42685025930404663
0.51573163270950317 0.70024514198303223 0.41421955823898315
0.63191258907318115 0.69970935583114624 0.39172855019569397
0.75179469585418701 0.69016879796981812 0.36598756909370422
0.86535650491714478 0.66997778415679932 0.34234315156936646
0.96528321504592896 0.58936530351638794 0.2968391478061676
0.49042496085166931 0.84058308601379395 0.54879140853881836
0.52977240085601807 0.83877241611480713 0.54517537355422974
0.59081536531448364 0.83744555711746216 0.53783309459686279
0.68255800008773804 0.84094119071960449 0.52172368764877319
0.78811448812484741 0.84109365940093994 0.50180208683013916
0.89842897653579712 0.83476001024246216 0.48039442300796509
0.99468642473220825 0.80034554004669189 0.45559799671173096
0.60500234365463257 0.97786527872085571 0.66676938533782959
0.63530921936035156 0.97727054357528687 0.66181999444961548
0.6799771785736084 0.97786545753479004 0.65625697374343872
0.74748808145523071 0.98078912496566772 0.64791601896286011
0.83476871252059937 0.9838065505027771 0.63587182760238647
0.93815219402313232 0.98587250709533691 0.61757206916809082
1 0.97337371110916138 0.59629321098327637
0.015418692491948605 0.017577482387423515 0.071337632834911346
0.091500423848628998 0.013817865401506424 0.04992922767996788
0.25810244679450989 0.018521850928664207 0.013850507326424122
0.43095546960830688 0.019983388483524323 0.001482107094489038
0.58600389957427979 0.018721187487244606 0.0002929986803792417
0.72443521022796631 0.033274348825216293 0
0.85180330276489258 0.045641236007213593 0
0.073311179876327515 0.15252043306827545 0.16855691373348236
0.14286886155605316 0.14183992147445679 0.14221653342247009
0.29939630627632141 0.1290280669927597 0.099346846342086792
0.46081283688545227 0.10718885064125061 0.055035997182130814
0.60136550664901733 0.067560963332653046 0.022559072822332382
0.72160732746124268 0.033729072660207748 0.00096529792062938213
0.83430403470993042 0.0069244685582816601 0
0.1304401159286499 0.34904921054840088 0.28370380401611328
0.20625171065330505 0.34681707620620728 0.26466307044029236
0.35724624991416931 0.33615243434906006 0.22949166595935822
0.51103359460830688 0.3066132664680481 0.17807149887084961
0.64210623502731323 0.24448412656784058 0.12580788135528564
0.74651968479156494 0.15244077146053314 0.063896268606185913
0.83673763275146484 0.031077800318598747 0.014529957436025143
0.20563627779483795 0.53351420164108276 0.39099124073982239
0.29310840368270874 0.53585904836654663 0.38458356261253357
0.42675334215164185 0.53726232051849365 0.36324608325958252
0.56860435009002686 0.5287056565284729 0.32936984300613403
0.69689005613327026 0.49660074710845947 0.28761658072471619
0.80760890245437622 0.42968249320983887 0.2348625510931015
0.89447599649429321 0.28049400448799133 0.16098631918430328
0.3390350341796875 0.69388949871063232 0.49684786796569824
0.4035876989364624 0.69559913873672485 0.49321475625038147
0.50127756595611572 0.69739741086959839 0.48038789629936218
0.61923182010650635 0.69720578193664551 0.45669451355934143
0.73890256881713867 0.68637341260910034 0.42847821116447449
0.85266238451004028 0.66393566131591797 0.39903420209884644
0.95736289024353027 0.59801691770553589 0.35393223166465759
0.47412419319152832 0.83575451374053955 0.6013869047164917
0.51628631353378296 0.83490896224975586 0.59809631109237671
0.58156269788742065 0.83489024639129639 0.5889286994934082
0.67392849922180176 0.83667439222335815 0.56894975900650024
0.77953964471817017 0.83592230081558228 0.54587525129318237
0.88804501295089722 0.83213919401168823 0.52640807628631592
0.98934167623519897 0.80010974407196045 0.50025743246078491
0.59400475025177002 0.97453683614730835 0.70665246248245239
0.62376916408538818 0.97314596176147461 0.70325082540512085
0.6689947247505188 0.9738229513168335 0.69735580682754517
0.73826771974563599 0.97704213857650757 0.68473219871520996
0.82635504007339478 0.98171943426132202 0.67010200023651123
0.92545586824417114 0.98394608497619629 0.65654253959655762
0.99995046854019165 0.97311639785766602 0.63797575235366821
0.0025482177734375 0.012996628880500793 0.17842903733253479
0.075500652194023132 0.014681871980428696 0.1524684876203537
0.24080723524093628 0.0088135367259383202 0.12011096626520157
0.40549024939537048 0.0027130874805152416 0.070589564740657806
0.55531966686248779 0.00021428127365652472 0.047972045838832855
0.69370424747467041 0.0108298659324646 0.03326600044965744
0.82265889644622803 0.030034651979804039 0.023298271000385284
0.049968164414167404 0.15768638253211975 0.2816738486289978
0.12347416579723358 0.1472921222448349 0.25838950276374817
0.28318849205970764 0.13256756961345673 0.21765722334384918
0.44043603539466858 0.1034528836607933 0.16290238499641418
0.57828140258789062 0.059352874755859375 0.11120295524597168
0.69634735584259033 0.024738460779190063 0.06658395379781723
0.80968219041824341 0.0038733088877052069 0.044499341398477554
0.11166311800479889 0.34988835453987122 0.39112886786460876
0.18429252505302429 0.3496265709400177 0.37336215376853943
0.34215191006660461 0.34351813793182373 0.34266412258148193
0.49295464158058167 0.31348791718482971 0.2937067449092865
0.62498277425765991 0.2499089241027832 0.23657092452049255
0.72640573978424072 0.15796361863613129 0.16355578601360321
0.81401562690734863 0.026277698576450348 0.093556486070156097
0.19348122179508209 0.52993297576904297 0.48731893301010132
0.27503988146781921 0.52971690893173218 0.4800565242767334
0.40770623087882996 0.53038305044174194 0.45813095569610596
0.54912865161895752 0.52227723598480225 0.42556673288345337
0.6788564920425415 0.50091588497161865 0.38928580284118652
0.79075473546981812 0.44681346416473389 0.33969134092330933
0.87477940320968628 0.27967217564582825 0.2488790899515152
0.32112100720405579 0.68663114309310913 0.57867211103439331
0.38699111342430115 0.68830752372741699 0.57344901561737061
0.48457780480384827 0.68959546089172363 0.55962836742401123
0.60252058506011963 0.69131511449813843 0.53734004497528076
0.72251695394515991 0.68631809949874878 0.51272648572921753
0.83751636743545532 0.66653382778167725 0.48287376761436462
0.94146966934204102 0.58988451957702637 0.42859601974487305
0.45671635866165161 0.82577747106552124 0.66803967952728271
0.4999442994594574 0.82593673467636108 0.66364985704421997
0.56784921884536743 0.82863277196884155 0.65351539850234985
0.66114538908004761 0.83281892538070679 0.6350095272064209
0.76596128940582275 0.83495128154754639 0.61550909280776978
0.87424200773239136 0.82980144023895264 0.59635376930236816
0.98097747564315796 0.7931443452835083 0.56509417295455933
0.58131462335586548 0.96750092506408691 0.75812810659408569
0.60913956165313721 0.96529531478881836 0.75579214096069336
0.6561010479927063 0.96884149312973022 0.74953430891036987
0.72730499505996704 0.9747612476348877 0.73701310157775879
0.81493020057678223 0.98100775480270386 0.72379487752914429
0.91161710023880005 0.98371464014053345 0.71162408590316772
0.9983716607093811 0.9727935791015625 0.69181251525878906
0.00058845069725066423 0.015133681707084179 0.30217114090919495
0.072283662855625153 0.011845382861793041 0.27114567160606384
0.21798557043075562 0.0043396744877099991 0.23404358327388763
0.3778710663318634 9.2809343186672777e-05 0.18616528809070587
0.52641230821609497 0 0.14706777036190033
0.6639026403427124 0.00023281620815396309 0.12530495226383209
0.79330015182495117 0.0143623948097229 0.11381014436483383
0.031062901020050049 0.1705901026725769 0.40633732080459595
0.10889832675457001 0.16283361613750458 0.37939551472663879
0.26391652226448059 0.14766602218151093 0.34089893102645874
0.4201202392578125 0.11575538665056229 0.28632771968841553
0.55586379766464233 0.065856337547302246 0.22503063082695007
0.67147791385650635 0.022225802764296532 0.17474590241909027
0.7859986424446106 0.0064350501634180546 0.14665965735912323
0.076506085693836212 0.35807982087135315 0.5028693675994873
0.15764261782169342 0.35926923155784607 0.48389583826065063
0.32128095626831055 0.35384929180145264 0.45380529761314392
0.47536900639533997 0.33114072680473328 0.40979498624801636
0.60852986574172974 0.27349525690078735 0.35062351822853088
0.70543801784515381 0.16645802557468414 0.27777272462844849
0.79205292463302612 0.027490578591823578 0.1952725350856781
0.16263391077518463 0.53178173303604126 0.5866890549659729
0.25120681524276733 0.53289997577667236 0.57619726657867432
0.38424259424209595 0.52993249893188477 0.55492520332336426
0.52772361040115356 0.523601233959198 0.52494543790817261
0.65993714332580566 0.50988757610321045 0.4913402795791626
0.76976782083511353 0.45761978626251221 0.44465234875679016
0.85818737745285034 0.30282771587371826 0.35295620560646057
0.29841896891593933 0.67996561527252197 0.66646748781204224
0.36542207002639771 0.68246281147003174 0.65883350372314453
0.46303781867027283 0.68456292152404785 0.64444482326507568
0.58225142955780029 0.68696093559265137 0.62400305271148682
0.7020459771156311 0.68309891223907471 0.6001477837562561
0.8155829906463623 0.65986925363540649 0.56899029016494751
0.92302078008651733 0.59170174598693848 0.51382994651794434
0.43894624710083008 0.81339865922927856 0.74484825134277344
0.47977596521377563 0.81499344110488892 0.73789048194885254
0.5492396354675293 0.82076811790466309 0.72699052095413208
0.6438174843788147 0.82699382305145264 0.71114957332611084
0.74743157625198364 0.82896417379379272 0.69274461269378662
0.85513830184936523 0.82034432888031006 0.67090648412704468
0.96409577131271362 0.78848868608474731 0.63614839315414429
0.56390708684921265 0.95517003536224365 0.82369214296340942
0.59076583385467529 0.95507133007049561 0.81891095638275146
0.63937926292419434 0.96208733320236206 0.81195592880249023
0.71196228265762329 0.97150039672851562 0.80117571353912354
0.79873788356781006 0.97719383239746094 0.78856241703033447
0.89442777633666992 0.97765946388244629 0.77399533987045288
0.99110466241836548 0.97200185060501099 0.75193041563034058
0.00042509191553108394 0.032928496599197388 0.42497420310974121
0.069318138062953949 0.021800171583890915 0.3915334939956665
0.20700351893901825 0.013075570575892925 0.35217854380607605
0.36229294538497925 0.0037612167652696371 0.30481377243995667
0.50501710176467896 0 0.25724992156028748
0.63669776916503906 0 0.22618500888347626
0.76311862468719482 0.00028159946668893099 0.20663885772228241
0.02257862500846386 0.20365996658802032 0.52445292472839355
0.11107335984706879 0.19466401636600494 0.49750444293022156
0.25660401582717896 0.18393605947494507 0.4597809910774231
0.41080397367477417 0.15244466066360474 0.40822276473045349
0.54272586107254028 0.097869664430618286 0.34609055519104004
0.65339887142181396 0.037525910884141922 0.28661450743675232
0.75833809375762939 0 0.23460976779460907
0.051081638783216476 0.37602347135543823 0.60729598999023438
0.15598578751087189 0.37361210584640503 0.59001290798187256
0.30984574556350708 0.3731234073638916 0.56210285425186157
0.46381059288978577 0.35348445177078247 0.52034252882003784
0.59529143571853638 0.30501171946525574 0.46565335988998413
0.69577020406723022 0.20587466657161713 0.39364731311798096
0.77589195966720581 0.037701115012168884 0.29338443279266357
0.13108274340629578 0.53528904914855957 0.67976498603820801
0.23406665027141571 0.53510469198226929 0.66888886690139771
0.36795288324356079 0.53833562135696411 0.65006834268569946
0.51191562414169312 0.53534537553787231 0.6224205493927002
0.64423823356628418 0.52250176668167114 0.5881725549697876
0.75877124071121216 0.48267355561256409 0.54448121786117554
0.85057568550109863 0.3453764021396637 0.45746999979019165
0.27920728921890259 0.67629426717758179 0.7501375675201416
0.34841650724411011 0.67908519506454468 0.74142098426818848
0.44675296545028687 0.68442118167877197 0.72780561447143555
0.56587785482406616 0.68752163648605347 0.70839011669158936
0.68384671211242676 0.68549454212188721 0.6827247142791748
0.79703766107559204 0.66335475444793701 0.65001314878463745
0.90896117687225342 0.60886895656585693 0.59810930490493774
0.42712423205375671 0.80826091766357422 0.81862026453018188
0.46824157238006592 0.81084561347961426 0.81133437156677246
0.53554677963256836 0.81677412986755371 0.80113548040390015
0.62849575281143188 0.81923007965087891 0.78689926862716675
0.72840589284896851 0.82202160358428955 0.76751410961151123
0.83399283885955811 0.81502395868301392 0.74201083183288574
0.94949311017990112 0.78841793537139893 0.70598608255386353
0.55327880382537842 0.94800031185150146 0.89049738645553589
0.57966428995132446 0.95159506797790527 0.88477712869644165
0.62601703405380249 0.9588274359703064 0.87856906652450562
0.69668591022491455 0.96605020761489868 0.86908715963363647
0.78065085411071777 0.97168326377868652 0.85620641708374023
0.87746697664260864 0.97007942199707031 0.83881586790084839
0.98577958345413208 0.96316033601760864 0.81360632181167603
2.154182038793806e-05 0.070059023797512054 0.54424107074737549
0.056187290698289871 0.052245810627937317 0.50584894418716431
0.20611631870269775 0.046696219593286514 0.4688127338886261
0.36002489924430847 0.021361242979764938 0.41791880130767822
0.49210971593856812 0.0015456704422831535 0.36030495166778564
0.6135556697845459 0 0.31563150882720947
0.73526424169540405 0 0.28700798749923706
0.012807539664208889 0.24943022429943085 0.6353868842124939
0.10053492337465286 0.24144269526004791 0.60712361335754395
0.25224173069000244 0.23111307621002197 0.57145577669143677
0.40896108746528625 0.20069494843482971 0.52227336168289185
0.53719496726989746 0.13986280560493469 0.45909467339515686
0.63930845260620117 0.054399840533733368 0.38725420832633972
0.7388378381729126 0.0011865354608744383 0.32429027557373047
0.04584096372127533 0.40231877565383911 0.70359855890274048
0.15086537599563599 0.40110868215560913 0.68636465072631836
0.30195125937461853 0.40148183703422546 0.66032952070236206
0.45646476745605469 0.38827010989189148 0.62274312973022461
0.5886768102645874 0.35203742980957031 0.57512736320495605
0.69229042530059814 0.26491087675094604 0.50714194774627686
0.7749563455581665 0.10484527796506882 0.40704405307769775
0.14127528667449951 0.5482446551322937 0.76541632413864136
0.23474584519863129 0.54755467176437378 0.75435912609100342
0.36391386389732361 0.55131000280380249 0.7368888258934021
0.5033227801322937 0.54977422952651978 0.71070533990859985
0.63147473335266113 0.54146307706832886 0.67969614267349243
0.74789285659790039 0.51473754644393921 0.64023637771606445
0.84607994556427002 0.40000602602958679 0.56008231639862061
0.2841421365737915 0.68278962373733521 0.82812404632568359
0.34804564714431763 0.68291336297988892 0.81933504343032837
0.44237610697746277 0.68781173229217529 0.80630689859390259
0.55520093441009521 0.69202786684036255 0.78763306140899658
0.66879421472549438 0.69145709276199341 0.76464653015136719
0.7822798490524292 0.67552018165588379 0.73382967710494995
0.89635872840881348 0.62662065029144287 0.68308407068252563
0.42645356059074402 0.80917704105377197 0.8904532790184021
0.46508827805519104 0.81110000610351562 0.88375741243362427
0.52812618017196655 0.81647807359695435 0.87443989515304565
0.61541509628295898 0.81814169883728027 0.86126363277435303
0.71084970235824585 0.82107961177825928 0.84380525350570679
0.81801694631576538 0.81728386878967285 0.81726288795471191
0.94081312417984009 0.79486244916915894 0.78104317188262939
0.55094164609909058 0.94638127088546753 0.95888817310333252
0.57420402765274048 0.95196390151977539 0.95465683937072754
0.61717849969863892 0.95766133069992065 0.94900226593017578
0.68407124280929565 0.95859229564666748 0.9407806396484375
0.76352763175964355 0.96505045890808105 0.92956531047821045
0.859336256980896 0.97201037406921387 0.91193860769271851
0.98140132427215576 0.96464830636978149 0.88370150327682495
0.0086342459544539452 0.13236258924007416 0.66185033321380615
0.071896106004714966 0.12381359934806824 0.6208375096321106
0.23386812210083008 0.12677299976348877 0.58381837606430054
0.37106233835220337 0.076094098389148712 0.5247308611869812
0.49160134792327881 0.025841508060693741 0.46325817704200745
0.60549360513687134 0.0017407436389476061 0.40921536087989807
0.72227269411087036 0.00031621597008779645 0.37045550346374512
0.013708406127989292 0.30723333358764648 0.7398991584777832
0.099503263831138611 0.30512648820877075 0.71037411689758301
0.26201596856117249 0.2999330461025238 0.67685621976852417
0.41673117876052856 0.27038899064064026 0.62987798452377319
0.54178082942962646 0.21403786540031433 0.57178187370300293
0.63794863224029541 0.10272260010242462 0.49234491586685181
0.72990721464157104 0.0063405805267393589 0.41300636529922485
0.047253940254449844 0.43613499402999878 0.79384803771972656
0.15067192912101746 0.44338679313659668 0.77703988552093506
0.30132243037223816 0.4464564323425293 0.75349926948547363
0.45564362406730652 0.43878677487373352 0.7205578088760376
0.58888763189315796 0.41814157366752625 0.68214553594589233
0.69288289546966553 0.33445620536804199 0.61850547790527344
0.77491730451583862 0.15956471860408783 0.51361322402954102
0.16348116099834442 0.57299000024795532 0.8498835563659668
0.24525527656078339 0.57448089122772217 0.83802872896194458
0.36516794562339783 0.57800239324569702 0.82150834798812866
0.49720278382301331 0.57585161924362183 0.79679232835769653
0.62153643369674683 0.56875455379486084 0.76927953958511353
0.73631197214126587 0.5459519624710083 0.73322808742523193
0.84466665983200073 0.46010378003120422 0.66552996635437012
0.30035436153411865 0.70019620656967163 0.90906673669815063
0.35733020305633545 0.69763916730880737 0.89940249919891357
0.44374123215675354 0.70155751705169678 0.88673597574234009
0.54874032735824585 0.70598715543746948 0.86943429708480835
0.65829145908355713 0.70682221651077271 0.85003381967544556
0.77127712965011597 0.69999486207962036 0.82324373722076416
0.88513529300689697 0.65720272064208984 0.77629899978637695
0.42632031440734863 0.81981456279754639 0.97176939249038696
0.4659583568572998 0.81693375110626221 0.96395862102508545
0.52798879146575928 0.82228165864944458 0.95372194051742554
0.60947978496551514 0.8257032036781311 0.94125467538833618
0.70153731107711792 0.82896870374679565 0.92729061841964722
0.80762290954589844 0.82816231250762939 0.90489012002944946
0.92940151691436768 0.81130540370941162 0.87005037069320679
0.54498106241226196 0.95472538471221924 1
0.57266676425933838 0.95426470041275024 1
0.61712628602981567 0.95814138650894165 0.99981689453125
0.680530846118927 0.95891642570495605 0.99898070096969604
0.7572137713432312 0.96440988779067993 0.99714028835296631
0.8524436354637146 0.97004961967468262 0.99003881216049194
0.97658765316009521 0.96785545349121094 0.9674980640411377
