assets/lut/films colorslide agfa precisa 100.cube
# Created by: G'MIC (https://gmic.eu)
TITLE "agfa_precisa_100"
# LUT size
LUT_3D_SIZE 7
# Data domain
DOMAIN_MIN 0.0 0.0 0.0
DOMAIN_MAX 1.0 1.0 1.0
# LUT data points
0.030774643644690514 0.03008563444018364 0.024502085521817207
0.13484655320644379 0.034724157303571701 0.026418663561344147
0.26895669102668762 0.047389611601829529 0.027735034003853798
0.43488618731498718 0.050848629325628281 0.062433745712041855
0.6254919171333313 0.066588036715984344 0.12137943506240845
0.80999851226806641 0.090766116976737976 0.17359144985675812
0.97182685136795044 0.10463635623455048 0.20633867383003235
0.095591649413108826 0.14976736903190613 0.067768245935440063
0.16487422585487366 0.15284280478954315 0.071275196969509125
0.29693832993507385 0.16306537389755249 0.076015278697013855
0.46389526128768921 0.17618067562580109 0.070280753076076508
0.65012073516845703 0.16653096675872803 0.097500696778297424
0.82450258731842041 0.13685314357280731 0.15982615947723389
0.97866082191467285 0.13490071892738342 0.21201719343662262
0.13124395906925201 0.30238008499145508 0.12417581677436829
0.19498078525066376 0.30602118372917175 0.12425321340560913
0.32911112904548645 0.32081639766693115 0.12091278284788132
0.50062388181686401 0.3313719630241394 0.11109617352485657
0.68262898921966553 0.3313039243221283 0.093936249613761902
0.85357397794723511 0.30179688334465027 0.10890053957700729
0.98800283670425415 0.23593680560588837 0.19303750991821289
0.15627191960811615 0.49553078413009644 0.19242753088474274
0.23217280209064484 0.50050169229507446 0.18827025592327118
0.36893022060394287 0.51514250040054321 0.1802767813205719
0.53685146570205688 0.52791869640350342 0.16312412917613983
0.71386528015136719 0.54235208034515381 0.11866872757673264
0.88770502805709839 0.546164870262146 0.066759012639522552
0.99504995346069336 0.48022454977035522 0.10674729943275452
0.23392406105995178 0.69469368457794189 0.28926259279251099
0.31153547763824463 0.70018249750137329 0.28527125716209412
0.43286359310150146 0.71167153120040894 0.27764743566513062
0.57920795679092407 0.72604292631149292 0.25679343938827515
0.74166768789291382 0.7471320629119873 0.19705350697040558
0.90947329998016357 0.77346944808959961 0.066880963742733002
0.99953544139862061 0.77054941654205322 0
0.38870096206665039 0.85824376344680786 0.44159725308418274
0.44398689270019531 0.86568248271942139 0.43509277701377869
0.531097412109375 0.87585282325744629 0.42803841829299927
0.64188730716705322 0.89163237810134888 0.41208508610725403
0.76942980289459229 0.91634064912796021 0.36932966113090515
0.90968513488769531 0.94704067707061768 0.23362806439399719
0.9959145188331604 0.97862064838409424 0.013523057103157043
0.5848461389541626 0.98283910751342773 0.6362413763999939
0.61435836553573608 0.9885326623916626 0.62866652011871338
0.66672313213348389 0.99336391687393188 0.62481510639190674
0.74228078126907349 0.99758052825927734 0.62297749519348145
0.83625799417495728 1 0.61889630556106567
0.94478809833526611 1 0.57478892803192139
1 1 0.36358565092086792
0.019237697124481201 0.024956407025456429 0.10523840039968491
0.1180194616317749 0.029369862750172615 0.10729672014713287
0.25506481528282166 0.038968943059444427 0.10667300969362259
0.43055889010429382 0.056197252124547958 0.10806956887245178
0.63162755966186523 0.072004176676273346 0.12145335227251053
0.81318408250808716 0.080538414418697357 0.17496991157531738
0.9761509895324707 0.11130118370056152 0.21577049791812897
0.081241711974143982 0.13968488574028015 0.14758449792861938
0.15377141535282135 0.14809660613536835 0.14671513438224792
0.28427731990814209 0.15592116117477417 0.15156422555446625
0.45682725310325623 0.1685585081577301 0.14409942924976349
0.65235239267349243 0.17412327229976654 0.12981016933917999
0.82882118225097656 0.15050579607486725 0.15574464201927185
0.98149418830871582 0.13835105299949646 0.21236295998096466
0.11235939711332321 0.29672828316688538 0.19667808711528778
0.18295435607433319 0.30284741520881653 0.19655303657054901
0.31612986326217651 0.31395140290260315 0.19448082149028778
0.48927339911460876 0.3239055871963501 0.18220813572406769
0.67809903621673584 0.33181634545326233 0.15260817110538483
0.85707110166549683 0.31662541627883911 0.12460053712129593
0.98834335803985596 0.24783892929553986 0.18966518342494965
0.13113611936569214 0.4925847053527832 0.25866419076919556
0.21410425007343292 0.49731171131134033 0.25761598348617554
0.35548016428947449 0.50883442163467407 0.25365307927131653
0.52741432189941406 0.520099937915802 0.24164494872093201
0.70443463325500488 0.5344315767288208 0.20296849310398102
0.88365834951400757 0.54512029886245728 0.11955967545509338
0.996917724609375 0.49681428074836731 0.10188290476799011
0.21381807327270508 0.69075798988342285 0.34867417812347412
0.2918262779712677 0.69601243734359741 0.34789633750915527
0.41710633039474487 0.70645821094512939 0.3436049222946167
0.5676800012588501 0.71915006637573242 0.33257722854614258
0.72950822114944458 0.73614871501922607 0.29552158713340759
0.89784425497055054 0.76418972015380859 0.17961351573467255
0.9990156888961792 0.77695167064666748 0.015492652542889118
0.37826880812644958 0.85729837417602539 0.48181656002998352
0.42898985743522644 0.86202907562255859 0.48142129182815552
0.51488840579986572 0.87164962291717529 0.47656708955764771
0.6295093297958374 0.88501167297363281 0.46686744689941406
0.76105207204818726 0.90578943490982056 0.43983110785484314
0.90475499629974365 0.93111389875411987 0.34920388460159302
0.99453282356262207 0.96243107318878174 0.068253189325332642
0.57852631807327271 0.9818541407585144 0.66262257099151611
0.60609060525894165 0.98469626903533936 0.66209632158279419
0.65470039844512939 0.99044030904769897 0.65773165225982666
0.73096925020217896 0.99538469314575195 0.65441250801086426
0.82793444395065308 0.99966037273406982 0.64322531223297119
0.94220525026321411 0.99972689151763916 0.61112296581268311
0.99914085865020752 0.99994397163391113 0.43824690580368042
0.01239477377384901 0.022461924701929092 0.19951692223548889
0.10147594660520554 0.02712269127368927 0.20069076120853424
0.24108628928661346 0.030603520572185516 0.20247623324394226
0.42215362191200256 0.042413059622049332 0.19780221581459045
0.62814640998840332 0.063215099275112152 0.17397028207778931
0.81847667694091797 0.094061605632305145 0.17195101082324982
0.98128777742385864 0.12325390428304672 0.21901200711727142
0.074574366211891174 0.13431915640830994 0.24779857695102692
0.13990978896617889 0.14119982719421387 0.25016042590141296
0.26740732789039612 0.14636985957622528 0.25326099991798401
0.44655251502990723 0.1562114953994751 0.24827538430690765
0.64479094743728638 0.16602562367916107 0.21947088837623596
0.83118641376495361 0.16716048121452332 0.17357318103313446
0.98566335439682007 0.13395282626152039 0.20826601982116699
0.099596209824085236 0.28930360078811646 0.29438722133636475
0.16278840601444244 0.29525652527809143 0.29829159379005432
0.30055317282676697 0.30091199278831482 0.30231377482414246
0.47888332605361938 0.31255194544792175 0.29675671458244324
0.66787254810333252 0.31818783283233643 0.27168753743171692
0.85521811246871948 0.31684970855712891 0.20107974112033844
0.992684006690979 0.26301252841949463 0.1789524108171463
0.11122993379831314 0.48163235187530518 0.35746994614601135
0.19333900511264801 0.48552584648132324 0.3607010543346405
0.34133881330490112 0.4934508204460144 0.36358240246772766
0.51764076948165894 0.50952905416488647 0.35771483182907104
0.69447284936904907 0.52291953563690186 0.32859861850738525
0.8744780421257019 0.53253579139709473 0.24752813577651978
0.9968714714050293 0.51017266511917114 0.11901047825813293
0.19791799783706665 0.67623567581176758 0.44178235530853271
0.27553734183311462 0.67981439828872681 0.4451967179775238
0.40496006608009338 0.68938302993774414 0.44458779692649841
0.56079989671707153 0.7043452262878418 0.44081816077232361
0.71977895498275757 0.7232358455657959 0.42292395234107971
0.88628554344177246 0.73889493942260742 0.35291126370429993
0.99696892499923706 0.757274329662323 0.15243057906627655
0.37140306830406189 0.84343123435974121 0.55486071109771729
0.42011323571205139 0.84629172086715698 0.55809915065765381
0.50757801532745361 0.85547655820846558 0.55551564693450928
0.62592804431915283 0.86750322580337524 0.55372804403305054
0.75646364688873291 0.88912582397460938 0.54168444871902466
0.89454203844070435 0.9130103588104248 0.47740596532821655
0.99548125267028809 0.94508856534957886 0.27270260453224182
0.57994264364242554 0.97077471017837524 0.7123216986656189
0.60515493154525757 0.97113281488418579 0.71601814031600952
0.6525341272354126 0.98029690980911255 0.71143597364425659
0.72923249006271362 0.98657536506652832 0.71318900585174561
0.82468986511230469 0.99450773000717163 0.71078658103942871
0.92898237705230713 0.99990111589431763 0.67986458539962769
0.99986213445663452 0.99989873170852661 0.56043434143066406
0.0095177739858627319 0.011488671414554119 0.31842851638793945
0.086168520152568817 0.015723150223493576 0.32155084609985352
0.22148202359676361 0.019924493506550789 0.32580351829528809
0.40560093522071838 0.02927652932703495 0.32728832960128784
0.61180788278579712 0.041093084961175919 0.3042442798614502
0.81435030698776245 0.083226509392261505 0.23388096690177917
0.98394608497619629 0.12580791115760803 0.21667292714118958
0.062584623694419861 0.12418767809867859 0.36726310849189758
0.11642804741859436 0.13074700534343719 0.37176525592803955
0.24320551753044128 0.1351776123046875 0.38051143288612366
0.42602604627609253 0.14342676103115082 0.38496693968772888
0.62606716156005859 0.14413937926292419 0.36865359544754028
0.81921243667602539 0.13843344151973724 0.30803999304771423
0.98506754636764526 0.13526459038257599 0.22964872419834137
0.08531392365694046 0.27562543749809265 0.4193311333656311
0.13394978642463684 0.28462064266204834 0.42121979594230652
0.2749965488910675 0.2881324291229248 0.43195027112960815
0.45712801814079285 0.3011920154094696 0.43681460618972778
0.64885026216506958 0.30521669983863831 0.42574092745780945
0.83701908588409424 0.30219370126724243 0.37059351801872253
0.98973798751831055 0.27525699138641357 0.24324774742126465
0.073213495314121246 0.46993666887283325 0.47692129015922546
0.1563875824213028 0.47402596473693848 0.48061609268188477
0.31487861275672913 0.48132845759391785 0.49020117521286011
0.4989941418170929 0.49789273738861084 0.49817278981208801
0.67752963304519653 0.50626349449157715 0.48593246936798096
0.85963910818099976 0.5110284686088562 0.43813779950141907
0.99391978979110718 0.49769085645675659 0.29824098944664001
0.16484981775283813 0.66197890043258667 0.550373375415802
0.24429146945476532 0.66574889421463013 0.55453187227249146
0.38426148891448975 0.67373502254486084 0.55879098176956177
0.54712927341461182 0.68852585554122925 0.56462293863296509
0.70659428834915161 0.70452487468719482 0.56006807088851929
0.8709561824798584 0.7159540057182312 0.5237048864364624
0.99508869647979736 0.72509348392486572 0.36958494782447815
0.35259920358657837 0.82770836353302002 0.64553427696228027
0.40014803409576416 0.83459615707397461 0.64298319816589355
0.49530252814292908 0.84126365184783936 0.64619237184524536
0.61707383394241333 0.85294091701507568 0.65168434381484985
0.74660438299179077 0.87331783771514893 0.65020501613616943
0.88695311546325684 0.89246141910552979 0.62213575839996338
0.99680942296981812 0.91318070888519287 0.49222233891487122
0.57767182588577271 0.95980709791183472 0.77340567111968994
0.59872734546661377 0.96514737606048584 0.76931178569793701
0.65014857053756714 0.97058117389678955 0.77227091789245605
0.72637218236923218 0.97827208042144775 0.77863866090774536
0.81690460443496704 0.99011754989624023 0.78042709827423096
0.91828626394271851 0.99821072816848755 0.76155418157577515
0.99897605180740356 0.99984580278396606 0.67723006010055542
0.0029740277677774429 0.0033966961782425642 0.45311006903648376
0.063849441707134247 0.0059625664725899696 0.46309724450111389
0.18870404362678528 0.008729628287255764 0.47968867421150208
0.37469998002052307 0.016893947497010231 0.49026554822921753
0.58611840009689331 0.027730874717235565 0.47404223680496216
0.78996306657791138 0.041996106505393982 0.41261368989944458
0.97962212562561035 0.10751212388277054 0.29025688767433167
0.045729201287031174 0.11234014481306076 0.50052028894424438
0.087118528783321381 0.11938820779323578 0.50849932432174683
0.21098771691322327 0.12380100041627884 0.52601498365402222
0.39939224720001221 0.13116882741451263 0.54375088214874268
0.60241204500198364 0.12800358235836029 0.54704743623733521
0.79284447431564331 0.10673283785581589 0.5124439001083374
0.97195476293563843 0.12265822291374207 0.39210641384124756
0.062108837068080902 0.26839655637741089 0.54614758491516113
0.10387492179870605 0.27635586261749268 0.55081695318222046
0.23904874920845032 0.2815815806388855 0.56660836935043335
0.43229681253433228 0.28641068935394287 0.58650356531143188
0.62642347812652588 0.29216596484184265 0.5945708155632019
0.81087064743041992 0.2796175479888916 0.57045882940292358
0.97786909341812134 0.26021265983581543 0.4706721305847168
0.03714611753821373 0.46265515685081482 0.59249770641326904
0.11339642107486725 0.4683317244052887 0.59767568111419678
0.27348524332046509 0.47524887323379517 0.61132293939590454
0.47288399934768677 0.48511579632759094 0.63008075952529907
0.65734195709228516 0.49381160736083984 0.63867861032485962
0.83322346210479736 0.49139958620071411 0.62034374475479126
0.98597490787506104 0.47203868627548218 0.53234410285949707
0.12548893690109253 0.65272599458694458 0.65302717685699463
0.2039252370595932 0.65733295679092407 0.65788865089416504
0.35375285148620605 0.66239839792251587 0.66818666458129883
0.52651846408843994 0.67639690637588501 0.68115741014480591
0.69075292348861694 0.68916571140289307 0.68852013349533081
0.85105776786804199 0.69620543718338013 0.67515861988067627
0.99087178707122803 0.69246280193328857 0.5954166054725647
0.32309269905090332 0.81774735450744629 0.72976595163345337
0.37394434213638306 0.82360488176345825 0.72981148958206177
0.47630560398101807 0.83104109764099121 0.73707431554794312
0.60033100843429565 0.84426695108413696 0.74494385719299316
0.73292160034179688 0.8584287166595459 0.75073617696762085
0.87145513296127319 0.87120676040649414 0.74464058876037598
0.99258995056152344 0.88440334796905518 0.67329853773117065
0.56580919027328491 0.95180350542068481 0.82816791534423828
0.59089720249176025 0.95518571138381958 0.82882046699523926
0.6469607949256897 0.960288405418396 0.83518952131271362
0.72095280885696411 0.97118330001831055 0.83969730138778687
0.80914270877838135 0.98214411735534668 0.8455999493598938
0.90833556652069092 0.98955780267715454 0.84590035676956177
0.99600249528884888 0.9983375072479248 0.79106646776199341
0 0.0017181396251544356 0.58445841073989868
0.03354949876666069 0.0041138594970107079 0.60132026672363281
0.14963862299919128 0.0078387241810560226 0.62764579057693481
0.33591601252555847 0.013557643629610538 0.65340632200241089
0.55387479066848755 0.014162909239530563 0.6610407829284668
0.75888353586196899 0.00453923549503088 0.63226759433746338
0.95181030035018921 0.031473930925130844 0.5375940203666687
0.0086786756291985512 0.11000185459852219 0.62521159648895264
0.063287295401096344 0.11464525014162064 0.63825911283493042
0.17949984967708588 0.1222376823425293 0.66352581977844238
0.36465400457382202 0.13003672659397125 0.69242900609970093
0.57368654012680054 0.12318579107522964 0.71498531103134155
0.76703280210494995 0.08402957022190094 0.72275006771087646
0.94777494668960571 0.067631185054779053 0.65705966949462891
0.0083231013268232346 0.26969036459922791 0.65772539377212524
0.067175336182117462 0.27307853102684021 0.66773444414138794
0.19918011128902435 0.27988997101783752 0.68978583812713623
0.39767119288444519 0.28921690583229065 0.71819937229156494
0.60052549839019775 0.29495146870613098 0.74149471521377563
0.78868800401687622 0.26744940876960754 0.75351190567016602
0.96090847253799438 0.22524933516979218 0.71134454011917114
0.0015169180696830153 0.45769599080085754 0.69426584243774414
0.058939959853887558 0.46448478102684021 0.70282220840454102
0.21711146831512451 0.47170254588127136 0.721626877784729
0.43269878625869751 0.48226350545883179 0.74828904867172241
0.63118094205856323 0.4944470226764679 0.77047467231750488
0.81103873252868652 0.48652508854866028 0.78010183572769165
0.97357791662216187 0.45248684287071228 0.74564307928085327
0.06397729367017746 0.64567744731903076 0.74274128675460815
0.14055167138576508 0.65016990900039673 0.75135141611099243
0.30306091904640198 0.65813302993774414 0.76575785875320435
0.49192246794700623 0.6709098219871521 0.78650009632110596
0.67046654224395752 0.68419307470321655 0.80747562646865845
0.83555465936660767 0.69001775979995728 0.81806516647338867
0.98271030187606812 0.67706751823425293 0.78612649440765381
0.26220101118087769 0.81101280450820923 0.80210578441619873
0.31303068995475769 0.81264394521713257 0.80608093738555908
0.44206109642982483 0.82085442543029785 0.81595903635025024
0.5788804292678833 0.83444470167160034 0.82919168472290039
0.71881651878356934 0.84690505266189575 0.8461795449256897
0.86017441749572754 0.85742127895355225 0.86081975698471069
0.98702335357666016 0.86142486333847046 0.83350712060928345
0.53889274597167969 0.94440436363220215 0.87181973457336426
0.56240296363830566 0.94493240118026733 0.87610483169555664
0.63363587856292725 0.94984012842178345 0.88514024019241333
0.71428871154785156 0.96131110191345215 0.89385521411895752
0.80385607481002808 0.97148913145065308 0.90657609701156616
0.90042746067047119 0.98104089498519897 0.91946864128112793
0.99163240194320679 0.99109804630279541 0.9014822244644165
0 0.0049397936090826988 0.70285016298294067
0.0023592929355800152 0.0096504511311650276 0.72524785995483398
0.10371431708335876 0.019405649974942207 0.7568168044090271
0.29439231753349304 0.025191707536578178 0.79742491245269775
0.51960724592208862 0.018660301342606544 0.82992559671401978
0.72671198844909668 0.0020791895221918821 0.82080572843551636
0.91548210382461548 0 0.76691156625747681
0 0.12298993766307831 0.73426961898803711
0.015395116060972214 0.12776641547679901 0.75330513715744019
0.13022899627685547 0.13910812139511108 0.78473776578903198
0.31681621074676514 0.14786000549793243 0.82504367828369141
0.53489476442337036 0.13961200416088104 0.86311423778533936
0.73820245265960693 0.096283063292503357 0.88823783397674561
0.92027968168258667 0.048351123929023743 0.86942601203918457
0 0.28072229027748108 0.75769811868667603
0.0082350932061672211 0.28492891788482666 0.77159410715103149
0.12731574475765228 0.29629635810852051 0.79890459775924683
0.33718380331993103 0.30746793746948242 0.83608406782150269
0.55850964784622192 0.31387946009635925 0.87146824598312378
0.75975847244262695 0.28612947463989258 0.9033547043800354
0.93489426374435425 0.22267767786979675 0.90566456317901611
0 0.4615027904510498 0.78348338603973389
0.00047601439291611314 0.47127392888069153 0.79368966817855835
0.12345001846551895 0.48243427276611328 0.81625092029571533
0.36302629113197327 0.4913640022277832 0.8512154221534729
0.58870935440063477 0.50237321853637695 0.88469988107681274
0.78263401985168457 0.49645677208900452 0.91674351692199707
0.95001769065856934 0.45831263065338135 0.91919052600860596
0.00057835300685837865 0.64191997051239014 0.81648457050323486
0.031385939568281174 0.65021109580993652 0.82526403665542603
0.21497470140457153 0.65969401597976685 0.84510660171508789
0.42945122718811035 0.67000621557235718 0.87517023086547852
0.62866151332855225 0.68453168869018555 0.90685886144638062
0.80636942386627197 0.69369214773178101 0.93608909845352173
0.96321940422058105 0.67637747526168823 0.93899542093276978
0.15548312664031982 0.80289989709854126 0.85440903902053833
0.19109529256820679 0.80828690528869629 0.8596845269203186
0.37040752172470093 0.81446164846420288 0.87613201141357422
0.53451383113861084 0.8273124098777771 0.89891582727432251
0.681884765625 0.84465485811233521 0.92268568277359009
0.83576035499572754 0.85556745529174805 0.951468825340271
0.9726870059967041 0.84822940826416016 0.96215695142745972
0.49110585451126099 0.93569022417068481 0.9073830246925354
0.50293904542922974 0.93945407867431641 0.91194659471511841
0.59748774766921997 0.94414764642715454 0.92422199249267578
0.68921923637390137 0.95529633760452271 0.94305533170700073
0.78480702638626099 0.9677463173866272 0.95942389965057373
0.89167952537536621 0.9776986837387085 0.9750092625617981
0.98490113019943237 0.98605901002883911 0.98768407106399536
