assets/lut/films colorslide polaroid 690.cube
# Created by: G'MIC (https://gmic.eu)
TITLE "polaroid_690"
# LUT size
LUT_3D_SIZE 5
# Data domain
DOMAIN_MIN 0.0 0.0 0.0
DOMAIN_MAX 1.0 1.0 1.0
# LUT data points
0.045175887644290924 0.055202394723892212 0.05071645975112915
0.17126384377479553 0.040343821048736572 0.053004831075668335
0.47176378965377808 0 0.04911905899643898
0.79285001754760742 0 0.021843286231160164
0.99584859609603882 0 0
0.018185993656516075 0.19325792789459229 0.045687373727560043
0.23073697090148926 0.22001895308494568 0.025918504223227501
0.61587250232696533 0.21903780102729797 0.003924680408090353
0.87925976514816284 0.10192878544330597 0.00040399888530373573
0.99930673837661743 0.070608921349048615 0
0.00014935662329662591 0.49511119723320007 0
0.20394738018512726 0.49052855372428894 0
0.58269882202148438 0.54937064647674561 0
0.89519548416137695 0.60031694173812866 0
1 0.60998409986495972 0.013676871545612812
0.14367713034152985 0.73640275001525879 0
0.26806142926216125 0.73901736736297607 0
0.57544153928756714 0.7473950982093811 0
0.8438723087310791 0.77742576599121094 0
0.99827516078948975 0.79562270641326904 0.00089652865426614881
0.52573674917221069 0.94095349311828613 0.18403659760951996
0.58270502090454102 0.93685156106948853 0.14962995052337646
0.70832830667495728 0.93946361541748047 0.11638028174638748
0.84932446479797363 0.9536287784576416 0.14885874092578888
0.98608136177062988 0.9748690128326416 0.16645552217960358
0.0095981070771813393 0.061754759401082993 0.19872355461120605
0.20083092153072357 0.042203251272439957 0.23627369105815887
0.47703313827514648 0.0017990859923884273 0.20761135220527649
0.75644266605377197 0.013693895190954208 0.18958528339862823
0.99202340841293335 0.0046265097334980965 0.1274319589138031
0.01107737235724926 0.21486963331699371 0.24182784557342529
0.26056963205337524 0.23451654613018036 0.2635805606842041
0.58309412002563477 0.16621334850788116 0.24386058747768402
0.84401959180831909 0.034757398068904877 0.20221421122550964
0.99903786182403564 0.0068707186728715897 0.14854618906974792
0 0.55130100250244141 0.26633259654045105
0.2329820841550827 0.53186774253845215 0.24623113870620728
0.60591107606887817 0.57042402029037476 0.20027348399162292
0.8924526572227478 0.60471314191818237 0.26332420110702515
0.99989694356918335 0.58520793914794922 0.26532340049743652
0.069228947162628174 0.76664078235626221 0.21172907948493958
0.28797650337219238 0.75241953134536743 0.16999796032905579
0.57798010110855103 0.75129967927932739 0.13975848257541656
0.840812087059021 0.77700471878051758 0.1531776487827301
0.99704855680465698 0.79604697227478027 0.29688087105751038
0.50565820932388306 0.94507169723510742 0.39039283990859985
0.56838101148605347 0.94154280424118042 0.36410456895828247
0.69222170114517212 0.93820047378540039 0.31759351491928101
0.84121906757354736 0.95421534776687622 0.34279736876487732
0.97455549240112305 0.97286498546600342 0.37300312519073486
0.0021857018582522869 0.061516378074884415 0.56286716461181641
0.13433398306369781 0.019018540158867836 0.60346406698226929
0.62779766321182251 0 0.65423828363418579
0.82674670219421387 0 0.54854804277420044
0.99111735820770264 0.002237596781924367 0.48659157752990723
3.3255182643188164e-05 0.22056771814823151 0.56478863954544067
0.23034027218818665 0.24427574872970581 0.61662089824676514
0.63571000099182129 0.25062933564186096 0.65522629022598267
0.83049517869949341 0.1411394327878952 0.55663067102432251
0.99326050281524658 0.014391207136213779 0.47837600111961365
0.0018067752243950963 0.56215447187423706 0.6096804141998291
0.30939781665802002 0.57151752710342407 0.61934340000152588
0.62520414590835571 0.60420733690261841 0.64173620939254761
0.85069197416305542 0.53335046768188477 0.58951485157012939
0.99661850929260254 0.40307843685150146 0.47780677676200867
0.27698168158531189 0.79062736034393311 0.61491906642913818
0.39868193864822388 0.78816843032836914 0.6103668212890625
0.59897655248641968 0.77158540487289429 0.57239574193954468
0.83311969041824341 0.78751260042190552 0.58663266897201538
0.987682044506073 0.80946916341781616 0.6605035662651062
0.49319353699684143 0.94640934467315674 0.64967399835586548
0.54787546396255493 0.94943511486053467 0.63157933950424194
0.65445011854171753 0.94051188230514526 0.58731549978256226
0.81067299842834473 0.95048731565475464 0.58225798606872559
0.95855820178985596 0.97516053915023804 0.62476003170013428
0.00020742978085763752 0.047935396432876587 0.86102843284606934
0.23198673129081726 0.022583112120628357 0.86831212043762207
0.65177017450332642 0.0078781573101878166 0.89884454011917114
0.9102293848991394 0.092356570065021515 0.90147203207015991
0.99858200550079346 0.079248033463954926 0.83485692739486694
0.015862828120589256 0.25591850280761719 0.85462206602096558
0.29084566235542297 0.26309323310852051 0.86617720127105713
0.66163289546966553 0.30990561842918396 0.89334762096405029
0.89488959312438965 0.39323121309280396 0.89679527282714844
0.99810338020324707 0.33392578363418579 0.8271859884262085
0.00058997661108151078 0.50582432746887207 0.81065994501113892
0.23255427181720734 0.51481783390045166 0.81909024715423584
0.61635369062423706 0.59001630544662476 0.85740643739700317
0.85270518064498901 0.66048997640609741 0.88549947738647461
0.97848159074783325 0.55380022525787354 0.81111687421798706
0.37476226687431335 0.78698372840881348 0.8452039361000061
0.48772051930427551 0.7880980372428894 0.84633570909500122
0.65688019990921021 0.78925472497940063 0.8535541296005249
0.83074331283569336 0.80642670392990112 0.87076717615127563
0.96709644794464111 0.74705338478088379 0.81821882724761963
0.62453848123550415 0.9590880274772644 0.87304723262786865
0.64522850513458252 0.95634943246841431 0.86957967281341553
0.71039271354675293 0.95786118507385254 0.86151671409606934
0.80236101150512695 0.95982551574707031 0.83791458606719971
0.93603122234344482 0.97795039415359497 0.84834921360015869
0.47410589456558228 0.25158941745758057 0.99729800224304199
0.56277650594711304 0.2601071298122406 0.99641865491867065
0.73430711030960083 0.30566999316215515 0.99628233909606934
0.89610540866851807 0.43681952357292175 0.99949109554290771
0.99606037139892578 0.55379021167755127 0.99565333127975464
0.49480229616165161 0.4060397744178772 0.99723100662231445
0.57188558578491211 0.41771948337554932 0.9968721866607666
0.73357135057449341 0.4721570611000061 0.99666005373001099
0.88033789396286011 0.57620292901992798 0.99591821432113647
0.99076682329177856 0.63980931043624878 0.99342608451843262
0.46423959732055664 0.62095004320144653 0.98740744590759277
0.55105090141296387 0.62655383348464966 0.98739445209503174
0.72211998701095581 0.66245883703231812 0.98984229564666748
0.86764723062515259 0.71684664487838745 0.99057871103286743
0.9792291522026062 0.75187957286834717 0.98863667249679565
0.47516399621963501 0.78869980573654175 0.97431743144989014
0.52096825838088989 0.78038299083709717 0.97407078742980957
0.6654733419418335 0.78250998258590698 0.97229725122451782
0.83227276802062988 0.80892103910446167 0.97459089756011963
0.95885562896728516 0.86709165573120117 0.98417043685913086
0.67976540327072144 0.9648166298866272 0.97493326663970947
0.70781630277633667 0.96741163730621338 0.97694176435470581
0.75726538896560669 0.97128772735595703 0.97984915971755981
0.83825653791427612 0.97649216651916504 0.97620970010757446
0.93303757905960083 0.98862218856811523 0.97974777221679688
