assets/lut/films colorslide polaroid 690.cube
# Created by: G'MIC (https://gmic.eu)
TITLE "polaroid_690"
# LUT size
LUT_3D_SIZE 13
# Data domain
DOMAIN_MIN 0.0 0.0 0.0
DOMAIN_MAX 1.0 1.0 1.0
# LUT data points
0.045175887644290924 0.055202394723892212 0.05071645975112915
0.067410729825496674 0.056074418127536774 0.050946883857250214
0.1084650531411171 0.051180940121412277 0.052129693329334259
0.17126384377479553 0.040343821048736572 0.053004831075668335
0.25659003853797913 0.015446756035089493 0.054548375308513641
0.35962095856666565 0.00018689024727791548 0.053476713597774506
0.47176378965377808 0 0.04911905899643898
0.5871698260307312 0.00013049256813246757 0.042841475456953049
0.69596743583679199 0.00028159946668893099 0.034127701073884964
0.79285001754760742 0 0.021843286231160164
0.87879639863967896 0 0.0080141406506299973
0.95046544075012207 0 0.00060436769854277372
0.99584859609603882 0 0
0.047793325036764145 0.0777159184217453 0.055581800639629364
0.072599254548549652 0.079959318041801453 0.054768342524766922
0.11874809861183167 0.080307945609092712 0.054582603275775909
0.19032944738864899 0.075040005147457123 0.053508248180150986
0.28558319807052612 0.050858397036790848 0.051620393991470337
0.39371228218078613 0.013612246140837669 0.048832688480615616
0.50587010383605957 0.00017985924205277115 0.044281333684921265
0.61963886022567749 0 0.036078881472349167
0.72480869293212891 0 0.026300616562366486
0.81882196664810181 0 0.015764662995934486
0.90142452716827393 0 0.0051660872995853424
0.96742874383926392 0 0.00022170122247189283
0.99922269582748413 0 0
0.038586247712373734 0.12096406519412994 0.057216569781303406
0.071708559989929199 0.12412610650062561 0.053669635206460953
0.12913332879543304 0.13147801160812378 0.049436531960964203
0.21506507694721222 0.13637357950210571 0.043708339333534241
0.32485276460647583 0.12701115012168884 0.037352003157138824
0.44471436738967896 0.096533007919788361 0.0314369797706604
0.55914926528930664 0.053233545273542404 0.028197240084409714
0.66761475801467896 0.024215921759605408 0.022362308576703072
0.7623145580291748 0.0040011536329984665 0.014100437983870506
0.84722107648849487 0 0.0075464886613190174
0.92164230346679688 9.1403140686452389e-05 0.002278301864862442
0.97655284404754639 0.00035768398083746433 5.5290671298280358e-05
0.99967795610427856 0.00011488970631035045 0
0.018185993656516075 0.19325792789459229 0.045687373727560043
0.063649483025074005 0.19424934685230255 0.042425282299518585
0.13319432735443115 0.20470650494098663 0.035848010331392288
0.23073697090148926 0.22001895308494568 0.025918504223227501
0.35226619243621826 0.23011381924152374 0.016124052926898003
0.4872136116027832 0.23055686056613922 0.0068065118975937366
0.61587250232696533 0.21903780102729797 0.003924680408090353
0.72435557842254639 0.18936842679977417 0.0041596358641982079
0.80599963665008545 0.14172431826591492 0.001356655964627862
0.87925976514816284 0.10192878544330597 0.00040399888530373573
0.94304460287094116 0.098042473196983337 9.1283458459656686e-05
0.98411118984222412 0.088235162198543549 0
0.99930673837661743 0.070608921349048615 0
0.0067078233696520329 0.29495489597320557 0.016887364909052849
0.052195411175489426 0.29171258211135864 0.016985021531581879
0.12769611179828644 0.29662349820137024 0.013932441361248493
0.23017141222953796 0.31232413649559021 0.0071625206619501114
0.35400724411010742 0.33144161105155945 0.002951648086309433
0.49122300744056702 0.345429927110672 0.0008275200380012393
0.62829631567001343 0.35650300979614258 7.1626549470238388e-05
0.7486344575881958 0.36354592442512512 0.00056589161977171898
0.83596503734588623 0.35648977756500244 0.00041695390245877206
0.90705734491348267 0.33683919906616211 0
0.96239829063415527 0.31971308588981628 0
0.99312484264373779 0.29961618781089783 0
0.99980765581130981 0.28629696369171143 2.0225375919835642e-05
0.0013315986143425107 0.39914831519126892 0.0018908631755039096
0.036880329251289368 0.39512094855308533 0.0014957353705540299
0.11390931159257889 0.39359995722770691 0.0008343416266143322
0.21910335123538971 0.40291598439216614 0.00010398415906820446
0.34144893288612366 0.42199695110321045 3.0517578125e-05
0.47429600358009338 0.44300800561904907 4.487879323278321e-06
0.60925883054733276 0.46217334270477295 0
0.73184871673583984 0.47910097241401672 0.00016666487499605864
0.83252382278442383 0.49149763584136963 0.00036930758506059647
0.91162031888961792 0.49830663204193115 0
0.96759659051895142 0.49325519800186157 0
0.99676668643951416 0.48333615064620972 1.2566061968755093e-06
1 0.47981512546539307 0.0022128385026007891
0.00014935662329662591 0.49511119723320007 0
0.023554828017950058 0.4925169050693512 0
0.098322443664073944 0.48843768239021301 0
0.20394738018512726 0.49052855372428894 0
0.32539564371109009 0.50518357753753662 0
0.4537319540977478 0.52723133563995361 0
0.58269882202148438 0.54937064647674561 0
0.70335245132446289 0.56905454397201538 0
0.80896198749542236 0.58658748865127563 0
0.89519548416137695 0.60031694173812866 0
0.95835620164871216 0.60687875747680664 0
0.99409735202789307 0.61022269725799561 0.00060341029893606901
1 0.60998409986495972 0.013676871545612812
0.0038902282249182463 0.58429348468780518 0
0.026185637339949608 0.5843924880027771 0
0.092342719435691833 0.5809178352355957 9.7237380032311194e-06
0.19332294166088104 0.57825243473052979 0.00013943840167485178
0.31408518552780151 0.586314857006073 0
0.43927443027496338 0.60372364521026611 0
0.56231284141540527 0.62392204999923706 0
0.67811030149459839 0.64284783601760864 0.00016102510562632233
0.78273749351501465 0.65921580791473389 0.00084149232134222984
0.87314474582672119 0.67183202505111694 3.1504911021329463e-05
0.94421672821044922 0.67976462841033936 0
0.98961424827575684 0.68446218967437744 0.0013273650547489524
1 0.68739217519760132 0.020223161205649376
0.047786474227905273 0.66513574123382568 0
0.064860157668590546 0.66840463876724243 0
0.11515416204929352 0.66888135671615601 0.00029871324659325182
0.20763891935348511 0.6649785041809082 0.00037378049455583096
0.32395520806312561 0.66519349813461304 0
0.4433254599571228 0.67444431781768799 0
0.55819225311279297 0.68876457214355469 0
0.66560769081115723 0.70431822538375854 0.00044067981070838869
0.76451283693313599 0.71757411956787109 0.0023111379705369473
0.8544127345085144 0.72743713855743408 5.9509278798941523e-05
0.92925769090652466 0.73372042179107666 0
0.98204028606414795 0.73760408163070679 0.0001964943076018244
0.99989569187164307 0.74193882942199707 0.0071688485331833363
0.14367713034152985 0.73640275001525879 0
0.1535574197769165 0.74033826589584351 0
0.19134236872196198 0.74262195825576782 0
0.26806142926216125 0.73901736736297607 0
0.36941516399383545 0.73538178205490112 0
0.47396773099899292 0.73873615264892578 0
0.57544153928756714 0.7473950982093811 0
0.67124712467193604 0.75828456878662109 0
0.76036697626113892 0.76885110139846802 0
0.8438723087310791 0.77742576599121094 0
0.91567379236221313 0.78408235311508179 0
0.97051721811294556 0.79007631540298462 1.750272872413916e-06
0.99827516078948975 0.79562270641326904 0.00089652865426614881
0.27003884315490723 0.80121558904647827 0
0.28154471516609192 0.80269670486450195 0
0.31244447827339172 0.80341875553131104 0
0.37099286913871765 0.80086272954940796 0
0.4472050666809082 0.79829984903335571 0
0.52896809577941895 0.79997092485427856 0
0.61172282695770264 0.80508565902709961 0
0.69202786684036255 0.81221574544906616 0
0.76884108781814575 0.82022321224212646 0
0.84042364358901978 0.82854282855987549 0
0.90567231178283691 0.83655935525894165 0
0.95930683612823486 0.84427529573440552 0
0.99511653184890747 0.85158085823059082 0.0021374721545726061
0.40262451767921448 0.86694127321243286 0.007238470483571291
0.41653653979301453 0.86591851711273193 0.0051889009773731232
0.44126439094543457 0.86640781164169312 0.010646237060427666
0.48394811153411865 0.86408448219299316 0.0065935770981013775
0.53788793087005615 0.8628164529800415 0.0027491850778460503
0.59617680311203003 0.86472564935684204 0.004888616967946291
0.65850836038589478 0.86847591400146484 0.0027956045232713223
0.72195696830749512 0.87276387214660645 0.00042817357461899519
0.7841181755065918 0.87892365455627441 0.0020646636839956045
0.84245973825454712 0.88658028841018677 0.0075874477624893188
0.8982551097869873 0.89452731609344482 0.0073720146901905537
0.94919830560684204 0.90275228023529053 0.0075991763733327389
0.99014419317245483 0.91109544038772583 0.03710918128490448
0.52573674917221069 0.94095349311828613 0.18403659760951996
0.53628379106521606 0.9382244348526001 0.16293452680110931
0.55293041467666626 0.9393506646156311 0.17176643013954163
0.58270502090454102 0.93685156106948853 0.14962995052337646
0.62080258131027222 0.93397074937820435 0.12653140723705292
0.6624305248260498 0.93661385774612427 0.13100236654281616
0.70832830667495728 0.93946361541748047 0.11638028174638748
0.75616753101348877 0.94273984432220459 0.096405670046806335
0.80353730916976929 0.94790452718734741 0.12162692844867706
0.84932446479797363 0.9536287784576416 0.14885874092578888
0.89550590515136719 0.95966935157775879 0.147438645362854
0.94295752048492432 0.96726882457733154 0.14074888825416565
0.98608136177062988 0.9748690128326416 0.16645552217960358
0.044045407325029373 0.056776832789182663 0.076043613255023956
0.069351717829704285 0.060183834284543991 0.076318375766277313
0.11010552197694778 0.057177450507879257 0.077053502202033997
0.17351086437702179 0.042410682886838913 0.077371783554553986
0.2587941586971283 0.01273052766919136 0.079230532050132751
0.35908517241477966 0 0.080452427268028259
0.46804836392402649 5.5814256484154612e-05 0.076352648437023163
0.57921785116195679 0.0022384044714272022 0.070777654647827148
0.68512928485870361 0.0031234591733664274 0.064548313617706299
0.78377300500869751 0.00070944393519312143 0.053232859820127487
0.87449127435684204 4.9202113586943597e-05 0.037415746599435806
0.95158290863037109 0.00024798524100333452 0.021102456375956535
0.99723172187805176 7.5037336500827223e-05 0.010848565027117729
0.046760663390159607 0.078874625265598297 0.081107057631015778
0.07536742091178894 0.082516565918922424 0.082252427935600281
0.12338066846132278 0.082023859024047852 0.083832971751689911
0.19461365044116974 0.071859411895275116 0.08240547776222229
0.28689160943031311 0.041366830468177795 0.082333855330944061
0.39228060841560364 0.0092315226793289185 0.081553593277931213
0.50319105386734009 0.00028270645998418331 0.075115665793418884
0.61305350065231323 0 0.065604187548160553
0.71508580446243286 0 0.057104028761386871
0.8101990818977356 0 0.04536907747387886
0.89806109666824341 0 0.031665261834859848
0.97081047296524048 0.00045718025648966432 0.01855367049574852
0.99995851516723633 0.00024623496574349701 0.012283534742891788
0.039687465876340866 0.1250927746295929 0.087798222899436951
0.074742123484611511 0.12909351289272308 0.086338326334953308
0.13368964195251465 0.133989617228508 0.084132581949234009
0.22047637403011322 0.13436742126941681 0.081955000758171082
0.32922333478927612 0.12319520115852356 0.080266110599040985
0.44573301076889038 0.092574372887611389 0.078715518116950989
0.55754977464675903 0.046891964972019196 0.073816694319248199
0.65981781482696533 0.013762949034571648 0.06342817097902298
0.75285094976425171 0.0016902399947866797 0.050674811005592346
0.83967465162277222 0 0.039330173283815384
0.91890150308609009 0 0.027422273531556129
0.97968339920043945 0.00053241208661347628 0.01606769859790802
1 0.0015873628435656428 0.012428148649632931
0.023174045607447624 0.20259545743465424 0.086035184562206268
0.067541427910327911 0.20389454066753387 0.082777939736843109
0.13827279210090637 0.2106751948595047 0.076782137155532837
0.23776248097419739 0.22263211011886597 0.068636998534202576
0.35968098044395447 0.23102307319641113 0.063398204743862152
0.4922187328338623 0.22797490656375885 0.062685556709766388
0.61441856622695923 0.20656940340995789 0.056264616549015045
0.71501356363296509 0.16891148686408997 0.04714641347527504
0.79756635427474976 0.12452075630426407 0.034856848418712616
0.87348145246505737 0.08493785560131073 0.027946576476097107
0.94042015075683594 0.071033596992492676 0.017722604796290398
0.98800712823867798 0.080898657441139221 0.0069369296543300152
1 0.080570757389068604 0.0054929396137595177
0.007236480712890625 0.30527523159980774 0.071165122091770172
0.052275355905294418 0.30301031470298767 0.066851414740085602
0.13118818402290344 0.30449971556663513 0.05856737494468689
0.23683583736419678 0.31720024347305298 0.046015527099370956
0.36131387948989868 0.33436056971549988 0.037561528384685516
0.49913623929023743 0.34682562947273254 0.033355787396430969
0.6311381459236145 0.35534906387329102 0.027704635635018349
0.74524062871932983 0.35889703035354614 0.031774826347827911
0.83333307504653931 0.34928730130195618 0.024514904245734215
0.90354460477828979 0.32765412330627441 0.015811815857887268
0.96138787269592285 0.31041702628135681 0.0070550655946135521
0.99687469005584717 0.2953636646270752 0.0012783424463123083
1 0.28066551685333252 0.0014382755616679788
0.00025678149540908635 0.41251137852668762 0.051536004990339279
0.027941355481743813 0.40870958566665649 0.044682566076517105
0.11148232966661453 0.40404772758483887 0.033613570034503937
0.22541506588459015 0.40849098563194275 0.021781353279948235
0.35020351409912109 0.42523512244224548 0.016881233081221581
0.48226282000541687 0.4460889995098114 0.0079019581899046898
0.61384838819503784 0.4656793475151062 0.0045393253676593304
0.73382270336151123 0.4818967878818512 0.012499267235398293
0.83353990316390991 0.49254384636878967 0.015045091509819031
0.91148829460144043 0.49598017334938049 0.01013997383415699
0.96932989358901978 0.49403011798858643 0.0092045050114393234
0.99866753816604614 0.48538291454315186 0.0090719936415553093
1 0.47435116767883301 0.023359591141343117
0 0.51136201620101929 0.030507748946547508
0.010699507780373096 0.50840753316879272 0.022646540775895119
0.092096202075481415 0.50063061714172363 0.012398977763950825
0.21215057373046875 0.49779149889945984 0.0053044487722218037
0.33571425080299377 0.50969243049621582 0.0035294028930366039
0.46052461862564087 0.53210490942001343 0.00040515075670555234
0.58643758296966553 0.554981529712677 0
0.70572686195373535 0.57287847995758057 0.00014810000720899552
0.8107295036315918 0.58858013153076172 0.00025275736697949469
0.89693886041641235 0.60234975814819336 0.0014720842009410262
0.96225142478942871 0.61131757497787476 0.012062401510775089
0.99696356058120728 0.6145743727684021 0.034712549299001694
1 0.60967141389846802 0.07858625054359436
2.7675255296344403e-06 0.60085952281951904 0.012021427974104881
0.0087335770949721336 0.59964346885681152 0.0068700006231665611
0.085050083696842194 0.59346145391464233 0.0017114077927544713
0.20214018225669861 0.58782744407653809 0.00055191939463838935
0.32425081729888916 0.59279531240463257 0.00028336470131762326
0.44479790329933167 0.60904794931411743 0
0.56527227163314819 0.62923246622085571 0
0.68077653646469116 0.64715951681137085 0
0.78520780801773071 0.66149783134460449 0
0.87499475479125977 0.67298978567123413 6.9113339122850448e-06
0.94696229696273804 0.68183034658432007 0.0049959071911871433
0.99140018224716187 0.6872984766960144 0.038086626678705215
0.99999010562896729 0.68968933820724487 0.091309733688831329
0.020071141421794891 0.67944568395614624 0.001880211872048676
0.041475020349025726 0.68079513311386108 0.00069433473981916904
0.11180324107408524 0.67755746841430664 2.6328891635785112e-06
0.21663166582584381 0.67142623662948608 0
0.33226636052131653 0.66999465227127075 0
0.44762897491455078 0.67809104919433594 0
0.56044000387191772 0.69230782985687256 0
0.66797542572021484 0.70709484815597534 0
0.76673203706741333 0.71885484457015991 0
0.85481017827987671 0.72738146781921387 0
0.92920017242431641 0.73288732767105103 0.0001423106441507116
0.98055452108383179 0.73648124933242798 0.0080771651118993759
0.9990043044090271 0.74048644304275513 0.036358807235956192
0.12293755263090134 0.74732756614685059 0
0.1398472934961319 0.74880808591842651 0
0.1924419105052948 0.74704843759536743 0
0.27651497721672058 0.74168729782104492 0
0.37546774744987488 0.73763513565063477 0
0.47704398632049561 0.74013984203338623 0
0.57664656639099121 0.74823051691055298 0
0.67234009504318237 0.75837010145187378 0
0.76171994209289551 0.76788991689682007 0
0.84361767768859863 0.77568924427032471 0
0.91500717401504517 0.78179746866226196 0
0.96941912174224854 0.78693127632141113 0.00035373462014831603
0.99754053354263306 0.79251348972320557 0.014299938455224037
0.26633822917938232 0.8093445897102356 0.00020663691975641996
0.280101478099823 0.80843168497085571 0.00029932658071629703
0.31661275029182434 0.80679011344909668 0.00048772775335237384
0.37623021006584167 0.802684485912323 3.702500180224888e-05
0.45088446140289307 0.79870474338531494 0
0.53074091672897339 0.79933851957321167 0
0.61208438873291016 0.80392944812774658 0
0.69267970323562622 0.81009894609451294 0
0.76953589916229248 0.81740587949752808 0
0.84056419134140015 0.82570654153823853 0
0.90583610534667969 0.83383709192276001 0
0.96011120080947876 0.84120708703994751 2.7974447220913135e-05
0.9954105019569397 0.84859538078308105 0.016518911346793175
0.40447321534156799 0.87296897172927856 0.043734189122915268
0.41934803128242493 0.87033641338348389 0.036190465092658997
0.44434827566146851 0.86950004100799561 0.042268611490726471
0.48513889312744141 0.86610704660415649 0.025942424312233925
0.53813421726226807 0.86284500360488892 0.010752479545772076
0.59586578607559204 0.86408638954162598 0.019597699865698814
0.65778684616088867 0.86765730381011963 0.019258372485637665
0.72175425291061401 0.87160229682922363 0.011886013671755791
0.78473502397537231 0.87608534097671509 0.0076153771951794624
0.84251642227172852 0.88381731510162354 0.012453131377696991
0.89781111478805542 0.89239621162414551 0.01123281754553318
0.94922554492950439 0.90041494369506836 0.0093630021438002586
0.98944544792175293 0.90870374441146851 0.057134620845317841
0.5228649377822876 0.94378197193145752 0.23293872177600861
0.5356563925743103 0.9419589638710022 0.21676146984100342
0.55241972208023071 0.94174760580062866 0.22097146511077881
0.58012539148330688 0.93908274173736572 0.19284102320671082
0.61782580614089966 0.93480116128921509 0.16394031047821045
0.65965908765792847 0.93750160932540894 0.18120720982551575
0.70550417900085449 0.94079881906509399 0.17890673875808716
0.7541043758392334 0.94480770826339722 0.1669689267873764
0.80203980207443237 0.94758224487304688 0.16624486446380615
0.84739905595779419 0.95292872190475464 0.17777936160564423
0.89238196611404419 0.95922231674194336 0.1789533942937851
0.93818295001983643 0.96590334177017212 0.17688499391078949
0.98146569728851318 0.97335255146026611 0.20266079902648926
0.034707490354776382 0.058642636984586716 0.12296434491872787
0.067727796733379364 0.061437152326107025 0.12706559896469116
0.11866080760955811 0.058948680758476257 0.13376781344413757
0.18390826880931854 0.049126628786325455 0.13179780542850494
0.26382780075073242 0.022384284064173698 0.12927277386188507
0.36132520437240601 0.00084705726476386189 0.13041333854198456
0.46635031700134277 0.0011509016621857882 0.12605315446853638
0.57128345966339111 0.010614491999149323 0.12251176685094833
0.67149341106414795 0.013345531187951565 0.1202516108751297
0.76854908466339111 0.0087382597848773003 0.1094714030623436
0.86068034172058105 0.0042616301216185093 0.093885131180286407
0.94203025102615356 0.0067534502595663071 0.073114581406116486
0.99519675970077515 0.0028668423183262348 0.055913198739290237
0.037621308118104935 0.081343770027160645 0.13207708299160004
0.072821944952011108 0.084839791059494019 0.137080118060112
0.12974563241004944 0.085921131074428558 0.14204071462154388
0.20120237767696381 0.076657883822917938 0.14036132395267487
0.28439044952392578 0.046828504651784897 0.13584282994270325
0.38569766283035278 0.011721831746399403 0.13447229564189911
0.49627131223678589 0.00050768384244292974 0.12827688455581665
0.60250985622406006 0.00077608891297131777 0.12056475132703781
0.69936066865921021 0.00050943414680659771 0.11621636897325516
0.79392725229263306 0.00082717597251757979 0.10062932223081589
0.88324159383773804 0.00054559146519750357 0.087332688271999359
0.9578784704208374 0.0042195939458906651 0.073083184659481049
0.99781763553619385 0.0033670463599264622 0.062981262803077698
0.034817967563867569 0.12921471893787384 0.1438031792640686
0.074391640722751617 0.13329493999481201 0.14581355452537537
0.14026586711406708 0.13814033567905426 0.14904399216175079
0.2255823016166687 0.13527433574199677 0.15010115504264832
0.32479596138000488 0.12077558785676956 0.14800144731998444
0.43537533283233643 0.088659502565860748 0.14736858010292053
0.54613256454467773 0.041197847574949265 0.14362302422523499
0.64611148834228516 0.0097950650379061699 0.13200841844081879
0.73728001117706299 0.00049516267608851194 0.11951196938753128
0.82504057884216309 0 0.10111145675182343
0.9063534140586853 0 0.087252266705036163
0.96995282173156738 6.4326268329750746e-06 0.073405168950557709
0.99876135587692261 0.00019193162734154612 0.066498957574367523
0.023557102307677269 0.21022069454193115 0.15451526641845703
0.072089403867721558 0.21345695853233337 0.15507082641124725
0.14969141781330109 0.21944098174571991 0.15503349900245667
0.24865807592868805 0.22697661817073822 0.15259529650211334
0.36380308866500854 0.22701135277748108 0.15180246531963348
0.48956191539764404 0.21914596855640411 0.15571516752243042
0.60642403364181519 0.18899469077587128 0.15269529819488525
0.70133799314498901 0.14339081943035126 0.14064466953277588
0.7843596339225769 0.095696166157722473 0.12742148339748383
0.86132603883743286 0.056314550340175629 0.11127421259880066
0.93200421333312988 0.037274498492479324 0.092486314475536346
0.98395842313766479 0.04381154477596283 0.070877581834793091
0.99974769353866577 0.042984217405319214 0.061841432005167007
0.0076651927083730698 0.31608903408050537 0.1586974710226059
0.054456029087305069 0.31777223944664001 0.15691186487674713
0.14091160893440247 0.31747442483901978 0.15148434042930603
0.25073674321174622 0.32458987832069397 0.14220727980136871
0.37336522340774536 0.33576926589012146 0.13542231917381287
0.50844234228134155 0.34704628586769104 0.13106757402420044
0.63553333282470703 0.35153737664222717 0.13270100951194763
0.74063515663146973 0.34526696801185608 0.14052735269069672
0.82641637325286865 0.32771465182304382 0.13517268002033234
0.89656668901443481 0.29537808895111084 0.12238944321870804
0.95626819133758545 0.27053540945053101 0.096862584352493286
0.9958077073097229 0.25889095664024353 0.068289153277873993
1 0.24551115930080414 0.05314287543296814
0.0001059139467542991 0.42802563309669495 0.15157169103622437
0.02020028792321682 0.42782458662986755 0.14409676194190979
0.10964419692754745 0.42153662443161011 0.13289767503738403
0.2342357337474823 0.4190276563167572 0.12259078770875931
0.3611716628074646 0.42997890710830688 0.11275295168161392
0.49386677145957947 0.45118468999862671 0.091176427900791168
0.62357211112976074 0.47045081853866577 0.08643399178981781
0.7386164665222168 0.48479992151260376 0.10786613076925278
0.83446425199508667 0.49334818124771118 0.12274901568889618
0.90912210941314697 0.49292886257171631 0.13020864129066467
0.9654395580291748 0.48178797960281372 0.12460910528898239
0.99773490428924561 0.4648282527923584 0.098587691783905029
1 0.45740854740142822 0.092676721513271332
0 0.53048884868621826 0.13266263902187347
0.0035356858279556036 0.52832949161529541 0.12005160748958588
0.085049211978912354 0.51931434869766235 0.10477181524038315
0.22141322493553162 0.51139217615127563 0.095503382384777069
0.34717652201652527 0.51739746332168579 0.083869442343711853
0.46927917003631592 0.53865677118301392 0.055576324462890625
0.59395104646682739 0.56137561798095703 0.037449438124895096
0.71129053831100464 0.577159583568573 0.04491322860121727
0.8127448558807373 0.59065407514572144 0.052220378071069717
