assets/lut/films negative color fuji superia x-tra 800.cube
# Created by: G'MIC (https://gmic.eu)
TITLE "fuji_superia_x-tra_800"
# LUT size
LUT_3D_SIZE 7
# Data domain
DOMAIN_MIN 0.0 0.0 0.0
DOMAIN_MAX 1.0 1.0 1.0
# LUT data points
0.059269744902849197 0.051630791276693344 0.05104248970746994
0.2045782059431076 0.035289973020553589 0.034896191209554672
0.34855729341506958 0.023641848936676979 0.022506535053253174
0.48595595359802246 0.010964471846818924 0.026289861649274826
0.62516278028488159 0.00048253676504828036 0.035381108522415161
0.75125741958618164 0 0.077801480889320374
0.8658592700958252 0.0014939401298761368 0.14025448262691498
0.12386187165975571 0.2099120020866394 0.10776340216398239
0.22636778652667999 0.20019936561584473 0.097933299839496613
0.36669951677322388 0.17936769127845764 0.086002647876739502
0.50705480575561523 0.14770710468292236 0.091877862811088562
0.64904814958572388 0.089388720691204071 0.085860371589660645
0.76703161001205444 0.024158313870429993 0.087909460067749023
0.87261801958084106 0.0001497455668868497 0.12507712841033936
0.17134600877761841 0.35565087199211121 0.13927555084228516
0.27016913890838623 0.35310310125350952 0.13035118579864502
0.39594617486000061 0.33972477912902832 0.13546355068683624
0.53671503067016602 0.31725114583969116 0.15575103461742401
0.68132299184799194 0.2787536084651947 0.16736708581447601
0.79687613248825073 0.20826813578605652 0.18245351314544678
0.89661484956741333 0.12258776277303696 0.18814665079116821
0.26854223012924194 0.5038720965385437 0.13232406973838806
0.34992960095405579 0.50978845357894897 0.11832410097122192
0.4564458429813385 0.50247663259506226 0.13052037358283997
0.58982563018798828 0.48814466595649719 0.16151660680770874
0.72274726629257202 0.46576064825057983 0.20114628970623016
0.83199477195739746 0.4259357750415802 0.25025808811187744
0.93413454294204712 0.3567425012588501 0.29387563467025757
0.34330090880393982 0.64759016036987305 0.11119090020656586
0.4119013249874115 0.65081483125686646 0.10670547187328339
0.54839789867401123 0.64804708957672119 0.073074504733085632
0.68566501140594482 0.64553290605545044 0.092740453779697418
0.80054807662963867 0.63257282972335815 0.15649408102035522
0.88237136602401733 0.60765552520751953 0.26795598864555359
0.97597420215606689 0.56544387340545654 0.36288505792617798
0.36742112040519714 0.7815442681312561 0.14205515384674072
0.43896323442459106 0.78213971853256226 0.12872402369976044
0.58877933025360107 0.77991127967834473 0.064214803278446198
0.75779998302459717 0.78079438209533691 0.020826376974582672
0.91654592752456665 0.77782183885574341 0.032161340117454529
0.98214268684387207 0.76303088665008545 0.11447746306657791
0.99960076808929443 0.73279750347137451 0.35507920384407043
0.34455129504203796 0.93275916576385498 0.20021919906139374
0.41738018393516541 0.93274480104446411 0.1828925758600235
0.55357599258422852 0.93453603982925415 0.12909974157810211
0.72693204879760742 0.93700981140136719 0.048591822385787964
0.92364585399627686 0.93830561637878418 0.0057208491489291191
1 0.93466925621032715 0
1 0.922507643699646 0.041721194982528687
0.044043373316526413 0.058606915175914764 0.16763761639595032
0.18570101261138916 0.039368484169244766 0.14603225886821747
0.32515367865562439 0.0204328503459692 0.13199859857559204
0.46815243363380432 0.011631744913756847 0.11643784493207932
0.61317139863967896 0.0028055827133357525 0.10851811617612839
0.74077147245407104 0.00056533812312409282 0.13842746615409851
0.86162501573562622 0.0064927493222057819 0.18259739875793457
0.10722440481185913 0.21488815546035767 0.21756699681282043
0.20608216524124146 0.20513202250003815 0.20470091700553894
0.34222131967544556 0.17973805963993073 0.19273513555526733
0.4892524778842926 0.15163053572177887 0.17896951735019684
0.63523834943771362 0.094437554478645325 0.15904277563095093
0.75424456596374512 0.025487577542662621 0.15097662806510925
0.86961859464645386 0 0.1650116890668869
0.14238888025283813 0.3570837676525116 0.24131828546524048
0.24206484854221344 0.35194689035415649 0.23540809750556946
0.36830675601959229 0.34062215685844421 0.2357107549905777
0.51623082160949707 0.32140100002288818 0.23675958812236786
0.66584771871566772 0.28863918781280518 0.23510822653770447
0.78203076124191284 0.21231035888195038 0.23803511261940002
0.88992226123809814 0.1106436625123024 0.22665654122829437
0.23604053258895874 0.50993788242340088 0.22703586518764496
0.30823513865470886 0.50828093290328979 0.22463862597942352
0.41934621334075928 0.50327247381210327 0.23665277659893036
0.55935823917388916 0.48887717723846436 0.25535354018211365
0.70002049207687378 0.46803334355354309 0.27818027138710022
0.81611323356628418 0.4353921115398407 0.31426340341567993
0.92775917053222656 0.36118990182876587 0.34134006500244141
0.36990123987197876 0.65321272611618042 0.1280972808599472
0.42061597108840942 0.65227693319320679 0.14043179154396057
0.53373509645462036 0.65107005834579468 0.14047700166702271
0.65719163417816162 0.64562630653381348 0.18000705540180206
0.76478534936904907 0.63110589981079102 0.25004827976226807
0.85834795236587524 0.61127275228500366 0.33579158782958984
0.96622896194458008 0.56850308179855347 0.40620967745780945
0.41745981574058533 0.7842136025428772 0.12501668930053711
0.48639896512031555 0.78518927097320557 0.10228417813777924
0.626853346824646 0.78471076488494873 0.0441017746925354
0.76865214109420776 0.78211182355880737 0.037500195205211639
0.89476114511489868 0.77555185556411743 0.089692600071430206
0.95200294256210327 0.76335173845291138 0.2167409211397171
0.99712210893630981 0.7346796989440918 0.40933555364608765
0.36715969443321228 0.93540865182876587 0.21483692526817322
0.44143238663673401 0.93747025728225708 0.17974565923213959
0.58213436603546143 0.93927890062332153 0.10899130254983902
0.75208091735839844 0.94097459316253662 0.032609589397907257
0.93356978893280029 0.94214135408401489 3.1115962428884814e-06
1 0.93663758039474487 7.6473457738757133e-05
0.99987435340881348 0.91703790426254272 0.13583213090896606
0.039354600012302399 0.062115374952554703 0.27425441145896912
0.18167190253734589 0.047567836940288544 0.24050121009349823
0.31691727042198181 0.027706639841198921 0.21839113533496857
0.45534691214561462 0.014006640762090683 0.19948583841323853
0.60189920663833618 0.0076359766535460949 0.18282824754714966
0.73031514883041382 0 0.18685711920261383
0.85351049900054932 0 0.20874467492103577
0.10085577517747879 0.22460721433162689 0.32885155081748962
0.19494597613811493 0.21481992304325104 0.31311565637588501
0.33024656772613525 0.19064848124980927 0.29162737727165222
0.47461912035942078 0.16275019943714142 0.26718637347221375
0.62016206979751587 0.11339697986841202 0.23598147928714752
0.74421519041061401 0.046358805149793625 0.21469831466674805
0.8625606894493103 5.2059396693948656e-05 0.19918052852153778
0.1170148029923439 0.36303567886352539 0.36360740661621094
0.2094617635011673 0.35898107290267944 0.35760784149169922
0.34708079695701599 0.34603235125541687 0.34804341197013855
0.49774277210235596 0.32950562238693237 0.33387899398803711
0.64537334442138672 0.29528558254241943 0.32296282052993774
0.76812064647674561 0.23031614720821381 0.31339213252067566
0.88324660062789917 0.11073782294988632 0.27261674404144287
0.16279582679271698 0.51337379217147827 0.3805452287197113
0.24766203761100769 0.51123553514480591 0.37767747044563293
0.37642025947570801 0.50619149208068848 0.37933403253555298
0.52733403444290161 0.49518474936485291 0.37647494673728943
0.6708672046661377 0.47483143210411072 0.38229155540466309
0.79578465223312378 0.44048073887825012 0.39582282304763794
0.91735959053039551 0.36342072486877441 0.39535397291183472
0.28773373365402222 0.65319466590881348 0.32394877076148987
0.35341110825538635 0.65260463953018188 0.32180100679397583
0.45826110243797302 0.65110504627227783 0.34529682993888855
0.58698046207427979 0.644500732421875 0.37012645602226257
0.71122413873672485 0.63057637214660645 0.39811360836029053
0.82503587007522583 0.61261045932769775 0.43673855066299438
0.9506954550743103 0.57277417182922363 0.47500181198120117
0.46791723370552063 0.78954660892486572 0.14525894820690155
0.51809591054916382 0.78785055875778198 0.14380742609500885
0.615692138671875 0.78761845827102661 0.14688763022422791
0.71919983625411987 0.7844117283821106 0.19660152494907379
0.80919957160949707 0.77660125494003296 0.28827658295631409
0.89140099287033081 0.76277011632919312 0.40666958689689636
0.9854857325553894 0.73802906274795532 0.51371198892593384
0.42191866040229797 0.94530081748962402 0.1879408210515976
0.51280897855758667 0.94537067413330078 0.13141024112701416
0.62631899118423462 0.94635879993438721 0.10209302604198456
0.78436577320098877 0.94760221242904663 0.013825555332005024
0.95095306634902954 0.94614237546920776 0.0019573436584323645
0.99972051382064819 0.94299298524856567 0.024472823366522789
0.99988800287246704 0.92204630374908447 0.23697680234909058
0.067448154091835022 0.076189927756786346 0.36858239769935608
0.18185128271579742 0.059148255735635757 0.33583074808120728
0.31064018607139587 0.038323257118463516 0.30750325322151184
0.44645118713378906 0.014795729890465736 0.27715268731117249
0.58841371536254883 0.0015905342297628522 0.2433323860168457
0.72218579053878784 0 0.23675043880939484
0.85075563192367554 0 0.24805152416229248
0.090335384011268616 0.23622314631938934 0.43304553627967834
0.18714465200901031 0.22273243963718414 0.41518104076385498
0.31936520338058472 0.20278796553611755 0.39159885048866272
0.46282923221588135 0.17138850688934326 0.35828438401222229
0.60502856969833374 0.12103323638439178 0.31701502203941345
0.73400062322616577 0.064166277647018433 0.28499928116798401
0.85782039165496826 0.0053907954134047031 0.25892537832260132
0.086328186094760895 0.36981922388076782 0.48194578289985657
0.19428142905235291 0.36410295963287354 0.4764133095741272
0.32993820309638977 0.35443586111068726 0.46179786324501038
0.48096269369125366 0.33656945824623108 0.43778717517852783
0.62551796436309814 0.30191066861152649 0.41401991248130798
0.75413614511489868 0.24290865659713745 0.38805627822875977
0.87713348865509033 0.14104233682155609 0.34056982398033142
0.10696415603160858 0.5173652172088623 0.5266910195350647
0.20494574308395386 0.51703757047653198 0.52235931158065796
0.34804615378379822 0.50992852449417114 0.50755983591079712
0.50212031602859497 0.49900537729263306 0.49456331133842468
0.64322763681411743 0.47998335957527161 0.48943114280700684
0.77334141731262207 0.44572582840919495 0.4805438220500946
0.90515494346618652 0.37277135252952576 0.45537570118904114
0.18848317861557007 0.6543571949005127 0.53211504220962524
0.26005327701568604 0.65423399209976196 0.53411108255386353
0.39277812838554382 0.65055423974990845 0.52764678001403809
0.53964650630950928 0.64590781927108765 0.52262717485427856
0.6677517294883728 0.63550198078155518 0.5249713659286499
0.7911103367805481 0.616851806640625 0.53655004501342773
0.93136090040206909 0.57807481288909912 0.54061198234558105
0.36883190274238586 0.78867882490158081 0.42234116792678833
0.41654223203659058 0.78763782978057861 0.42774033546447754
0.50856763124465942 0.7849574089050293 0.44885450601577759
0.6161801815032959 0.78280961513519287 0.48207980394363403
0.72472763061523438 0.77546840906143188 0.5047372579574585
0.83426308631896973 0.76222795248031616 0.54943019151687622
0.96764308214187622 0.74083900451660156 0.58570724725723267
0.53214395046234131 0.95300650596618652 0.14787589013576508
0.60139846801757812 0.95353001356124878 0.10198377817869186
0.70291537046432495 0.95537334680557251 0.062152981758117676
0.84994184970855713 0.95550209283828735 0.028511391952633858
0.95079261064529419 0.95388507843017578 0.077392071485519409
0.98173803091049194 0.94546455144882202 0.21220992505550385
1 0.92210429906845093 0.44034332036972046
0.099516741931438446 0.082351908087730408 0.45987164974212646
0.19493421912193298 0.068698510527610779 0.43165865540504456
0.31683349609375 0.05673573911190033 0.40014952421188354
0.4502292275428772 0.027724949643015862 0.35850456357002258
0.58241242170333862 0.0035615209490060806 0.31917807459831238
0.71257829666137695 0 0.29931426048278809
0.84696120023727417 0 0.30220073461532593
0.10672758519649506 0.24351412057876587 0.53435713052749634
0.19657590985298157 0.23247800767421722 0.51720929145812988
0.32386451959609985 0.21763856709003448 0.49027153849601746
0.46519580483436584 0.18473920226097107 0.44805628061294556
0.59821957349777222 0.1310361921787262 0.40092870593070984
0.72102969884872437 0.062539555132389069 0.35180094838142395
0.84716534614562988 0.0018390880431979895 0.30639132857322693
0.093910306692123413 0.37538805603981018 0.59281641244888306
0.19235685467720032 0.37190482020378113 0.58495068550109863
0.32921075820922852 0.36272895336151123 0.56465458869934082
0.47772276401519775 0.34427502751350403 0.53299409151077271
0.61481255292892456 0.31180638074874878 0.49973240494728088
0.74076324701309204 0.2457919716835022 0.45639970898628235
0.86605381965637207 0.13951499760150909 0.39528313279151917
0.10881747305393219 0.51938790082931519 0.64674222469329834
0.1965482085943222 0.52027302980422974 0.64357650279998779
0.33700340986251831 0.51473963260650635 0.62443464994430542
0.48866528272628784 0.50319200754165649 0.600239098072052
0.6262357234954834 0.48872905969619751 0.58338230848312378
0.75846785306930542 0.45435354113578796 0.56019681692123413
0.89406079053878784 0.38268449902534485 0.52173399925231934
0.15314061939716339 0.65481007099151611 0.6765626072883606
0.2271604984998703 0.65504342317581177 0.67575424909591675
0.36631348729133606 0.65316855907440186 0.66072261333465576
0.51032924652099609 0.64858227968215942 0.64453065395355225
0.63997924327850342 0.64167666435241699 0.63607203960418701
0.77188920974731445 0.62132924795150757 0.62925261259078979
0.91610497236251831 0.58031183481216431 0.6113324761390686
0.24847996234893799 0.78744351863861084 0.66449695825576782
0.31560876965522766 0.78863871097564697 0.65941625833511353
0.4246135950088501 0.78467923402786255 0.66007524728775024
0.54712307453155518 0.78208434581756592 0.66149669885635376
0.66381245851516724 0.77869117259979248 0.66580420732498169
0.79703128337860107 0.76595854759216309 0.66308039426803589
0.94720840454101562 0.74349516630172729 0.67396652698516846
0.53045117855072021 0.95685470104217529 0.31818997859954834
0.56912726163864136 0.95733660459518433 0.32737737894058228
0.64277571439743042 0.95730048418045044 0.32993283867835999
0.72051668167114258 0.95501333475112915 0.38004827499389648
0.80301374197006226 0.95291876792907715 0.45147877931594849
0.88484549522399902 0.94157427549362183 0.54673159122467041
0.99546319246292114 0.92412632703781128 0.630229651927948
0.13112443685531616 0.10359890758991241 0.54605036973953247
0.22423650324344635 0.09074440598487854 0.51739811897277832
0.33954960107803345 0.079060465097427368 0.48242732882499695
0.46411371231079102 0.043302513659000397 0.43495258688926697
0.58454364538192749 0.0056063481606543064 0.39140048623085022
0.70535540580749512 0 0.36139482259750366
0.83805572986602783 0 0.35564303398132324
0.15083861351013184 0.25970691442489624 0.61875098943710327
0.23542407155036926 0.24903340637683868 0.60040056705474854
0.35072964429855347 0.23755796253681183 0.57254481315612793
0.48140484094619751 0.20695751905441284 0.53077071905136108
0.60131627321243286 0.14689567685127258 0.4821828305721283
0.71326690912246704 0.066892929375171661 0.42522099614143372
0.83918505907058716 0.0022925583180040121 0.36755385994911194
0.160800501704216 0.38659203052520752 0.67760980129241943
0.23918963968753815 0.38189813494682312 0.66786283254623413
0.35744112730026245 0.37702792882919312 0.64745736122131348
0.4918520450592041 0.36021429300308228 0.61584270000457764
0.61616355180740356 0.32625162601470947 0.58110123872756958
0.73407661914825439 0.26851963996887207 0.53771483898162842
0.85772860050201416 0.15214541554450989 0.46283930540084839
0.17296673357486725 0.53209620714187622 0.7394099235534668
0.24576154351234436 0.53042435646057129 0.73190104961395264
0.36369684338569641 0.52401942014694214 0.71381443738937378
0.49596807360649109 0.51300394535064697 0.68916821479797363
0.62148594856262207 0.4953467845916748 0.66599756479263306
0.74807888269424438 0.466115802526474 0.63829547166824341
0.88245844841003418 0.3954986035823822 0.59133625030517578
0.20369316637516022 0.66405421495437622 0.7871813178062439
0.26878806948661804 0.6628272533416748 0.78035163879394531
0.38381025195121765 0.65871125459671021 0.7665400505065918
0.50649631023406982 0.65450382232666016 0.75054341554641724
0.62869429588317871 0.64609038829803467 0.73476368188858032
0.75757384300231934 0.62739819288253784 0.7136152982711792
0.90152263641357422 0.58729809522628784 0.68501222133636475
0.24914164841175079 0.789234459400177 0.81947916746139526
0.30863037705421448 0.78744101524353027 0.80905044078826904
0.4068177342414856 0.78803402185440063 0.80531781911849976
0.52063524723052979 0.7854800820350647 0.79279786348342896
0.64265137910842896 0.78075671195983887 0.77971148490905762
0.77081537246704102 0.76869624853134155 0.76827043294906616
0.92671054601669312 0.74726778268814087 0.75630229711532593
0.31863108277320862 0.95234876871109009 0.73570495843887329
0.37150090932846069 0.95449638366699219 0.73201829195022583
0.47455665469169617 0.95388317108154297 0.72358649969100952
0.56429338455200195 0.95184981822967529 0.74389159679412842
0.67695707082748413 0.95273977518081665 0.75516247749328613
0.81124961376190186 0.9485049843788147 0.76783663034439087
0.9748760461807251 0.93760883808135986 0.78478312492370605
0.18367230892181396 0.13216540217399597 0.63335859775543213
0.27143087983131409 0.11725340038537979 0.59745955467224121
0.37346950173377991 0.094880141317844391 0.55743741989135742
0.48425152897834778 0.05334148183465004 0.50817126035690308
0.59561240673065186 0.010444207116961479 0.46708816289901733
0.70993494987487793 0 0.43311783671379089
0.83341449499130249 0 0.41236039996147156
0.22193185985088348 0.27884656190872192 0.69820880889892578
0.29595562815666199 0.27013874053955078 0.67377066612243652
0.39067843556404114 0.25602436065673828 0.64722329378128052
0.50010651350021362 0.22303494811058044 0.60873275995254517
0.60926371812820435 0.16179628670215607 0.55987429618835449
0.7186732292175293 0.081003658473491669 0.50245577096939087
0.838051438331604 0.0016175663331523538 0.44049277901649475
0.25796359777450562 0.40544933080673218 0.75591617822647095
0.31401365995407104 0.40236598253250122 0.74442595243453979
0.40248832106590271 0.39758524298667908 0.72789806127548218
0.5108109712600708 0.37931224703788757 0.69931608438491821
0.62042933702468872 0.33988705277442932 0.66201311349868774
0.73278003931045532 0.28626048564910889 0.61638951301574707
0.85359948873519897 0.16492462158203125 0.54095566272735596
0.26778990030288696 0.54663515090942383 0.82675051689147949
0.32399091124534607 0.54587286710739136 0.81564700603485107
0.41123905777931213 0.53828912973403931 0.80146986246109009
0.51497733592987061 0.52918148040771484 0.78092795610427856
0.6238553524017334 0.51036059856414795 0.75545758008956909
0.74334704875946045 0.47874382138252258 0.72142630815505981
0.87474304437637329 0.40910646319389343 0.67180216312408447
0.28814893960952759 0.67379868030548096 0.892181396484375
0.33898741006851196 0.67260265350341797 0.88255232572555542
0.42327025532722473 0.668445885181427 0.86872130632400513
0.52080231904983521 0.66575205326080322 0.85622590780258179
0.62802153825759888 0.65798437595367432 0.83923792839050293
0.75254368782043457 0.63787531852722168 0.80912643671035767
0.89275568723678589 0.60210609436035156 0.77383029460906982
0.31943529844284058 0.79819107055664062 0.94432932138442993
0.3510679304599762 0.79732060432434082 0.94509786367416382
0.43187034130096436 0.79467302560806274 0.93032115697860718
0.51995766162872314 0.79604709148406982 0.92800265550613403
0.63028532266616821 0.79114162921905518 0.91280204057693481
0.76119518280029297 0.77655315399169922 0.8820263147354126
0.91269516944885254 0.75919568538665771 0.86159932613372803
0.28234416246414185 0.96248084306716919 0.97637230157852173
0.33328121900558472 0.9594426155090332 0.96930217742919922
0.4243619441986084 0.95650285482406616 0.96287983655929565
0.50628405809402466 0.96420294046401978 0.97258508205413818
0.62600117921829224 0.96450668573379517 0.96667206287384033
0.76621437072753906 0.95697665214538574 0.95248138904571533
0.94892686605453491 0.95038247108459473 0.94666332006454468
