assets/lut/films colorslide kodak ektachrome 100 vs generic.cube
# Created by: G'MIC (https://gmic.eu)
TITLE "kodak_ektachrome_100_vs_generic"
# LUT size
LUT_3D_SIZE 13
# Data domain
DOMAIN_MIN 0.0 0.0 0.0
DOMAIN_MAX 1.0 1.0 1.0
# LUT data points
0.028517585247755051 0.022298716008663177 0.022355098277330399
0.08957226574420929 0.01862722635269165 0.020432939752936363
0.16551201045513153 0.016256429255008698 0.01654561422765255
0.25817772746086121 0.012839792296290398 0.013468469493091106
0.36567166447639465 0.0087624192237854004 0.011597262695431709
0.48537084460258484 0.0054329368285834789 0.010833111591637135
0.618602454662323 0.0045073865912854671 0.010213037021458149
0.75971716642379761 0.0044484455138444901 0.0096168816089630127
0.89336514472961426 0.0069464440457522869 0.0099428212270140648
0.98792874813079834 0.011002963408827782 0.010329242795705795
1 0.012303161434829235 0.0097897695377469063
1 0.012334098108112812 0.010324769653379917
0.99937808513641357 0.0150349335744977 0.012337389402091503
0.038400180637836456 0.073591373860836029 0.027543460950255394
0.082492366433143616 0.070130757987499237 0.026067173108458519
0.15005199611186981 0.066795334219932556 0.023427043110132217
0.24459946155548096 0.061594195663928986 0.020241964608430862
0.35629811882972717 0.054647110402584076 0.018123775720596313
0.47762379050254822 0.04769560694694519 0.016394447535276413
0.60921245813369751 0.042183369398117065 0.014736264944076538
0.74728327989578247 0.039454381912946701 0.013492943719029427
0.87935411930084229 0.039492707699537277 0.013009658083319664
0.98113095760345459 0.042048137634992599 0.012673800811171532
1 0.045043360441923141 0.012101655825972557
1 0.04942716658115387 0.01272164098918438
1 0.0563480444252491 0.014565456658601761
0.055297926068305969 0.13375140726566315 0.034669328480958939
0.08496074378490448 0.13294456899166107 0.03388773649930954
0.14209973812103271 0.13011077046394348 0.032876767218112946
0.23689119517803192 0.12409895658493042 0.030887214466929436
0.35472327470779419 0.11624981462955475 0.027977902442216873
0.47696146368980408 0.10895784944295883 0.025250602513551712
0.60604828596115112 0.10161358863115311 0.022397927939891815
0.7406432032585144 0.095993027091026306 0.020114628598093987
0.87040489912033081 0.092665866017341614 0.018763508647680283
0.97412586212158203 0.090359091758728027 0.017494231462478638
1 0.09300396591424942 0.016864312812685966
1 0.099875912070274353 0.017281506210565567
1 0.10910464823246002 0.019083030521869659
0.061006058007478714 0.20987424254417419 0.048469856381416321
0.079627424478530884 0.21028061211109161 0.048378452658653259
0.12601281702518463 0.20933568477630615 0.047733187675476074
0.22315613925457001 0.20282778143882751 0.045407913625240326
0.35142174363136292 0.1949155330657959 0.041812881827354431
0.47161954641342163 0.19059754908084869 0.038184985518455505
0.60024529695510864 0.18192277848720551 0.033958137035369873
0.7346731424331665 0.17621216177940369 0.030699681490659714
0.86124777793884277 0.17290106415748596 0.028736922889947891
0.96183061599731445 0.16844433546066284 0.027061581611633301
0.99963510036468506 0.1670316755771637 0.026283353567123413
1 0.17079350352287292 0.026035353541374207
1 0.17861437797546387 0.027196263894438744
0.041404321789741516 0.3072935938835144 0.067265845835208893
0.04954712837934494 0.30746203660964966 0.065308995544910431
0.089295767247676849 0.30610716342926025 0.063950739800930023
0.19361472129821777 0.29888671636581421 0.0619964599609375
0.3329416811466217 0.29329726099967957 0.059410590678453445
0.45406806468963623 0.29316058754920959 0.056585874408483505
0.58707195520401001 0.28392338752746582 0.05139242485165596
0.7227175235748291 0.2779422402381897 0.046601045876741409
0.84587430953979492 0.27618968486785889 0.043520368635654449
0.94180262088775635 0.27028891444206238 0.041481137275695801
0.99409866333007812 0.26445469260215759 0.040175493806600571
1 0.26278278231620789 0.03911774605512619
0.9995499849319458 0.26645225286483765 0.039233069866895676
0.015470527112483978 0.41540130972862244 0.085786588490009308
0.016619948670268059 0.41455358266830444 0.082286462187767029
0.056762140244245529 0.41078871488571167 0.07929663360118866
0.16476455330848694 0.40268608927726746 0.077783204615116119
0.31035208702087402 0.3986499011516571 0.076988846063613892
0.44201785326004028 0.40085896849632263 0.07528337836265564
0.57545977830886841 0.39547315239906311 0.070820704102516174
0.70744293928146362 0.39006224274635315 0.065750822424888611
0.82706886529922485 0.38718774914741516 0.061644520610570908
0.92197734117507935 0.38119149208068848 0.058998525142669678
0.98201638460159302 0.37401992082595825 0.056953489780426025
0.99977827072143555 0.37004843354225159 0.055075835436582565
0.99878901243209839 0.37061241269111633 0.054223258048295975
0.00097626331262290478 0.52589237689971924 0.096018396317958832
0.00044999964302405715 0.52400940656661987 0.091973535716533661
0.021504420787096024 0.51923185586929321 0.090124867856502533
0.11333342641592026 0.51287961006164551 0.090817935764789581
0.26058852672576904 0.50984948873519897 0.091581441462039948
0.42047527432441711 0.51044094562530518 0.090140171349048615
0.56273633241653442 0.50678515434265137 0.086173206567764282
0.69047611951828003 0.50195711851119995 0.080956600606441498
0.80708414316177368 0.49810498952865601 0.077339202165603638
0.90431672334671021 0.49276155233383179 0.075217239558696747
0.97209841012954712 0.48703652620315552 0.072756759822368622
0.99899941682815552 0.48318663239479065 0.070381566882133484
0.99922382831573486 0.48274868726730347 0.06897454708814621
0 0.63115131855010986 0.088063769042491913
0 0.62998509407043457 0.088437698781490326
0.00079444434959441423 0.62649214267730713 0.091644763946533203
0.040720425546169281 0.6232258677482605 0.09676843136548996
0.17716605961322784 0.62193834781646729 0.099352322518825531
0.37249404191970825 0.62108767032623291 0.095854170620441437
0.53734111785888672 0.61592286825180054 0.089639224112033844
0.66964709758758545 0.61034137010574341 0.085296705365180969
0.78604036569595337 0.60572844743728638 0.084739327430725098
0.8880268931388855 0.6006043553352356 0.084687881171703339
0.9664955735206604 0.59587854146957397 0.08266836404800415
0.9991564154624939 0.59405404329299927 0.080584444105625153
0.99957275390625 0.59375530481338501 0.079728759825229645
0 0.72795265913009644 0.069586552679538727
0 0.72767770290374756 0.074975349009037018
0 0.72529000043869019 0.083507776260375977
0.0051163020543754101 0.72355526685714722 0.091664120554924011
0.10982692986726761 0.72267824411392212 0.093733862042427063
0.31310355663299561 0.71952325105667114 0.086583077907562256
0.50110751390457153 0.71427625417709351 0.078078672289848328
0.64650058746337891 0.70899951457977295 0.075052849948406219
0.76507681608200073 0.70400118827819824 0.076833851635456085
0.86857843399047852 0.69906264543533325 0.080136194825172424
0.95668148994445801 0.69478845596313477 0.080223232507705688
0.9986947774887085 0.69290906190872192 0.080336295068264008
0.9999469518661499 0.69353562593460083 0.081415481865406036
0 0.81346076726913452 0.055174481123685837
0 0.81369519233703613 0.06291159987449646
0 0.81189966201782227 0.072299107909202576
0.008905971422791481 0.81013977527618408 0.078305095434188843
0.11481250077486038 0.80789577960968018 0.076609142124652863
0.29789900779724121 0.80387794971466064 0.066793553531169891
0.48472267389297485 0.79855215549468994 0.055947709828615189
0.63325494527816772 0.79377102851867676 0.05298493430018425
0.74842488765716553 0.78913426399230957 0.055356673896312714
0.84527444839477539 0.78533416986465454 0.05946209654211998
0.93168538808822632 0.78257566690444946 0.063841469585895538
0.99133718013763428 0.78008472919464111 0.068668439984321594
1 0.77890628576278687 0.073393531143665314
0 0.88481205701828003 0.060581028461456299
0 0.88681817054748535 0.062790662050247192
0.00028800216387026012 0.88675022125244141 0.066791936755180359
0.034505583345890045 0.88552439212799072 0.067765839397907257
0.15003557503223419 0.88291573524475098 0.062723897397518158
0.31535238027572632 0.87850022315979004 0.050853174179792404
0.48917272686958313 0.8732990026473999 0.038278002291917801
0.62900042533874512 0.86871254444122314 0.035482369363307953
0.7358890175819397 0.86505985260009766 0.038753136992454529
0.82503622770309448 0.86293292045593262 0.045056317001581192
0.91068631410598755 0.86147409677505493 0.052821602672338486
0.98206114768981934 0.85739016532897949 0.059104546904563904
1 0.85472965240478516 0.065822035074234009
0 0.94567883014678955 0.083806537091732025
4.8229740059468895e-05 0.95043867826461792 0.076575092971324921
0.010667449794709682 0.95328056812286377 0.071565188467502594
0.072363369166851044 0.95370203256607056 0.067345984280109406
0.18546976149082184 0.95202457904815674 0.060580115765333176
0.33353406190872192 0.94863307476043701 0.050869062542915344
0.48681288957595825 0.94463139772415161 0.042154081165790558
0.61484181880950928 0.94210344552993774 0.0413348488509655
0.71463459730148315 0.94124740362167358 0.046979043632745743
0.80279570817947388 0.94157695770263672 0.05642719566822052
0.89833462238311768 0.93694102764129639 0.061972986906766891
0.97938257455825806 0.92932254076004028 0.06354859471321106
1 0.92595911026000977 0.066982313990592957
0.00060170493088662624 0.99435508251190186 0.11167416721582413
0.0068373437970876694 0.99693953990936279 0.097928397357463837
0.038301117718219757 0.99817937612533569 0.086639568209648132
0.10822755098342896 0.99849206209182739 0.078434288501739502
0.21460556983947754 0.99846172332763672 0.07173493504524231
0.34516182541847229 0.99782824516296387 0.065499156713485718
0.47864091396331787 0.99745911359786987 0.062209770083427429
0.59564697742462158 0.99707049131393433 0.064699806272983551
0.6924247145652771 0.99751549959182739 0.072981737554073334
0.78465056419372559 0.9976610541343689 0.082107365131378174
0.8911440372467041 0.99509614706039429 0.082689173519611359
0.97894769906997681 0.99049860239028931 0.079192124307155609
0.99984323978424072 0.9892238974571228 0.077988132834434509
0.028021898120641708 0.023225747048854828 0.067163862287998199
0.087003864347934723 0.020941894501447678 0.064661778509616852
0.16300410032272339 0.019242394715547562 0.060695886611938477
0.25480127334594727 0.015016817487776279 0.05710824579000473
0.36186313629150391 0.010189206339418888 0.054305505007505417
0.48181039094924927 0.0065686842426657677 0.051734086126089096
0.61488717794418335 0.004557920154184103 0.049086447805166245
0.75565654039382935 0.0044832713901996613 0.046145003288984299
0.89043325185775757 0.0065600224770605564 0.042484838515520096
0.98697543144226074 0.010474186390638351 0.039606370031833649
1 0.011685315519571304 0.039534416049718857
1 0.011565533466637135 0.041313275694847107
0.99999749660491943 0.014113706536591053 0.04460475966334343
0.036836959421634674 0.074384666979312897 0.072911925613880157
0.081697516143321991 0.070809833705425262 0.071788221597671509
0.1498020738363266 0.067847244441509247 0.068404614925384521
0.24183911085128784 0.06323116272687912 0.064112193882465363
0.35228031873703003 0.055954188108444214 0.060937229543924332
0.4730265736579895 0.048735585063695908 0.057739213109016418
0.6041024923324585 0.042649917304515839 0.054651506245136261
0.74117505550384521 0.038957871496677399 0.051317702978849411
0.87400752305984497 0.038798823952674866 0.048013277351856232
0.97934359312057495 0.04153900220990181 0.044972050935029984
1 0.043297562748193741 0.044076927006244659
1 0.046649813652038574 0.044961653649806976
1 0.052381403744220734 0.047992810606956482
0.054344519972801208 0.13541144132614136 0.079882018268108368
0.089841999113559723 0.13241909444332123 0.078312799334526062
0.14715544879436493 0.12941454350948334 0.077108718454837799
0.23554982244968414 0.12431681156158447 0.074009299278259277
0.35019123554229736 0.11664232611656189 0.070588715374469757
0.47152206301689148 0.10977941751480103 0.066580049693584442
0.60045188665390015 0.10249469429254532 0.062477201223373413
0.73555749654769897 0.096123956143856049 0.058936428278684616
0.86642670631408691 0.092442609369754791 0.055447522550821304
0.97226035594940186 0.091269113123416901 0.052445415407419205
1 0.092379629611968994 0.050697624683380127
1 0.095643721520900726 0.05096295103430748
1 0.10325585305690765 0.053429890424013138
0.060148321092128754 0.21121397614479065 0.09132181853055954
0.085576809942722321 0.2084822952747345 0.090262562036514282
0.13152565062046051 0.20692536234855652 0.08917979896068573
0.2223411351442337 0.20137058198451996 0.087005436420440674
0.34606114029884338 0.19482217729091644 0.083404183387756348
0.46666085720062256 0.19113075733184814 0.078051485121250153
0.59499454498291016 0.1843855082988739 0.073332168161869049
0.73113548755645752 0.17749136686325073 0.069347858428955078
0.86053192615509033 0.17272186279296875 0.06585896760225296
0.96245336532592773 0.16826212406158447 0.062654025852680206
0.99991047382354736 0.16562274098396301 0.060441680252552032
1 0.1663251519203186 0.059722751379013062
1 0.17257647216320038 0.061475448310375214
0.038768168538808823 0.30831363797187805 0.10598473995923996
0.045087538659572601 0.30699619650840759 0.10321221500635147
0.080519132316112518 0.3051573634147644 0.10050792247056961
0.18748366832733154 0.29761871695518494 0.098787598311901093
0.32873848080635071 0.29177993535995483 0.096086211502552032
0.45284268260002136 0.29168903827667236 0.091744594275951385
0.58395159244537354 0.28580281138420105 0.087034665048122406
0.72091829776763916 0.2788727879524231 0.082904964685440063
0.84739679098129272 0.27439415454864502 0.079150304198265076
0.94621545076370239 0.26820868253707886 0.075930409133434296
0.99672025442123413 0.26186108589172363 0.073517866432666779
1 0.25899621844291687 0.071971669793128967
1 0.26201716065406799 0.073113337159156799
0.0112878093495965 0.416627436876297 0.12066804617643356
0.0080693857744336128 0.41550272703170776 0.116801917552948
0.042626071721315384 0.41210064291954041 0.11311567574739456
0.15480679273605347 0.4037623405456543 0.11062734574079514
0.30599156022071838 0.39829319715499878 0.10827167332172394
0.44107508659362793 0.399018794298172 0.10512189567089081
0.57425004243850708 0.39554056525230408 0.10147204250097275
0.70738118886947632 0.39026004076004028 0.097432978451251984
0.82873529195785522 0.38578540086746216 0.093472920358181
0.92708152532577515 0.37940564751625061 0.090113982558250427
0.98821717500686646 0.37225633859634399 0.087546974420547485
1 0.36745157837867737 0.086233444511890411
0.99999243021011353 0.36775699257850647 0.086954452097415924
0.00037300260737538338 0.52731436491012573 0.12821166217327118
9.8733346476365114e-07 0.52558314800262451 0.1254960298538208
0.016495693475008011 0.52103918790817261 0.12399275600910187
0.11222818493843079 0.51417887210845947 0.12282851338386536
0.26141825318336487 0.50989562273025513 0.12056013941764832
0.41790544986724854 0.50952029228210449 0.11674097180366516
0.56073015928268433 0.506855309009552 0.11273811012506485
0.69092059135437012 0.50266557931900024 0.10851166397333145
0.80822527408599854 0.49849647283554077 0.10442791879177094
0.90798121690750122 0.49292242527008057 0.10117212682962418
0.97887927293777466 0.48685938119888306 0.098694205284118652
1 0.48246514797210693 0.097989372909069061
1 0.48199260234832764 0.099443621933460236
0 0.63363790512084961 0.12236838042736053
0 0.63218384981155396 0.12387979775667191
0.0011084163561463356 0.62798213958740234 0.127579465508461
0.053351249545812607 0.62408816814422607 0.12986774742603302
0.19433331489562988 0.62153053283691406 0.12872608006000519
0.37285023927688599 0.61969161033630371 0.12356245517730713
0.53532254695892334 0.61605292558670044 0.11746186017990112
0.66889005899429321 0.61166262626647949 0.11254794895648956
0.78544116020202637 0.60731440782546997 0.10866669565439224
0.88958227634429932 0.60198664665222168 0.10564997047185898
0.97135424613952637 0.59668678045272827 0.10304726660251617
1 0.59369289875030518 0.10299815982580185
1 0.5922541618347168 0.10678093135356903
0 0.73110121488571167 0.11016887426376343
0 0.73045283555984497 0.11543281376361847
0 0.72733896970748901 0.12350981682538986
0.017661405727267265 0.7241254448890686 0.1289057582616806
0.13989132642745972 0.72231477499008179 0.12794564664363861
0.32480379939079285 0.71910625696182251 0.12091517448425293
0.50252896547317505 0.71483403444290161 0.11295761168003082
0.64474433660507202 0.71051371097564697 0.10783658176660538
0.76303631067276001 0.70571202039718628 0.10420877486467361
0.86883074045181274 0.70051097869873047 0.10117486864328384
0.95755136013031006 0.69611656665802002 0.098469831049442291
0.99909716844558716 0.6930503249168396 0.10048190504312515
1 0.69206035137176514 0.10743226855993271
0 0.81615734100341797 0.10261629521846771
0 0.81589978933334351 0.10867413133382797
0 0.81420361995697021 0.11722788959741592
0.015769628807902336 0.81134682893753052 0.12192297726869583
0.13063421845436096 0.80839812755584717 0.12003957480192184
0.30602282285690308 0.80421435832977295 0.11155498772859573
0.48464009165763855 0.79888039827346802 0.1017705425620079
0.63083833456039429 0.79445207118988037 0.09546419233083725
0.74701189994812012 0.7897343635559082 0.090470947325229645
0.8453594446182251 0.78619050979614258 0.088158503174781799
0.93264544010162354 0.78326129913330078 0.088719278573989868
0.9936181902885437 0.78003513813018799 0.093414321541786194
1 0.77738869190216064 0.10286243259906769
0 0.88900464773178101 0.11074621230363846
0 0.89039361476898193 0.11138748377561569
2.3336971935350448e-05 0.88921236991882324 0.11497011035680771
0.034083645790815353 0.88729375600814819 0.11672428995370865
0.15162046253681183 0.88364481925964355 0.11326316744089127
0.31504842638969421 0.87852960824966431 0.10454542934894562
0.48478186130523682 0.87254440784454346 0.094494886696338654
0.62670785188674927 0.86735957860946655 0.086629725992679596
0.7369956374168396 0.86337554454803467 0.079500891268253326
0.82662028074264526 0.86197280883789062 0.078786648809909821
0.9133298397064209 0.86141020059585571 0.083584651350975037
0.98797827959060669 0.85648888349533081 0.089010246098041534
1 0.85316115617752075 0.099993146955966949
0 0.95175951719284058 0.13204315304756165
0 0.95540839433670044 0.12458805739879608
0.0040963566862046719 0.95662987232208252 0.12039815634489059
0.063279204070568085 0.95577406883239746 0.11841587722301483
0.17995589971542358 0.95300972461700439 0.11510397493839264
0.32966780662536621 0.94825786352157593 0.10888142138719559
0.48456767201423645 0.94301676750183105 0.10176031291484833
0.616016685962677 0.93950992822647095 0.095920518040657043
0.71801185607910156 0.93897181749343872 0.091180808842182159
0.80290335416793823 0.94086730480194092 0.092796087265014648
0.89404571056365967 0.93885147571563721 0.097194701433181763
0.98189228773117065 0.92957973480224609 0.099444247782230377
1 0.92428117990493774 0.10643394291400909
0 0.99708890914916992 0.15858751535415649
0.00077050901018083096 0.99834990501403809 0.14573723077774048
0.0227228794246912 0.99896848201751709 0.13578116893768311
0.094897158443927765 0.99899274110794067 0.13099114596843719
0.2062339186668396 0.99852943420410156 0.1278197318315506
0.34117802977561951 0.9978213906288147 0.12421078979969025
0.4783610999584198 0.99699103832244873 0.1213596984744072
0.59767109155654907 0.99636322259902954 0.12011124938726425
0.69496434926986694 0.99702739715576172 0.1211017370223999
0.78203243017196655 0.99773377180099487 0.12390932440757751
0.88105642795562744 0.99645483493804932 0.12349828332662582
0.97612512111663818 0.99126416444778442 0.12056413292884827
1 0.98776048421859741 0.12267943471670151
0.027990378439426422 0.023813076317310333 0.11864224821329117
0.08645426481962204 0.022272970527410507 0.11569161713123322
0.16249111294746399 0.020577030256390572 0.11328837275505066
0.25433877110481262 0.016634069383144379 0.11086856573820114
0.36077472567558289 0.011945612728595734 0.10814239084720612
0.48005610704421997 0.0080971810966730118 0.10440266877412796
0.61235356330871582 0.0056014866568148136 0.10065771639347076
0.75253033638000488 0.0046951444819569588 0.096907071769237518
0.8857530951499939 0.006371187511831522 0.091460675001144409
0.98285090923309326 0.0093554332852363586 0.086048409342765808
1 0.010027657262980938 0.084775559604167938
1 0.010413121432065964 0.085201844573020935
0.99950331449508667 0.012963822111487389 0.087839119136333466
0.036438498646020889 0.074907787144184113 0.12546022236347198
0.081212110817432404 0.072861857712268829 0.1228848323225975
0.14939539134502411 0.069942861795425415 0.12046561390161514
0.24183380603790283 0.065060980618000031 0.11737599223852158
0.35099396109580994 0.057957205921411514 0.11403247714042664
0.47186541557312012 0.050946671515703201 0.11021151393651962
0.60308420658111572 0.044752772897481918 0.10674954950809479
0.7411840558052063 0.040459711104631424 0.10324886441230774
0.87432169914245605 0.039534132927656174 0.098406866192817688
0.97666448354721069 0.041467763483524323 0.093451991677284241
1 0.041776739060878754 0.091266036033630371
1 0.042974419891834259 0.091231554746627808
0.99938076734542847 0.048372410237789154 0.093664549291133881
0.054630056023597717 0.13481959700584412 0.13300211727619171
0.088674061000347137 0.13228669762611389 0.13019254803657532
0.14525453746318817 0.13058537244796753 0.12877899408340454
0.23512911796569824 0.12546595931053162 0.12622781097888947
0.34861922264099121 0.1182258129119873 0.12249751389026642
0.46965610980987549 0.11162161827087402 0.11847033351659775
0.59880465269088745 0.10467459261417389 0.11513222754001617
0.73616665601730347 0.098070137202739716 0.11186683177947998
0.86838966608047485 0.094149313867092133 0.10720527172088623
0.9721711277961731 0.09278608113527298 0.10233461111783981
1 0.09108193963766098 0.099385596811771393
1 0.091304033994674683 0.098717078566551208
0.99937301874160767 0.097404569387435913 0.10067472606897354
0.060742396861314774 0.21165627241134644 0.14212997257709503
0.085281655192375183 0.20786283910274506 0.13991738855838776
0.12944188714027405 0.20736370980739594 0.13930664956569672
0.22122430801391602 0.20234121382236481 0.13682852685451508
0.34326580166816711 0.19620810449123383 0.13231626152992249
0.46514180302619934 0.1922668069601059 0.12774164974689484
0.59399330615997314 0.18621031939983368 0.12480045109987259
0.73129302263259888 0.17862437665462494 0.12209174782037735
0.86221051216125488 0.17286340892314911 0.11790745705366135
0.96438860893249512 0.16817663609981537 0.11304330080747604
0.99994480609893799 0.16384416818618774 0.10934770107269287
1 0.16204975545406342 0.10715535283088684
0.99949556589126587 0.1665380597114563 0.10817594081163406
0.037329759448766708 0.30986624956130981 0.1536872535943985
0.044434670358896255 0.30737712979316711 0.1508980393409729
0.079727068543434143 0.30535393953323364 0.14903697371482849
0.18674516677856445 0.29843926429748535 0.14611484110355377
0.32873991131782532 0.29191115498542786 0.14147688448429108
0.45492210984230042 0.29078987240791321 0.13725447654724121
0.58420628309249878 0.28583630919456482 0.13548329472541809
0.72104334831237793 0.27804470062255859 0.13373641669750214
0.84911149740219116 0.27167946100234985 0.13020497560501099
0.94949936866760254 0.26563918590545654 0.12574414908885956
0.99786961078643799 0.25946471095085144 0.1217443123459816
1 0.25562664866447449 0.11907438188791275
0.99977225065231323 0.25745466351509094 0.11930851638317108
0.0092941280454397202 0.41697391867637634 0.16601899266242981
0.0067031113430857658 0.41526368260383606 0.16329512000083923
0.041676867753267288 0.41207984089851379 0.16050311923027039
0.15585969388484955 0.40423908829689026 0.15652137994766235
0.30991411209106445 0.39715918898582458 0.15105320513248444
0.44373881816864014 0.39694815874099731 0.14692090451717377
0.5745847225189209 0.39368945360183716 0.14560429751873016
0.70771163702011108 0.38781648874282837 0.14471450448036194
