assets/lut/films negative color fuji superia hg 1600.cube
# Created by: G'MIC (https://gmic.eu)
TITLE "fuji_superia_hg_1600"
# LUT size
LUT_3D_SIZE 7
# Data domain
DOMAIN_MIN 0.0 0.0 0.0
DOMAIN_MAX 1.0 1.0 1.0
# LUT data points
0.10125157982110977 0.092122741043567657 0.089543841779232025
0.21956278383731842 0.088598273694515228 0.094924360513687134
0.33090785145759583 0.069098450243473053 0.095752120018005371
0.46614742279052734 0.044025078415870667 0.098756678402423859
0.61576825380325317 0.041253574192523956 0.085487499833106995
0.75724327564239502 0.083207495510578156 0.076720595359802246
0.88890451192855835 0.11344372481107712 0.057922378182411194
0.17470362782478333 0.22175294160842896 0.15775805711746216
0.25010031461715698 0.22574137151241302 0.15693840384483337
0.3690706193447113 0.22512698173522949 0.15849390625953674
0.5082554817199707 0.21680715680122375 0.1577414870262146
0.63945502042770386 0.16647915542125702 0.15475320816040039
0.74256604909896851 0.092369109392166138 0.14070972800254822
0.868080735206604 0.090678133070468903 0.1113455519080162
0.22217927873134613 0.35020780563354492 0.2063228040933609
0.28487116098403931 0.34884777665138245 0.21054749190807343
0.40262183547019958 0.35021960735321045 0.21135424077510834
0.54501032829284668 0.34704554080963135 0.20989198982715607
0.68285208940505981 0.32931286096572876 0.20876295864582062
0.79079389572143555 0.27909919619560242 0.2005283534526825
0.86994916200637817 0.13475655019283295 0.17693737149238586
0.28882637619972229 0.50350064039230347 0.26874914765357971
0.34681710600852966 0.50492745637893677 0.27147126197814941
0.45505890250205994 0.51065927743911743 0.27134373784065247
0.59309083223342896 0.51202261447906494 0.27044478058815002
0.72247445583343506 0.49645897746086121 0.26993873715400696
0.83703184127807617 0.47009080648422241 0.26076504588127136
0.93518590927124023 0.38140749931335449 0.23843121528625488
0.36697143316268921 0.64682388305664062 0.34518390893936157
0.41806024312973022 0.64955347776412964 0.34665173292160034
0.5159183144569397 0.65642476081848145 0.34526845812797546
0.64090585708618164 0.66214287281036377 0.34546992182731628
0.76131922006607056 0.66312646865844727 0.3443012535572052
0.87601536512374878 0.66067880392074585 0.3326086699962616
0.98452979326248169 0.61820769309997559 0.31489846110343933
0.45595291256904602 0.77283310890197754 0.43592387437820435
0.50346082448959351 0.77789372205734253 0.43616947531700134
0.58314234018325806 0.78460365533828735 0.43336328864097595
0.68635892868041992 0.79086965322494507 0.43238344788551331
0.79345232248306274 0.79601722955703735 0.42978185415267944
0.90418022871017456 0.79897278547286987 0.42174899578094482
0.99936360120773315 0.78564262390136719 0.41281223297119141
0.53988015651702881 0.90533852577209473 0.54363232851028442
0.58870691061019897 0.91104763746261597 0.53705900907516479
0.65315073728561401 0.91913872957229614 0.53191143274307251
0.73494690656661987 0.92770838737487793 0.53023034334182739
0.82640790939331055 0.93567472696304321 0.53066366910934448
0.92772740125656128 0.94259703159332275 0.53333711624145508
1 0.93895548582077026 0.52591204643249512
0.082824647426605225 0.10363082587718964 0.18174341320991516
0.19346512854099274 0.098577834665775299 0.18451152741909027
0.31163525581359863 0.084258422255516052 0.18537737429141998
0.44406941533088684 0.052873827517032623 0.18325693905353546
0.59035533666610718 0.049418475478887558 0.17964647710323334
0.72383010387420654 0.066683374345302582 0.1745436042547226
0.85521745681762695 0.093335218727588654 0.15478530526161194
0.15208297967910767 0.22580716013908386 0.2251100093126297
0.22530418634414673 0.22331662476062775 0.22535432875156403
0.34673100709915161 0.22571305930614471 0.22543990612030029
0.48922783136367798 0.21777923405170441 0.22529652714729309
0.62683123350143433 0.18527786433696747 0.22405512630939484
0.72418934106826782 0.097943834960460663 0.21492615342140198
0.83886778354644775 0.070934295654296875 0.19199468195438385
0.1938374936580658 0.35058721899986267 0.26603847742080688
0.25868213176727295 0.3503957986831665 0.26900017261505127
0.38096866011619568 0.3540918231010437 0.27154254913330078
0.52931094169616699 0.34992069005966187 0.27146720886230469
0.66919738054275513 0.33043473958969116 0.27031436562538147
0.77549165487289429 0.28316214680671692 0.26350206136703491
0.8558584451675415 0.13849976658821106 0.23975107073783875
0.26608431339263916 0.501872718334198 0.32477286458015442
0.32428768277168274 0.50660163164138794 0.32698240876197815
0.43601107597351074 0.51319199800491333 0.32911154627799988
0.57784026861190796 0.51326441764831543 0.33054366707801819
0.70907539129257202 0.50415915250778198 0.33031502366065979
0.82034486532211304 0.4710422158241272 0.32314068078994751
0.92556750774383545 0.39352741837501526 0.30102935433387756
0.3505193293094635 0.64488118886947632 0.39619198441505432
0.40399619936943054 0.64707249402999878 0.39754548668861389
0.50052064657211304 0.65226811170578003 0.39745447039604187
0.62481522560119629 0.65855532884597778 0.39885926246643066
0.7462843656539917 0.66207647323608398 0.39963570237159729
0.86283516883850098 0.65517771244049072 0.38986527919769287
0.97774434089660645 0.61474007368087769 0.37328752875328064
0.44583198428153992 0.76721459627151489 0.47528788447380066
0.49165806174278259 0.77056223154067993 0.47910225391387939
0.5682375431060791 0.77522486448287964 0.47866079211235046
0.66876554489135742 0.78282755613327026 0.47932732105255127
0.77525275945663452 0.79132652282714844 0.47932690382003784
0.88920998573303223 0.7957160472869873 0.47185564041137695
0.99640572071075439 0.7813679575920105 0.46361798048019409
0.5301324725151062 0.90010637044906616 0.57560563087463379
0.57480567693710327 0.90325671434402466 0.57454395294189453
0.63494378328323364 0.90964013338088989 0.57350045442581177
0.71419709920883179 0.9191514253616333 0.57389289140701294
0.80640137195587158 0.92985051870346069 0.57443112134933472
0.91390550136566162 0.93757975101470947 0.57208722829818726
1 0.93333500623703003 0.5659669041633606
0.065072305500507355 0.11021874845027924 0.25992465019226074
0.17054569721221924 0.11076264083385468 0.26368540525436401
0.29083868861198425 0.09461791068315506 0.26347827911376953
0.42870891094207764 0.07139318436384201 0.26600655913352966
0.56301546096801758 0.036162834614515305 0.26201906800270081
0.6952628493309021 0.044315040111541748 0.25277376174926758
0.82730907201766968 0.074342526495456696 0.24042758345603943
0.13108102977275848 0.22930127382278442 0.30571222305297852
0.19901981949806213 0.23003222048282623 0.30587270855903625
0.32516711950302124 0.23151762783527374 0.31023269891738892
0.46957331895828247 0.2209395170211792 0.31254345178604126
0.60553961992263794 0.19233687222003937 0.30703547596931458
0.6966748833656311 0.089176669716835022 0.29714184999465942
0.80917501449584961 0.051776692271232605 0.27950131893157959
0.15568862855434418 0.35689139366149902 0.35345056653022766
0.22596409916877747 0.35642871260643005 0.35426977276802063
0.35772940516471863 0.35809832811355591 0.35888102650642395
0.50443571805953979 0.35427933931350708 0.36053106188774109
0.64301818609237671 0.33592063188552856 0.35769695043563843
0.75133305788040161 0.2874598503112793 0.35157027840614319
0.82970452308654785 0.14244304597377777 0.33096799254417419
0.21975885331630707 0.50368726253509521 0.41062304377555847
0.28764045238494873 0.50476139783859253 0.41163957118988037
0.40733477473258972 0.50889986753463745 0.41399887204170227
0.5493779182434082 0.51210564374923706 0.4160868227481842
0.68102097511291504 0.5057671070098877 0.41616028547286987
0.79305803775787354 0.47382548451423645 0.41338402032852173
0.89820921421051025 0.40018993616104126 0.39747461676597595
0.31012940406799316 0.64070123434066772 0.47544705867767334
0.37010091543197632 0.64013278484344482 0.47630956768989563
0.47181680798530579 0.64472055435180664 0.47590541839599609
0.59657514095306396 0.6530880331993103 0.477802574634552
0.71777009963989258 0.65814965963363647 0.48113751411437988
0.83224529027938843 0.65109533071517944 0.4785274863243103
0.94805991649627686 0.6109122633934021 0.46652400493621826
0.41351258754730225 0.76504862308502197 0.5439993143081665
0.46274775266647339 0.76431679725646973 0.54618352651596069
0.54063266515731812 0.76730257272720337 0.54761308431625366
0.64111554622650146 0.77698242664337158 0.54798716306686401
0.74846524000167847 0.78801184892654419 0.5517156720161438
0.86306130886077881 0.79238355159759521 0.54734134674072266
0.98383986949920654 0.77506202459335327 0.5381583571434021
0.5083547830581665 0.90008151531219482 0.62612497806549072
0.55084121227264404 0.90012973546981812 0.62589061260223389
0.60873687267303467 0.90397447347640991 0.62746411561965942
0.68805348873138428 0.91454911231994629 0.6301460862159729
0.78141593933105469 0.92855983972549438 0.63279867172241211
0.89311748743057251 0.93555617332458496 0.62916809320449829
0.99879974126815796 0.92937642335891724 0.62169110774993896
0.042997024953365326 0.11298394203186035 0.35335302352905273
0.1416349858045578 0.12312088161706924 0.36150339245796204
0.26709276437759399 0.11213111132383347 0.36409351229667664
0.41250967979431152 0.10306897759437561 0.36687460541725159
0.53752070665359497 0.046617083251476288 0.364044189453125
0.65947073698043823 0.031049557030200958 0.35451117157936096
0.78666800260543823 0.043400976806879044 0.34682676196098328
0.095768854022026062 0.23707859218120575 0.40435677766799927
0.16580963134765625 0.23671902716159821 0.40484711527824402
0.29136297106742859 0.23566034436225891 0.41088712215423584
0.44313910603523254 0.23576721549034119 0.41500046849250793
0.57809579372406006 0.20384377241134644 0.41351756453514099
0.67547982931137085 0.1202484592795372 0.40489661693572998
0.77542638778686523 0.049789860844612122 0.39071154594421387
0.11499319970607758 0.36350229382514954 0.45408874750137329
0.17795713245868683 0.36349514126777649 0.45579198002815247
0.32265165448188782 0.36549395322799683 0.461016446352005
0.4721214771270752 0.36250108480453491 0.46373164653778076
0.61130052804946899 0.34517109394073486 0.46552211046218872
0.71903759241104126 0.28993284702301025 0.46160385012626648
0.80731332302093506 0.17945720255374908 0.44429326057434082
0.16757054626941681 0.50524348020553589 0.50845283269882202
0.2400190532207489 0.50472718477249146 0.51016378402709961
0.37053543329238892 0.5095633864402771 0.51200789213180542
0.51551729440689087 0.51426559686660767 0.51434206962585449
0.64841258525848389 0.5084044337272644 0.51819336414337158
0.76288473606109619 0.48017144203186035 0.51905280351638794
0.86746501922607422 0.4097907543182373 0.50712388753890991
0.26056033372879028 0.63537836074829102 0.56575930118560791
0.32498148083686829 0.63485002517700195 0.56758379936218262
0.43713173270225525 0.6409454345703125 0.56695568561553955
0.5652693510055542 0.65066826343536377 0.56891119480133057
0.68664717674255371 0.65620911121368408 0.57295793294906616
0.80150949954986572 0.64800125360488892 0.57531368732452393
0.91986387968063354 0.61471462249755859 0.56760674715042114
0.37500035762786865 0.76195931434631348 0.62280398607254028
0.42614668607711792 0.76074361801147461 0.62380504608154297
0.50892919301986694 0.76436489820480347 0.62442928552627563
0.61248445510864258 0.77350258827209473 0.6270948052406311
0.72051870822906494 0.78318232297897339 0.63007718324661255
0.83535313606262207 0.78473728895187378 0.62916547060012817
0.96201765537261963 0.77009183168411255 0.62234872579574585
0.47956061363220215 0.90218532085418701 0.68830579519271851
0.51884305477142334 0.90244072675704956 0.68766283988952637
0.57737427949905396 0.90570175647735596 0.68969404697418213
0.66097527742385864 0.91255944967269897 0.6936456561088562
0.75811088085174561 0.92446613311767578 0.69666510820388794
0.87077409029006958 0.93151330947875977 0.69454115629196167
0.99216616153717041 0.92703783512115479 0.68994593620300293
0.033381890505552292 0.13651016354560852 0.46173357963562012
0.11330708861351013 0.13295188546180725 0.46811830997467041
0.23702098429203033 0.13207447528839111 0.47326695919036865
0.3854023814201355 0.12260565906763077 0.47654962539672852
0.51598149538040161 0.086760051548480988 0.47703078389167786
0.62030589580535889 0.029202420264482498 0.4730580747127533
0.74214684963226318 0.018584232777357101 0.46720924973487854
0.072226293385028839 0.25217318534851074 0.51027506589889526
0.11787889897823334 0.25123322010040283 0.51284521818161011
0.24908538162708282 0.2531038224697113 0.51763236522674561
0.40844336152076721 0.24562628567218781 0.52121233940124512
0.54704868793487549 0.21645379066467285 0.52331149578094482
0.64166909456253052 0.1279933750629425 0.51928162574768066
0.7325548529624939 0.03077412024140358 0.5072944164276123
0.074194349348545074 0.37553340196609497 0.55375152826309204
0.12835197150707245 0.37650871276855469 0.55768054723739624
0.28156197071075439 0.37856286764144897 0.56197905540466309
0.44039654731750488 0.37714052200317383 0.5644681453704834
0.5807608962059021 0.36123925447463989 0.56759852170944214
0.69324183464050293 0.31611794233322144 0.56685453653335571
0.78540080785751343 0.21666912734508514 0.55492579936981201
0.11934826523065567 0.50886362791061401 0.59867864847183228
0.19357658922672272 0.51269817352294922 0.60195279121398926
0.33489492535591125 0.51804870367050171 0.6057964563369751
0.48651906847953796 0.52492713928222656 0.60862725973129272
0.62010639905929565 0.52199453115463257 0.61239844560623169
0.73570460081100464 0.49772173166275024 0.61437851190567017
0.84299427270889282 0.43418297171592712 0.6058383584022522
0.21985720098018646 0.63407385349273682 0.6466253399848938
0.28626003861427307 0.63891065120697021 0.64842915534973145
0.40455150604248047 0.64550238847732544 0.65146136283874512
0.53770983219146729 0.65300482511520386 0.65585124492645264
0.65900725126266479 0.65926408767700195 0.6584707498550415
0.77518355846405029 0.65451455116271973 0.65971726179122925
0.89538294076919556 0.62207484245300293 0.65425753593444824
0.33910584449768066 0.75955969095230103 0.6972307562828064
0.39461788535118103 0.7604905366897583 0.69672143459320068
0.4813026487827301 0.7650531530380249 0.69906103610992432
0.5861782431602478 0.77313083410263062 0.70153939723968506
0.69518077373504639 0.78024888038635254 0.70488399267196655
0.81154251098632812 0.78114241361618042 0.70537537336349487
0.94249749183654785 0.76914799213409424 0.700908362865448
0.43891841173171997 0.90245097875595093 0.75641888380050659
0.48373594880104065 0.90606909990310669 0.75278550386428833
0.54555207490921021 0.91022354364395142 0.75444179773330688
0.63547712564468384 0.91266542673110962 0.75962847471237183
0.73567730188369751 0.92184305191040039 0.76293408870697021
0.84827744960784912 0.93216556310653687 0.76201516389846802
0.98190033435821533 0.93161767721176147 0.76055973768234253
0.026572208851575851 0.1659618467092514 0.5642969012260437
0.089289933443069458 0.16407240927219391 0.57026880979537964
0.20718181133270264 0.15410079061985016 0.57416188716888428
0.36121752858161926 0.14848577976226807 0.57941621541976929
0.49675396084785461 0.12473304569721222 0.58365023136138916
0.58985030651092529 0.039241969585418701 0.58121120929718018
0.6935538649559021 0 0.57333517074584961
0.044020455330610275 0.27730673551559448 0.60640931129455566
0.088592678308486938 0.28088837862014771 0.60995644330978394
0.21435806155204773 0.28292569518089294 0.61456048488616943
0.38098537921905518 0.27764326333999634 0.61873924732208252
0.52944964170455933 0.2586229145526886 0.62230134010314941
0.6358533501625061 0.19697034358978271 0.62101131677627563
0.70714420080184937 0.044861707836389542 0.61111623048782349
0.031431805342435837 0.39600536227226257 0.64301228523254395
0.096528373658657074 0.40062969923019409 0.64690870046615601
0.24302700161933899 0.40612131357192993 0.65224820375442505
0.41068413853645325 0.40571281313896179 0.65559738874435425
0.55658495426177979 0.39051145315170288 0.65870165824890137
0.67308211326599121 0.34974166750907898 0.66049253940582275
0.76543200016021729 0.24790728092193604 0.65295958518981934
0.06172141432762146 0.52148586511611938 0.68186259269714355
0.14895570278167725 0.52733230590820312 0.68533384799957275
0.29890236258506775 0.53419440984725952 0.69020485877990723
0.45691370964050293 0.54061698913574219 0.69352823495864868
0.59251511096954346 0.53773188591003418 0.69769978523254395
0.71105635166168213 0.51603466272354126 0.70121580362319946
0.82269865274429321 0.46132409572601318 0.69626724720001221
0.17055705189704895 0.63731998205184937 0.72524595260620117
0.2465721070766449 0.64486277103424072 0.72574502229690552
0.37194603681564331 0.65313267707824707 0.7295762300491333
0.50834029912948608 0.66065961122512817 0.73249214887619019
0.63065904378890991 0.66506171226501465 0.73786520957946777
0.74908173084259033 0.65951967239379883 0.74170327186584473
0.87316930294036865 0.63511937856674194 0.73815518617630005
0.29694545269012451 0.7574884295463562 0.77417457103729248
0.3600996732711792 0.75838649272918701 0.77215170860290527
0.45059770345687866 0.76428794860839844 0.77426242828369141
0.55658948421478271 0.77453529834747314 0.7777259349822998
0.66830360889434814 0.78104454278945923 0.78246849775314331
0.78735482692718506 0.78400051593780518 0.78358840942382812
0.92407268285751343 0.77620404958724976 0.78200691938400269
0.3926805853843689 0.90319216251373291 0.83167731761932373
0.44655925035476685 0.9064221978187561 0.82485944032669067
0.51655656099319458 0.9084324836730957 0.82787632942199707
0.60416150093078613 0.9189566969871521 0.83271300792694092
0.70815372467041016 0.92688214778900146 0.83670037984848022
0.82403600215911865 0.93616342544555664 0.83737975358963013
0.9738234281539917 0.94090694189071655 0.8401111364364624
0.012753939256072044 0.19834280014038086 0.65505987405776978
0.074550658464431763 0.20868608355522156 0.66101646423339844
0.1866910457611084 0.20766448974609375 0.66696149110794067
0.34180137515068054 0.19950850307941437 0.67322438955307007
0.48665246367454529 0.18342828750610352 0.67852246761322021
0.58180510997772217 0.090510398149490356 0.67687410116195679
0.66244524717330933 0.0005719353212043643 0.66865831613540649
0.0043857949785888195 0.31168243288993835 0.69206780195236206
0.069052346050739288 0.32218921184539795 0.69632130861282349
0.19438566267490387 0.32844355702400208 0.70341587066650391
0.35961812734603882 0.32422938942909241 0.70828032493591309
0.51357561349868774 0.30568864941596985 0.71084862947463989
0.62290185689926147 0.2429044246673584 0.71208041906356812
0.69827473163604736 0.1039784774184227 0.70720463991165161
6.4625462982803583e-05 0.42571744322776794 0.72705173492431641
0.071807324886322021 0.4329160749912262 0.73082178831100464
0.21777258813381195 0.44122356176376343 0.73792147636413574
0.38475516438484192 0.44293361902236938 0.74252641201019287
0.53548508882522583 0.43285647034645081 0.74597793817520142
0.65715509653091431 0.3988681435585022 0.74950981140136719
0.75793677568435669 0.30828642845153809 0.745780348777771
0.0049490984529256821 0.54325670003890991 0.76575678586959839
0.11009301245212555 0.54712885618209839 0.76900589466094971
0.26693201065063477 0.55428189039230347 0.7752068042755127
0.42657607793807983 0.56173938512802124 0.77982825040817261
0.56564503908157349 0.56342583894729614 0.78458046913146973
0.68925386667251587 0.54903846979141235 0.78895807266235352
0.80635535717010498 0.49969300627708435 0.78784430027008057
0.10725896805524826 0.6493181586265564 0.81090337038040161
0.20509283244609833 0.65217006206512451 0.81142908334732056
0.33876669406890869 0.66142159700393677 0.8149343729019165
0.47720301151275635 0.67191731929779053 0.81901949644088745
0.60129481554031372 0.67753416299819946 0.82512557506561279
0.72120529413223267 0.67522680759429932 0.83031612634658813
0.84940403699874878 0.659201979637146 0.83115500211715698
0.24096605181694031 0.76041364669799805 0.86214274168014526
0.3183504045009613 0.75891011953353882 0.86013472080230713
0.41421279311180115 0.76713156700134277 0.86248672008514404
0.52488666772842407 0.78111404180526733 0.86626076698303223
0.63595354557037354 0.78858011960983276 0.87279003858566284
0.75141412019729614 0.79535305500030518 0.87596786022186279
0.89117419719696045 0.79225468635559082 0.88188600540161133
0.34532827138900757 0.9018855094909668 0.92033970355987549
0.40794533491134644 0.90352600812911987 0.91516661643981934
0.47890767455101013 0.90835511684417725 0.91852599382400513
0.56983989477157593 0.9215470552444458 0.92365121841430664
0.67550373077392578 0.93096047639846802 0.92958760261535645
0.78968590497970581 0.94486582279205322 0.93330997228622437
0.9492945671081543 0.95409005880355835 0.95105797052383423
