assets/lut/films colorslide fuji provia 100 generic.cube
# Created by: G'MIC (https://gmic.eu)
TITLE "fuji_provia_100_generic"
# LUT size
LUT_3D_SIZE 13
# Data domain
DOMAIN_MIN 0.0 0.0 0.0
DOMAIN_MAX 1.0 1.0 1.0
# LUT data points
0.034214302897453308 0.031004901975393295 0.030745681375265121
0.092964679002761841 0.028689904138445854 0.027451667934656143
0.16850394010543823 0.02660045213997364 0.024005815386772156
0.26476332545280457 0.023968296125531197 0.022175388410687447
0.37432429194450378 0.023035356774926186 0.021320672705769539
0.48819267749786377 0.022592926397919655 0.022258235141634941
0.60105562210083008 0.022514551877975464 0.024471836164593697
0.70998239517211914 0.023229636251926422 0.027111217379570007
0.81338906288146973 0.026016324758529663 0.029789434745907784
0.90886777639389038 0.031734287738800049 0.031004901975393295
0.98590809106826782 0.036885444074869156 0.03110058419406414
1 0.038886561989784241 0.031251899898052216
1 0.039135653525590897 0.031378667801618576
0.050136640667915344 0.089535325765609741 0.032865427434444427
0.090361393988132477 0.088728748261928558 0.030600380152463913
0.1569477915763855 0.087280824780464172 0.027964318171143532
0.25588938593864441 0.085939027369022369 0.027311632409691811
0.36828842759132385 0.085238181054592133 0.0271733608096838
0.48347005248069763 0.085895702242851257 0.027475768700242043
0.595295250415802 0.086393170058727264 0.028567250818014145
0.70199412107467651 0.08711078017950058 0.030118979513645172
0.80338871479034424 0.089415758848190308 0.031374793499708176
0.89778316020965576 0.095133520662784576 0.03175538033246994
0.97858113050460815 0.10206107050180435 0.032024923712015152
1 0.10738375782966614 0.03211517259478569
1 0.11074088513851166 0.033041231334209442
0.068258337676525116 0.15786802768707275 0.037366319447755814
0.098228886723518372 0.15827465057373047 0.036195777356624603
0.15738110244274139 0.15856258571147919 0.034011345356702805
0.25192475318908691 0.15852919220924377 0.035037651658058167
0.36534464359283447 0.15924428403377533 0.0353725366294384
0.48055809736251831 0.16137312352657318 0.034205958247184753
0.58952027559280396 0.16284668445587158 0.033953707665205002
0.69295620918273926 0.16279827058315277 0.033892657607793808
0.79255616664886475 0.16322657465934753 0.034106578677892685
0.88753223419189453 0.1676657646894455 0.035087257623672485
0.97104579210281372 0.17478170990943909 0.035963576287031174
1 0.1816541999578476 0.036431301385164261
1 0.18730342388153076 0.035946249961853027
0.051001694053411484 0.24572357535362244 0.036959897726774216
0.074259169399738312 0.24744942784309387 0.040308438241481781
0.13083812594413757 0.25049331784248352 0.041261233389377594
0.23551107943058014 0.25103467702865601 0.042437415570020676
0.35923850536346436 0.25133121013641357 0.041761331260204315
0.47524085640907288 0.25337836146354675 0.040399305522441864
0.58087050914764404 0.25426924228668213 0.039651773869991302
0.68178778886795044 0.25362393260002136 0.038728408515453339
0.78144705295562744 0.25266072154045105 0.038458671420812607
0.87754422426223755 0.25426110625267029 0.039702381938695908
0.96215450763702393 0.25859645009040833 0.041728556156158447
0.99994367361068726 0.26506480574607849 0.041840527206659317
1 0.27110710740089417 0.039966851472854614
0.0083017535507678986 0.34661954641342163 0.030788002535700798
0.020561801269650459 0.35116368532180786 0.040539026260375977
0.075392551720142365 0.35528233647346497 0.047176390886306763
0.20147714018821716 0.35593611001968384 0.048377618193626404
0.34372687339782715 0.35566076636314392 0.046589691191911697
0.46390345692634583 0.35599216818809509 0.045358020812273026
0.56738138198852539 0.35647594928741455 0.045139431953430176
0.66655701398849487 0.35489442944526672 0.04332694411277771
0.76642757654190063 0.35203629732131958 0.042253501713275909
0.86261767148971558 0.35097137093544006 0.043339882045984268
0.94680464267730713 0.35299527645111084 0.046226561069488525
0.99734950065612793 0.35739478468894958 0.046580668538808823
1 0.36203953623771667 0.043230257928371429
0 0.44809401035308838 0.022370222955942154
0.00028083650977350771 0.45351359248161316 0.036336742341518402
0.043159469962120056 0.45780625939369202 0.047887194901704788
0.17138713598251343 0.45808932185173035 0.051772426813840866
0.32092201709747314 0.45712742209434509 0.051045361906290054
0.44858911633491516 0.45766648650169373 0.050188880413770676
0.55161762237548828 0.45884972810745239 0.050525814294815063
0.64994150400161743 0.45700278878211975 0.047868870198726654
0.74926900863647461 0.45275714993476868 0.044873077422380447
0.84345507621765137 0.45070537924766541 0.046314448118209839
0.92523938417434692 0.45198604464530945 0.050281152129173279
0.98754960298538208 0.45474159717559814 0.051330104470252991
1 0.45670518279075623 0.046498376876115799
0 0.54223394393920898 0.013720239512622356
0 0.54800510406494141 0.027880994603037834
0.035837329924106598 0.55137991905212402 0.043997358530759811
0.15531106293201447 0.55233073234558105 0.054345566779375076
0.29956933856010437 0.55174845457077026 0.055840808898210526
0.43165299296379089 0.5524103045463562 0.054172694683074951
0.53813308477401733 0.55429446697235107 0.053985700011253357
0.63673222064971924 0.55292850732803345 0.051869891583919525
0.73359709978103638 0.54855072498321533 0.04859619215130806
0.82382440567016602 0.54694736003875732 0.050841882824897766
0.90301066637039185 0.54867249727249146 0.056362539529800415
0.97117632627487183 0.55053359270095825 0.057247836142778397
0.99993216991424561 0.55012905597686768 0.049330975860357285
0 0.62875717878341675 0.0056482055224478245
0 0.63432013988494873 0.015081278048455715
0.03438301756978035 0.63777047395706177 0.033181030303239822
0.14434546232223511 0.63957560062408447 0.050994109362363815
0.27815347909927368 0.64003008604049683 0.055868558585643768
0.40957129001617432 0.64143276214599609 0.052808888256549835
0.5229000449180603 0.64337199926376343 0.053641002625226974
0.62387019395828247 0.64297008514404297 0.054718870669603348
0.71852457523345947 0.63971781730651855 0.053668331354856491
0.8051181435585022 0.63867807388305664 0.056808635592460632
0.88281410932540894 0.6410483717918396 0.060727406293153763
0.95220941305160522 0.64137208461761475 0.056712701916694641
0.99762457609176636 0.63910138607025146 0.043809808790683746
0 0.70813041925430298 0.00059868308017030358
0 0.71356987953186035 0.0031613816972821951
0.039099015295505524 0.71716874837875366 0.012585269287228584
0.1418709009885788 0.7190316915512085 0.02943236380815506
0.2660834789276123 0.72039145231246948 0.037438634783029556
0.39348462224006653 0.7225838303565979 0.037672005593776703
0.50881427526473999 0.72542548179626465 0.042276419699192047
0.61106002330780029 0.72679179906845093 0.048718232661485672
0.70345377922058105 0.72554665803909302 0.049772389233112335
0.78705990314483643 0.72517144680023193 0.052895683795213699
0.86317771673202515 0.72630757093429565 0.052333444356918335
0.93371450901031494 0.72473949193954468 0.039564695209264755
0.99111098051071167 0.72137564420700073 0.02315254881978035
0 0.78166568279266357 0
0.0007686390308663249 0.78671419620513916 1.7772001228877343e-05
0.050840474665164948 0.78964519500732422 0.00076914770761504769
0.14999181032180786 0.79126352071762085 0.0042095109820365906
0.26677191257476807 0.79230517148971558 0.0078947478905320168
0.38836544752120972 0.79344701766967773 0.0095552029088139534
0.50203865766525269 0.79642993211746216 0.01351515855640173
0.60290729999542236 0.79878479242324829 0.019863815978169441
0.69256395101547241 0.79836571216583252 0.021753648295998573
0.77325427532196045 0.7981148362159729 0.021722307428717613
0.84797161817550659 0.79859018325805664 0.018478812649846077
0.91825908422470093 0.79786378145217896 0.009766044095158577
0.98228627443313599 0.79554688930511475 0.0034868428483605385
0 0.85005629062652588 0
0.0056942957453429699 0.85431015491485596 0
0.06923985481262207 0.8563721776008606 0
0.16526283323764801 0.85688763856887817 0
0.27646413445472717 0.8565630316734314 0
0.39265811443328857 0.85691416263580322 0
0.50292491912841797 0.85734027624130249 9.1552734375e-05
0.60059958696365356 0.85969263315200806 0.00038577808300033212
0.68633788824081421 0.86091631650924683 0.00071901804767549038
0.76389378309249878 0.86091452836990356 0.0005661908071488142
0.83671009540557861 0.86102312803268433 0.00022080366034060717
0.90616726875305176 0.86205756664276123 1.9746668840525672e-05
0.97304469347000122 0.86206710338592529 0
0 0.914622962474823 0
0.018754083663225174 0.91777527332305908 0
0.091943807899951935 0.91887819766998291 0
0.18456244468688965 0.91895890235900879 0
0.29001608490943909 0.91849249601364136 0
0.40044945478439331 0.91658121347427368 0
0.50639885663986206 0.91594225168228149 0
0.59972482919692993 0.91727471351623535 0
0.68160754442214966 0.91886204481124878 0
0.75639766454696655 0.91898554563522339 0
0.82752901315689087 0.91994333267211914 0
0.89636111259460449 0.92271268367767334 0
0.96386194229125977 0.9241253137588501 0
0.0009544821223244071 0.97662317752838135 0
0.041226837784051895 0.97855097055435181 0
0.11641371250152588 0.97971570491790771 0
0.20536057651042938 0.97937071323394775 0
0.30448010563850403 0.97793722152709961 0
0.40758827328681946 0.97687351703643799 0
0.50674676895141602 0.97640162706375122 0
0.59612554311752319 0.97681522369384766 0
0.67588192224502563 0.97774499654769897 0
0.74915438890457153 0.97867721319198608 0
0.81924152374267578 0.97976487874984741 0
0.88793313503265381 0.982047438621521 0
0.95577985048294067 0.98318177461624146 0
0.035964187234640121 0.031004901975393295 0.088400356471538544
0.098534375429153442 0.030875351279973984 0.087802484631538391
0.1741514652967453 0.028967181220650673 0.086437925696372986
0.2680094838142395 0.027574995532631874 0.083902336657047272
0.37686237692832947 0.026278777047991753 0.082650892436504364
0.49130693078041077 0.024482982233166695 0.084183558821678162
0.60489529371261597 0.023174600675702095 0.088009312748908997
0.71415537595748901 0.023161765187978745 0.091504432260990143
0.81705480813980103 0.025266041979193687 0.093308471143245697
0.91021519899368286 0.029922949150204659 0.093705974519252777
0.98505127429962158 0.034420866519212723 0.093755371868610382
1 0.036652985960245132 0.095060117542743683
1 0.03684399276971817 0.098153010010719299
0.046858243644237518 0.089715354144573212 0.086937740445137024
0.091533571481704712 0.089453674852848053 0.088454000651836395
0.16130807995796204 0.088787272572517395 0.087796770036220551
0.25862270593643188 0.087581530213356018 0.086418613791465759
0.37139728665351868 0.086675815284252167 0.085475519299507141
0.48744592070579529 0.086059689521789551 0.086315035820007324
0.59935396909713745 0.085641138255596161 0.08875013142824173
0.70578807592391968 0.085612155497074127 0.091155111789703369
0.80634725093841553 0.087378434836864471 0.091696225106716156
0.89854699373245239 0.092756263911724091 0.090975411236286163
0.97627371549606323 0.099051453173160553 0.090470366179943085
1 0.10419115424156189 0.092519231140613556
1 0.10750213265419006 0.096874341368675232
0.061929576098918915 0.15881198644638062 0.089727424085140228
0.096369020640850067 0.15855763852596283 0.091077782213687897
0.15782272815704346 0.15897661447525024 0.090710841119289398
0.25353670120239258 0.1593034565448761 0.090185888111591339
0.36827313899993896 0.15926057100296021 0.089236944913864136
0.48491823673248291 0.15923891961574554 0.089195460081100464
0.59394395351409912 0.15989500284194946 0.089950710535049438
0.69670063257217407 0.1599494069814682 0.090614721179008484
0.79546099901199341 0.16077443957328796 0.090572923421859741
0.88860660791397095 0.16543610394001007 0.090462416410446167
0.96856534481048584 0.17220348119735718 0.091428928077220917
1 0.17871086299419403 0.093882299959659576
1 0.18404795229434967 0.097661234438419342
0.05274607241153717 0.24765926599502563 0.089968599379062653
0.079693451523780823 0.24782370030879974 0.093053825199604034
0.13780106604099274 0.24999018013477325 0.093862704932689667
0.23880259692668915 0.25034451484680176 0.093089371919631958
0.36104381084442139 0.25075307488441467 0.090887658298015594
0.47891631722450256 0.25116509199142456 0.089762851595878601
0.58529031276702881 0.25192397832870483 0.089872308075428009
0.68540126085281372 0.25146058201789856 0.089685998857021332
0.78409123420715332 0.25098219513893127 0.089600041508674622
0.87887352705001831 0.25381866097450256 0.090896725654602051
0.96030712127685547 0.25826224684715271 0.093322440981864929
0.99967288970947266 0.26393923163414001 0.096257045865058899
1 0.26914510130882263 0.098034590482711792
0.017015838995575905 0.35070723295211792 0.084210552275180817
0.036978360265493393 0.35208818316459656 0.091502740979194641
0.096826754510402679 0.35347548127174377 0.095881320536136627
0.21035237610340118 0.35437387228012085 0.094025738537311554
0.34468722343444824 0.35581865906715393 0.090084627270698547
0.46713221073150635 0.35633403062820435 0.089292474091053009
0.57202839851379395 0.35632658004760742 0.089578740298748016
0.67024755477905273 0.35449281334877014 0.08789285272359848
0.76868200302124023 0.35311722755432129 0.086884379386901855
0.86360102891921997 0.35337182879447937 0.088780388236045837
0.94454264640808105 0.35579043626785278 0.092683158814907074
0.99573677778244019 0.35930231213569641 0.095775708556175232
1 0.36206072568893433 0.096652641892433167
5.2807376050623134e-05 0.45320960879325867 0.076981022953987122
0.0050805783830583096 0.45581114292144775 0.087500505149364471
0.062407445162534714 0.45736148953437805 0.094065152108669281
0.1816302090883255 0.45791000127792358 0.093393333256244659
0.32418632507324219 0.45918387174606323 0.088542640209197998
0.45165553689002991 0.46012932062149048 0.087424978613853455
0.55706590414047241 0.46013015508651733 0.087889008224010468
0.65390640497207642 0.45793241262435913 0.085844181478023529
0.75066566467285156 0.4553474485874176 0.083805769681930542
0.84371370077133179 0.45491889119148254 0.086174026131629944
0.92279917001724243 0.45690080523490906 0.09129740297794342
0.98213106393814087 0.45887181162834167 0.094657883048057556
0.99998617172241211 0.45911303162574768 0.093369491398334503
0 0.54740267992019653 0.07033875584602356
0.00011156867549289018 0.55084389448165894 0.081291377544403076
0.043662097305059433 0.55285018682479858 0.090000465512275696
0.16154216229915619 0.55360680818557739 0.091167733073234558
0.3035932183265686 0.5540841817855835 0.086612910032272339
0.43488720059394836 0.55523306131362915 0.085578158497810364
0.54369735717773438 0.55605459213256836 0.088037319481372833
0.64129525423049927 0.55399757623672485 0.087453253567218781
0.73658293485641479 0.55022275447845459 0.084543131291866302
0.82493370771408081 0.54972881078720093 0.087072275578975677
0.90101796388626099 0.55297636985778809 0.09376729279756546
0.96260839700698853 0.55520111322402954 0.095940791070461273
0.99840199947357178 0.554557204246521 0.091807045042514801
0 0.63325613737106323 0.059685949236154556
0 0.63729918003082275 0.06972610205411911
0.035254638642072678 0.63978666067123413 0.08028748631477356
0.14806222915649414 0.64069032669067383 0.084956146776676178
0.28470054268836975 0.64175355434417725 0.081886604428291321
0.41651862859725952 0.64318513870239258 0.082138612866401672
0.529579758644104 0.64423459768295288 0.088164627552032471
0.62966609001159668 0.64301735162734985 0.091211654245853424
0.72314023971557617 0.63948214054107666 0.089989878237247467
0.80841159820556641 0.63918024301528931 0.092051669955253601
0.88227176666259766 0.64280205965042114 0.09707285463809967
0.94611716270446777 0.64474600553512573 0.095119819045066833
0.99409002065658569 0.64340877532958984 0.086884818971157074
0 0.71232521533966064 0.042303331196308136
0 0.71661096811294556 0.049819707870483398
0.036112751811742783 0.7190585732460022 0.061616875231266022
0.14251917600631714 0.71969407796859741 0.07096804678440094
0.27123793959617615 0.72187286615371704 0.072901524603366852
0.40054053068161011 0.72280716896057129 0.074584111571311951
0.51614362001419067 0.72455769777297974 0.081635043025016785
0.61772006750106812 0.72531414031982422 0.088425025343894958
0.70892786979675293 0.72332632541656494 0.089922390878200531
0.79127758741378784 0.72305589914321899 0.090650312602519989
0.86502617597579956 0.72593170404434204 0.089251935482025146
0.93136173486709595 0.72692859172821045 0.080939017236232758
0.98779374361038208 0.72514301538467407 0.069743797183036804
0 0.7850232720375061 0.023823278024792671
0.00026690913364291191 0.78936028480529785 0.025144988670945168
0.045974403619766235 0.79141885042190552 0.035513319075107574
0.14747603237628937 0.79259949922561646 0.047988038510084152
0.26872053742408752 0.79258579015731812 0.053004186600446701
0.39396411180496216 0.79294383525848389 0.054229151457548141
0.50943684577941895 0.7946057915687561 0.058600496500730515
0.61006468534469604 0.79649168252944946 0.065842136740684509
0.69821405410766602 0.79642212390899658 0.069128803908824921
0.77742069959640503 0.7964058518409729 0.067080028355121613
0.85022348165512085 0.79739201068878174 0.06167253851890564
0.91803890466690063 0.79908245801925659 0.052216995507478714
0.98004800081253052 0.79864382743835449 0.043274808675050735
0 0.85242992639541626 0.01368687953799963
0.0042062345892190933 0.85604321956634521 0.01083608902990818
0.064475253224372864 0.85752695798873901 0.017035689204931259
0.16202256083488464 0.85720902681350708 0.026284057646989822
0.27711391448974609 0.85648667812347412 0.029260957613587379
0.39770299196243286 0.85573548078536987 0.025802312418818474
0.51124900579452515 0.85523718595504761 0.023620335385203362
0.60848397016525269 0.85708785057067871 0.028116337954998016
0.69195336103439331 0.85732406377792358 0.032602377235889435
0.7673717737197876 0.85717475414276123 0.029606478288769722
0.83840686082839966 0.85951018333435059 0.024557210505008698
0.90622860193252563 0.86246520280838013 0.022098047658801079
0.97166788578033447 0.86407029628753662 0.021124910563230515
0 0.91567623615264893 0.012069672346115112
0.017674479633569717 0.91844469308853149 0.010109366849064827
0.089208491146564484 0.91893380880355835 0.013097994960844517
0.18305829167366028 0.91883623600006104 0.017169533297419548
0.292035311460495 0.91681891679763794 0.016377946361899376
0.4064408540725708 0.91495728492736816 0.011297517456114292
0.5158652663230896 0.91323196887969971 0.0069612688384950161
0.60830914974212646 0.91490989923477173 0.0089112976565957069
0.68720221519470215 0.9164499044418335 0.011646450497210026
0.75929760932922363 0.91624212265014648 0.0097569487988948822
0.82873958349227905 0.91784590482711792 0.007619266863912344
0.89636087417602539 0.92200726270675659 0.0097101842984557152
0.96290069818496704 0.92521035671234131 0.012792550027370453
0.0015804964350536466 0.97666323184967041 0.014841207303106785
0.042737908661365509 0.97739326953887939 0.01374028529971838
0.11655246466398239 0.97784638404846191 0.014784135855734348
0.20639878511428833 0.9772639274597168 0.01555334310978651
0.30782097578048706 0.97681719064712524 0.012932556681334972
0.41377732157707214 0.97567212581634521 0.0092994095757603645
0.51500213146209717 0.97484880685806274 0.0068520940840244293
0.60379672050476074 0.97595500946044922 0.0075373481959104538
0.68085348606109619 0.97700178623199463 0.0084558827802538872
0.75144344568252563 0.97750139236450195 0.0076344357803463936
0.8195001482963562 0.9785768985748291 0.0069949133321642876
0.88714194297790527 0.98161762952804565 0.0085763223469257355
0.95469176769256592 0.98341184854507446 0.0108909010887146
0.035951890051364899 0.030958227813243866 0.15839928388595581
0.097454920411109924 0.031004901975393295 0.16076271235942841
0.17405132949352264 0.031004901975393295 0.16166558861732483
0.26895910501480103 0.030939439311623573 0.15971660614013672
0.37841352820396423 0.030433310195803642 0.15748117864131927
0.49342852830886841 0.028012579306960106 0.16002170741558075
0.60752058029174805 0.02563679963350296 0.16475208103656769
0.71765965223312378 0.024738520383834839 0.16828055679798126
0.82086843252182007 0.026816155761480331 0.16927017271518707
0.91280680894851685 0.03048674575984478 0.16782161593437195
0.98479986190795898 0.033592313528060913 0.16632258892059326
1 0.034813165664672852 0.1684323251247406
1 0.034454658627510071 0.17391405999660492
0.048482529819011688 0.088819719851016998 0.15559983253479004
0.095002837479114532 0.089235328137874603 0.15966178476810455
0.16384238004684448 0.089583329856395721 0.16207240521907806
0.26048332452774048 0.089563034474849701 0.16009899973869324
0.37270981073379517 0.089150942862033844 0.15914350748062134
0.48870238661766052 0.087635353207588196 0.160466268658638
0.60161072015762329 0.086754068732261658 0.163892462849617
0.70880794525146484 0.086855001747608185 0.16663156449794769
0.80961513519287109 0.088714241981506348 0.16647025942802429
0.90001612901687622 0.093210183084011078 0.16374488174915314
0.97353935241699219 0.097996778786182404 0.16119840741157532
1 0.10143230855464935 0.1636417955160141
1 0.1040082722902298 0.1711539626121521
0.065323837101459503 0.15822434425354004 0.15859566628932953
0.10170196741819382 0.15801137685775757 0.16165520250797272
0.16206048429012299 0.15879110991954803 0.16237744688987732
0.25581285357475281 0.15985184907913208 0.1614149808883667
0.37024736404418945 0.15958027541637421 0.15937606990337372
0.48682734370231628 0.15945553779602051 0.16051347553730011
0.59583252668380737 0.15991152822971344 0.16304610669612885
0.69928717613220215 0.16092050075531006 0.16440659761428833
0.79885047674179077 0.16251872479915619 0.16383402049541473
0.89069944620132446 0.16636551916599274 0.16250742971897125
0.96635836362838745 0.17129611968994141 0.16174164414405823
1 0.17580939829349518 0.16443730890750885
1 0.18023024499416351 0.17061483860015869
0.059494677931070328 0.24779736995697021 0.15936073660850525
0.087720923125743866 0.24681545794010162 0.1620844304561615
0.14509643614292145 0.24803853034973145 0.16242051124572754
0.24268458783626556 0.24931332468986511 0.16058069467544556
0.3624768853187561 0.24997386336326599 0.15848428010940552
0.4803602397441864 0.25060334801673889 0.15893663465976715
0.58719712495803833 0.25119265913963318 0.16048993170261383
0.68795782327651978 0.25145575404167175 0.16081704199314117
0.78738367557525635 0.25297015905380249 0.1603228896856308
0.8823244571685791 0.25478088855743408 0.16031241416931152
0.96230494976043701 0.25813597440719604 0.1620984673500061
0.99968838691711426 0.26181432604789734 0.16555288434028625
1 0.26605871319770813 0.16923795640468597
0.028360210359096527 0.3523467481136322 0.1535385400056839
0.050363235175609589 0.35128086805343628 0.15928535163402557
0.11030744761228561 0.35100510716438293 0.16192843019962311
0.21723483502864838 0.35151803493499756 0.15912926197052002
0.34658282995223999 0.35338276624679565 0.15581761300563812
0.46795451641082764 0.35479909181594849 0.1557050347328186
0.57408648729324341 0.35587233304977417 0.15621678531169891
0.67264300584793091 0.35443973541259766 0.1544145792722702
0.7716062068939209 0.35461068153381348 0.15317660570144653
0.86735075712203979 0.35610902309417725 0.15427352488040924
0.94820189476013184 0.35800948739051819 0.15749883651733398
0.99571388959884644 0.35938853025436401 0.16125598549842834
1 0.36126825213432312 0.1634707897901535
0.0014062619302421808 0.45539891719818115 0.14780732989311218
0.012990645132958889 0.45523625612258911 0.15580357611179352
0.074507392942905426 0.45455253124237061 0.15946425497531891
0.18872010707855225 0.45527541637420654 0.15664677321910858
0.3261437714099884 0.45717516541481018 0.1514800488948822
0.45324936509132385 0.45880007743835449 0.15048834681510925
0.55990123748779297 0.45925557613372803 0.15118053555488586
0.65600287914276123 0.45869702100753784 0.14845550060272217
0.75305980443954468 0.45795115828514099 0.1471078097820282
0.84610676765441895 0.45937153697013855 0.14817114174365997
