assets/lut/films negative color fuji superia 200.cube
# Created by: G'MIC (https://gmic.eu)
TITLE "fuji_superia_200"
# LUT size
LUT_3D_SIZE 5
# Data domain
DOMAIN_MIN 0.0 0.0 0.0
DOMAIN_MAX 1.0 1.0 1.0
# LUT data points
0.032023157924413681 0.031293697655200958 0.02922547236084938
0.21534144878387451 0.0061530917882919312 0.0007164300768636167
0.4871675968170166 0 0
0.67911821603775024 0.0037928861565887928 0.0049789878539741039
0.80694669485092163 0.0011740440968424082 3.0338062060764059e-05
0.10431107133626938 0.34186047315597534 0.13816685974597931
0.31308037042617798 0.28309133648872375 0.062743678689002991
0.58303260803222656 0.18988113105297089 0.0014129638439044356
0.75513607263565063 0.055995043367147446 0.00037801405414938927
0.83268314599990845 0 0
0.25024160742759705 0.66037476062774658 0.15776929259300232
0.45041343569755554 0.63621598482131958 0.12269461899995804
0.69739556312561035 0.57957959175109863 0.059583224356174469
0.88032227754592896 0.51289808750152588 0.036407127976417542
0.97632521390914917 0.39796668291091919 0.061980977654457092
0.52259963750839233 0.84994041919708252 0.049011364579200745
0.64060711860656738 0.83522027730941772 0.03525969386100769
0.82176637649536133 0.80045533180236816 0.026603983715176582
0.96524661779403687 0.75977540016174316 0.042062424123287201
1 0.71308422088623047 0.09168369323015213
0.78414052724838257 0.99403572082519531 0
0.8397526741027832 0.98823773860931396 0.00013885498628951609
0.97108936309814453 0.96509468555450439 0.00028471104451455176
1 0.94184225797653198 0
1 0.9179038405418396 0.00011201746383449063
0.010295448824763298 0.032675441354513168 0.24604512751102448
0.19164328277111053 0.0048095104284584522 0.17088490724563599
0.43667715787887573 0 0.057225830852985382
0.62432891130447388 0.0008552999934181571 0.012212132103741169
0.74016767740249634 0.016021907329559326 0.032198317348957062
0.06502755731344223 0.34053733944892883 0.35248187184333801
0.28861749172210693 0.28606942296028137 0.28267008066177368
0.53645437955856323 0.1828581839799881 0.18582861125469208
0.70029056072235107 0.06007690355181694 0.11271946877241135
0.77389669418334961 0.0010827905498445034 0.064578443765640259
0.18072327971458435 0.66970241069793701 0.4220212996006012
0.39620846509933472 0.64475935697555542 0.3828776478767395
0.64461934566497803 0.58662497997283936 0.3180963397026062
0.82193708419799805 0.52228856086730957 0.26493602991104126
0.92745554447174072 0.39794546365737915 0.26394137740135193
0.44647040963172913 0.85444366931915283 0.393331378698349
0.56852877140045166 0.83724743127822876 0.35157844424247742
0.74432265758514404 0.80412262678146362 0.31052419543266296
0.89328265190124512 0.77137017250061035 0.32515481114387512
0.99488717317581177 0.71990281343460083 0.34571251273155212
0.75663244724273682 0.98995929956436157 0.034745190292596817
0.82119250297546387 0.98812758922576904 0.016821393743157387
0.91433924436569214 0.97438973188400269 0.043316859751939774
0.99761009216308594 0.95358306169509888 0.041176382452249527
0.999980628490448 0.92571455240249634 0.19412434101104736
0.0038378697354346514 0.019999230280518532 0.49458590149879456
0.17281939089298248 0.0012892030645161867 0.41350668668746948
0.39112293720245361 0 0.30421170592308044
0.57348322868347168 0 0.23534005880355835
0.70453363656997681 0.00051477469969540834 0.21525655686855316
0.047571264207363129 0.32293203473091125 0.61377334594726562
0.26576003432273865 0.27201974391937256 0.54521232843399048
0.4952026903629303 0.18674971163272858 0.44827327132225037
0.64545392990112305 0.067011244595050812 0.35694217681884766
0.74009257555007935 0.00012359619722701609 0.28312405943870544
0.15350741147994995 0.66408848762512207 0.70147478580474854
0.35728943347930908 0.63871115446090698 0.66149616241455078
0.59463298320770264 0.59038406610488892 0.59010714292526245
0.76164138317108154 0.52266502380371094 0.52947121858596802
0.87071019411087036 0.38309159874916077 0.46640530228614807
0.37443912029266357 0.85891371965408325 0.72506940364837646
0.49183157086372375 0.84305429458618164 0.70035290718078613
0.66591125726699829 0.81537473201751709 0.65799200534820557
0.81491225957870483 0.77958929538726807 0.61241668462753296
0.95429533720016479 0.73055553436279297 0.59015530347824097
0.6108282208442688 0.99759715795516968 0.6051749587059021
0.67387616634368896 0.99441617727279663 0.5795714259147644
0.78076213598251343 0.98818504810333252 0.572334885597229
0.9019971489906311 0.97715777158737183 0.55743801593780518
0.99987614154815674 0.9401012659072876 0.58363825082778931
0.030545836314558983 0.00099325738847255707 0.65569543838500977
0.19725161790847778 0 0.57665210962295532
0.37840715050697327 0 0.47926157712936401
0.53488218784332275 0 0.41081035137176514
0.66914492845535278 0 0.36852681636810303
0.13701698184013367 0.28207889199256897 0.76409715414047241
0.29827719926834106 0.23458997905254364 0.70029300451278687
0.47979915142059326 0.13445101678371429 0.6029779314994812
0.60916686058044434 0.029804155230522156 0.51248550415039062
0.7051582932472229 0 0.43104857206344604
0.25542372465133667 0.64900702238082886 0.85514283180236816
0.39728695154190063 0.62423402070999146 0.81838077306747437
0.58498537540435791 0.57855969667434692 0.75353443622589111
0.7338937520980835 0.51539474725723267 0.68936371803283691
0.84200626611709595 0.37666705250740051 0.60881787538528442
0.41596305370330811 0.85185849666595459 0.89359873533248901
0.50424039363861084 0.83926886320114136 0.86953914165496826
0.64415967464447021 0.81544774770736694 0.82999557256698608
0.78246891498565674 0.7829480767250061 0.780739426612854
0.91711384057998657 0.73022717237472534 0.73225289583206177
0.567188560962677 0.99632769823074341 0.89851552248001099
0.61563152074813843 0.9967302680015564 0.88014751672744751
0.71710067987442017 0.9918133020401001 0.85620808601379395
0.84235203266143799 0.9818192720413208 0.81946176290512085
0.98438912630081177 0.95136469602584839 0.78019541501998901
0.11269199103116989 0 0.73721683025360107
0.25491893291473389 0 0.67844462394714355
0.39261782169342041 0 0.59840279817581177
0.51726818084716797 0 0.52978610992431641
0.65316033363342285 0 0.49150431156158447
0.26986637711524963 0.19750313460826874 0.82071101665496826
0.36737030744552612 0.1500842273235321 0.77252751588821411
0.48480010032653809 0.067180320620536804 0.69557350873947144
0.57652413845062256 0.003182385116815567 0.61122971773147583
0.6763986349105835 0 0.53906327486038208
0.41328224539756775 0.60581690073013306 0.93188035488128662
0.48266538977622986 0.58710217475891113 0.90555959939956665
0.60592555999755859 0.54544293880462646 0.85563802719116211
0.71630740165710449 0.47207671403884888 0.79689443111419678
0.80502068996429443 0.30383485555648804 0.7099074125289917
0.5084989070892334 0.82878756523132324 0.9957958459854126
0.5703309178352356 0.82033109664916992 0.97817981243133545
0.66447699069976807 0.80199646949768066 0.94929414987564087
0.76954871416091919 0.77260124683380127 0.91248154640197754
0.89693892002105713 0.72127926349639893 0.86447501182556152
0.61202049255371094 0.99336737394332886 1
0.64759355783462524 0.99519175291061401 0.99982839822769165
0.71732181310653687 0.99261516332626343 0.99784177541732788
0.81761950254440308 0.98478126525878906 0.99082058668136597
0.96483141183853149 0.96517080068588257 0.96137756109237671
