assets/lut/films colorslide agfa precisa 100.cube
# Created by: G'MIC (https://gmic.eu)
TITLE "agfa_precisa_100"
# LUT size
LUT_3D_SIZE 5
# Data domain
DOMAIN_MIN 0.0 0.0 0.0
DOMAIN_MAX 1.0 1.0 1.0
# LUT data points
0.030774643644690514 0.03008563444018364 0.024502085521817207
0.19779688119888306 0.041425369679927826 0.023811116814613342
0.43488618731498718 0.050848629325628281 0.062433745712041855
0.72084754705429077 0.082095548510551453 0.14868585765361786
0.97182685136795044 0.10463635623455048 0.20633867383003235
0.12105616927146912 0.22026179730892181 0.094635114073753357
0.24099768698215485 0.22956596314907074 0.098345153033733368
0.48168465495109558 0.24800539016723633 0.089032985270023346
0.75412416458129883 0.22699467837810516 0.10677742958068848
0.98310279846191406 0.17145201563835144 0.20654541254043579
0.15627191960811615 0.49553078413009644 0.19242753088474274
0.29475158452987671 0.50732725858688354 0.18497493863105774
0.53685146570205688 0.52791869640350342 0.16312412917613983
0.80294221639633179 0.54921150207519531 0.086363159120082855
0.99504995346069336 0.48022454977035522 0.10674729943275452
0.30197176337242126 0.78216159343719482 0.35801038146018982
0.4204595685005188 0.79267168045043945 0.3507181704044342
0.60682713985443115 0.81405961513519287 0.32675272226333618
0.83391278982162476 0.85273593664169312 0.20978879928588867
0.99919342994689941 0.89062118530273438 0
0.5848461389541626 0.98283910751342773 0.6362413763999939
0.63723278045654297 0.99086457490921021 0.62627714872360229
0.74228078126907349 0.99758052825927734 0.62297749519348145
0.8891834020614624 1 0.60915672779083252
1 1 0.36358565092086792
0.015788912773132324 0.023888127878308296 0.14997032284736633
0.17361317574977875 0.031157564371824265 0.15164527297019958
0.42561033368110657 0.04864858090877533 0.15069127082824707
0.7267833948135376 0.078636810183525085 0.1469058096408844
0.97847408056259155 0.11583743989467621 0.21799878776073456
0.098778069019317627 0.20861202478408813 0.21876710653305054
0.22006641328334808 0.22042170166969299 0.2211577296257019
0.46760466694831848 0.23494330048561096 0.21301378309726715
0.75291311740875244 0.24286484718322754 0.16439899802207947
0.98674869537353516 0.18083482980728149 0.19792254269123077
0.12141047418117523 0.48815003037452698 0.30452239513397217
0.27120065689086914 0.4962465763092041 0.30560699105262756
0.5234639048576355 0.51485753059387207 0.29504260420799255
0.78702008724212646 0.53588283061981201 0.22586289048194885
0.99835562705993652 0.50643223524093628 0.09759935736656189
0.2834835946559906 0.77298682928085327 0.44719308614730835
0.39719399809837341 0.78094643354415894 0.44824403524398804
0.59195488691329956 0.79940968751907349 0.44031018018722534
0.8184511661529541 0.82767796516418457 0.38944092392921448
0.9964907169342041 0.87683171033859253 0.092924036085605621
0.57912921905517578 0.97751039266586304 0.68408548831939697
0.62560266256332397 0.98233634233474731 0.68465214967727661
0.72942781448364258 0.99181866645812988 0.68082946538925171
0.88012212514877319 0.99985659122467041 0.66273480653762817
0.99960130453109741 1 0.49839338660240173
0.0095177739858627319 0.011488671414554119 0.31842851638793945
0.14645214378833771 0.017359985038638115 0.32360076904296875
0.40560093522071838 0.02927652932703495 0.32728832960128784
0.71465188264846802 0.056551467627286911 0.27339580655097961
0.98394608497619629 0.12580791115760803 0.21667292714118958
0.080735526978969574 0.19437839090824127 0.39211809635162354
0.18186746537685394 0.20450113713741302 0.40049579739570618
0.43958187103271484 0.21719561517238617 0.4099571704864502
0.73218649625778198 0.21613804996013641 0.37464305758476257
0.98708468675613403 0.18838140368461609 0.23041284084320068
0.073213495314121246 0.46993666887283325 0.47692129015922546
0.22894030809402466 0.47642260789871216 0.48471266031265259
0.4989941418170929 0.49789273738861084 0.49817278981208801
0.76829451322555542 0.50978344678878784 0.46969231963157654
0.99391978979110718 0.49769085645675659 0.29824098944664001
0.25108164548873901 0.74869394302368164 0.59479999542236328
0.36988100409507751 0.75714373588562012 0.59684556722640991
0.57830679416656494 0.7744143009185791 0.60454529523849487
0.80058830976486206 0.80188626050949097 0.59455883502960205
0.99749863147735596 0.82287943363189697 0.43098393082618713
0.57767182588577271 0.95980709791183472 0.77340567111968994
0.62023866176605225 0.96791630983352661 0.76951223611831665
0.72637218236923218 0.97827208042144775 0.77863866090774536
0.86628752946853638 0.99593311548233032 0.77455973625183105
0.99897605180740356 0.99984580278396606 0.67723006010055542
0.00043797213584184647 0.0019048354588449001 0.52017933130264282
0.10123341530561447 0.0053297905251383781 0.54401242733001709
0.35589525103569031 0.01292241457849741 0.5740552544593811
0.6741442084312439 0.017389155924320221 0.55277204513549805
0.96874761581420898 0.071527369320392609 0.40515369176864624
0.039905518293380737 0.18407347798347473 0.58456003665924072
0.1357557624578476 0.19226130843162537 0.60197091102600098
0.39979630708694458 0.20159703493118286 0.6377137303352356
0.69632494449615479 0.1885799765586853 0.65624421834945679
0.9642409086227417 0.15660169720649719 0.56437498331069946
0.020414957776665688 0.45937249064445496 0.64530694484710693
0.15944616496562958 0.46889406442642212 0.65860682725906372
0.45617717504501343 0.4819703996181488 0.69125974178314209
0.73384630680084229 0.49353525042533875 0.70882606506347656
0.98030781745910645 0.46026319265365601 0.64240115880966187
0.1883806437253952 0.73507750034332275 0.73256534337997437
0.32169762253761292 0.74152147769927979 0.7425229549407959
0.54690754413604736 0.76049023866653442 0.76061427593231201
0.77831709384918213 0.77891278266906738 0.77780163288116455
0.98958426713943481 0.78219389915466309 0.72545832395553589
0.5550687313079834 0.94794827699661255 0.85159862041473389
0.60972344875335693 0.94998729228973389 0.86072897911071777
0.71866774559020996 0.96647363901138306 0.86815518140792847
0.85525798797607422 0.98091810941696167 0.88349103927612305
0.99387890100479126 0.9961286187171936 0.84573394060134888
0 0.0049397936090826988 0.70285016298294067
0.039633221924304962 0.014046104624867439 0.73964929580688477
0.29439231753349304 0.025191707536578178 0.79742491245269775
0.62613224983215332 0.0097324000671505928 0.83137971162796021
0.91548210382461548 0 0.76691156625747681
0 0.19760577380657196 0.74634575843811035
0.066632427275180817 0.20625594258308411 0.77585172653198242
0.32784536480903625 0.2234712690114975 0.83103054761886597
0.65028005838394165 0.20968310534954071 0.88501149415969849
0.92685437202453613 0.12233208864927292 0.89455223083496094
0 0.4615027904510498 0.78348338603973389
0.032578650861978531 0.47753050923347473 0.80284029245376587
0.36302629113197327 0.4913640022277832 0.8512154221534729
0.6896289587020874 0.50321370363235474 0.901436448097229
0.95001769065856934 0.45831263065338135 0.91919052600860596
0.040144272148609161 0.72580146789550781 0.83459627628326416
0.18348342180252075 0.73539096117019653 0.85025513172149658
0.47709357738494873 0.75167131423950195 0.88712960481643677
0.73704224824905396 0.77500486373901367 0.93048810958862305
0.96909749507904053 0.76534926891326904 0.95151960849761963
0.49110585451126099 0.93569022417068481 0.9073830246925354
0.54747468233108521 0.94104444980621338 0.91680359840393066
0.68921923637390137 0.95529633760452271 0.94305533170700073
0.83833986520767212 0.97263449430465698 0.9671894907951355
0.98490113019943237 0.98605901002883911 0.98768407106399536
