assets/lut/films colorslide fuji provia 400f.cube
# Created by: G'MIC (https://gmic.eu)
TITLE "fuji_provia_400f"
# LUT size
LUT_3D_SIZE 13
# Data domain
DOMAIN_MIN 0.0 0.0 0.0
DOMAIN_MAX 1.0 1.0 1.0
# LUT data points
0.019682072103023529 0.014344547875225544 0.011526219546794891
0.052445519715547562 0.0098269293084740639 0.0038511687889695168
0.10491599142551422 0.011476404964923859 0.00064791511977091432
0.17928774654865265 0.01460819598287344 0
0.26719331741333008 0.018570275977253914 0
0.35927361249923706 0.024388093501329422 0
0.44965368509292603 0.031896539032459259 0
0.53520548343658447 0.039068467915058136 0
0.61324018239974976 0.04481525719165802 0
0.68509656190872192 0.052432071417570114 0
0.75358164310455322 0.063956424593925476 0
0.81968528032302856 0.075652793049812317 0.00010346057388233021
0.88279128074645996 0.079996354877948761 0.00018475102842785418
0.044411439448595047 0.063432998955249786 0.037980157881975174
0.073927797377109528 0.057329632341861725 0.028304155915975571
0.12459594011306763 0.055175751447677612 0.016817834228277206
0.19811441004276276 0.05568154901266098 0.0053666657768189907
0.28503680229187012 0.056109111756086349 0.00058079138398170471
0.37466531991958618 0.057787381112575531 0
0.46125105023384094 0.05869625136256218 0
0.54209399223327637 0.055807583034038544 0
0.61617773771286011 0.05251828208565712 0
0.6850738525390625 0.053642828017473221 0
0.75073117017745972 0.0605887770652771 0
0.81399667263031006 0.068020857870578766 7.7789909482817166e-06
0.87437659502029419 0.06809089332818985 0.00031835518893785775
0.082265816628932953 0.14510257542133331 0.082610458135604858
0.1037142425775528 0.13769981265068054 0.07220420241355896
0.15111744403839111 0.13129860162734985 0.059080339968204498
0.22331720590591431 0.12622927129268646 0.040607079863548279
0.30831250548362732 0.12073053419589996 0.02155374176800251
0.39474329352378845 0.11663306504487991 0.00962066650390625
0.47681882977485657 0.10924078524112701 0.003573054913431406
0.55224418640136719 0.093706957995891571 0.00040428311331197619
0.62152278423309326 0.076553031802177429 0
0.68701285123825073 0.068159721791744232 0
0.74925792217254639 0.066667430102825165 0
0.80855077505111694 0.065393798053264618 0
0.86596071720123291 0.058108162134885788 0.00027304256218485534
0.11405032128095627 0.24655938148498535 0.14092493057250977
0.13346529006958008 0.2422301173210144 0.13096712529659271
0.18106734752655029 0.23476590216159821 0.11635662615299225
0.253583163022995 0.22571316361427307 0.096467621624469757
0.33696946501731873 0.21677605807781219 0.074748143553733826
0.42073628306388855 0.20813202857971191 0.0554213747382164
0.49908322095870972 0.19328184425830841 0.038192987442016602
0.56979358196258545 0.16643539071083069 0.0209935512393713
0.63444435596466064 0.1347213089466095 0.0074942796491086483
0.69625860452651978 0.11455752700567245 0.0022097120527178049
0.75380414724349976 0.097607932984828949 0.00029660394648090005
0.80763781070709229 0.076378628611564636 0
0.86030769348144531 0.051775690168142319 0
0.14147657155990601 0.35015001893043518 0.20224273204803467
0.16496217250823975 0.35108378529548645 0.19447574019432068
0.21658991277217865 0.34534534811973572 0.18090686202049255
0.29030564427375793 0.33706346154212952 0.16215923428535461
0.3712921142578125 0.32901740074157715 0.1413428783416748
0.4519285261631012 0.32079648971557617 0.12052445113658905
0.52795916795730591 0.30563607811927795 0.09948248416185379
0.59623318910598755 0.27666112780570984 0.077016778290271759
0.65811616182327271 0.24073897302150726 0.055771473795175552
0.71625453233718872 0.20871603488922119 0.038356870412826538
0.76877540349960327 0.17020779848098755 0.021388828754425049
0.81528264284133911 0.1153813824057579 0.0043082442134618759
0.86086171865463257 0.059741225093603134 1.7233456674148329e-05
0.18005412817001343 0.44721806049346924 0.26106315851211548
0.21025325357913971 0.45017024874687195 0.25484859943389893
0.26266047358512878 0.44854375720024109 0.2446804940700531
0.33301740884780884 0.44444400072097778 0.22997546195983887
0.40859687328338623 0.43966317176818848 0.2123921811580658
0.48496681451797485 0.4345240592956543 0.19341248273849487
0.55834299325942993 0.42429956793785095 0.17361713945865631
0.62522870302200317 0.40131184458732605 0.15147116780281067
0.68667012453079224 0.37172731757164001 0.12929388880729675
0.74427914619445801 0.3393455445766449 0.10682320594787598
0.79465019702911377 0.28947430849075317 0.079856663942337036
0.83561247587203979 0.20775827765464783 0.043405644595623016
0.87359106540679932 0.11838227510452271 0.01087658479809761
0.23241384327411652 0.53693658113479614 0.31803596019744873
0.2651066780090332 0.54002320766448975 0.31339895725250244
0.31412819027900696 0.54088526964187622 0.30642551183700562
0.37660300731658936 0.54026371240615845 0.29598724842071533
0.44526749849319458 0.53851568698883057 0.28232374787330627
0.51557439565658569 0.53603893518447876 0.26676753163337708
0.58491724729537964 0.52973979711532593 0.24949471652507782
0.65069347620010376 0.51617532968521118 0.23054377734661102
0.71287655830383301 0.49707105755805969 0.21100613474845886
0.77205318212509155 0.47572776675224304 0.19089981913566589
0.82503581047058105 0.4369012713432312 0.16616314649581909
0.86837536096572876 0.36360803246498108 0.13048501312732697
0.90471357107162476 0.26652801036834717 0.087753370404243469
0.29547944664955139 0.62043899297714233 0.37483879923820496
0.32580912113189697 0.62226182222366333 0.37152650952339172
0.36783567070960999 0.62352389097213745 0.36699080467224121
0.42071434855461121 0.6245531439781189 0.3597501814365387
0.48038282990455627 0.62478125095367432 0.34947845339775085
0.54419738054275513 0.62403500080108643 0.33692058920860291
0.60885846614837646 0.62061554193496704 0.32236179709434509
0.67236292362213135 0.61354899406433105 0.30698895454406738
0.73383867740631104 0.60308188199996948 0.29139649868011475
0.79316890239715576 0.5900765061378479 0.27623435854911804
0.84877783060073853 0.56855767965316772 0.25964722037315369
0.8986782431602478 0.52457469701766968 0.23579289019107819
0.94062513113021851 0.44796198606491089 0.19928431510925293
0.36358451843261719 0.6984480619430542 0.43191042542457581
0.38883432745933533 0.69926470518112183 0.42984652519226074
0.42245778441429138 0.69938951730728149 0.42685025930404663
0.46517419815063477 0.69965064525604248 0.42180222272872925
0.51573163270950317 0.70024514198303223 0.41421955823898315
0.57215374708175659 0.70060378313064575 0.40386119484901428
0.63191258907318115 0.69970935583114624 0.39172855019569397
0.69202530384063721 0.69645911455154419 0.37879288196563721
0.75179469585418701 0.69016879796981812 0.36598756909370422
0.80968213081359863 0.6821179986000061 0.35406458377838135
0.86535650491714478 0.66997778415679932 0.34234315156936646
0.91734516620635986 0.64164155721664429 0.32510539889335632
0.96528321504592896 0.58936530351638794 0.2968391478061676
0.42948833107948303 0.77093017101287842 0.49006456136703491
0.45033788681030273 0.77088057994842529 0.48813521862030029
0.47644174098968506 0.77031642198562622 0.48625871539115906
0.50984996557235718 0.76925539970397949 0.48283043503761292
0.55173158645629883 0.76926040649414062 0.47677326202392578
0.60152244567871094 0.77096098661422729 0.46815782785415649
0.65587759017944336 0.77166354656219482 0.45765995979309082
0.71248030662536621 0.7707635760307312 0.44633463025093079
0.76913046836853027 0.76785069704055786 0.4351595938205719
0.82594507932662964 0.76331245899200439 0.42389610409736633
0.88141363859176636 0.75537383556365967 0.41351202130317688
0.93416041135787964 0.73711442947387695 0.40009963512420654
0.98336577415466309 0.70169556140899658 0.37964841723442078
0.49042496085166931 0.84058308601379395 0.54879140853881836
0.50869500637054443 0.83996742963790894 0.54689043760299683
0.52977240085601807 0.83877241611480713 0.54517537355422974
0.55629295110702515 0.83755719661712646 0.54255622625350952
0.59081536531448364 0.83744555711746216 0.53783309459686279
0.6338077187538147 0.83912146091461182 0.53058028221130371
0.68255800008773804 0.84094119071960449 0.52172368764877319
0.73438835144042969 0.84161233901977539 0.51209419965744019
0.78811448812484741 0.84109365940093994 0.50180208683013916
0.8435402512550354 0.83923572301864624 0.49100378155708313
0.89842897653579712 0.83476001024246216 0.48039442300796509
0.95131385326385498 0.8242155909538269 0.47014462947845459
0.99468642473220825 0.80034554004669189 0.45559799671173096
0.5487787127494812 0.90915888547897339 0.60804295539855957
0.56472575664520264 0.90864777565002441 0.60522192716598511
0.5827782154083252 0.90793699026107788 0.60383313894271851
0.60497254133224487 0.90724378824234009 0.60117202997207642
0.63418614864349365 0.90750104188919067 0.59735369682312012
0.6705358624458313 0.90901046991348267 0.59181118011474609
0.71290022134780884 0.9108736515045166 0.58516883850097656
0.75925678014755249 0.91255086660385132 0.57768255472183228
0.80931544303894043 0.91379076242446899 0.56902796030044556
0.86244410276412964 0.91476809978485107 0.55887317657470703
0.91656583547592163 0.9131312370300293 0.54903113842010498
0.96975195407867432 0.9068642258644104 0.53985106945037842
0.99957418441772461 0.89026284217834473 0.52754729986190796
0.60500234365463257 0.97786527872085571 0.66676938533782959
0.61940658092498779 0.97751891613006592 0.66303962469100952
0.63530921936035156 0.97727054357528687 0.66181999444961548
0.65490871667861938 0.97725832462310791 0.65907508134841919
0.6799771785736084 0.97786545753479004 0.65625697374343872
0.7110062837600708 0.97907119989395142 0.65252339839935303
0.74748808145523071 0.98078912496566772 0.64791601896286011
0.78871506452560425 0.98235702514648438 0.64265972375869751
0.83476871252059937 0.9838065505027771 0.63587182760238647
0.88546139001846313 0.98542201519012451 0.62692040205001831
0.93815219402313232 0.98587250709533691 0.61757206916809082
0.98781180381774902 0.98270726203918457 0.60802239179611206
1 0.97337371110916138 0.59629321098327637
0.017854398116469383 0.015032181516289711 0.03622952476143837
0.045839078724384308 0.010138642974197865 0.026985976845026016
0.095653384923934937 0.014618502929806709 0.015065226703882217
0.17204047739505768 0.017234083265066147 0.0037054622080177069
0.26123985648155212 0.01916789636015892 0.00027955000405199826
0.35224103927612305 0.02264404296875 0
0.44049128890037537 0.025772947818040848 0
0.52359020709991455 0.028517734259366989 0
0.60039365291595459 0.031773094087839127 0
0.6716417670249939 0.038149259984493256 0
0.73969137668609619 0.048197608441114426 0
0.80525290966033936 0.058410421013832092 0
0.86754965782165527 0.061427861452102661 0
0.044509317725896835 0.068339511752128601 0.071087963879108429
0.068856410682201385 0.060321852564811707 0.060611560940742493
0.11909164488315582 0.059787899255752563 0.048005226999521255
0.19329960644245148 0.059827394783496857 0.030383748933672905
0.27991822361946106 0.058436717838048935 0.013867502100765705
0.36820471286773682 0.057072985917329788 0.004583695437759161
0.45291417837142944 0.054162461310625076 0.0011775296879932284
0.53182387351989746 0.047956876456737518 0.00017722634947858751
0.60466849803924561 0.041614696383476257 0
0.67255479097366333 0.039612594991922379 0
0.73683959245681763 0.042724192142486572 0
0.79890280961990356 0.046502701938152313 0
0.8588416576385498 0.044671677052974701 0
0.081674344837665558 0.14997516572475433 0.11970184743404388
0.099638663232326508 0.14287801086902618 0.10735958069562912
0.1476312130689621 0.13797071576118469 0.094531938433647156
0.21937797963619232 0.13183821737766266 0.07536710798740387
0.30318892002105713 0.12530256807804108 0.053871318697929382
0.38825660943984985 0.1183706521987915 0.034984514117240906
0.46859535574913025 0.10703210532665253 0.019651181995868683
0.54298186302185059 0.089748144149780273 0.0083038778975605965
0.61154729127883911 0.070836491882801056 0.0020238689612597227
0.67541319131851196 0.056849252432584763 0.00010916018072748557
0.73526793718338013 0.048053473234176636 0
0.79310411214828491 0.039595570415258408 0
0.84981721639633179 0.028163012117147446 0
0.11300289630889893 0.2482745498418808 0.17884418368339539
0.13188321888446808 0.24452359974384308 0.16775023937225342
0.17813669145107269 0.23872993886470795 0.15365245938301086
0.24885258078575134 0.23035767674446106 0.13415844738483429
0.33113723993301392 0.22118887305259705 0.11134984344244003
0.41362741589546204 0.21018822491168976 0.087773218750953674
0.49059754610061646 0.19296965003013611 0.064074449241161346
0.56129252910614014 0.16605378687381744 0.043105646967887878
0.62616837024688721 0.13540966808795929 0.025875406339764595
0.68579578399658203 0.1078789085149765 0.011555331759154797
0.7408103346824646 0.080898493528366089 0.0022623548284173012
0.79281121492385864 0.051401834934949875 1.6291001884383149e-05
0.84486633539199829 0.021628301590681076 0
0.13729901611804962 0.34994751214981079 0.23880873620510101
0.16259030997753143 0.34964641928672791 0.23060986399650574
0.21215373277664185 0.34621915221214294 0.21822749078273773
0.28335747122764587 0.339731365442276 0.20094767212867737
0.3638724684715271 0.3320830762386322 0.17973031103610992
0.44406497478485107 0.3217586874961853 0.15607047080993652
0.51915603876113892 0.30468153953552246 0.13100849092006683
0.5875517725944519 0.27642104029655457 0.10624754428863525
0.65006989240646362 0.2413715273141861 0.082900822162628174
0.70687270164489746 0.20369523763656616 0.05999305471777916
0.7575068473815918 0.15814694762229919 0.035536494106054306
0.80330812931060791 0.10030999034643173 0.012798354029655457
0.84891051054000854 0.043622393161058426 0.0017144895391538739
0.17000815272331238 0.44647443294525146 0.29612237215042114
0.20183190703392029 0.44866076111793518 0.29062584042549133
0.25408944487571716 0.4474925696849823 0.28180566430091858
0.32320669293403625 0.44526833295822144 0.26838120818138123
0.39972096681594849 0.44112950563430786 0.25098201632499695
0.47635161876678467 0.43502360582351685 0.23064647614955902
0.54961574077606201 0.42285832762718201 0.2087811678647995
0.61693686246871948 0.40089321136474609 0.1852702796459198
0.67872238159179688 0.37078839540481567 0.16060973703861237
0.73512417078018188 0.33438774943351746 0.13432061672210693
0.78485482931137085 0.2816024124622345 0.10407530516386032
0.82715129852294922 0.2051895409822464 0.0684371218085289
0.86724525690078735 0.12436168640851974 0.036341380327939987
0.21794150769710541 0.53627592325210571 0.35132220387458801
0.25240796804428101 0.53883695602416992 0.34810712933540344
0.30295491218566895 0.5399126410484314 0.34255453944206238
0.36606624722480774 0.53999066352844238 0.33299800753593445
0.43566027283668518 0.53874731063842773 0.31960958242416382
0.50719785690307617 0.53653746843338013 0.30336639285087585
0.57703936100006104 0.52970987558364868 0.28509601950645447
0.64304405450820923 0.51607376337051392 0.2648414671421051
0.70513731241226196 0.49589034914970398 0.24387435615062714
0.76320230960845947 0.46992123126983643 0.22114758193492889
0.81574875116348267 0.42883297801017761 0.19425183534622192
0.86095094680786133 0.36158186197280884 0.15962505340576172
0.9009474515914917 0.27716943621635437 0.12237639725208282
0.2812877893447876 0.61943984031677246 0.40654858946800232
0.31292247772216797 0.62183159589767456 0.40441837906837463
0.35660919547080994 0.62238049507141113 0.40085697174072266
0.41065523028373718 0.62349987030029297 0.3942406177520752
0.47175130248069763 0.62450528144836426 0.38417968153953552
0.53658819198608398 0.62420558929443359 0.37117898464202881
0.60185545682907104 0.62063354253768921 0.35628804564476013
0.66558003425598145 0.61303061246871948 0.33986896276473999
0.72674542665481567 0.60106652975082397 0.32266193628311157
0.78562653064727783 0.58561939001083374 0.30562701821327209
0.84128463268280029 0.56275445222854614 0.28689712285995483
0.89227390289306641 0.52128094434738159 0.26221603155136108
0.93681496381759644 0.45426571369171143 0.22928844392299652
0.35157573223114014 0.69688546657562256 0.46196830272674561
0.37774688005447388 0.69834446907043457 0.46022307872772217
0.4125467836856842 0.69850820302963257 0.45799851417541504
0.45675736665725708 0.69877409934997559 0.45329660177230835
0.50837624073028564 0.69963562488555908 0.445426344871521
0.56563490629196167 0.70019453763961792 0.43468502163887024
0.62574636936187744 0.69911247491836548 0.42186665534973145
0.68617898225784302 0.69498759508132935 0.4079531729221344
0.74528306722640991 0.68779218196868896 0.39388912916183472
0.80321353673934937 0.67852663993835449 0.38050052523612976
0.85981637239456177 0.66703116893768311 0.36703610420227051
0.91342622041702271 0.64333271980285645 0.34953552484512329
0.96204018592834473 0.59553283452987671 0.32327455282211304
0.41978597640991211 0.7695918083190918 0.5174744725227356
0.44129246473312378 0.76968687772750854 0.51609915494918823
0.46844658255577087 0.76916474103927612 0.51441234350204468
0.50315588712692261 0.76884293556213379 0.51072460412979126
0.54612988233566284 0.76919329166412354 0.50426602363586426
0.5959782600402832 0.76974248886108398 0.49489626288414001
0.65062350034713745 0.77009373903274536 0.48354646563529968
0.70709627866744995 0.76839375495910645 0.47094318270683289
0.76407396793365479 0.76485562324523926 0.45868062973022461
0.82086527347564697 0.75997734069824219 0.44687625765800476
0.87656992673873901 0.75344997644424438 0.43521213531494141
0.93018829822540283 0.73850566148757935 0.42185279726982117
0.98018032312393188 0.70548927783966064 0.40260559320449829
0.48296186327934265 0.83862084150314331 0.57339704036712646
0.50137042999267578 0.83825165033340454 0.57200425863265991
0.52300345897674561 0.83740049600601196 0.5701744556427002
0.55073714256286621 0.83685797452926636 0.56733322143554688
0.58611828088760376 0.83697056770324707 0.5618903636932373
0.62920218706130981 0.83763128519058228 0.55386829376220703
0.67792016267776489 0.83861851692199707 0.54364073276519775
0.72993940114974976 0.83870208263397217 0.53227740526199341
0.78384041786193848 0.83791989088058472 0.52126926183700562
0.83880650997161865 0.8361283540725708 0.51022076606750488
0.89390760660171509 0.83244752883911133 0.49941262602806091
0.94677734375 0.82352280616760254 0.4896550178527832
0.9923853874206543 0.80104333162307739 0.4758661687374115
0.54265463352203369 0.90742629766464233 0.62942159175872803
0.55873334407806396 0.90672039985656738 0.62775206565856934
0.57672303915023804 0.90584403276443481 0.62573021650314331
0.59945583343505859 0.90525394678115845 0.62327814102172852
0.6289404034614563 0.90550154447555542 0.6188998818397522
0.66567069292068481 0.90671658515930176 0.61233311891555786
0.70825755596160889 0.90832191705703735 0.60410469770431519
0.75525081157684326 0.90952825546264648 0.59490454196929932
0.80532854795455933 0.91116815805435181 0.58548003435134888
0.85776305198669434 0.91158396005630493 0.57611393928527832
0.91120010614395142 0.91113775968551636 0.56691700220108032
0.96385538578033447 0.90551519393920898 0.55834019184112549
0.99878722429275513 0.8897818922996521 0.546894371509552
0.59962862730026245 0.97647690773010254 0.68593299388885498
0.61385941505432129 0.97574460506439209 0.68297284841537476
0.629527747631073 0.97528386116027832 0.68192762136459351
0.64892339706420898 0.97512727975845337 0.67906749248504639
0.67405211925506592 0.97572571039199829 0.67590808868408203
0.70541089773178101 0.97687971591949463 0.6712985634803772
0.74242532253265381 0.97847115993499756 0.66506141424179077
0.78410094976425171 0.98057252168655396 0.65841186046600342
0.83021658658981323 0.98241764307022095 0.65129804611206055
0.87982863187789917 0.98395794630050659 0.64328813552856445
0.93136250972747803 0.98409062623977661 0.63531774282455444
0.98234641551971436 0.98236864805221558 0.62656790018081665
1 0.97328925132751465 0.61587238311767578
0.015418692491948605 0.017577482387423515 0.071337632834911346
0.039227474480867386 0.012026423588395119 0.064894549548625946
0.091500423848628998 0.013817865401506424 0.04992922767996788
0.17018522322177887 0.016585854813456535 0.02890230156481266
0.25810244679450989 0.018521850928664207 0.013850507326424122
0.34627044200897217 0.020777160301804543 0.004460951779037714
0.43095546960830688 0.019983388483524323 0.001482107094489038
0.51091790199279785 0.018140695989131927 0.00073475559474900365
0.58600389957427979 0.018721187487244606 0.0002929986803792417
0.65685439109802246 0.023921862244606018 1.6156365745700896e-05
0.72443521022796631 0.033274348825216293 0
0.78969860076904297 0.042701676487922668 0
0.85180330276489258 0.045641236007213593 0
0.039504960179328918 0.07261955738067627 0.11518651992082596
0.061469417065382004 0.063814423978328705 0.10596250742673874
0.11415885388851166 0.062427010387182236 0.091523207724094391
0.19096852838993073 0.061241794377565384 0.071088261902332306
0.27691420912742615 0.059438489377498627 0.050567924976348877
0.36271724104881287 0.057432152330875397 0.031913667917251587
0.44430074095726013 0.051095474511384964 0.019140444695949554
0.52078664302825928 0.041416376829147339 0.011059779673814774
0.592071533203125 0.032501820474863052 0.0049475575797259808
0.6588025689125061 0.027837552130222321 0.00094272388378158212
0.72221893072128296 0.027715869247913361 0
0.78360223770141602 0.028899518772959709 0
0.84321045875549316 0.025691447779536247 0
0.073311179876327515 0.15252043306827545 0.16855691373348236
0.092559352517127991 0.14590145647525787 0.15617656707763672
0.14286886155605316 0.14183992147445679 0.14221653342247009
0.21622705459594727 0.13545677065849304 0.12211558222770691
0.29939630627632141 0.1290280669927597 0.099346846342086792
0.38244280219078064 0.12125372886657715 0.07621224969625473
0.46081283688545227 0.10718885064125061 0.055035997182130814
0.53377556800842285 0.08809400349855423 0.037124589085578918
0.60136550664901733 0.067560963332653046 0.022559072822332382
0.66339915990829468 0.049132883548736572 0.008546777069568634
0.72160732746124268 0.033729072660207748 0.00096529792062938213
0.77803480625152588 0.020216235890984535 0
0.83430403470993042 0.0069244685582816601 0
0.10506829619407654 0.24873580038547516 0.22660009562969208
0.1258513331413269 0.24603442847728729 0.2152538001537323
0.17294491827487946 0.24238184094429016 0.20147886872291565
0.24416330456733704 0.23513297736644745 0.18290258944034576
0.32599467039108276 0.22632105648517609 0.16046999394893646
0.40723943710327148 0.21438534557819366 0.13467307388782501
0.48295426368713379 0.19522576034069061 0.10734757035970688
0.55309551954269409 0.16823816299438477 0.082882806658744812
0.61758506298065186 0.13728579878807068 0.061722729355096817
0.67550122737884521 0.10467557609081268 0.03821747750043869
0.7278631329536438 0.069549441337585449 0.014536883682012558
0.77847719192504883 0.033100500702857971 0.0024727615527808666
0.83023750782012939 0.0043349768966436386 0.00024586098152212799
0.1304401159286499 0.34904921054840088 0.28370380401611328
0.15717749297618866 0.34870943427085876 0.27569112181663513
0.20625171065330505 0.34681707620620728 0.26466307044029236
0.27685427665710449 0.34252551198005676 0.2492944747209549
0.35724624991416931 0.33615243434906006 0.22949166595935822
0.43683573603630066 0.32512423396110535 0.20504064857959747
0.51103359460830688 0.3066132664680481 0.17807149887084961
0.57962554693222046 0.27928933501243591 0.15215486288070679
0.64210623502731323 0.24448412656784058 0.12580788135528564
0.69754290580749512 0.20362372696399689 0.09616495668888092
0.74651968479156494 0.15244077146053314 0.063896268606185913
0.79143208265304565 0.090490646660327911 0.034405503422021866
0.83673763275146484 0.031077800318598747 0.014529957436025143
0.16067811846733093 0.44413816928863525 0.33828386664390564
0.19388829171657562 0.44540071487426758 0.33369392156600952
0.24592472612857819 0.44536131620407104 0.3263433575630188
0.31444674730300903 0.44402286410331726 0.31475824117660522
0.39138484001159668 0.44182467460632324 0.29857698082923889
