assets/lut/films negative color kodak portra 160 vc.cube
# Created by: G'MIC (https://gmic.eu)
TITLE "kodak_portra_160_vc"
# LUT size
LUT_3D_SIZE 13
# Data domain
DOMAIN_MIN 0.0 0.0 0.0
DOMAIN_MAX 1.0 1.0 1.0
# LUT data points
0.017682528123259544 0.026018045842647552 0.028276076540350914
0.044543635100126266 0.031041717156767845 0.030400130897760391
0.10598467290401459 0.037286017090082169 0.028940252959728241
0.18870420753955841 0.048229306936264038 0.026395775377750397
0.29747450351715088 0.044845685362815857 0.020429439842700958
0.42454135417938232 0.035531990230083466 0.0084791295230388641
0.55499851703643799 0.026764513924717903 0.0019783468451350927
0.67665266990661621 0.025545846670866013 9.2091278929729015e-05
0.78268831968307495 0.033500298857688904 0
0.87082773447036743 0.052985906600952148 0
0.94417804479598999 0.085725419223308563 0
0.99329566955566406 0.12609575688838959 0
1 0.16873323917388916 0
0.01170812826603651 0.056137967854738235 0.037152789533138275
0.041824880987405777 0.062551043927669525 0.034293022006750107
0.1090548038482666 0.075610294938087463 0.027540618553757668
0.20083341002464294 0.086338818073272705 0.021700810641050339
0.30887547135353088 0.092005260288715363 0.014008091762661934
0.43463724851608276 0.095403872430324554 0.0058744242414832115
0.56482702493667603 0.092712849378585815 0.0013733957894146442
0.68391060829162598 0.092917487025260925 3.6262063076719642e-05
0.78651511669158936 0.10015993565320969 0
0.87220317125320435 0.1159198060631752 0
0.94354748725891113 0.14156599342823029 0
0.99229317903518677 0.17332303524017334 0
1 0.21034154295921326 0
0.002144981874153018 0.11682862043380737 0.047608006745576859
0.024893278256058693 0.12130623310804367 0.044833928346633911
0.092576466500759125 0.13523779809474945 0.032749760895967484
0.19825522601604462 0.15241634845733643 0.01407279260456562
0.31938073039054871 0.16237980127334595 0.0057100630365312099
0.45054256916046143 0.16803283989429474 0.0025312236975878477
0.57829511165618896 0.17035922408103943 2.297794162586797e-05
0.69149672985076904 0.17560236155986786 0
0.78878706693649292 0.18237881362438202 0
0.8702508807182312 0.19112841784954071 0
0.93871051073074341 0.2082991749048233 0
0.98752623796463013 0.23209047317504883 0
1 0.26250210404396057 0
0.00024523268803022802 0.20830880105495453 0.073279224336147308
0.0022200639359652996 0.20775981247425079 0.072173357009887695
0.041941609233617783 0.21437159180641174 0.061408817768096924
0.16504624485969543 0.24133498966693878 0.032643724232912064
0.32595524191856384 0.26625180244445801 0.0087435254827141762
0.46932581067085266 0.27236723899841309 0.0018675111932680011
0.58765071630477905 0.2634885311126709 5.8701458328869194e-05
0.69367045164108276 0.26076763868331909 3.2866235414985567e-05
0.78699022531509399 0.26491045951843262 0
0.86586391925811768 0.26768344640731812 0
0.93206906318664551 0.27727040648460388 0
0.98006778955459595 0.2944362461566925 0
0.99959248304367065 0.31973785161972046 0
0.00031349330674856901 0.32435363531112671 0.11065712571144104
0 0.31953045725822449 0.11155175417661667
0.0074137519113719463 0.31988024711608887 0.10640459507703781
0.11616788059473038 0.33993488550186157 0.077464506030082703
0.3026166558265686 0.3694012463092804 0.035391461104154587
0.4597301185131073 0.38646456599235535 0.01248327549546957
0.58054506778717041 0.38060757517814636 0.0016859016614034772
0.68796181678771973 0.36306804418563843 0
0.78081303834915161 0.35243028402328491 0
0.85776138305664062 0.34656736254692078 0
0.92360389232635498 0.34893140196800232 0
0.97384929656982422 0.35869687795639038 0
0.99883687496185303 0.37810021638870239 0.00064215564634650946
0 0.42981171607971191 0.15304873883724213
0 0.4286549985408783 0.15650336444377899
0.00028498031315393746 0.42780086398124695 0.15807710587978363
0.072192154824733734 0.4372028112411499 0.13523714244365692
0.25350967049598694 0.45579522848129272 0.09001980721950531
0.41578954458236694 0.47547948360443115 0.055022295564413071
0.55185204744338989 0.48251667618751526 0.020227350294589996
0.67378968000411987 0.47552880644798279 0.00049185659736394882
0.77239102125167847 0.45746198296546936 0
0.84820032119750977 0.43978139758110046 0.00046732285409234464
0.91506695747375488 0.43014869093894958 0.0005744784721173346
0.97236448526382446 0.42685621976852417 3.2671759981894866e-05
0.99964004755020142 0.43825671076774597 0.00016938752378337085
0 0.52141654491424561 0.20015281438827515
0 0.52308768033981323 0.20419257879257202
0.0027649672701954842 0.52263444662094116 0.20754535496234894
0.076857671141624451 0.52639591693878174 0.19499599933624268
0.22596099972724915 0.53602737188339233 0.16465941071510315
0.37374681234359741 0.54942148923873901 0.12906260788440704
0.51115185022354126 0.56270027160644531 0.08045477420091629
0.64625000953674316 0.57245856523513794 0.020625859498977661
0.75545585155487061 0.56470519304275513 0.00023716945725027472
0.83496963977813721 0.54651743173599243 0.00053888955153524876
0.90570783615112305 0.52823126316070557 0.0018928229110315442
0.97020512819290161 0.51203614473342896 0.00051360786892473698
1 0.51319074630737305 0
0.0041255275718867779 0.60351169109344482 0.25231537222862244
0.010667449794709682 0.60579133033752441 0.25617390871047974
0.044377855956554413 0.605518639087677 0.26031726598739624
0.1272740513086319 0.60676068067550659 0.25610208511352539
0.24095025658607483 0.61123907566070557 0.24076248705387115
0.3579762876033783 0.61832845211029053 0.2159954309463501
0.47411707043647766 0.62802344560623169 0.17348384857177734
0.59780347347259521 0.63969612121582031 0.10039293020963669
0.71558988094329834 0.64351725578308105 0.024450518190860748
0.81632131338119507 0.64192861318588257 0.001879957620985806
0.89729940891265869 0.63259905576705933 0.00010271259088767692
0.96215671300888062 0.61497324705123901 9.3347887741401792e-05
0.99942302703857422 0.60676616430282593 8.3429673395585269e-05
0.083075910806655884 0.67902445793151855 0.31525656580924988
0.10327599942684174 0.68053078651428223 0.31900796294212341
0.14471909403800964 0.68018209934234619 0.32320645451545715
0.20944921672344208 0.68000608682632446 0.32366436719894409
0.29066476225852966 0.68144267797470093 0.31732457876205444
0.37574282288551331 0.68386447429656982 0.30305898189544678
0.46245968341827393 0.68789595365524292 0.27659231424331665
0.56211715936660767 0.69473475217819214 0.22139477729797363
0.67363911867141724 0.70281058549880981 0.14371161162853241
0.785114586353302 0.71289664506912231 0.078380793333053589
0.88153427839279175 0.7182319164276123 0.026738649234175682
0.95058137178421021 0.70879924297332764 0.017642796039581299
0.99750030040740967 0.70104944705963135 0.021799439564347267
0.22038795053958893 0.74904924631118774 0.3918454647064209
0.24041232466697693 0.74930566549301147 0.39584445953369141
0.2715572714805603 0.74810874462127686 0.40001407265663147
0.31475380063056946 0.74706214666366577 0.40148428082466125
0.36832857131958008 0.74687498807907104 0.39911037683486938
0.42707747220993042 0.7472185492515564 0.39036032557487488
0.49087688326835632 0.74967443943023682 0.37246206402778625
0.56676757335662842 0.75460857152938843 0.34111443161964417
0.65550792217254639 0.76153796911239624 0.29627126455307007
0.74854910373687744 0.76802253723144531 0.25001135468482971
0.83952391147613525 0.7748902440071106 0.19613583385944366
0.926055908203125 0.78151655197143555 0.14310765266418457
0.99213391542434692 0.78407251834869385 0.12209548801183701
0.36492884159088135 0.81305110454559326 0.48138183355331421
0.3840160071849823 0.81216633319854736 0.48622813820838928
0.40528792142868042 0.81010961532592773 0.49043303728103638
0.43096557259559631 0.80986171960830688 0.49154603481292725
0.46333348751068115 0.80901306867599487 0.49054935574531555
0.50198495388031006 0.8091503381729126 0.48450261354446411
0.54702270030975342 0.81075572967529297 0.47244399785995483
0.60184240341186523 0.81533479690551758 0.45681485533714294
0.66663706302642822 0.82101595401763916 0.43202418088912964
0.73840838670730591 0.82647025585174561 0.39918097853660583
0.81487113237380981 0.83268648386001587 0.36102983355522156
0.90118777751922607 0.84408628940582275 0.30640390515327454
0.97984689474105835 0.85368317365646362 0.26808255910873413
0.49662408232688904 0.87100720405578613 0.57843315601348877
0.51487201452255249 0.86974513530731201 0.58452481031417847
0.52998626232147217 0.86800169944763184 0.58831512928009033
0.54378271102905273 0.86795341968536377 0.58928459882736206
0.56200051307678223 0.86795341968536377 0.5891837477684021
0.58602017164230347 0.86795341968536377 0.58684718608856201
0.61659663915634155 0.87010592222213745 0.5817267894744873
0.65488052368164062 0.87397676706314087 0.57452559471130371
0.70144778490066528 0.87955451011657715 0.56192493438720703
0.75528711080551147 0.88541668653488159 0.53934723138809204
0.81656157970428467 0.89161574840545654 0.50968736410140991
0.88436198234558105 0.90012049674987793 0.47299537062644958
0.95338940620422363 0.90869009494781494 0.44113290309906006
0.60867458581924438 0.92585784196853638 0.67504101991653442
0.62467098236083984 0.92585784196853638 0.68158197402954102
0.63560163974761963 0.92585784196853638 0.6852412223815918
0.64422726631164551 0.92585784196853638 0.68735319375991821
0.65435904264450073 0.92585784196853638 0.68903964757919312
0.66888880729675293 0.92585784196853638 0.69017046689987183
0.68928086757659912 0.92856442928314209 0.69001460075378418
0.71586936712265015 0.93190902471542358 0.68868637084960938
0.74901372194290161 0.93674755096435547 0.6833227276802063
0.78882521390914917 0.9427751898765564 0.67172467708587646
0.83301830291748047 0.94788205623626709 0.65445554256439209
0.88036805391311646 0.95263594388961792 0.633381187915802
0.93256038427352905 0.95797425508499146 0.61242866516113281
0.016647368669509888 0.033441253006458282 0.065421536564826965
0.047203436493873596 0.032006476074457169 0.06768016517162323
0.10448711365461349 0.025897875428199768 0.06520804762840271
0.19188754260540009 0.019299272447824478 0.061825141310691833
0.30494391918182373 0.018521491438150406 0.068300791084766388
0.43412384390830994 0.019181165844202042 0.068574704229831696
0.56252503395080566 0.016393294557929039 0.064138375222682953
0.6827082633972168 0.013631169684231281 0.053908210247755051
0.78569597005844116 0.021443236619234085 0.038017138838768005
0.86977285146713257 0.044264309108257294 0.028431566432118416
0.94232821464538574 0.086451873183250427 0.020277479663491249
0.99237710237503052 0.1348748505115509 0.01449686661362648
1 0.18042828142642975 0.021597588434815407
0.0069411182776093483 0.067472197115421295 0.075364880263805389
0.043017592281103134 0.069066755473613739 0.077256552875041962
0.11202166974544525 0.071348108351230621 0.071715697646141052
0.20579886436462402 0.074324198067188263 0.068722590804100037
0.32029858231544495 0.079896755516529083 0.072161577641963959
0.44635626673698425 0.082063920795917511 0.067832797765731812
0.57300633192062378 0.080854617059230804 0.05697549507021904
0.68840509653091431 0.080052964389324188 0.045536939054727554
0.78672075271606445 0.090310730040073395 0.033421549946069717
0.86879336833953857 0.11082157492637634 0.022008799016475677
0.9388614296913147 0.1408035010099411 0.015883412212133408
0.98764866590499878 0.17445023357868195 0.016036642715334892
0.99992692470550537 0.21518106758594513 0.01655089482665062
0.0011144750751554966 0.12708880007266998 0.091867230832576752
0.028886683285236359 0.129176065325737 0.092615075409412384
0.10329507291316986 0.13731366395950317 0.086080215871334076
0.20756185054779053 0.15024641156196594 0.071083411574363708
0.33261904120445251 0.15624710917472839 0.061540655791759491
0.46299275755882263 0.16357028484344482 0.052647490054368973
0.58693498373031616 0.16680286824703217 0.035340867936611176
0.69485247135162354 0.17116011679172516 0.024902822449803352
0.78798204660415649 0.17608185112476349 0.02009798027575016
0.86653035879135132 0.1871526837348938 0.014114978723227978
0.9344247579574585 0.20759767293930054 0.009316837415099144
0.98240929841995239 0.2320643812417984 0.0088869733735918999
0.99924927949905396 0.26625910401344299 0.0079319672659039497
0 0.21741534769535065 0.12104073166847229
0.0049588223919272423 0.21798105537891388 0.12115707248449326
0.062344465404748917 0.22227120399475098 0.11694913357496262
0.18367370963096619 0.24600212275981903 0.093391686677932739
0.33929324150085449 0.26688796281814575 0.062042761594057083
0.4794231653213501 0.26938489079475403 0.042160019278526306
0.59361922740936279 0.26107466220855713 0.026545925065875053
0.69504201412200928 0.25566604733467102 0.015711646527051926
0.78547090291976929 0.25827455520629883 0.0089680394157767296
0.86321538686752319 0.26499724388122559 0.0043883528560400009
0.93152415752410889 0.27761423587799072 0.0038709752261638641
0.98210042715072632 0.29631796479225159 0.0018726872513070703
0.99952477216720581 0.32430002093315125 0.0061748730950057507
0 0.33341309428215027 0.15746518969535828
0 0.332720547914505 0.15740790963172913
0.025243751704692841 0.33186227083206177 0.15914475917816162
0.14248047769069672 0.34529435634613037 0.14145269989967346
0.31002387404441833 0.37083908915519714 0.098113343119621277
0.46297737956047058 0.38505023717880249 0.057133246213197708
0.58358824253082275 0.37631955742835999 0.023583924397826195
0.68893790245056152 0.3560602068901062 0.0062477113679051399
0.77912938594818115 0.34428662061691284 0.0035942376125603914
0.85508394241333008 0.34336507320404053 0.00075717997970059514
0.92335265874862671 0.34991782903671265 0.00022971957514528185
0.97488003969192505 0.36232191324234009 9.0670117060653865e-05
0.99820411205291748 0.38418322801589966 0.0053189294412732124
0 0.44132700562477112 0.19522193074226379
0.00018578323943074793 0.44128185510635376 0.19619815051555634
0.016210803762078285 0.4382774829864502 0.2020694762468338
0.11449564248323441 0.44123148918151855 0.19137729704380035
0.2658255398273468 0.45520743727684021 0.15535447001457214
0.41557836532592773 0.47319862246513367 0.10731849074363708
0.55169904232025146 0.4810275137424469 0.049278378486633301
0.67370951175689697 0.47233155369758606 0.0062623564153909683
0.77165669202804565 0.45042961835861206 0.0021228415425866842
0.8477470874786377 0.43378385901451111 0.00072322174673900008
0.91470324993133545 0.4291708767414093 0
0.96955204010009766 0.43118491768836975 0
0.99876803159713745 0.44405028223991394 0.00070283177774399519
0 0.53179734945297241 0.23610988259315491
0.0005637673893943429 0.53319597244262695 0.23875962197780609
0.023199193179607391 0.5303119421005249 0.2441314160823822
0.11732101440429688 0.52895349264144897 0.24078314006328583
0.24901705980300903 0.53501898050308228 0.21849602460861206
0.38034200668334961 0.54703801870346069 0.17932331562042236
0.51031053066253662 0.55966424942016602 0.12178958207368851
0.6428835391998291 0.56894600391387939 0.051004372537136078
0.75714385509490967 0.56398469209671021 0.0098812924697995186
0.84118413925170898 0.54514747858047485 0.0013457504101097584
0.90903931856155396 0.52661502361297607 0
0.9678153395652771 0.51398909091949463 0
0.99939757585525513 0.51563137769699097 1.2835334018745925e-05
0.0020011900924146175 0.61135739088058472 0.2808775007724762
0.016994491219520569 0.61300301551818848 0.2841523289680481
0.067028120160102844 0.61115747690200806 0.28962546586990356
0.15578299760818481 0.60953527688980103 0.29131230711936951
0.26499068737030029 0.61168789863586426 0.28114086389541626
0.37087473273277283 0.61725646257400513 0.25626611709594727
0.47806224226951599 0.62582540512084961 0.21460495889186859
0.59741181135177612 0.63759410381317139 0.15056481957435608
0.72050875425338745 0.64761495590209961 0.072487220168113708
0.82607167959213257 0.64661186933517456 0.021768771111965179
0.90146160125732422 0.63043564558029175 0.0058757406659424305
0.96156817674636841 0.61199420690536499 0.00031180286896415055
0.99886727333068848 0.60402137041091919 0.00040197934140451252
0.082255646586418152 0.68467682600021362 0.33747050166130066
0.11430168896913528 0.68519991636276245 0.34122434258460999
0.16301307082176208 0.6834176778793335 0.34648323059082031
0.23047927021980286 0.68191784620285034 0.35007846355438232
0.31103703379631042 0.68229097127914429 0.34619200229644775
0.39059263467788696 0.68459725379943848 0.33160072565078735
0.4725043773651123 0.68896442651748657 0.30676537752151489
0.56791067123413086 0.69644320011138916 0.26777482032775879
0.67922663688659668 0.70768696069717407 0.20383596420288086
0.7892569899559021 0.71612751483917236 0.14008291065692902
0.87810921669006348 0.71438789367675781 0.084241770207881927
0.9473150372505188 0.70470690727233887 0.038007266819477081
0.99641531705856323 0.6969793438911438 0.031952261924743652
0.23951202630996704 0.75304096937179565 0.41050377488136292
0.26091322302818298 0.75184524059295654 0.4141899049282074
0.29074364900588989 0.74988472461700439 0.41899529099464417
0.33323299884796143 0.74802392721176147 0.42235669493675232
0.38684135675430298 0.74709963798522949 0.421883225440979
0.4428766667842865 0.74783658981323242 0.41316899657249451
0.50261223316192627 0.75082302093505859 0.39736327528953552
0.57488542795181274 0.75666064023971558 0.37519484758377075
0.66080754995346069 0.76461148262023926 0.33861625194549561
0.75264650583267212 0.7705962061882019 0.29366129636764526
0.84192949533462524 0.77497857809066772 0.23808653652667999
0.92474490404129028 0.77930921316146851 0.17762207984924316
0.99058824777603149 0.78007698059082031 0.15079590678215027
0.39042761921882629 0.81452488899230957 0.49815601110458374
0.40534693002700806 0.81382256746292114 0.50168883800506592
0.42301708459854126 0.81128156185150146 0.50548768043518066
0.44771301746368408 0.80999517440795898 0.50871258974075317
0.48056790232658386 0.80870813131332397 0.50974518060684204
0.5180324912071228 0.80804109573364258 0.50502490997314453
0.56022876501083374 0.81052994728088379 0.49414396286010742
0.61107355356216431 0.81583505868911743 0.47930002212524414
0.67219829559326172 0.82249140739440918 0.45402365922927856
0.74206799268722534 0.82782161235809326 0.42085769772529602
0.81756842136383057 0.83267182111740112 0.38426253199577332
0.89903765916824341 0.84136265516281128 0.33658790588378906
0.97505658864974976 0.84876096248626709 0.30204081535339355
0.51955670118331909 0.87193745374679565 0.59371113777160645
0.53296488523483276 0.87160366773605347 0.59742671251296997
0.54484128952026367 0.86938059329986572 0.60003423690795898
0.55882787704467773 0.86795341968536377 0.60255181789398193
0.57782274484634399 0.86795341968536377 0.60487282276153564
0.60176253318786621 0.86782723665237427 0.60390311479568481
0.63078272342681885 0.86864858865737915 0.59849190711975098
0.66603142023086548 0.87334883213043213 0.58931952714920044
0.70823466777801514 0.8790823221206665 0.57354658842086792
0.75829017162322998 0.88471484184265137 0.5515444278717041
0.81624895334243774 0.88964343070983887 0.52532541751861572
0.88174921274185181 0.89717763662338257 0.49257650971412659
0.94975054264068604 0.90516161918640137 0.46289011836051941
0.62862426042556763 0.92685222625732422 0.68848276138305664
0.64107871055603027 0.92602998018264771 0.69285678863525391
0.64981043338775635 0.92585784196853638 0.6947256326675415
0.65824252367019653 0.92585784196853638 0.69707536697387695
0.66862970590591431 0.92585784196853638 0.69960880279541016
0.68339705467224121 0.92585784196853638 0.70198702812194824
0.70313143730163574 0.92651081085205078 0.70176422595977783
0.72766077518463135 0.93046861886978149 0.69865542650222778
0.75689172744750977 0.93548727035522461 0.69120591878890991
0.7917974591255188 0.94073367118835449 0.67958879470825195
0.83308869600296021 0.94573026895523071 0.66305333375930786
0.87979543209075928 0.95082741975784302 0.64190214872360229
0.93328088521957397 0.95694607496261597 0.61923396587371826
0.0082078669220209122 0.039989173412322998 0.14003929495811462
0.047768671065568924 0.040647320449352264 0.13855837285518646
0.10719101876020432 0.039585966616868973 0.13522298634052277
0.18654172122478485 0.025545665994286537 0.13418281078338623
0.30104270577430725 0.0099052730947732925 0.13355790078639984
0.4379519522190094 0.005325706209987402 0.13028226792812347
0.56917136907577515 0.004575781524181366 0.14238861203193665
0.68848890066146851 0.009777323342859745 0.15088129043579102
0.78698843717575073 0.023065919056534767 0.14940822124481201
0.86650490760803223 0.055859614163637161 0.14576475322246552
0.93675708770751953 0.11820109933614731 0.13956001400947571
0.98578596115112305 0.17188587784767151 0.12962250411510468
0.99976611137390137 0.21286769211292267 0.13131961226463318
0.001314260414801538 0.08475176990032196 0.14889721572399139
0.036701232194900513 0.084952227771282196 0.15110820531845093
0.11345992982387543 0.082585066556930542 0.14808610081672668
0.20349235832691193 0.074491463601589203 0.14453379809856415
0.31973510980606079 0.061598189175128937 0.14558322727680206
0.45333173871040344 0.047035980969667435 0.14508736133575439
0.58150136470794678 0.050729174166917801 0.14860932528972626
0.69370263814926147 0.0727873295545578 0.15174306929111481
0.78795373439788818 0.10297819972038269 0.14937323331832886
0.86678290367126465 0.13224667310714722 0.14114895462989807
0.93747115135192871 0.16582351922988892 0.13347609341144562
0.98438960313796997 0.19908274710178375 0.12876422703266144
0.99930119514465332 0.23773883283138275 0.12644973397254944
2.9500324671971612e-05 0.14697813987731934 0.16226325929164886
0.020902775228023529 0.14800859987735748 0.16345615684986115
0.10820967704057693 0.14897151291370392 0.16267724335193634
0.21491721272468567 0.15258778631687164 0.15669646859169006
0.33977383375167847 0.15294910967350006 0.15337444841861725
0.47190430760383606 0.16151471436023712 0.15571814775466919
0.59535163640975952 0.15837021172046661 0.14490205049514771
0.70048826932907104 0.17315265536308289 0.13980033993721008
0.78904503583908081 0.1907721608877182 0.140472412109375
0.86587154865264893 0.20719857513904572 0.13293065130710602
0.93433648347854614 0.22469267249107361 0.12227983772754669
0.98343688249588013 0.24655252695083618 0.11791950464248657
0.99935293197631836 0.28088289499282837 0.11666068434715271
0.00044554169289767742 0.23621487617492676 0.1872091144323349
0.0066502741537988186 0.23804204165935516 0.18446570634841919
0.088813990354537964 0.24160347878932953 0.18693414330482483
0.21233344078063965 0.25493130087852478 0.17968781292438507
0.35139802098274231 0.26390111446380615 0.16086101531982422
0.48610931634902954 0.26324129104614258 0.14515936374664307
0.60026222467422485 0.26005923748016357 0.13136951625347137
0.70004427433013916 0.26112192869186401 0.12331940978765488
0.78703492879867554 0.26407948136329651 0.11362630873918533
0.86348927021026611 0.27424472570419312 0.10503671318292618
0.93332755565643311 0.28967529535293579 0.10407978296279907
0.98738592863082886 0.30727046728134155 0.097497798502445221
1 0.33519095182418823 0.10013164579868317
0.0018903096206486225 0.3544539213180542 0.22614261507987976
0.007830287329852581 0.35531020164489746 0.22246593236923218
0.079567946493625641 0.3535829484462738 0.2271910160779953
0.19891549646854401 0.35904067754745483 0.22117061913013458
0.32890558242797852 0.3732607364654541 0.19133384525775909
0.46888509392738342 0.38205784559249878 0.15403188765048981
0.59147006273269653 0.37189698219299316 0.12018004804849625
0.6946873664855957 0.35265246033668518 0.099910646677017212
0.78088998794555664 0.34387305378913879 0.085768647491931915
0.85606712102890015 0.35052549839019775 0.078213773667812347
0.92663079500198364 0.35933738946914673 0.070757485926151276
0.98299229145050049 0.37177491188049316 0.073272258043289185
0.99984723329544067 0.39270329475402832 0.076810114085674286
0.016896715387701988 0.45741415023803711 0.26053354144096375
0.040989294648170471 0.45857012271881104 0.25949448347091675
0.0921601802110672 0.454111248254776 0.26367640495300293
0.18882730603218079 0.4514605700969696 0.26211410760879517
