assets/lut/films colorslide lomography x-pro slide 200.cube
# Created by: G'MIC (https://gmic.eu)
TITLE "lomography_x-pro_slide_200"
# LUT size
LUT_3D_SIZE 7
# Data domain
DOMAIN_MIN 0.0 0.0 0.0
DOMAIN_MAX 1.0 1.0 1.0
# LUT data points
0.028125718235969543 0.028838273137807846 0.027323897927999496
0.13167800009250641 0.035109397023916245 0.030625257641077042
0.26436528563499451 0.045656315982341766 0.033596787601709366
0.4522247314453125 0.057250242680311203 0.043296352028846741
0.68401634693145752 0.08717983216047287 0.047148969024419785
0.88017266988754272 0.13274404406547546 0.046635136008262634
0.99528616666793823 0.20670698583126068 0.027904780581593513
0.091243818402290344 0.14739863574504852 0.065972544252872467
0.15774522721767426 0.15888521075248718 0.068452246487140656
0.29124563932418823 0.17198647558689117 0.073855273425579071
0.4760168194770813 0.19050686061382294 0.079634949564933777
0.69471555948257446 0.22332820296287537 0.083369418978691101
0.88077020645141602 0.27030006051063538 0.078762248158454895
0.99459147453308105 0.34089970588684082 0.056868802756071091
0.097616665065288544 0.31798389554023743 0.10459525883197784
0.16754572093486786 0.31887871026992798 0.11160328984260559
0.31527048349380493 0.33053639531135559 0.11481031775474548
0.50000911951065063 0.34941327571868896 0.12207086384296417
0.71336472034454346 0.38020810484886169 0.12454731017351151
0.88249671459197998 0.42153385281562805 0.11961662769317627
0.98855215311050415 0.48595929145812988 0.093293316662311554
0.073481783270835876 0.53705984354019165 0.15203380584716797
0.1769380122423172 0.5318724513053894 0.15853029489517212
0.34292739629745483 0.54312312602996826 0.15972290933132172
0.53340709209442139 0.56571710109710693 0.16095495223999023
0.73474705219268799 0.57999557256698608 0.16201919317245483
0.87643182277679443 0.61110419034957886 0.14676044881343842
0.9694209098815918 0.65782952308654785 0.11855147033929825
0.14543899893760681 0.74429166316986084 0.22306613624095917
0.26275581121444702 0.73630797863006592 0.2273586243391037
0.42103132605552673 0.74146223068237305 0.23019477725028992
0.59329968690872192 0.75467425584793091 0.22920016944408417
0.75309789180755615 0.75825726985931396 0.22790622711181641
0.86887884140014648 0.77262324094772339 0.21218301355838776
0.95354312658309937 0.79801380634307861 0.18939243257045746
0.39688822627067566 0.86927980184555054 0.35163623094558716
0.46760374307632446 0.86629676818847656 0.35020542144775391
0.5691874623298645 0.86603975296020508 0.35181134939193726
0.68819594383239746 0.86674624681472778 0.35086405277252197
0.79505705833435059 0.86467820405960083 0.35048049688339233
0.88014525175094604 0.86629492044448853 0.34965482354164124
0.95192748308181763 0.88002997636795044 0.33684700727462769
0.68281960487365723 0.94907253980636597 0.52469724416732788
0.69938558340072632 0.95202600955963135 0.51322191953659058
0.73433172702789307 0.9531862735748291 0.50843358039855957
0.7909313440322876 0.95187842845916748 0.50398629903793335
0.85185396671295166 0.94736570119857788 0.50146377086639404
0.9070354700088501 0.94584041833877563 0.50472396612167358
0.9653555154800415 0.95500791072845459 0.50257694721221924
0.030528603121638298 0.021073538810014725 0.10991784185171127
0.12928463518619537 0.030547302216291428 0.11308744549751282
0.26085165143013 0.037368055433034897 0.11664891242980957
0.45244717597961426 0.047809332609176636 0.12285879999399185
0.68817079067230225 0.072485007345676422 0.13001544773578644
0.88102942705154419 0.12219274044036865 0.13154935836791992
0.99159574508666992 0.22074195742607117 0.11207724362611771
0.085307098925113678 0.14060169458389282 0.14463135600090027
0.15488530695438385 0.14986979961395264 0.14900681376457214
0.28954458236694336 0.1608646959066391 0.15546683967113495
0.47525930404663086 0.18227975070476532 0.15759879350662231
0.69631284475326538 0.21595437824726105 0.16119171679019928
0.88207727670669556 0.26293623447418213 0.15719892084598541
0.9922669529914856 0.34364688396453857 0.135348841547966
0.095625661313533783 0.31020495295524597 0.1834719330072403
0.16490064561367035 0.31505405902862549 0.18903881311416626
0.31603395938873291 0.32713022828102112 0.19298022985458374
0.50203561782836914 0.34743452072143555 0.19811785221099854
0.7157585620880127 0.37433412671089172 0.204258993268013
0.88613688945770264 0.41681674122810364 0.19937127828598022
0.98796689510345459 0.48855683207511902 0.17684604227542877
0.041118398308753967 0.53701311349868774 0.23672232031822205
0.16038408875465393 0.53464001417160034 0.24193981289863586
0.33771717548370361 0.54548615217208862 0.24381205439567566
0.5389103889465332 0.56109732389450073 0.24916873872280121
0.73977416753768921 0.57966428995132446 0.25279241800308228
0.87889766693115234 0.61322474479675293 0.23963844776153564
0.96936529874801636 0.66365677118301392 0.21732547879219055
0.12775890529155731 0.74609553813934326 0.30722957849502563
0.24439586699008942 0.74503570795059204 0.30971768498420715
0.41224503517150879 0.7497251033782959 0.31450533866882324
0.60187608003616333 0.75504112243652344 0.31993687152862549
0.75918781757354736 0.76716595888137817 0.32062631845474243
0.86980587244033813 0.77874040603637695 0.30906075239181519
0.95450061559677124 0.79818844795227051 0.29243749380111694
0.4213254451751709 0.86631077527999878 0.42165401577949524
0.47763192653656006 0.86599034070968628 0.42459943890571594
0.57521593570709229 0.86673897504806519 0.43290835618972778
0.69747209548950195 0.86638939380645752 0.43698808550834656
0.79813277721405029 0.86787194013595581 0.43394303321838379
0.87806046009063721 0.87039470672607422 0.43057689070701599
0.95322173833847046 0.87943989038467407 0.41822722554206848
0.68965637683868408 0.9503403902053833 0.58528482913970947
0.70802736282348633 0.94886404275894165 0.58232241868972778
0.73713219165802002 0.9500923752784729 0.5866401195526123
0.78917151689529419 0.94984894990921021 0.58613252639770508
0.84615457057952881 0.94716566801071167 0.57988226413726807
0.90048438310623169 0.94908469915390015 0.58101624250411987
0.96373802423477173 0.95906245708465576 0.57405763864517212
0.036763478070497513 0.019696120172739029 0.21151961386203766
0.12739920616149902 0.023182438686490059 0.21737924218177795
0.26306185126304626 0.028893759474158287 0.22441205382347107
0.45836031436920166 0.041131455451250076 0.22922661900520325
0.68967539072036743 0.067129038274288177 0.23815567791461945
0.87568974494934082 0.12586663663387299 0.23869465291500092
0.99015748500823975 0.2174844890832901 0.22757452726364136
0.090303115546703339 0.13195745646953583 0.25643661618232727
0.15713110566139221 0.13945788145065308 0.26278978586196899
0.2886732816696167 0.15006901323795319 0.27235022187232971
0.47851645946502686 0.17268387973308563 0.27257815003395081
0.70276731252670288 0.20433767139911652 0.27689358592033386
0.88383322954177856 0.2568504810333252 0.2745358943939209
0.99136710166931152 0.33922639489173889 0.25918957591056824
0.09514801949262619 0.29980030655860901 0.30904427170753479
0.17226912081241608 0.3068535327911377 0.31373512744903564
0.31840047240257263 0.31654971837997437 0.31964981555938721
0.50590109825134277 0.33702614903450012 0.32487079501152039
0.7191045880317688 0.36781695485115051 0.33121845126152039
0.88567566871643066 0.41197043657302856 0.3295026421546936
0.98782163858413696 0.48158839344978333 0.31399393081665039
0.024932008236646652 0.53448677062988281 0.36693522334098816
0.15261627733707428 0.53525429964065552 0.37146145105361938
0.33369565010070801 0.54250723123550415 0.3742220401763916
0.54288506507873535 0.55367594957351685 0.38139599561691284
0.74039375782012939 0.57799994945526123 0.38898655772209167
0.876792311668396 0.61249667406082153 0.38573691248893738
0.96882814168930054 0.66007798910140991 0.36868712306022644
0.10357808321714401 0.75154983997344971 0.44081899523735046
0.23238292336463928 0.74997824430465698 0.44417789578437805
0.40692612528800964 0.75247615575790405 0.44682356715202332
0.60203558206558228 0.75278556346893311 0.45626327395439148
0.7596091628074646 0.76676374673843384 0.46308055520057678
0.86825752258300781 0.7803836464881897 0.4593302309513092
0.95420491695404053 0.79758989810943604 0.44424894452095032
0.42158594727516174 0.86980324983596802 0.54919886589050293
0.47425961494445801 0.86842834949493408 0.55008375644683838
0.57667875289916992 0.86814939975738525 0.55364197492599487
0.69766807556152344 0.86704331636428833 0.56299054622650146
0.79683798551559448 0.87125861644744873 0.56582432985305786
0.87670749425888062 0.87556898593902588 0.5628703236579895
0.9531862735748291 0.8834458589553833 0.54923069477081299
0.6770089864730835 0.95761847496032715 0.68142354488372803
0.70135700702667236 0.95317548513412476 0.67938423156738281
0.73705548048019409 0.95316952466964722 0.68222874402999878
0.78421169519424438 0.95389354228973389 0.68859577178955078
0.84188193082809448 0.9532657265663147 0.68558436632156372
0.89576107263565063 0.95894384384155273 0.68785476684570312
0.96273213624954224 0.96838182210922241 0.67419010400772095
0.032936036586761475 0.021374765783548355 0.34213897585868835
0.12320338189601898 0.01619301550090313 0.35453712940216064
0.2704923152923584 0.016258075833320618 0.36957001686096191
0.47198706865310669 0.026171980425715446 0.38073372840881348
0.69751197099685669 0.053156565874814987 0.38913008570671082
0.87871730327606201 0.11387377232313156 0.39091801643371582
0.99201887845993042 0.20294740796089172 0.38480144739151001
0.086339779198169708 0.12103286385536194 0.39934089779853821
0.15615877509117126 0.12358185648918152 0.4086163341999054
0.29598289728164673 0.13351535797119141 0.42254242300987244
0.48993855714797974 0.15493811666965485 0.43095755577087402
0.71198117733001709 0.18789203464984894 0.43816098570823669
0.88763153553009033 0.24555414915084839 0.44083753228187561
0.99240195751190186 0.33044350147247314 0.43331494927406311
0.10960152000188828 0.28081026673316956 0.46188303828239441
0.18229295313358307 0.2886512279510498 0.46847236156463623
0.3253309428691864 0.29914271831512451 0.47781229019165039
0.51585525274276733 0.32365807890892029 0.4871448278427124
0.72576749324798584 0.3577151894569397 0.49688151478767395
0.88777226209640503 0.40686607360839844 0.50158107280731201
0.98873686790466309 0.47886660695075989 0.49179157614707947
0.048234589397907257 0.52177327871322632 0.52675610780715942
0.16249760985374451 0.52667093276977539 0.53288894891738892
0.33691331744194031 0.53143465518951416 0.53790199756622314
0.54593569040298462 0.54538869857788086 0.5461127758026123
0.74427264928817749 0.57104963064193726 0.55621802806854248
0.880778968334198 0.60769045352935791 0.55934399366378784
0.97017437219619751 0.65889173746109009 0.54717475175857544
0.11594120413064957 0.74548661708831787 0.59775519371032715
0.23345498740673065 0.74864023923873901 0.60335183143615723
0.40541979670524597 0.75040316581726074 0.60638320446014404
0.60035508871078491 0.75196605920791626 0.61571222543716431
0.76189494132995605 0.76495581865310669 0.6229364275932312
0.87160599231719971 0.77891206741333008 0.62509965896606445
0.95366787910461426 0.80108124017715454 0.61479717493057251
0.39909669756889343 0.87310135364532471 0.680614173412323
0.46334639191627502 0.87238603830337524 0.68819987773895264
0.56789809465408325 0.87386155128479004 0.68754285573959351
0.69265115261077881 0.87158119678497314 0.69749176502227783
0.79767143726348877 0.87399351596832275 0.70313024520874023
0.87763315439224243 0.87856447696685791 0.70211195945739746
0.95179647207260132 0.88888806104660034 0.69462454319000244
0.67022216320037842 0.96489763259887695 0.76963573694229126
0.69515818357467651 0.96112346649169922 0.77385348081588745
0.73502606153488159 0.96029287576675415 0.77553421258926392
0.78556555509567261 0.95944297313690186 0.77981942892074585
0.84257656335830688 0.95879590511322021 0.78034430742263794
0.89953446388244629 0.9628404974937439 0.78107064962387085
0.96472269296646118 0.97446995973587036 0.77353543043136597
0.026147579774260521 0.0088162887841463089 0.50426363945007324
0.11889995634555817 0.0043022604659199715 0.51873999834060669
0.26871049404144287 0.0041836011223495007 0.53598451614379883
0.47471126914024353 0.0099394256249070168 0.55315303802490234
0.7024875283241272 0.029751647263765335 0.56389045715332031
0.88484078645706177 0.088131576776504517 0.56467503309249878
0.99340558052062988 0.18238522112369537 0.55547326803207397
0.088508039712905884 0.097851350903511047 0.57204931974411011
0.15962034463882446 0.099517583847045898 0.58007174730300903
0.29456606507301331 0.10909413546323776 0.59265631437301636
0.49033433198928833 0.12790238857269287 0.60872423648834229
0.70920157432556152 0.15930360555648804 0.62035477161407471
0.8857383131980896 0.21857200562953949 0.62335711717605591
0.99320971965789795 0.30662092566490173 0.6141933798789978
0.11736401170492172 0.2539806067943573 0.62976574897766113
0.18723855912685394 0.26239079236984253 0.6393858790397644
0.32516655325889587 0.27608895301818848 0.64789772033691406
0.5190245509147644 0.29763326048851013 0.66019314527511597
0.7251628041267395 0.3307892382144928 0.67212814092636108
0.88875365257263184 0.380117267370224 0.68006253242492676
0.99109941720962524 0.45399525761604309 0.67314857244491577
0.070212453603744507 0.49764260649681091 0.68346327543258667
0.17430941760540009 0.50245708227157593 0.69510811567306519
0.34327748417854309 0.5102037787437439 0.69968712329864502
0.55055350065231323 0.52745670080184937 0.70926100015640259
0.74515944719314575 0.55293118953704834 0.71767300367355347
0.88645446300506592 0.58744567632675171 0.72427070140838623
0.97406446933746338 0.64740967750549316 0.71665912866592407
0.1272767186164856 0.73240947723388672 0.7309996485710144
0.23371495306491852 0.74097168445587158 0.7384265661239624
0.40610918402671814 0.74206626415252686 0.74258273839950562
0.59930741786956787 0.7511601448059082 0.75244981050491333
0.76252883672714233 0.75978356599807739 0.76102036237716675
0.87446755170822144 0.77295082807540894 0.7644118070602417
0.95527297258377075 0.80048274993896484 0.76090145111083984
0.39093664288520813 0.87234985828399658 0.78098922967910767
0.45602849125862122 0.87551522254943848 0.787067711353302
0.56540054082870483 0.87606918811798096 0.79050523042678833
0.69033795595169067 0.87549227476119995 0.79732352495193481
0.79508292675018311 0.87715697288513184 0.80312561988830566
0.87744474411010742 0.88013362884521484 0.80659765005111694
0.95328164100646973 0.88932895660400391 0.8061145544052124
0.67276602983474731 0.96781599521636963 0.83707141876220703
0.69676756858825684 0.96473014354705811 0.84187972545623779
0.73847371339797974 0.96438759565353394 0.84535902738571167
0.7865024209022522 0.96480166912078857 0.84429121017456055
0.83990925550460815 0.96498233079910278 0.845878005027771
0.90030092000961304 0.96718770265579224 0.85015881061553955
0.96770048141479492 0.97731888294219971 0.84829181432723999
0.013384904712438583 0 0.67296439409255981
0.10307249426841736 0 0.68032407760620117
0.25190266966819763 0 0.69409191608428955
0.46244785189628601 0.0011209525400772691 0.71385294198989868
0.69762897491455078 0.016216637566685677 0.72792530059814453
0.88572156429290771 0.067324496805667877 0.72689318656921387
0.99757307767868042 0.14408808946609497 0.71213102340698242
0.070360638201236725 0.054519400000572205 0.73694437742233276
0.14271356165409088 0.059938870370388031 0.73618054389953613
0.2768547534942627 0.072695143520832062 0.74425899982452393
0.47560277581214905 0.089019477367401123 0.76206612586975098
0.69998800754547119 0.12060947716236115 0.77609366178512573
0.8851015567779541 0.17806228995323181 0.77808588743209839
0.9971579909324646 0.25864914059638977 0.76572692394256592
0.11460863053798676 0.21238374710083008 0.77285993099212646
0.1863134354352951 0.22012408077716827 0.77999478578567505
0.32221809029579163 0.2337469756603241 0.78538131713867188
0.51473921537399292 0.24717088043689728 0.7962028980255127
0.7186310887336731 0.277446448802948 0.8088914155960083
0.88624781370162964 0.33195626735687256 0.81695246696472168
0.99487483501434326 0.40530523657798767 0.8098447322845459
0.075882598757743835 0.46230226755142212 0.80257022380828857
0.18309542536735535 0.46502050757408142 0.8111269474029541
0.35610568523406982 0.47192859649658203 0.81552624702453613
0.55582022666931152 0.4909694492816925 0.82246488332748413
0.74276059865951538 0.51355308294296265 0.8322223424911499
0.88324815034866333 0.5534929633140564 0.84077072143554688
0.97987502813339233 0.61238235235214233 0.83681917190551758
0.09329521656036377 0.72288870811462402 0.82650172710418701
0.22130958735942841 0.72590917348861694 0.82888197898864746
0.41041436791419983 0.72234213352203369 0.8340868353843689
0.60207819938659668 0.73387235403060913 0.840995192527771
0.76460254192352295 0.74421042203903198 0.85075026750564575
0.8754156231880188 0.75927853584289551 0.8569570779800415
0.95986533164978027 0.78996437788009644 0.85692089796066284
0.37905943393707275 0.86913776397705078 0.85502415895462036
0.44950741529464722 0.87097644805908203 0.85817074775695801
0.56603419780731201 0.8705979585647583 0.86251604557037354
0.69505727291107178 0.86856669187545776 0.86806434392929077
0.79611700773239136 0.87218606472015381 0.87388747930526733
0.87897950410842896 0.87626641988754272 0.87795084714889526
0.95836395025253296 0.88766884803771973 0.87979841232299805
0.68575489521026611 0.96662056446075439 0.89270448684692383
0.70658332109451294 0.96293133497238159 0.89661413431167603
0.74415713548660278 0.96545702219009399 0.90118741989135742
0.79107922315597534 0.96696233749389648 0.90079879760742188
0.83949095010757446 0.96848577260971069 0.90277290344238281
0.89769315719604492 0.97030335664749146 0.90496563911437988
0.97119075059890747 0.9769519567489624 0.90539354085922241
0.0075202491134405136 0 0.80010950565338135
0.093514248728752136 0 0.80949074029922485
0.23933374881744385 0 0.82403576374053955
0.45027783513069153 0 0.84425055980682373
0.689769446849823 0.0068660513497889042 0.86135709285736084
0.88033854961395264 0.047752678394317627 0.85976433753967285
0.99831706285476685 0.1039820984005928 0.84228700399398804
0.058299433439970016 0.0092444922775030136 0.84529078006744385
0.12741152942180634 0.015234390273690224 0.84941339492797852
0.26302748918533325 0.03103402815759182 0.85964441299438477
0.4637485146522522 0.044503349810838699 0.87475484609603882
0.69192469120025635 0.079313077032566071 0.88982856273651123
0.88071566820144653 0.13808675110340118 0.89391350746154785
0.99852943420410156 0.20890094339847565 0.88205587863922119
0.13722285628318787 0.14281752705574036 0.87200313806533813
0.19411225616931915 0.16391974687576294 0.8776090145111084
0.32331177592277527 0.17926301062107086 0.88337528705596924
0.51176720857620239 0.17680215835571289 0.89035534858703613
0.71255522966384888 0.21369853615760803 0.90384161472320557
0.88327580690383911 0.27678114175796509 0.91344642639160156
0.99759095907211304 0.34453961253166199 0.90813422203063965
0.10657931864261627 0.39445739984512329 0.88652437925338745
0.21111208200454712 0.40259099006652832 0.89227944612503052
0.37059271335601807 0.41732871532440186 0.89744329452514648
0.56197959184646606 0.42612189054489136 0.90470868349075317
0.74138736724853516 0.4533839225769043 0.91416126489639282
0.88145565986633301 0.5012165904045105 0.92201381921768188
0.98701018095016479 0.5561143159866333 0.92085152864456177
0.087050147354602814 0.68141424655914307 0.89608663320541382
0.23328778147697449 0.6808316707611084 0.8992767333984375
0.42005553841590881 0.68259590864181519 0.90492010116577148
0.60465347766876221 0.69285917282104492 0.91218161582946777
0.76568430662155151 0.70770078897476196 0.9208189845085144
0.87669748067855835 0.72895926237106323 0.92810314893722534
0.9653657078742981 0.7641223669052124 0.92927092313766479
0.34481009840965271 0.85463076829910278 0.91707766056060791
0.43420785665512085 0.85658389329910278 0.91931462287902832
0.55658245086669922 0.85867542028427124 0.92360806465148926
0.68431836366653442 0.86039561033248901 0.92896384000778198
0.79315292835235596 0.86225062608718872 0.93657618761062622
0.87935513257980347 0.86522191762924194 0.9434548020362854
0.96264147758483887 0.87849307060241699 0.9474373459815979
0.66890150308609009 0.96575307846069336 0.9505850076675415
0.69738495349884033 0.96247708797454834 0.95427864789962769
0.73674267530441284 0.96644824743270874 0.95823460817337036
0.7877468466758728 0.96853786706924438 0.96116358041763306
0.83661949634552002 0.9702039361000061 0.96522974967956543
0.8945191502571106 0.96783626079559326 0.96992546319961548
0.97458040714263916 0.97361773252487183 0.97602498531341553
