assets/lut/films colorslide kodak ektachrome 100 vs.cube
# Created by: G'MIC (https://gmic.eu)
TITLE "kodak_ektachrome_100_vs"
# LUT size
LUT_3D_SIZE 5
# Data domain
DOMAIN_MIN 0.0 0.0 0.0
DOMAIN_MAX 1.0 1.0 1.0
# LUT data points
0.013383648358285427 0.0070729721337556839 0.0088518178090453148
0.17099043726921082 0.0095175802707672119 0.0038251390215009451
0.47187164425849915 0.0088290050625801086 0.0030994191765785217
0.77501022815704346 0 0
1 0 0
0.093435950577259064 0.21418656408786774 0.098096825182437897
0.26069045066833496 0.21176800131797791 0.07789573073387146
0.52895230054855347 0.18301917612552643 0.032957624644041061
0.80778127908706665 0.11477263271808624 0.022122940048575401
1 0.064178645610809326 0.029046241194009781
0.25091859698295593 0.50226455926895142 0.18616889417171478
0.38289281725883484 0.49970421195030212 0.17513658106327057
0.60504418611526489 0.48930281400680542 0.14141596853733063
0.84527784585952759 0.45807608962059021 0.13717405498027802
1 0.39472624659538269 0.1704353541135788
0.48480919003486633 0.77187889814376831 0.27825412154197693
0.55858969688415527 0.76870429515838623 0.2702232301235199
0.71863859891891479 0.76888751983642578 0.22535701096057892
0.93865752220153809 0.75824135541915894 0.16664363443851471
1 0.72608393430709839 0.22277666628360748
0.77460658550262451 0.99694621562957764 0.35815268754959106
0.82314056158065796 0.99465548992156982 0.35979354381561279
0.90385818481445312 0.99719715118408203 0.33960050344467163
0.99668818712234497 0.99355512857437134 0.30731698870658875
1 0.99420785903930664 0.23587018251419067
0 0.0029573778156191111 0.1364305317401886
0.11539716273546219 0.0038990245666354895 0.12366674095392227
0.42526742815971375 0.00014774098235648125 0.087387502193450928
0.74247705936431885 0 0.054817318916320801
0.99997901916503906 0 0.042930155992507935
0.065769433975219727 0.21182963252067566 0.22665663063526154
0.21082456409931183 0.19781914353370667 0.21177805960178375
0.48435339331626892 0.16772919893264771 0.17070302367210388
0.76878166198730469 0.11277920752763748 0.13248720765113831
1 0.069367021322250366 0.1114814430475235
0.20798313617706299 0.49723580479621887 0.29337939620018005
0.34182128310203552 0.49219587445259094 0.29048478603363037
0.56148165464401245 0.48170548677444458 0.28733226656913757
0.80602782964706421 0.45787560939788818 0.29026046395301819
1 0.39024436473846436 0.28460723161697388
0.48605877161026001 0.77597337961196899 0.29995861649513245
0.553538978099823 0.77114492654800415 0.2998904287815094
0.70905452966690063 0.76904559135437012 0.27621915936470032
0.90283715724945068 0.75517559051513672 0.30352634191513062
0.99991309642791748 0.71598774194717407 0.38443771004676819
0.79331719875335693 0.99686616659164429 0.36260363459587097
0.8271450400352478 0.99852943420410156 0.35323566198348999
0.91496884822845459 0.99850517511367798 0.3339131772518158
0.9969974160194397 0.99514389038085938 0.29429644346237183
0.99961626529693604 0.99474245309829712 0.24507096409797668
0 0 0.29356604814529419
0.070196382701396942 0 0.27147951722145081
0.3858606219291687 0 0.22152760624885559
0.71602123975753784 0 0.17378050088882446
0.99748116731643677 0 0.13851633667945862
0.017965862527489662 0.19629544019699097 0.4141710102558136
0.14362338185310364 0.18775549530982971 0.38805305957794189
0.43386659026145935 0.15657292306423187 0.3382202684879303
0.7348514199256897 0.10345020890235901 0.274698406457901
0.99962031841278076 0.044660650193691254 0.2092377245426178
0.062518008053302765 0.48383921384811401 0.53109592199325562
0.22033590078353882 0.47913491725921631 0.51803231239318848
0.4925713837146759 0.46977370977401733 0.49474319815635681
0.75624722242355347 0.44251221418380737 0.45864582061767578
0.99396282434463501 0.38943383097648621 0.42079779505729675
0.34949859976768494 0.7560279369354248 0.56984537839889526
0.44006058573722839 0.75504904985427856 0.57019615173339844
0.60764628648757935 0.74617385864257812 0.57351750135421753
0.81666934490203857 0.73378086090087891 0.57320630550384521
1 0.7061496376991272 0.5753905177116394
0.81394666433334351 0.99689620733261108 0.36251482367515564
0.85025894641876221 0.99303156137466431 0.36283040046691895
0.93269753456115723 0.99378269910812378 0.34533119201660156
0.99514645338058472 0.99703037738800049 0.34626758098602295
0.99998706579208374 0.98644447326660156 0.4867326021194458
0 0 0.43784287571907043
0.021641571074724197 0 0.41775858402252197
0.32692447304725647 0 0.35503050684928894
0.67530721426010132 0 0.29515326023101807
0.97480803728103638 0.00058794207870960236 0.24603594839572906
0 0.18527118861675262 0.57237124443054199
0.066654637455940247 0.17470075190067291 0.54685688018798828
0.37846380472183228 0.13985197246074677 0.48257189989089966
0.69496244192123413 0.090864993631839752 0.4076600968837738
0.9874153733253479 0.012088431976735592 0.30768120288848877
0.0010741888545453548 0.47291737794876099 0.70730310678482056
0.085749618709087372 0.46758183836936951 0.69013369083404541
0.42570191621780396 0.45977658033370972 0.65335595607757568
0.7102813720703125 0.43220177292823792 0.60780918598175049
0.98643964529037476 0.36940005421638489 0.53692317008972168
0.17765389382839203 0.73613011837005615 0.79836094379425049
0.30223032832145691 0.73853504657745361 0.79501020908355713
0.51678162813186646 0.73035573959350586 0.77936279773712158
0.75366848707199097 0.72037220001220703 0.75385230779647827
0.99416482448577881 0.69195032119750977 0.72008687257766724
0.65884244441986084 0.9870184063911438 0.74758058786392212
0.69994175434112549 0.98944038152694702 0.73650217056274414
0.77592587471008301 0.98736751079559326 0.75184488296508789
0.89757442474365234 0.98440366983413696 0.7781638503074646
0.99999356269836426 0.97680652141571045 0.80517774820327759
0 0 0.54721039533615112
0.0076231863349676132 0 0.52774238586425781
0.25922420620918274 1.4002182979311328e-05 0.45575705170631409
0.63588988780975342 0 0.38513824343681335
0.94463044404983521 0 0.32429826259613037
0.0080099515616893768 0.16734068095684052 0.68518823385238647
0.0345345139503479 0.16348348557949066 0.66126173734664917
0.32003220915794373 0.13178905844688416 0.58687978982925415
0.65725064277648926 0.09369165450334549 0.50912177562713623
0.976188063621521 0.04483940452337265 0.39586621522903442
7.4678311648312956e-05 0.46307510137557983 0.83290904760360718
0.0064026778563857079 0.45842525362968445 0.81164366006851196
0.33476477861404419 0.44858613610267639 0.77313804626464844
0.66151624917984009 0.42448955774307251 0.71355026960372925
0.97335493564605713 0.36928406357765198 0.62152397632598877
0.018434755504131317 0.72492498159408569 0.95602333545684814
0.13389256596565247 0.72587615251541138 0.94315046072006226
0.41959121823310852 0.72461777925491333 0.91691774129867554
0.69968068599700928 0.71320450305938721 0.87372398376464844
0.96836143732070923 0.68818205595016479 0.82437050342559814
0.51028960943222046 0.98024505376815796 0.99862176179885864
0.54523932933807373 0.97999674081802368 1
0.64875102043151855 0.97796672582626343 1
0.80797696113586426 0.97635674476623535 0.99880796670913696
0.99274301528930664 0.97535157203674316 0.98649656772613525
