assets/lut/films print fuji 3510 constlclip.cube
# Created by: G'MIC (https://gmic.eu)
TITLE "fuji_3510_constlclip"
# LUT size
LUT_3D_SIZE 7
# Data domain
DOMAIN_MIN 0.0 0.0 0.0
DOMAIN_MAX 1.0 1.0 1.0
# LUT data points
0.018483748659491539 0.021254595369100571 0.015903279185295105
0.061044011265039444 0.039902839809656143 0.023168018087744713
0.13923390209674835 0.052672531455755234 0.018311280757188797
0.31699943542480469 0.070102795958518982 0.0039495727978646755
0.44495001435279846 0.087336629629135132 0.0030199836473912001
0.51824581623077393 0.098942942917346954 0.013522758148610592
0.55051857233047485 0.10663999617099762 0.012718604877591133
0.018497690558433533 0.076219700276851654 0.042444385588169098
0.052110034972429276 0.095768749713897705 0.042926263064146042
0.17387799918651581 0.11406607180833817 0.02889697439968586
0.37117108702659607 0.13207483291625977 0.0061082127504050732
0.513377845287323 0.14798985421657562 0.0015013152733445168
0.59357643127441406 0.16999350488185883 0.012580183334648609
0.62249386310577393 0.18055717647075653 0.022591684013605118
0.0099708708003163338 0.15282890200614929 0.083434388041496277
0.015311237424612045 0.17526590824127197 0.067686505615711212
0.20048157870769501 0.20967516303062439 0.017923662438988686
0.42346048355102539 0.24503242969512939 0.0060341032221913338
0.57832896709442139 0.26238229870796204 0.013929030857980251
0.6721157431602478 0.28117644786834717 0.0062611447647213936
0.69911062717437744 0.29224279522895813 0.011996669694781303
0.016397558152675629 0.27432462573051453 0.13464163243770599
0.018251905217766762 0.3015388548374176 0.12014774978160858
0.17600889503955841 0.3752286434173584 0.012440879829227924
0.47973358631134033 0.43324059247970581 0.0046370862983167171
0.65950232744216919 0.45517241954803467 0.01010507345199585
0.75197803974151611 0.47016081213951111 0.014693510718643665
0.78485065698623657 0.47781068086624146 0.026721131056547165
0.025114456191658974 0.38916057348251343 0.17877425253391266
0.0099185565486550331 0.43301454186439514 0.16164296865463257
0.16360604763031006 0.51404255628585815 0.014232635498046875
0.52305251359939575 0.60085529088973999 0.0052194185554981232
0.74761712551116943 0.65161925554275513 0.0096332775428891182
0.84285902976989746 0.66218435764312744 0.040516108274459839
0.87593227624893188 0.68330943584442139 0.020285647362470627
0.015226581133902073 0.45324191451072693 0.19815963506698608
0.013478447683155537 0.49972188472747803 0.17953589558601379
0.22176659107208252 0.60128939151763916 0.022942861542105675
0.577292799949646 0.69675648212432861 0.0074268863536417484
0.7907099723815918 0.74825799465179443 0.035612381994724274
0.89438217878341675 0.77174443006515503 0.063053205609321594
0.92496144771575928 0.77766358852386475 0.073444172739982605
0.011203227564692497 0.51299452781677246 0.24351939558982849
0.028329033404588699 0.58891314268112183 0.18026550114154816
0.28817605972290039 0.67159634828567505 0.021023230627179146
0.62867522239685059 0.75601965188980103 0.014992074109613895
0.83632111549377441 0.80087387561798096 0.028019504621624947
0.94476598501205444 0.82329553365707397 0.06259734183549881
0.97510242462158203 0.82965868711471558 0.071486257016658783
0.026011718437075615 0.031361434608697891 0.05283031240105629
0.054249212145805359 0.04136320948600769 0.054287750273942947
0.15759752690792084 0.055419951677322388 0.059641789644956589
0.35987862944602966 0.025927210226655006 0.026676103472709656
0.50367885828018188 0.020036466419696808 0.014518199488520622
0.57443851232528687 0.023434223607182503 0.017790939658880234
0.61508309841156006 0.025853116065263748 0.023407669737935066
0.013702153228223324 0.079875737428665161 0.076773837208747864
0.047163434326648712 0.10562160611152649 0.086886465549468994
0.19684942066669464 0.12599042057991028 0.084252268075942993
0.42565116286277771 0.11950875073671341 0.039789266884326935
0.58739429712295532 0.082377173006534576 0.024330528452992439
0.66189754009246826 0.10245626419782639 0.0098631316795945168
0.70122706890106201 0.10387276858091354 0.022218307480216026
0.010688093490898609 0.16570462286472321 0.1210331916809082
0.022234285250306129 0.18833743035793304 0.118114173412323
0.22231927514076233 0.23646020889282227 0.090436629951000214
0.47904267907142639 0.25411438941955566 0.050403114408254623
0.66209465265274048 0.26542183756828308 0.01622161827981472
0.75385177135467529 0.27624726295471191 0.011711988598108292
0.78205794095993042 0.29107245802879333 0.012372723780572414
0.01684773713350296 0.29559698700904846 0.18157650530338287
0.0092819510027766228 0.33332982659339905 0.16285505890846252
0.18212588131427765 0.40410259366035461 0.062490306794643402
0.53667664527893066 0.46693956851959229 0.022279148921370506
0.74635106325149536 0.48987609148025513 0.0067096035927534103
0.84026479721069336 0.50207334756851196 0.01803092285990715
0.87217950820922852 0.51870417594909668 0.017811570316553116
0.037140294909477234 0.42602717876434326 0.23321060836315155
0.014896303415298462 0.45958521962165833 0.22561872005462646
0.12194904685020447 0.5708622932434082 0.07503654807806015
0.58297455310821533 0.66443121433258057 0.008875618688762188
0.82144081592559814 0.70447158813476562 0.025578053668141365
0.92129242420196533 0.72110754251480103 0.034093040972948074
0.94932538270950317 0.73195022344589233 0.028944771736860275
0.018417658284306526 0.48687073588371277 0.28162813186645508
0.024548683315515518 0.53821796178817749 0.27596035599708557
0.11427326500415802 0.65018934011459351 0.11524838954210281
0.60817599296569824 0.7499392032623291 0.019689043983817101
0.85974252223968506 0.7998623251914978 0.019455045461654663
0.96301621198654175 0.82121396064758301 0.045562520623207092
0.98777759075164795 0.82861506938934326 0.0668768510222435
0.024549447000026703 0.5537182092666626 0.36701446771621704
0.0078234504908323288 0.6285780668258667 0.36341100931167603
0.17280453443527222 0.72510248422622681 0.26645591855049133
0.63543242216110229 0.80953729152679443 0.22722075879573822
0.87939119338989258 0.8517727255821228 0.13733723759651184
0.99251371622085571 0.87138229608535767 0.14322374761104584
0.99973100423812866 0.87302786111831665 0.29504716396331787
0.018151495605707169 0.042452238500118256 0.1442333310842514
0.060879036784172058 0.036894749850034714 0.16857397556304932
0.17892763018608093 0.048484127968549728 0.17434799671173096
0.38032758235931396 0.013686326332390308 0.18843385577201843
0.52912032604217529 0.020250119268894196 0.18669562041759491
0.60915064811706543 0.026464948430657387 0.18732774257659912
0.63912761211395264 0.013571226969361305 0.20306888222694397
0.0059115393087267876 0.1031961515545845 0.17411725223064423
0.022258175536990166 0.10194048285484314 0.18949094414710999
0.20167216658592224 0.13198885321617126 0.23264487087726593
0.44665801525115967 0.10399547219276428 0.224904865026474
0.62867254018783569 0.064607955515384674 0.21205785870552063
0.71553915739059448 0.022343788295984268 0.20088821649551392
0.74806874990463257 0.02881254255771637 0.21351392567157745
0.0045769037678837776 0.21231353282928467 0.23798196017742157
0.0072133680805563927 0.21568205952644348 0.23955218493938446
0.20802652835845947 0.2564702033996582 0.25686544179916382
0.50773310661315918 0.28047430515289307 0.25016692280769348
0.7160186767578125 0.27656286954879761 0.22063809633255005
0.80210602283477783 0.25059774518013 0.2156083732843399
0.84292054176330566 0.29642575979232788 0.24889691174030304
0.0064366660080850124 0.35350406169891357 0.30990958213806152
0.016135541722178459 0.37351426482200623 0.30108880996704102
0.12491607666015625 0.44397076964378357 0.29300656914710999
0.55833405256271362 0.50902926921844482 0.27244165539741516
0.7928469181060791 0.52117836475372314 0.2592930793762207
0.89686453342437744 0.53110349178314209 0.23887334764003754
0.93090391159057617 0.54674333333969116 0.26249879598617554
0.0080747567117214203 0.4794316291809082 0.36902576684951782
0.022985272109508514 0.51027435064315796 0.36936923861503601
0.065458036959171295 0.62178629636764526 0.33991196751594543
0.58277934789657593 0.72335737943649292 0.27543056011199951
0.86094754934310913 0.74562603235244751 0.25483846664428711
0.97568649053573608 0.7727242112159729 0.2442624568939209
0.99534660577774048 0.78474700450897217 0.27411061525344849
0.005705724935978651 0.53500556945800781 0.40755575895309448
0.025713378563523293 0.58099645376205444 0.42715772986412048
0.033207282423973083 0.70113295316696167 0.40455004572868347
0.57658976316452026 0.80841517448425293 0.34432905912399292
0.89002841711044312 0.8601716160774231 0.3110409677028656
0.98824918270111084 0.8732064962387085 0.31622785329818726
0.99962818622589111 0.8765062689781189 0.37881177663803101
0.018647316843271255 0.59879028797149658 0.50063174962997437
0.016148436814546585 0.67386507987976074 0.53169816732406616
0.087656326591968536 0.75983166694641113 0.51015877723693848
0.60892766714096069 0.85045856237411499 0.49734631180763245
0.87745743989944458 0.89656573534011841 0.49142676591873169
0.98729890584945679 0.90728354454040527 0.43223044276237488
1 0.91123062372207642 0.52795302867889404
0.0060529070906341076 0.10574924200773239 0.26144140958786011
0.047038000077009201 0.023413505405187607 0.3141200840473175
0.17981845140457153 0.0088879307731986046 0.34769591689109802
0.39366409182548523 0.0051875393837690353 0.35137903690338135
0.55143707990646362 0.02445354126393795 0.36433178186416626
0.63015460968017578 0.029884966090321541 0.37466186285018921
0.67117166519165039 0.013899246230721474 0.38784626126289368
0.0039215688593685627 0.16182248294353485 0.30282741785049438
0.017563030123710632 0.12848106026649475 0.34709212183952332
0.20498962700366974 0.12479056417942047 0.40676796436309814
0.46284115314483643 0.10999205708503723 0.42989718914031982
0.64516228437423706 0.046259593218564987 0.42669031023979187
0.72858166694641113 0.025039732456207275 0.43942746520042419
0.7657737135887146 0.02751597948372364 0.44076725840568542
0.00747655238956213 0.26706135272979736 0.36518216133117676
0.007923799566924572 0.26117733120918274 0.39203533530235291
0.16814973950386047 0.28386750817298889 0.48171716928482056
0.51046115159988403 0.30085238814353943 0.50266611576080322
0.72184664011001587 0.29015025496482849 0.49877873063087463
0.80943816900253296 0.27650186419487 0.48733189702033997
0.84969931840896606 0.3176400363445282 0.50038290023803711
0.015350476838648319 0.41031619906425476 0.45336741209030151
0.0082461191341280937 0.43206900358200073 0.48054483532905579
0.077940486371517181 0.49365156888961792 0.53819692134857178
0.54842483997344971 0.55886602401733398 0.56371176242828369
0.80417144298553467 0.57392746210098267 0.56323349475860596
0.89697068929672241 0.58045017719268799 0.5510258674621582
0.93476873636245728 0.60217392444610596 0.57611191272735596
0.0056569864973425865 0.5428045392036438 0.5352591872215271
0.014972343109548092 0.58178848028182983 0.55140632390975952
0.013774632476270199 0.68171733617782593 0.59329366683959961
0.5450860857963562 0.77201491594314575 0.60107207298278809
0.8635517954826355 0.81199043989181519 0.59744548797607422
0.96133428812026978 0.82026487588882446 0.60673016309738159
0.98795896768569946 0.83450067043304443 0.60997718572616577
0.0066808811388909817 0.59584927558898926 0.57641363143920898
0.0098518375307321548 0.64260411262512207 0.60967552661895752
0.011738825589418411 0.75091660022735596 0.65531682968139648
0.54125320911407471 0.8585394024848938 0.66661322116851807
0.86470639705657959 0.90369641780853271 0.65420305728912354
0.9782179594039917 0.91281825304031372 0.65456157922744751
0.995513916015625 0.92408573627471924 0.69512122869491577
0.0030289145652204752 0.64901798963546753 0.64649635553359985
0.004246685653924942 0.71586143970489502 0.68774056434631348
0.013335478492081165 0.80320572853088379 0.72539049386978149
0.55936908721923828 0.89132165908813477 0.75216680765151978
0.86015498638153076 0.93630814552307129 0.747761070728302
0.98263174295425415 0.95039337873458862 0.73258382081985474
0.99899172782897949 0.9523201584815979 0.77021390199661255
0.0072914869524538517 0.15211440622806549 0.32966724038124084
0.022598011419177055 0.068371884524822235 0.40566360950469971
0.1911352127790451 0.004046331625431776 0.47872486710548401
0.40274772047996521 0.014496463350951672 0.50397372245788574
0.5745130181312561 0.011312402784824371 0.51112383604049683
0.64561969041824341 0.02527160570025444 0.51743799448013306
0.67427551746368408 0.026658046990633011 0.52450811862945557
0.0035076066851615906 0.20492643117904663 0.39210414886474609
0.008161851204931736 0.19634023308753967 0.43982306122779846
0.19463783502578735 0.095043390989303589 0.56956338882446289
0.47215774655342102 0.090306825935840607 0.61113476753234863
0.66509050130844116 0.026008320972323418 0.6101650595664978
0.74720472097396851 0.022002873942255974 0.62172961235046387
0.7766115665435791 0.026420952752232552 0.62549179792404175
0.0084731755778193474 0.31451994180679321 0.47606024146080017
0.004642067477107048 0.31141212582588196 0.51612228155136108
0.12531551718711853 0.29131805896759033 0.64714336395263672
0.51013219356536865 0.31811380386352539 0.69466251134872437
0.73724770545959473 0.31095367670059204 0.70114469528198242
0.82347667217254639 0.30669024586677551 0.70026040077209473
0.85365623235702515 0.32951804995536804 0.7135968804359436
0.017346147447824478 0.45079052448272705 0.56979024410247803
0.016885016113519669 0.4781251847743988 0.60530531406402588
0.023392830044031143 0.52842921018600464 0.7144242525100708
0.51983129978179932 0.58330798149108887 0.77722048759460449
0.80526381731033325 0.61081373691558838 0.78168731927871704
0.899017333984375 0.60333329439163208 0.7790067195892334
0.92667710781097412 0.61317890882492065 0.789742112159729
0.018353840336203575 0.5828099250793457 0.6466251015663147
0.02811705693602562 0.62444436550140381 0.68416571617126465
0.01250876672565937 0.71380621194839478 0.76506829261779785
0.50935232639312744 0.80443519353866577 0.82476276159286499
0.84723883867263794 0.85218572616577148 0.83668595552444458
0.95424050092697144 0.85245412588119507 0.82317262887954712
0.9837486743927002 0.8700791597366333 0.84515392780303955
0.012798489071428776 0.63772523403167725 0.68852114677429199
0.024361554533243179 0.68311649560928345 0.72340559959411621
0.010840905830264091 0.779468834400177 0.80030781030654907
0.49494719505310059 0.89247137308120728 0.86064434051513672
0.84654062986373901 0.93754255771636963 0.87592637538909912
0.97158491611480713 0.95501828193664551 0.86853897571563721
0.99391269683837891 0.95806020498275757 0.88062369823455811
0.013386670500040054 0.68106800317764282 0.73535311222076416
0.0065700756385922432 0.74013745784759521 0.78033155202865601
0.010162338614463806 0.82254117727279663 0.84640300273895264
0.52102404832839966 0.91638749837875366 0.8999173641204834
0.8457261323928833 0.96253889799118042 0.90936332941055298
0.96547245979309082 0.97607898712158203 0.90162843465805054
0.99398279190063477 0.98037421703338623 0.92315739393234253
0.014597066678106785 0.18248908221721649 0.37260186672210693
0.016324421390891075 0.15381303429603577 0.4204239547252655
0.19002503156661987 0.0057445000857114792 0.56611758470535278
0.40893402695655823 0.0043429057113826275 0.59324520826339722
0.58652579784393311 0.022145813331007957 0.61013364791870117
0.662567138671875 0.044304028153419495 0.61422169208526611
0.70530849695205688 0.022746769711375237 0.6349797248840332
0.0076878867112100124 0.23863072693347931 0.45844763517379761
0.0066809561103582382 0.22395524382591248 0.50579643249511719
0.17533415555953979 0.11306530982255936 0.67043673992156982
0.47733008861541748 0.096388243138790131 0.70849943161010742
0.67682772874832153 0.029599538072943687 0.7202950119972229
0.75688380002975464 0.029201611876487732 0.72382599115371704
0.79288429021835327 0.023501722142100334 0.74385887384414673
0.0045856698416173458 0.33469393849372864 0.53578478097915649
0.0055495020933449268 0.34074166417121887 0.58366662263870239
0.11145812273025513 0.31860947608947754 0.72403347492218018
0.48943451046943665 0.31993076205253601 0.78936523199081421
0.73516547679901123 0.32228243350982666 0.8087775707244873
0.82996839284896851 0.31525382399559021 0.81761574745178223
0.85662198066711426 0.33259597420692444 0.81615012884140015
0.030662357807159424 0.47205847501754761 0.62339293956756592
0.021037831902503967 0.50011175870895386 0.67128723859786987
0.019081594422459602 0.53956502676010132 0.79088437557220459
0.51373529434204102 0.60313206911087036 0.87317734956741333
0.7830880880355835 0.62469786405563354 0.88740569353103638
0.89337193965911865 0.60820573568344116 0.88932830095291138
0.92292135953903198 0.62325352430343628 0.8905174732208252
0.011932462453842163 0.60127967596054077 0.69855225086212158
0.020986415445804596 0.63708615303039551 0.73784244060516357
0.028967764228582382 0.72837096452713013 0.83228784799575806
0.48582550883293152 0.82207697629928589 0.92314612865447998
0.83073526620864868 0.86680740118026733 0.93399131298065186
0.95103687047958374 0.87596297264099121 0.94142931699752808
0.97943711280822754 0.88306969404220581 0.94824665784835815
0.012781569734215736 0.65913635492324829 0.73798328638076782
0.036806322634220123 0.70186972618103027 0.77927416563034058
0.023306170478463173 0.79414576292037964 0.86076873540878296
0.45331704616546631 0.90727514028549194 0.94236296415328979
0.83207470178604126 0.95035290718078613 0.95601749420166016
0.96704375743865967 0.96632677316665649 0.96304774284362793
0.9942200779914856 0.97058624029159546 0.96590858697891235
0.013554726727306843 0.68953752517700195 0.76839381456375122
0.034430902451276779 0.75157636404037476 0.82451057434082031
0.025149550288915634 0.83343279361724854 0.8972659707069397
0.5010383129119873 0.925018310546875 0.9547802209854126
0.82028675079345703 0.96780389547348022 0.96456670761108398
0.96369624137878418 0.98652452230453491 0.97153574228286743
0.99228441715240479 0.98329013586044312 0.96584254503250122
0.0051782494410872459 0.21071609854698181 0.42297706007957458
0.014402068220078945 0.18138076364994049 0.4717465341091156
0.19995208084583282 0.012113413773477077 0.63812679052352905
0.4492000937461853 0.020780406892299652 0.68197071552276611
0.61162292957305908 0.026486953720450401 0.67507290840148926
0.70523810386657715 0.028106315061450005 0.68849271535873413
0.73941886425018311 0.025525650009512901 0.70327270030975342
0.0041545792482793331 0.27109691500663757 0.49098959565162659
0.0048369015567004681 0.26091894507408142 0.5335160493850708
0.16378222405910492 0.18024705350399017 0.72006720304489136
0.47927612066268921 0.17278701066970825 0.76857852935791016
0.69120794534683228 0.12263203412294388 0.78344810009002686
0.78551942110061646 0.093751333653926849 0.78984880447387695
0.81868559122085571 0.14747640490531921 0.80452203750610352
0.004991613794118166 0.35835039615631104 0.56164824962615967
0.015563680790364742 0.3626055121421814 0.60953998565673828
0.10199303925037384 0.34768909215927124 0.74997437000274658
0.49578270316123962 0.35189983248710632 0.82813811302185059
0.74006974697113037 0.37352108955383301 0.85379511117935181
0.83379030227661133 0.35553181171417236 0.85258036851882935
0.86401909589767456 0.36865007877349854 0.85851210355758667
0.021515641361474991 0.49206683039665222 0.6487230658531189
0.020332725718617439 0.50456082820892334 0.68650960922241211
0.021919520571827888 0.556671142578125 0.81311631202697754
0.49710837006568909 0.61319839954376221 0.90122503042221069
0.7734341025352478 0.6404452919960022 0.91620755195617676
0.90310871601104736 0.64223366975784302 0.92579841613769531
0.9328426718711853 0.65962344408035278 0.93377149105072021
0.011612012982368469 0.61237049102783203 0.71649330854415894
0.021950980648398399 0.65212893486022949 0.75782281160354614
0.016569040715694427 0.73598897457122803 0.85207897424697876
0.46208310127258301 0.82757800817489624 0.94929760694503784
0.82463705539703369 0.86830192804336548 0.96636122465133667
0.94436299800872803 0.87952488660812378 0.97228813171386719
0.97868514060974121 0.88915020227432251 0.97582805156707764
0.008248915895819664 0.65500593185424805 0.74067562818527222
0.022204665467143059 0.70527255535125732 0.78924798965454102
0.022791843861341476 0.80385524034500122 0.88187259435653687
0.43562328815460205 0.9073861837387085 0.96380192041397095
0.8212248682975769 0.9531700611114502 0.97928303480148315
0.96039760112762451 0.96697598695755005 0.98603790998458862
0.99001461267471313 0.96503466367721558 0.98692864179611206
0.031262863427400589 0.70186251401901245 0.78311401605606079
0.01516850758343935 0.75673645734786987 0.83469498157501221
0.010970965027809143 0.83729159832000732 0.90868163108825684
0.47810423374176025 0.92612498998641968 0.96970224380493164
0.81057500839233398 0.97036498785018921 0.98525798320770264
0.95034092664718628 0.98850113153457642 0.99268019199371338
0.99101722240447998 0.99104487895965576 0.99405258893966675
