assets/lut/films print kodak 2393 cuspclip.cube
# Created by: G'MIC (https://gmic.eu)
TITLE "kodak_2393_cuspclip"
# LUT size
LUT_3D_SIZE 5
# Data domain
DOMAIN_MIN 0.0 0.0 0.0
DOMAIN_MAX 1.0 1.0 1.0
# LUT data points
0.014590783044695854 0.019665572792291641 0.016823144629597664
0.10101331770420074 0.039937112480401993 0.012529081664979458
0.3319774866104126 0.056577045470476151 0
0.56295949220657349 0.10215946286916733 0.0037051630206406116
0.62219291925430298 0.13076919317245483 0.021376606076955795
0.0031654955819249153 0.095476977527141571 0.044540718197822571
0.089791424572467804 0.10562843084335327 0.011025970801711082
0.44546723365783691 0.17307686805725098 0.00056243594735860825
0.67660194635391235 0.23576509952545166 0.017836388200521469
0.71973395347595215 0.25268059968948364 0.02384522370994091
0.011474414728581905 0.31494313478469849 0.1505158543586731
0.045376062393188477 0.35166919231414795 0.015375354327261448
0.61117005348205566 0.50726014375686646 0.0050439275801181793
0.82004541158676147 0.54078012704849243 0.012895411811769009
0.87086194753646851 0.5718802809715271 0.02441883459687233
0.010512498207390308 0.48990258574485779 0.23780429363250732
0.051090627908706665 0.55458921194076538 0.049490656703710556
0.69831949472427368 0.73676711320877075 0.024888865649700165
0.92145240306854248 0.77709048986434937 0.0739259272813797
0.95677697658538818 0.77524322271347046 0.081776529550552368
0.022467968985438347 0.56671380996704102 0.25157856941223145
0.14395228028297424 0.63263684511184692 0.0087216543033719063
0.71158313751220703 0.78089451789855957 0.018945956602692604
0.94742327928543091 0.83050405979156494 0.089984908699989319
0.98796826601028442 0.83630889654159546 0.10464637726545334
0.0017272500554099679 0.03729228675365448 0.097551234066486359
0.083037145435810089 0.028590109199285507 0.10316123068332672
0.33895346522331238 0.0060635586269199848 0.077026069164276123
0.56826937198638916 0.00071396172279492021 0.079534910619258881
0.64005136489868164 0.004838891327381134 0.088870331645011902
0.001632256549783051 0.11476709693670273 0.13629229366779327
0.062212444841861725 0.11766843497753143 0.12266251444816589
0.46037819981575012 0.13337387144565582 0.086582720279693604
0.69661897420883179 0.064944803714752197 0.040740188211202621
0.75577259063720703 0.10777943581342697 0.050458617508411407
0.0071969274431467056 0.37978905439376831 0.283060222864151
0.019186925143003464 0.39921718835830688 0.19353197515010834
0.59599125385284424 0.49956724047660828 0.055709164589643478
0.86744886636734009 0.53829610347747803 0.045932397246360779
0.91736441850662231 0.55675458908081055 0.046650532633066177
0.012153415940701962 0.54123771190643311 0.36263763904571533
0.016288548707962036 0.60721713304519653 0.28540277481079102
0.66267889738082886 0.75419420003890991 0.054914765059947968
0.95836865901947021 0.8080248236656189 0.026665961369872093
0.99273020029067993 0.81924176216125488 0.065637089312076569
0.011762776412069798 0.64792889356613159 0.4826623797416687
0.018070774152874947 0.68846815824508667 0.38157126307487488
0.66848498582839966 0.81770920753479004 0.30336809158325195
0.97651219367980957 0.87495189905166626 0.25298935174942017
0.99997955560684204 0.88401991128921509 0.33330562710762024
0.0033994039986282587 0.14528539776802063 0.313092440366745
0.069884434342384338 0.020769426599144936 0.30059191584587097
0.3594130277633667 0.0044340994209051132 0.35431763529777527
0.60095357894897461 0.0028820261359214783 0.37397864460945129
0.66782945394515991 0.0013498343760147691 0.393871009349823
0.0048484355211257935 0.2685495913028717 0.42437082529067993
0.027585273608565331 0.18875078856945038 0.41261830925941467
0.44255954027175903 0.13971245288848877 0.44320237636566162
0.71119165420532227 0.059648104012012482 0.45322927832603455
0.76834994554519653 0.11358465999364853 0.48606610298156738
0.028149489313364029 0.49756515026092529 0.56810849905014038
0.017396725714206696 0.52001571655273438 0.57991212606430054
0.55277740955352783 0.5518372654914856 0.55512243509292603
0.86912232637405396 0.59060150384902954 0.57052886486053467
0.9302477240562439 0.62211102247238159 0.58332455158233643
0.011773142963647842 0.63944423198699951 0.64359670877456665
0.0040764603763818741 0.71035552024841309 0.66258805990219116
0.57284677028656006 0.82650220394134521 0.61788761615753174
0.94363749027252197 0.87956506013870239 0.60514777898788452
0.99696123600006104 0.89276778697967529 0.62233322858810425
0 0.71585190296173096 0.71521580219268799
0.012385305017232895 0.77517533302307129 0.72020453214645386
0.58067196607589722 0.87649381160736084 0.70676594972610474
0.94697529077529907 0.94167798757553101 0.72535210847854614
0.99808937311172485 0.94851219654083252 0.73040199279785156
0.0039421827532351017 0.23064008355140686 0.46161553263664246
0.054794073104858398 0.077226720750331879 0.48186576366424561
0.37631872296333313 0.0045144027099013329 0.53195804357528687
0.6325681209564209 0.0028214249759912491 0.57774204015731812
0.6978268027305603 9.9810429674107581e-05 0.58494561910629272
3.8102094549685717e-05 0.34163513779640198 0.56947612762451172
0.011054888367652893 0.27732226252555847 0.60164719820022583
0.443409264087677 0.1190083846449852 0.6674988865852356
0.72480005025863647 0.04912116751074791 0.69597071409225464
0.7876739501953125 0.091121643781661987 0.7169264554977417
0.018869183957576752 0.5299680233001709 0.69526153802871704
0.020976318046450615 0.56234222650527954 0.74566525220870972
0.51160311698913574 0.58946889638900757 0.82167881727218628
0.85613071918487549 0.61294287443161011 0.84225106239318848
0.92238038778305054 0.64942365884780884 0.84403771162033081
0.033936668187379837 0.67730379104614258 0.77965456247329712
0.031806781888008118 0.74439412355422974 0.82848703861236572
0.50999468564987183 0.87167006731033325 0.89384418725967407
0.91903978586196899 0.92170059680938721 0.89206439256668091
0.98766535520553589 0.93201655149459839 0.90321534872055054
0.023340532556176186 0.73343050479888916 0.82258546352386475
0.014724911190569401 0.8072667121887207 0.86811226606369019
0.5524248480796814 0.91891103982925415 0.92498010396957397
0.91939538717269897 0.97457963228225708 0.93422353267669678
0.98823529481887817 0.98472726345062256 0.93472039699554443
0.00038506003329530358 0.27516207098960876 0.52904355525970459
0.036750283092260361 0.18996039032936096 0.55841624736785889
0.40234613418579102 0.000213623046875 0.62664026021957397
0.65617012977600098 0.0023883297108113766 0.6552422046661377
0.71719491481781006 0.0036874059587717056 0.67426162958145142
0 0.37266528606414795 0.63195168972015381
0.0075971866026520729 0.32020190358161926 0.66125041246414185
0.46772027015686035 0.1707766056060791 0.75123989582061768
0.7316555380821228 0.13125066459178925 0.77597397565841675
0.80623412132263184 0.18319597840309143 0.79918396472930908
0.0034245809074491262 0.54411870241165161 0.73064172267913818
0.013730935752391815 0.58185476064682007 0.79211878776550293
0.50549542903900146 0.6110914945602417 0.89109271764755249
0.8552626371383667 0.63181233406066895 0.91245323419570923
0.92646616697311401 0.67286592721939087 0.92537051439285278
0.018137164413928986 0.68314290046691895 0.80718570947647095
0.01215648278594017 0.75192618370056152 0.86128681898117065
0.46643251180648804 0.88162022829055786 0.95920383930206299
0.89032214879989624 0.93248522281646729 0.97808659076690674
0.98559463024139404 0.94990944862365723 0.98187261819839478
0.014111597090959549 0.73782062530517578 0.84175920486450195
0.026342503726482391 0.8098265528678894 0.89595586061477661
0.50703823566436768 0.92260968685150146 0.96878933906555176
0.92012220621109009 0.98497253656387329 0.99029850959777832
0.99325215816497803 0.99368500709533691 0.99204975366592407
