assets/lut/films colorslide fuji velvia 100 generic.cube
# Created by: G'MIC (https://gmic.eu)
TITLE "fuji_velvia_100_generic"
# LUT size
LUT_3D_SIZE 13
# Data domain
DOMAIN_MIN 0.0 0.0 0.0
DOMAIN_MAX 1.0 1.0 1.0
# LUT data points
0.025558860972523689 0.020527634769678116 0.020998068153858185
0.075072161853313446 0.019858475774526596 0.020344467833638191
0.13912953436374664 0.018448714166879654 0.020283777266740799
0.22594091296195984 0.017323289066553116 0.020475665107369423
0.33072912693023682 0.017363350838422775 0.020497489720582962
0.44767484068870544 0.017265334725379944 0.019798055291175842
0.57257091999053955 0.016176965087652206 0.018924204632639885
0.6995357871055603 0.01378631591796875 0.017881236970424652
0.82177984714508057 0.01240641251206398 0.017910601571202278
0.92723309993743896 0.014316977933049202 0.016603492200374603
0.99214404821395874 0.015426785685122013 0.013629809021949768
1 0.014277828857302666 0.0091870622709393501
1 0.013784835115075111 0.0071454965509474277
0.036695592105388641 0.072445951402187347 0.02006092481315136
0.071539066731929779 0.071213729679584503 0.01936759240925312
0.12810079753398895 0.069724351167678833 0.018993526697158813
0.21881724894046783 0.068123370409011841 0.019254004582762718
0.32863608002662659 0.068451300263404846 0.019374234601855278
0.4460388720035553 0.068784169852733612 0.019363643601536751
0.56977361440658569 0.065863274037837982 0.019362745806574821
0.69494932889938354 0.060182563960552216 0.019362745806574821
0.81461834907531738 0.05463104322552681 0.01935107633471489
0.91840368509292603 0.054770480841398239 0.016550594940781593
0.98732447624206543 0.058587241917848587 0.013562520034611225
1 0.061670385301113129 0.0099777970463037491
1 0.064240112900733948 0.0081625990569591522
0.050553459674119949 0.14155283570289612 0.022560883313417435
0.077429108321666718 0.13894842565059662 0.019967755302786827
0.12639480829238892 0.13789409399032593 0.017343947663903236
0.21721285581588745 0.13596320152282715 0.018561463803052902
0.32822582125663757 0.13684220612049103 0.019954921677708626
0.44368958473205566 0.1378873735666275 0.019922055304050446
0.56554955244064331 0.13439325988292694 0.019729914143681526
0.68905466794967651 0.12650756537914276 0.019570639356970787
0.80663573741912842 0.11762019246816635 0.01937052421271801
0.91014581918716431 0.11618378758430481 0.016833944246172905
0.98284703493118286 0.12149678915739059 0.013945052400231361
1 0.12601907551288605 0.01181660033762455
1 0.13003125786781311 0.010501891374588013
0.043831184506416321 0.2351820319890976 0.021005278453230858
0.065809555351734161 0.23211994767189026 0.02014504186809063
0.11234811693429947 0.2306426614522934 0.018229272216558456
0.20607425272464752 0.22896318137645721 0.018913120031356812
0.32244062423706055 0.22927236557006836 0.0201543178409338
0.43781304359436035 0.22983770072460175 0.019794538617134094
0.55998778343200684 0.22589460015296936 0.019894888624548912
0.68309199810028076 0.21861466765403748 0.020055912435054779
0.80218350887298584 0.21111330389976501 0.019395086914300919
0.90946012735366821 0.20878046751022339 0.017116187140345573
0.98433142900466919 0.21117570996284485 0.015016398392617702
1 0.21297897398471832 0.013680417090654373
1 0.2149520069360733 0.013052457943558693
0.01695677824318409 0.3476126492023468 0.018062368035316467
0.026816334575414658 0.34539410471916199 0.018678927794098854
0.064313195645809174 0.344564288854599 0.018627451732754707
0.16105279326438904 0.34382838010787964 0.018614524975419044
0.30172812938690186 0.34228092432022095 0.01807619072496891
0.42897987365722656 0.34028559923171997 0.01787802018225193
0.55217546224594116 0.33645641803741455 0.01824207603931427
0.67295116186141968 0.33132299780845642 0.018533984199166298
0.79195612668991089 0.32635492086410522 0.018551874905824661
0.90309000015258789 0.32404115796089172 0.017934402450919151
0.98292833566665649 0.32367661595344543 0.017096126452088356
1 0.32234397530555725 0.017105042934417725
0.99974209070205688 0.32114210724830627 0.016238074749708176
0.00015759935195092112 0.46741187572479248 0.016192328184843063
0.00034707761369645596 0.46668946743011475 0.017950573936104774
0.0081320665776729584 0.46707242727279663 0.019500343129038811
0.076992079615592957 0.46733871102333069 0.019258700311183929
0.24248474836349487 0.46407896280288696 0.017846455797553062
0.40595462918281555 0.45988905429840088 0.016421688720583916
0.53714728355407715 0.4565182626247406 0.016293274238705635
0.65490734577178955 0.4536280632019043 0.016171533614397049
0.77091073989868164 0.45042833685874939 0.016557177528738976
0.88016760349273682 0.4482971727848053 0.018457464873790741
0.96383047103881836 0.4467129111289978 0.020111726596951485
0.99722343683242798 0.44503939151763916 0.020991485565900803
0.99991285800933838 0.4432310163974762 0.018535075709223747
0 0.58598774671554565 0.016244282945990562
0 0.58546113967895508 0.019008740782737732
0 0.58606183528900146 0.019673066213726997
0.035810433328151703 0.58649003505706787 0.019804142415523529
0.19662857055664062 0.58353281021118164 0.018716055899858475
0.3749237060546875 0.57972359657287598 0.015778215602040291
0.51143068075180054 0.57677006721496582 0.01225591916590929
0.62987452745437622 0.57523369789123535 0.0094558419659733772
0.74374806880950928 0.57253116369247437 0.0096618654206395149
0.85082834959030151 0.57026934623718262 0.013183443807065487
0.93850862979888916 0.56826686859130859 0.018236825242638588
0.98771613836288452 0.56641995906829834 0.02114308625459671
0.99985063076019287 0.56396454572677612 0.017290346324443817
0 0.69881737232208252 0.016100984066724777
0 0.69840395450592041 0.017708752304315567
0.0003147499228361994 0.69719552993774414 0.01781870611011982
0.043237470090389252 0.69745069742202759 0.017801396548748016
0.17474107444286346 0.69659531116485596 0.017145045101642609
0.33193007111549377 0.69468188285827637 0.012788061983883381
0.47093296051025391 0.69217777252197266 0.0052244747057557106
0.5964663028717041 0.69016849994659424 0.0013084860984236002
0.71472352743148804 0.68692511320114136 0.00087181542767211795
0.82510590553283691 0.68361496925354004 0.0017645442858338356
0.91867250204086304 0.68011540174484253 0.0056914533488452435
0.98068594932556152 0.67680424451828003 0.0098480377346277237
0.99975401163101196 0.67257273197174072 0.0061436821706593037
0 0.80390268564224243 0.0088021373376250267
0 0.80378389358520508 0.011618400923907757
0.0020303763449192047 0.80156922340393066 0.01300837192684412
0.048292331397533417 0.80176568031311035 0.01307468768209219
0.15173190832138062 0.8018416166305542 0.01225439365953207
0.28521746397018433 0.80101925134658813 0.0073924795724451542
0.42534366250038147 0.79857146739959717 0.00039470897172577679
0.56009554862976074 0.79517620801925659 0
0.68500036001205444 0.79051429033279419 0
0.79871118068695068 0.78563916683197021 0
0.89546531438827515 0.78051275014877319 2.8722427032334963e-06
0.96475547552108765 0.77571547031402588 0.00012925092596560717
0.99734169244766235 0.76996898651123047 3.5903034586226568e-05
0 0.89606779813766479 0.00010851692059077322
0 0.89852058887481689 0.0017771851271390915
0.0021151076070964336 0.89671260118484497 0.0054314257577061653
0.048964288085699081 0.89404314756393433 0.0045965458266437054
0.14189782738685608 0.89265936613082886 0.002957901218906045
0.26097428798675537 0.89186519384384155 0.0010267370380461216
0.39759352803230286 0.89026957750320435 0
0.53456038236618042 0.88585442304611206 0
0.66130298376083374 0.87961727380752563 0
0.77429497241973877 0.87336999177932739 0
0.86943542957305908 0.8677680492401123 0
0.94098305702209473 0.86264735460281372 0
0.98709231615066528 0.85649824142456055 0
0 0.97018259763717651 0
3.9493338590546045e-06 0.97350865602493286 0
0.0083664841949939728 0.97183036804199219 0.0005665050121024251
0.068893805146217346 0.96547937393188477 0.00013379863230511546
0.16579070687294006 0.96088427305221558 0
0.28028792142868042 0.9601445198059082 0
0.40531334280967712 0.95995062589645386 0
0.53305172920227051 0.95560002326965332 0
0.65346819162368774 0.94873309135437012 0
0.76041096448898315 0.94313293695449829 0
0.85023009777069092 0.93912845849990845 0
0.9208146333694458 0.9353787899017334 0
0.97272747755050659 0.93053174018859863 0
0.0030136557761579752 1 0
0.011818096973001957 1 0
0.047617383301258087 0.99998027086257935 0
0.12271315604448318 0.99922239780426025 0
0.22460076212882996 0.99768579006195068 0
0.33472397923469543 0.99719518423080444 0
0.44621714949607849 0.99745666980743408 0
0.55853605270385742 0.99604690074920654 0
0.66628527641296387 0.99316579103469849 0
0.76218849420547485 0.99099636077880859 0
0.84402996301651001 0.99040526151657104 0
0.91068506240844727 0.98975688219070435 0
0.96371138095855713 0.98822242021560669 0
0.027844822034239769 1 0
0.056258510798215866 1 0
0.11002761125564575 1 0
0.19449789822101593 1 0
0.29833140969276428 1 0
0.40324851870536804 1 0
0.50325417518615723 1 0
0.60096210241317749 1 0
0.6938316822052002 1 0
0.77752864360809326 1 0
0.85020911693572998 1 0
0.91162818670272827 1 0
0.96295350790023804 1 0
0.025660600513219833 0.016867648810148239 0.070405550301074982
0.076692245900630951 0.016694013029336929 0.070280604064464569
0.14132453501224518 0.015668338164687157 0.071280054748058319
0.22712476551532745 0.015316922217607498 0.071248419582843781
0.33260917663574219 0.016084559261798859 0.069787822663784027
0.44999328255653381 0.016861410811543465 0.067299500107765198
0.57440650463104248 0.015892837196588516 0.066286943852901459
0.70101064443588257 0.015309397131204605 0.065869607031345367
0.82426697015762329 0.014625145122408867 0.065024495124816895
0.932606041431427 0.015234299935400486 0.062986396253108978
0.99552756547927856 0.014364399947226048 0.060021538287401199
1 0.01169637031853199 0.056332770735025406
1 0.0099624935537576675 0.054008439183235168
0.033331073820590973 0.066841021180152893 0.066660515964031219
0.071806050837039948 0.065658122301101685 0.065316520631313324
0.1314559131860733 0.063966639339923859 0.064915508031845093
0.22193025052547455 0.063252978026866913 0.065849840641021729
0.33121412992477417 0.064713485538959503 0.066434808075428009
0.44920548796653748 0.065765976905822754 0.06623879075050354
0.5728602409362793 0.06356734037399292 0.066237747669219971
0.69892525672912598 0.059267409145832062 0.06568252295255661
0.8206559419631958 0.056048449128866196 0.064487546682357788
0.92603105306625366 0.055999726057052612 0.062519848346710205
0.99157726764678955 0.05627167597413063 0.059275142848491669
1 0.056061480194330215 0.056303855031728745
1 0.056162141263484955 0.055155780166387558
0.045011870563030243 0.13509513437747955 0.066466838121414185
0.074073672294616699 0.13291612267494202 0.063104622066020966
0.12741461396217346 0.13140878081321716 0.061365239322185516
0.22093792259693146 0.13024286925792694 0.062218774110078812
0.33178392052650452 0.13235920667648315 0.063901804387569427
0.44789057970046997 0.13387033343315125 0.064605802297592163
0.57024961709976196 0.13055536150932312 0.064712181687355042
0.69482916593551636 0.12415184825658798 0.064596079289913177
0.81501245498657227 0.11844199895858765 0.063292361795902252
0.919594407081604 0.11649984866380692 0.061270859092473984
0.98858147859573364 0.118333600461483 0.058370150625705719
1 0.11903565376996994 0.056337904185056686
1 0.12070608884096146 0.057194236665964127
0.042432703077793121 0.22922386229038239 0.064591832458972931
0.064713224768638611 0.22665667533874512 0.061820503324270248
0.11463739722967148 0.2257879376411438 0.05933501198887825
0.20784157514572144 0.22453081607818604 0.059225492179393768
0.32323125004768372 0.22573159635066986 0.060198735445737839
0.44205939769744873 0.22612656652927399 0.060350812971591949
0.56487107276916504 0.22197090089321136 0.060976184904575348
0.68831294775009155 0.21560436487197876 0.061299536377191544
0.80839639902114868 0.20999468863010406 0.060203775763511658
0.91559547185897827 0.20841293036937714 0.057573281228542328
0.98842209577560425 0.20810215175151825 0.054823946207761765
1 0.20723156630992889 0.054197799414396286
1 0.2076498419046402 0.05559762567281723
0.021409876644611359 0.34355056285858154 0.058535199612379074
0.033723734319210052 0.34145322442054749 0.057737819850444794
0.075614646077156067 0.34069135785102844 0.056922074407339096
0.16837723553180695 0.33964017033576965 0.055795960128307343
0.29864093661308289 0.33844980597496033 0.054131615906953812
0.43106731772422791 0.33652198314666748 0.05360788106918335
0.5559200644493103 0.33298829197883606 0.054619405418634415
0.67660945653915405 0.32881632447242737 0.055145129561424255
0.79370510578155518 0.32493621110916138 0.054301977157592773
0.90318542718887329 0.32277041673660278 0.052571449428796768
0.98152559995651245 0.32122677564620972 0.051202945411205292
0.99996840953826904 0.31864911317825317 0.050827641040086746
0.99973517656326294 0.31698858737945557 0.051220674067735672
0.0016059576300904155 0.46598914265632629 0.051217276602983475
0.0031663035042583942 0.46392500400543213 0.0521823950111866
0.025442115962505341 0.46276447176933289 0.052714642137289047
0.10979738086462021 0.46161079406738281 0.051440399140119553
0.25442463159561157 0.45904368162155151 0.048927951604127884
0.40762409567832947 0.45604941248893738 0.047012493014335632
0.53981006145477295 0.45380291342735291 0.047209944576025009
0.65797716379165649 0.45181185007095337 0.047200102359056473
0.77107769250869751 0.44975808262825012 0.0466640405356884
0.87786948680877686 0.4478619396686554 0.046973001211881638
0.96123719215393066 0.44532829523086548 0.048896115273237228
0.99732214212417603 0.44257733225822449 0.049004737287759781
0.99976933002471924 0.43992477655410767 0.047457076609134674
0 0.58525127172470093 0.045616690069437027
0 0.58402013778686523 0.045843806117773056
0.0038878049235790968 0.58216714859008789 0.046097263693809509
0.069715239107608795 0.58113765716552734 0.045291390269994736
0.21277837455272675 0.57882797718048096 0.04321003332734108
0.37455141544342041 0.57623475790023804 0.040311850607395172
0.51394170522689819 0.57475447654724121 0.037315383553504944
0.63386619091033936 0.57376867532730103 0.035684190690517426
0.74618864059448242 0.57236915826797485 0.03555196151137352
0.85263252258300781 0.57075458765029907 0.038248457014560699
0.94147247076034546 0.56773984432220459 0.044394787400960922
0.99191659688949585 0.56479358673095703 0.047901585698127747
1 0.56113612651824951 0.046906266361474991
0 0.69903731346130371 0.036736417561769485
0 0.69735360145568848 0.035381466150283813
0.0027553034014999866 0.69399380683898926 0.034337345510721207
0.058990553021430969 0.69358628988265991 0.033256396651268005
0.18320877850055695 0.69307625293731689 0.03236757218837738
0.33525893092155457 0.69167399406433105 0.028472136706113815
0.47793915867805481 0.69044464826583862 0.02198760025203228
0.60462939739227295 0.68912893533706665 0.017360223457217216
0.72147667407989502 0.68713253736495972 0.016300873830914497
0.83101087808609009 0.68450373411178589 0.01888306625187397
0.92528659105300903 0.68088811635971069 0.027586663141846657
0.98726725578308105 0.67703795433044434 0.036357160657644272
1 0.67221814393997192 0.036345731467008591
0 0.80540210008621216 0.017952758818864822
0 0.80339586734771729 0.017368286848068237
0.0035369424149394035 0.79897302389144897 0.015720143914222717
0.052484922111034393 0.79852741956710815 0.015544666908681393
0.15753348171710968 0.79919159412384033 0.01593577116727829
0.29552599787712097 0.79888540506362915 0.012799535878002644
0.43860980868339539 0.79766690731048584 0.0051347920671105385
0.5722697377204895 0.79542618989944458 0.0018499037250876427
0.69441872835159302 0.79197221994400024 0.001137273502536118
0.80640876293182373 0.78767102956771851 0.00097572477534413338
0.90286517143249512 0.7829393744468689 0.0025946823880076408
0.97230976819992065 0.77804619073867798 0.0069378423504531384
0.99935328960418701 0.77253013849258423 0.0097699631005525589
0 0.89851504564285278 0.0007573146722279489
0 0.89819824695587158 0.00091632019029930234
0.0017580668209120631 0.89448517560958862 0.00077776442049071193
0.0474688820540905 0.89153540134429932 0.00073357374640181661
0.14677521586418152 0.89051872491836548 0.0013675465015694499
0.27500161528587341 0.8917539119720459 0.0012703690445050597
0.41292160749435425 0.89213693141937256 0.00012026019976474345
0.54734432697296143 0.88891559839248657 0
0.67119121551513672 0.8830532431602478 0
0.78192138671875 0.87716490030288696 0
0.87582314014434814 0.87204021215438843 0
0.94698989391326904 0.86742502450942993 0
0.99160254001617432 0.86159741878509521 7.7012009569443762e-05
0 0.97161036729812622 0
1.3164445590518881e-05 0.97157591581344604 0
0.0083973007276654243 0.96684432029724121 0
0.069087505340576172 0.96061998605728149 0
0.1726096123456955 0.95734578371047974 0
0.29337266087532043 0.96036535501480103 0
0.41826215386390686 0.96476012468338013 0
0.54445862770080566 0.96070140600204468 0
0.66340547800064087 0.95300662517547607 0
0.76770693063735962 0.94788074493408203 0
0.85581701993942261 0.94449377059936523 0
0.92547577619552612 0.94152426719665527 0
0.97638905048370361 0.93718564510345459 0
0.0029720081947743893 1 0
0.011252459138631821 0.99998009204864502 0
0.047529511153697968 0.99934357404708862 0
0.12795180082321167 0.9969104528427124 0
0.23979933559894562 0.99402546882629395 0
0.35427108407020569 0.99594759941101074 0
0.462615966796875 0.99872350692749023 0
0.57304108142852783 0.99726372957229614 0
0.67878860235214233 0.99384909868240356 0
0.77138388156890869 0.99309980869293213 0
0.85010278224945068 0.99285280704498291 0
0.91523557901382446 0.99300980567932129 0
0.96640443801879883 0.99209439754486084 0
0.02546253614127636 1 0
0.053158614784479141 1 0
0.11019605398178101 1 0
0.20496894419193268 1 0
0.32333183288574219 1 0
0.43184188008308411 1 0
0.52735263109207153 1 0
0.62164264917373657 1 0
0.71148288249969482 1 0
0.7904810905456543 1 0
0.85882675647735596 1 0
0.91734218597412109 1 0
0.96673357486724854 1 0
0.024222640320658684 0.01418781653046608 0.13645255565643311
0.074704952538013458 0.013346937485039234 0.13799081742763519
0.14035296440124512 0.012651092372834682 0.14035046100616455
0.22684293985366821 0.013054821640253067 0.14057612419128418
0.33317553997039795 0.014840219169855118 0.13715623319149017
0.45029696822166443 0.015744976699352264 0.13268539309501648
0.57313495874404907 0.014773484319448471 0.13145105540752411
0.69659262895584106 0.013771461322903633 0.13113908469676971
0.81595194339752197 0.013946099206805229 0.1293862909078598
0.92365765571594238 0.013640535064041615 0.12751224637031555
0.99090611934661865 0.011268495582044125 0.12543840706348419
1 0.0080490857362747192 0.12268823385238647
0.99978899955749512 0.0061294557526707649 0.12175692617893219
0.031917016953229904 0.06470007449388504 0.13132950663566589
0.072799265384674072 0.061638295650482178 0.13166508078575134
0.13374368846416473 0.059638302773237228 0.13296416401863098
0.22366319596767426 0.059948880225419998 0.13396723568439484
0.33312514424324036 0.06166057288646698 0.13354218006134033
0.45035123825073242 0.062076374888420105 0.13147264719009399
0.57325202226638794 0.059542994946241379 0.13112744688987732
0.69749587774276733 0.056076154112815857 0.13090260326862335
0.81788372993469238 0.054574631154537201 0.12980440258979797
0.92185699939727783 0.054025866091251373 0.12725262343883514
0.98784607648849487 0.052007280290126801 0.12478769570589066
1 0.048565268516540527 0.12283120304346085
0.99958926439285278 0.046467110514640808 0.12290293723344803
0.045363213866949081 0.13161134719848633 0.13184797763824463
0.076257519423961639 0.12868425250053406 0.13003471493721008
0.12971967458724976 0.12750841677188873 0.12801744043827057
0.22303013503551483 0.12725830078125 0.1289430558681488
0.33407866954803467 0.12861360609531403 0.12990055978298187
0.45072242617607117 0.12879931926727295 0.12986671924591064
0.57236278057098389 0.12469823658466339 0.12994995713233948
0.6960025429725647 0.11931463330984116 0.12989224493503571
0.81579077243804932 0.11623146384954453 0.12843938171863556
0.91913193464279175 0.11527206003665924 0.12603813409805298
0.98597759008407593 0.1136423721909523 0.12344508618116379
1 0.11008782684803009 0.12257491797208786
0.99965929985046387 0.10853244364261627 0.12356595695018768
0.044584564864635468 0.22464510798454285 0.1299777626991272
0.069195732474327087 0.22319670021533966 0.12732324004173279
0.11902555823326111 0.22367808222770691 0.12461517751216888
0.21063584089279175 0.22319573163986206 0.12376550585031509
0.32628345489501953 0.22204163670539856 0.12403023242950439
0.44613155722618103 0.22070206701755524 0.12377119064331055
0.56800395250320435 0.2159447968006134 0.12439045310020447
0.68996244668960571 0.21031659841537476 0.1244581937789917
0.80905860662460327 0.2069038450717926 0.12306216359138489
0.91414141654968262 0.20535458624362946 0.12048203498125076
0.98489820957183838 0.20285996794700623 0.11789754033088684
1 0.19898439943790436 0.1167813315987587
0.999961256980896 0.19690117239952087 0.11850437521934509
0.024824898689985275 0.33978250622749329 0.1221814751625061
0.042313564568758011 0.33849495649337769 0.12082691490650177
0.088272824883460999 0.338081955909729 0.11942816525697708
0.17895296216011047 0.33692029118537903 0.11767272651195526
0.3032052218914032 0.3342878520488739 0.11547314375638962
0.43396028876304626 0.33145514130592346 0.11391898989677429
0.55828195810317993 0.32781782746315002 0.11508111655712128
0.67738360166549683 0.32410269975662231 0.11501279473304749
0.79316812753677368 0.32123878598213196 0.11358488351106644
0.8988807201385498 0.31905665993690491 0.11125575006008148
0.97610217332839966 0.31599622964859009 0.10943029075860977
0.9999157190322876 0.3119494616985321 0.10748948901891708
0.99984771013259888 0.30926597118377686 0.10761731863021851
0.0034687116276472807 0.46274131536483765 0.11118398606777191
0.0098793180659413338 0.46071848273277283 0.11136646568775177
0.046905964612960815 0.4587281346321106 0.11187193542718887
0.13504180312156677 0.45635104179382324 0.11032472550868988
0.26784148812294006 0.45343455672264099 0.10690519958734512
0.41199833154678345 0.45065155625343323 0.10435660928487778
0.54178744554519653 0.44887024164199829 0.10429692268371582
0.65835213661193848 0.44757804274559021 0.10360083729028702
0.76922619342803955 0.4459003210067749 0.10182516276836395
0.87347042560577393 0.44401374459266663 0.10034679621458054
0.9587705135345459 0.44035464525222778 0.10128984600305557
0.99759697914123535 0.43657955527305603 0.099667809903621674
0.99976038932800293 0.43325969576835632 0.097188226878643036
0 0.58329397439956665 0.099884688854217529
3.5544002457754686e-05 0.58114653825759888 0.099408060312271118
0.014613865874707699 0.57808887958526611 0.099547214806079865
0.093256048858165741 0.57505500316619873 0.098978497087955475
0.22718773782253265 0.5724913477897644 0.096899859607219696
0.38024440407752991 0.57018661499023438 0.093860432505607605
0.51858723163604736 0.56918168067932129 0.090850546956062317
0.63755005598068237 0.56865143775939941 0.089512571692466736
0.74710285663604736 0.5679779052734375 0.088796563446521759
0.85162723064422607 0.56631839275360107 0.089158125221729279
0.94330763816833496 0.56290799379348755 0.093025490641593933
0.99417567253112793 0.55917811393737793 0.095334969460964203
1 0.55469471216201782 0.09583938866853714
0 0.6979796290397644 0.084108553826808929
0 0.69574594497680664 0.081211403012275696
0.0032791735138744116 0.6918979287147522 0.079556696116924286
0.06365407258272171 0.68922388553619385 0.07890050858259201
0.1886734813451767 0.68715810775756836 0.077915370464324951
0.34245166182518005 0.68512344360351562 0.073621146380901337
0.48769715428352356 0.68362456560134888 0.067622467875480652
0.61296004056930542 0.68272799253463745 0.066212974488735199
0.72614485025405884 0.68175637722015381 0.068052612245082855
0.83310031890869141 0.6797717809677124 0.068901091814041138
0.92660510540008545 0.67674750089645386 0.073451384902000427
