assets/lut/films negative color kodak ektar 100.cube
# Created by: G'MIC (https://gmic.eu)
TITLE "kodak_ektar_100"
# LUT size
LUT_3D_SIZE 5
# Data domain
DOMAIN_MIN 0.0 0.0 0.0
DOMAIN_MAX 1.0 1.0 1.0
# LUT data points
0.048790305852890015 0.041310824453830719 0.040381830185651779
0.27489528059959412 0.05678081139922142 0.034803923219442368
0.55965924263000488 0.069883055984973907 0.025373496115207672
0.83666825294494629 0.086210288107395172 0.0095087988302111626
1 0.077013544738292694 0.0013565961271524429
0.088425822556018829 0.22740910947322845 0.11380951851606369
0.23542164266109467 0.23757797479629517 0.10877527296543121
0.52454608678817749 0.2547382116317749 0.093542270362377167
0.79247242212295532 0.2564336359500885 0.070400863885879517
0.99993699789047241 0.22316275537014008 0.0513470359146595
0.0065390793606638908 0.45831495523452759 0.16904960572719574
0.14216747879981995 0.46772077679634094 0.16346259415149689
0.4637904167175293 0.48047298192977905 0.14921282231807709
0.71112096309661865 0.49240481853485107 0.13277313113212585
0.94373977184295654 0.46789407730102539 0.11100941151380539
0.015878655016422272 0.65713143348693848 0.21526160836219788
0.17074640095233917 0.66029918193817139 0.21364188194274902
0.43265166878700256 0.67660874128341675 0.20239226520061493
0.6549527645111084 0.68550950288772583 0.18665848672389984
0.86002373695373535 0.69516664743423462 0.15715566277503967
0.12526983022689819 0.83923739194869995 0.30510073900222778
0.2519075870513916 0.84100985527038574 0.30546194314956665
0.4243781566619873 0.86096477508544922 0.29100030660629272
0.59921461343765259 0.87450534105300903 0.28467285633087158
0.82677215337753296 0.8835480809211731 0.243698850274086
0.067629948258399963 0.058696717023849487 0.20599138736724854
0.29234546422958374 0.068774506449699402 0.20197905600070953
0.58119058609008789 0.091685459017753601 0.18792027235031128
0.86299115419387817 0.097046107053756714 0.1687677800655365
1 0.091149367392063141 0.14800909161567688
0.10225578397512436 0.23611046373844147 0.25122740864753723
0.24275445938110352 0.24742664396762848 0.24808964133262634
0.54106146097183228 0.26409158110618591 0.23281541466712952
0.81107974052429199 0.26574018597602844 0.215286985039711
1 0.2369638979434967 0.2000749409198761
0.0038482965901494026 0.46550208330154419 0.30191692709922791
0.17149129509925842 0.47616201639175415 0.29708978533744812
0.48532247543334961 0.49324992299079895 0.28645521402359009
0.7279852032661438 0.50176841020584106 0.27390086650848389
0.95829284191131592 0.48214283585548401 0.25304380059242249
0.052399981766939163 0.66142266988754272 0.36582756042480469
0.21547091007232666 0.66948074102401733 0.36992216110229492
0.45723265409469604 0.68341553211212158 0.3694661557674408
0.6749228835105896 0.69403189420700073 0.35751444101333618
0.88099563121795654 0.69957345724105835 0.33354958891868591
0.18998773396015167 0.84127950668334961 0.4578154981136322
0.29167762398719788 0.84698575735092163 0.45393279194831848
0.45810654759407043 0.85793381929397583 0.44405636191368103
0.6277390718460083 0.87301653623580933 0.4386349618434906
0.85046255588531494 0.89029300212860107 0.40546852350234985
0.080413162708282471 0.076889663934707642 0.39337611198425293
0.30768120288848877 0.09276377409696579 0.38713985681533813
0.60553717613220215 0.10868836939334869 0.38500717282295227
0.88963311910629272 0.11593005806207657 0.36512371897697449
1 0.093103267252445221 0.35972020030021667
0.1125454306602478 0.25190693140029907 0.45755061507225037
0.26319766044616699 0.26315253973007202 0.45645532011985779
0.55624359846115112 0.28295060992240906 0.44450178742408752
0.8323865532875061 0.28434482216835022 0.43702521920204163
1 0.25391688942909241 0.42039862275123596
3.4466913348296657e-05 0.47687453031539917 0.51824277639389038
0.18402877449989319 0.48778903484344482 0.51613205671310425
0.50727438926696777 0.50593441724777222 0.50534099340438843
0.75400525331497192 0.51664954423904419 0.49587357044219971
0.97146379947662354 0.49635627865791321 0.4839015007019043
0.071402683854103088 0.66948062181472778 0.56516402959823608
0.25306898355484009 0.67762738466262817 0.5664297342300415
0.47755047678947449 0.69216114282608032 0.55872172117233276
0.70111590623855591 0.70496010780334473 0.55182325839996338
0.90952688455581665 0.71242111921310425 0.53878045082092285
0.20097935199737549 0.86323529481887817 0.60701823234558105
0.30896767973899841 0.86408150196075439 0.60727238655090332
0.47274968028068542 0.87993317842483521 0.60486400127410889
0.64847773313522339 0.88316351175308228 0.60124391317367554
0.88214755058288574 0.90091782808303833 0.58598047494888306
0.071839518845081329 0.098473958671092987 0.59650653600692749
0.30225566029548645 0.12416002154350281 0.59248590469360352
0.61873716115951538 0.13313327729701996 0.58427220582962036
0.91958850622177124 0.13389109075069427 0.57162517309188843
1 0.103365458548069 0.56556087732315063
0.090938210487365723 0.27686914801597595 0.64269596338272095
0.25894376635551453 0.28844079375267029 0.64311724901199341
0.56941360235214233 0.31354871392250061 0.62892991304397583
0.85530000925064087 0.31206664443016052 0.62431293725967407
1 0.28476503491401672 0.60982656478881836
3.5005457448278321e-06 0.4930076003074646 0.6894569993019104
0.17263355851173401 0.50444388389587402 0.68470668792724609
0.51826626062393188 0.52208060026168823 0.67565882205963135
0.77224922180175781 0.53059810400009155 0.66737282276153564
0.9911382794380188 0.51825094223022461 0.65751302242279053
0.08344605565071106 0.67891055345535278 0.7288939356803894
0.26964643597602844 0.68573302030563354 0.72648870944976807
0.50158655643463135 0.70122736692428589 0.72291624546051025
0.71955996751785278 0.71740090847015381 0.71617871522903442
0.93186026811599731 0.72176933288574219 0.7095036506652832
0.22754856944084167 0.87137740850448608 0.7601507306098938
0.33220931887626648 0.86766332387924194 0.76303935050964355
0.49321240186691284 0.88548362255096436 0.75567281246185303
0.6611560583114624 0.90204375982284546 0.75208514928817749
0.90990531444549561 0.91346758604049683 0.7486606240272522
0.062792651355266571 0.13591098785400391 0.76495039463043213
0.28229358792304993 0.16505518555641174 0.75739723443984985
0.59839534759521484 0.17591676115989685 0.74636024236679077
0.9062233567237854 0.17726600170135498 0.73529613018035889
1 0.13401485979557037 0.72908061742782593
0.034038498997688293 0.31957146525382996 0.8024284839630127
0.19286012649536133 0.33293548226356506 0.79862183332443237
0.54990136623382568 0.35134786367416382 0.78877586126327515
0.84679204225540161 0.36199328303337097 0.77960973978042603
0.9976578950881958 0.32299274206161499 0.76897138357162476
0 0.50994467735290527 0.83995693922042847
0.14622712135314941 0.52782547473907471 0.8357422947883606
0.50020420551300049 0.54999691247940063 0.82499819993972778
0.76239782571792603 0.56646454334259033 0.8166467547416687
0.99386727809906006 0.56248569488525391 0.81178432703018188
0.013857822865247726 0.68883103132247925 0.87101650238037109
0.21298551559448242 0.70047426223754883 0.86985582113265991
0.48319128155708313 0.71464896202087402 0.86694085597991943
0.71921515464782715 0.73195487260818481 0.86242449283599854
0.95746809244155884 0.73633813858032227 0.86608594655990601
0.15740053355693817 0.89236736297607422 0.93691861629486084
0.29763445258140564 0.89030683040618896 0.93407434225082397
0.48591381311416626 0.9036526083946228 0.9280969500541687
0.66829711198806763 0.92326503992080688 0.93408083915710449
0.94483643770217896 0.94800269603729248 0.94509083032608032
