assets/lut/films negative color kodak elite 100 xpro.cube
# Created by: G'MIC (https://gmic.eu)
TITLE "kodak_elite_100_xpro"
# LUT size
LUT_3D_SIZE 13
# Data domain
DOMAIN_MIN 0.0 0.0 0.0
DOMAIN_MAX 1.0 1.0 1.0
# LUT data points
0.023949597030878067 0.010049019940197468 0.003523463848978281
0.064981304109096527 0.010064547881484032 0.0016351437661796808
0.10808961093425751 0.012955773621797562 0.0020018634386360645
0.15676587820053101 0.018488490954041481 0.0047207851894199848
0.22738195955753326 0.022340273484587669 0.0070844013243913651
0.31077173352241516 0.024813378229737282 0.0095523456111550331
0.40782642364501953 0.030912451446056366 0.013669361360371113
0.52368843555450439 0.042819544672966003 0.019713772460818291
0.64567512273788452 0.058845371007919312 0.025337085127830505
0.75367683172225952 0.074972040951251984 0.027245195582509041
0.84326541423797607 0.091279961168766022 0.024129291996359825
0.91874635219573975 0.10907503217458725 0.0151303606107831
0.98263591527938843 0.12895429134368896 0.0031266903970390558
0.042844224721193314 0.038608923554420471 0.0051298253238201141
0.076248809695243835 0.040173251181840897 0.0034084992948919535
0.11782447993755341 0.044536173343658447 0.0043279458768665791
0.16937845945358276 0.051139142364263535 0.0070324018597602844
0.23744161427021027 0.05701059103012085 0.0094142090529203415
0.31610807776451111 0.063097171485424042 0.012088701128959656
0.41043677926063538 0.073151804506778717 0.016570325940847397
0.52755165100097656 0.089280493557453156 0.023279855027794838
0.65073931217193604 0.109341099858284 0.029682742431759834
0.76062202453613281 0.12984976172447205 0.033075910061597824
0.85138195753097534 0.15052124857902527 0.031736530363559723
0.92585784196853638 0.17238995432853699 0.023899197578430176
0.9865153431892395 0.19592210650444031 0.0089616812765598297
0.073077917098999023 0.084214620292186737 0.0057116937823593616
0.096797645092010498 0.087945394217967987 0.0043295617215335369
0.13195852935314178 0.094329535961151123 0.006030393298715353
0.18269425630569458 0.10185370594263077 0.0082186535000801086
0.25243577361106873 0.10894477367401123 0.010476819239556789
0.32922178506851196 0.1189534068107605 0.013254666700959206
0.42191627621650696 0.13291007280349731 0.01778208464384079
0.53958505392074585 0.1500428318977356 0.024029286578297615
0.66257667541503906 0.17139081656932831 0.030402239412069321
0.77122783660888672 0.19512353837490082 0.034677423536777496
0.86013698577880859 0.21846802532672882 0.035296689718961716
0.93219280242919922 0.24209408462047577 0.029093200340867043
0.98890334367752075 0.26875421404838562 0.013935732655227184
0.10543057322502136 0.16171638667583466 0.0060541639104485512
0.12026818841695786 0.16558745503425598 0.0056311814114451408
0.14619866013526917 0.17208656668663025 0.0072835884056985378
0.19685626029968262 0.18003399670124054 0.0095138102769851685
0.2708270251750946 0.18840363621711731 0.01144962664693594
0.3485260009765625 0.20096281170845032 0.014113856479525566
0.44261988997459412 0.2157457172870636 0.018129849806427956
0.56153023242950439 0.23040834069252014 0.02370796911418438
0.68382555246353149 0.25000539422035217 0.028846981003880501
0.78774189949035645 0.27583587169647217 0.032450161874294281
0.87164044380187988 0.29986056685447693 0.033755283802747726
0.93925678730010986 0.32245805859565735 0.029403282329440117
0.99120861291885376 0.34815061092376709 0.015432305634021759
0.096987254917621613 0.26339367032051086 0.0066911885514855385
0.10741899907588959 0.26868951320648193 0.0072532203048467636
0.1379643976688385 0.27415940165519714 0.0093157747760415077
0.20265984535217285 0.27986946702003479 0.0113766985014081
0.2854495644569397 0.28819927573204041 0.013340146280825138
0.36654525995254517 0.30087190866470337 0.015605657361447811
0.46446654200553894 0.31458023190498352 0.018792305141687393
0.58686524629592896 0.327056884765625 0.022723089903593063
0.7078976035118103 0.34483462572097778 0.026222214102745056
0.80703628063201904 0.36990353465080261 0.028099404647946358
0.88490873575210571 0.39185559749603271 0.029025927186012268
0.94706767797470093 0.4110819399356842 0.025560252368450165
0.99333876371383667 0.43208912014961243 0.01357218436896801
0.054994739592075348 0.37617588043212891 0.0080243730917572975
0.073954775929450989 0.3808409571647644 0.0094924774020910263
0.1203635111451149 0.38418322801589966 0.011946479789912701
0.19986423850059509 0.38725599646568298 0.014001569710671902
0.29206967353820801 0.39379331469535828 0.016170995309948921
0.38520520925521851 0.40485301613807678 0.017936376854777336
0.49166491627693176 0.41750353574752808 0.019892988726496696
0.61606907844543457 0.42984890937805176 0.022352719679474831
0.73228472471237183 0.44572436809539795 0.024271212518215179
0.825184166431427 0.46572721004486084 0.025794519111514091
0.8976585865020752 0.48289886116981506 0.025673525407910347
0.95436280965805054 0.49835401773452759 0.022183392196893692
0.99466532468795776 0.51521271467208862 0.011309410445392132
0.029553970322012901 0.48538875579833984 0.010194023139774799
0.064271293580532074 0.48775145411491394 0.012192625552415848
0.12527917325496674 0.48863056302070618 0.014520862139761448
0.21155175566673279 0.48998346924781799 0.016574889421463013
0.31116357445716858 0.4949151873588562 0.018327675759792328
0.41618078947067261 0.50353121757507324 0.020510833710432053
0.52975344657897949 0.51431077718734741 0.021627059206366539
0.64979863166809082 0.52626091241836548 0.022525802254676819
0.7569425106048584 0.53976291418075562 0.023879840970039368
0.8413732647895813 0.55442780256271362 0.025069441646337509
0.90818661451339722 0.56779396533966064 0.024690186604857445
0.95973885059356689 0.58098888397216797 0.02078564278781414
0.99532061815261841 0.59449797868728638 0.0092292185872793198
0.05292917788028717 0.58053398132324219 0.013904302380979061
0.094129808247089386 0.58206504583358765 0.014501922763884068
0.16093266010284424 0.58175027370452881 0.015350536443293095
0.24946385622024536 0.58225870132446289 0.01639232225716114
0.3515993058681488 0.58576256036758423 0.01848907396197319
0.46048241853713989 0.5924111008644104 0.021394064649939537
0.57240456342697144 0.601421058177948 0.023071812465786934
0.68221461772918701 0.61178708076477051 0.023286767303943634
0.77930331230163574 0.62289047241210938 0.023631032556295395
0.85750460624694824 0.63409930467605591 0.024035735055804253
0.91969680786132812 0.64475959539413452 0.023382464423775673
0.96848845481872559 0.65499299764633179 0.018217423930764198
0.9981459379196167 0.66498184204101562 0.0057701258920133114
0.12202941626310349 0.66151124238967896 0.015226087532937527
0.16270712018013 0.66305965185165405 0.012098499573767185
0.22718805074691772 0.66245973110198975 0.00968907680362463
0.31280973553657532 0.66260063648223877 0.0096258725970983505
0.41215664148330688 0.66529971361160278 0.013218434527516365
0.51708763837814331 0.67048686742782593 0.019132696092128754
0.62038040161132812 0.67777681350708008 0.02313557080924511
0.71674191951751709 0.68629103899002075 0.023102449253201485
0.80303925275802612 0.69497090578079224 0.021108575165271759
0.87628674507141113 0.7035936713218689 0.020561801269650459
0.93589764833450317 0.711464524269104 0.019199356436729431
0.98239803314208984 0.71899962425231934 0.013677828945219517
1 0.72589373588562012 0.0022888632956892252
0.22174391150474548 0.73091650009155273 0.007507713045924902
0.25993043184280396 0.73216599225997925 0.0019339168211445212
0.31855714321136475 0.73147988319396973 0.00036244111834093928
0.39590317010879517 0.7316739559173584 0.00033093622187152505
0.48645246028900146 0.73390603065490723 0.0023904088884592056
0.58178400993347168 0.73825174570083618 0.011467892676591873
0.67221492528915405 0.74429208040237427 0.019054757431149483
0.75428116321563721 0.75080603361129761 0.01939818449318409
0.82967078685760498 0.75706493854522705 0.016704410314559937
0.89668965339660645 0.76294940710067749 0.014335557818412781
0.95301085710525513 0.76849162578582764 0.013035299256443977
0.99357330799102783 0.77394396066665649 0.0081908581778407097
1 0.77879106998443604 0.00049739162204787135
0.34119376540184021 0.7888144850730896 2.5281718990299851e-05
0.37582731246948242 0.79031294584274292 0
0.42604255676269531 0.79026317596435547 0
0.49148482084274292 0.79061037302017212 0
0.56803107261657715 0.79274499416351318 0
0.64776813983917236 0.79667127132415771 0.0012304119300097227
0.72283941507339478 0.80162972211837769 0.0087653361260890961
0.79200536012649536 0.80646765232086182 0.013239138759672642
0.85724806785583496 0.81032824516296387 0.010745149105787277
0.91730481386184692 0.81355857849121094 0.0070477952249348164
0.96744841337203979 0.81697148084640503 0.0048654745332896709
0.99812257289886475 0.8209683895111084 0.0018635169835761189
1 0.82489365339279175 2.154182038793806e-05
0.47162994742393494 0.83777272701263428 0
0.50155830383300781 0.83983790874481201 0
0.54182618856430054 0.84048759937286377 0
0.59317368268966675 0.84124463796615601 0
0.65277379751205444 0.84345883131027222 0
0.71533983945846558 0.84691667556762695 0
0.77532881498336792 0.85088813304901123 0.00048362882807850838
0.83205485343933105 0.85429346561431885 0.0039481669664382935
0.88895529508590698 0.8554072380065918 0.0029472799506038427
0.94134247303009033 0.85576045513153076 0.00043394800741225481
0.98440569639205933 0.85827106237411499 0
0.99990737438201904 0.86099755764007568 0
1 0.86452531814575195 0
0.60630506277084351 0.88142943382263184 0
0.63086777925491333 0.88334774971008301 0
0.66079747676849365 0.88471275568008423 0
0.69848084449768066 0.88582158088684082 0
0.74238204956054688 0.88750261068344116 0
0.7893635630607605 0.89021164178848267 0
0.83589696884155273 0.89348948001861572 0
0.88235002756118774 0.89436274766921997 0
0.9299701452255249 0.8943028450012207 0
0.97418171167373657 0.89347320795059204 0
0.99845707416534424 0.89365452527999878 0
1 0.89604705572128296 0
1 0.89888232946395874 0
0.022324176505208015 0.011003471910953522 0.011204767972230911
0.062072604894638062 0.012328203767538071 0.010238003917038441
0.10430458188056946 0.015645913779735565 0.011528119444847107
0.15370488166809082 0.021468786522746086 0.014602735638618469
0.22369198501110077 0.026792937889695168 0.017474126070737839
0.30424019694328308 0.030113773420453072 0.020767824724316597
0.39916089177131653 0.035876568406820297 0.026018001139163971
0.51727491617202759 0.047620899975299835 0.033165667206048965
0.64347916841506958 0.063638560473918915 0.040120158344507217
0.7557750940322876 0.080353513360023499 0.043250348418951035
0.84664428234100342 0.097277790307998657 0.040603127330541611
0.92157763242721558 0.1162903755903244 0.032087858766317368
0.98409426212310791 0.13703697919845581 0.017347536981105804
0.041043642908334732 0.041490368545055389 0.013267502188682556
0.07187371701002121 0.043331746011972427 0.0127410888671875
0.11143327504396439 0.046561777591705322 0.014272906817495823
0.16304099559783936 0.053802654147148132 0.017004199326038361
0.23173321783542633 0.061507206410169601 0.020048389211297035
0.31114333868026733 0.068584650754928589 0.023830818012356758
0.40611809492111206 0.078341118991374969 0.029310442507266998
0.52430933713912964 0.093365207314491272 0.03682568296790123
0.65063977241516113 0.11306317150592804 0.04399440810084343
0.76357096433639526 0.1348118931055069 0.047918297350406647
0.85486042499542236 0.15715202689170837 0.046597395092248917
0.92854470014572144 0.18090568482875824 0.038729138672351837
0.98746323585510254 0.20595979690551758 0.023597342893481255
0.071410328149795532 0.090936772525310516 0.014477943070232868
0.093427620828151703 0.093265458941459656 0.013760331086814404
0.12421369552612305 0.096711821854114532 0.016108568757772446
0.17327529191970825 0.10571032017469406 0.018183838576078415
0.24320268630981445 0.11512817442417145 0.021223345771431923
0.32365822792053223 0.12547244131565094 0.02525724470615387
0.41979706287384033 0.13838273286819458 0.030662266537547112
0.53886228799819946 0.15398168563842773 0.037697780877351761
0.66453403234481812 0.17457874119281769 0.044347353279590607
0.7741667628288269 0.19977337121963501 0.048375491052865982
0.86294698715209961 0.22602689266204834 0.048085439950227737
0.93430048227310181 0.25330913066864014 0.041225284337997437
0.98968476057052612 0.28123724460601807 0.026164663955569267
0.099357083439826965 0.16928711533546448 0.015249229967594147
0.11740236729383469 0.17351742088794708 0.014501474797725677
0.13855081796646118 0.17789053916931152 0.016490906476974487
0.18654429912567139 0.18602149188518524 0.018878264352679253
0.26065936684608459 0.19548770785331726 0.021743519231677055
0.34191021323204041 0.2078389972448349 0.025442864745855331
0.43912515044212341 0.22181187570095062 0.030444798991084099
0.56143593788146973 0.23422496020793915 0.03687947615981102
0.68581163883209229 0.25302985310554504 0.042263556271791458
0.79007148742675781 0.27988037467002869 0.045175064355134964
0.87324637174606323 0.30758583545684814 0.045024886727333069
0.94103682041168213 0.33414611220359802 0.039299819618463516
0.99194121360778809 0.36147263646125793 0.025251051411032677
0.090746857225894928 0.27035066485404968 0.016387220472097397
0.10592573881149292 0.27565246820449829 0.015913091599941254
0.13403032720088959 0.28059938549995422 0.017860516905784607
0.19486092031002045 0.28645104169845581 0.020379040390253067
0.27724233269691467 0.2947203516960144 0.02304280549287796
0.36164364218711853 0.30712532997131348 0.026221556589007378
0.46263426542282104 0.32017499208450317 0.030459115281701088
0.58732318878173828 0.33134838938713074 0.035582028329372406
0.70951646566390991 0.34824144840240479 0.039119929075241089
0.80771076679229736 0.37347257137298584 0.039838589727878571
0.88555562496185303 0.39748293161392212 0.038884539157152176
0.94988906383514404 0.4189237654209137 0.034130081534385681
0.99499636888504028 0.4416167140007019 0.021526696160435677
0.054539144039154053 0.3807280957698822 0.017224494367837906
0.074416682124137878 0.38592812418937683 0.017685385420918465
0.11731268465518951 0.3898373544216156 0.019914634525775909
0.19249655306339264 0.39363786578178406 0.022469494491815567
0.28479647636413574 0.40045017004013062 0.024925965815782547
0.38068583607673645 0.41104629635810852 0.027821948751807213
0.48957276344299316 0.42303246259689331 0.030968878418207169
0.61477231979370117 0.43466353416442871 0.034271448850631714
0.7323489785194397 0.44969305396080017 0.036208149045705795
0.82561850547790527 0.4688471257686615 0.035699613392353058
0.89970844984054565 0.48606711626052856 0.03347715362906456
0.96006351709365845 0.50124287605285645 0.028111087158322334
0.99740803241729736 0.51962578296661377 0.016424950212240219
0.031057454645633698 0.48797565698623657 0.018690550699830055
0.060245916247367859 0.49170896410942078 0.019629070535302162
0.11659196019172668 0.49382683634757996 0.021859487518668175
0.20112124085426331 0.49631550908088684 0.023848500102758408
0.30181926488876343 0.50147992372512817 0.026147879660129547
0.40859934687614441 0.5099908709526062 0.028930066153407097
0.52386057376861572 0.52036052942276001 0.030943762511014938
0.64527684450149536 0.53151035308837891 0.032135907560586929
0.75479495525360107 0.54438024759292603 0.032814323902130127
0.84117424488067627 0.55840575695037842 0.032576870173215866
0.91030371189117432 0.57042354345321655 0.030131261795759201
0.96594399213790894 0.58179908990859985 0.023658931255340576
0.99827271699905396 0.59558522701263428 0.010559410788118839
0.048033006489276886 0.58321475982666016 0.019780492410063744
0.083453714847564697 0.58586066961288452 0.020941058173775673
0.14635682106018066 0.58651387691497803 0.022439396008849144
0.23498347401618958 0.5879177451133728 0.023164667189121246
0.34001103043556213 0.59191548824310303 0.024698130786418915
0.45142313838005066 0.59869128465652466 0.027476875111460686
0.56587475538253784 0.60736286640167236 0.029352525249123573
0.67782682180404663 0.61713957786560059 0.028595538809895515
0.77655178308486938 0.62795591354370117 0.027842368930578232
0.85564815998077393 0.63874262571334839 0.027986474335193634
0.91926151514053345 0.64821445941925049 0.026627484709024429
0.97076421976089478 0.6568835973739624 0.019669266417622566
0.99909424781799316 0.66690874099731445 0.0057341931387782097
0.10961839556694031 0.6645437479019165 0.016624061390757561
0.14656223356723785 0.66666305065155029 0.016909340396523476
0.2093440443277359 0.66644680500030518 0.01746000349521637
0.29694980382919312 0.66729891300201416 0.016559300944209099
0.40079596638679504 0.67055737972259521 0.017953056842088699
0.50995296239852905 0.67605835199356079 0.02278086356818676
0.61639308929443359 0.68328797817230225 0.025456776842474937
0.71495735645294189 0.69151127338409424 0.023794315755367279
0.8018755316734314 0.70007020235061646 0.02101682685315609
0.87429273128509521 0.70801734924316406 0.020058739930391312
0.93394583463668823 0.7151418924331665 0.019735567271709442
0.98067325353622437 0.72173702716827393 0.015164139680564404
1 0.72874957323074341 0.0027118008583784103
0.20742912590503693 0.7334931492805481 0.0049161426723003387
0.24404723942279816 0.73503714799880981 0.0035092222969979048
0.30234161019325256 0.73480468988418579 0.0031189562287181616
0.38291499018669128 0.73535925149917603 0.0027120104059576988
0.47845536470413208 0.73813271522521973 0.0047503304667770863
0.57843029499053955 0.74278491735458374 0.014320867136120796
0.67161422967910767 0.74881488084793091 0.020799031481146812
0.75433856248855591 0.7554284930229187 0.018458303064107895
0.82944542169570923 0.7615959644317627 0.013173435814678669
0.89452117681503296 0.76707208156585693 0.010593384504318237
0.94911253452301025 0.77205061912536621 0.012109344825148582
0.98918461799621582 0.77711862325668335 0.011351162567734718
1 0.78263765573501587 0.0020404441747814417
0.33060619235038757 0.79133880138397217 0
0.36481916904449463 0.79279196262359619 0
0.41520488262176514 0.79274976253509521 0
0.48274818062782288 0.79341459274291992 0
0.56272858381271362 0.79591912031173706 0
0.64662665128707886 0.80004072189331055 0.0026222828309983015
0.72403097152709961 0.80503469705581665 0.011445752345025539
0.79345405101776123 0.8098609447479248 0.012525955215096474
0.8572237491607666 0.81375455856323242 0.0066974866203963757
0.91458052396774292 0.81676745414733887 0.0024304259568452835
0.96143323183059692 0.8201223611831665 0.0043444167822599411
0.99335771799087524 0.82454550266265869 0.0072261285968124866
1 0.82925200462341309 0.0014575135428458452
0.46807876229286194 0.8402705192565918 0
0.49734187126159668 0.84181255102157593 0
0.53640544414520264 0.84209078550338745 0
0.58784055709838867 0.84304475784301758 0
0.64941465854644775 0.84551906585693359 0
0.7141231894493103 0.84911090135574341 1.2670779142354149e-05
0.77605247497558594 0.85301631689071655 0.0028799318242818117
0.83373177051544189 0.85565733909606934 0.0071650934405624866
0.88841629028320312 0.85683190822601318 0.0030320859514176846
0.93765366077423096 0.85773903131484985 3.6202225146553246e-06
0.97653120756149292 0.85983544588088989 6.3518447859678417e-05
0.99808013439178467 0.86375421285629272 0.00072571996133774519
1 0.8680274486541748 9.6594121714588255e-05
0.61026716232299805 0.88351768255233765 0
0.63324230909347534 0.88539433479309082 0
0.66036146879196167 0.88603532314300537 0
0.69611018896102905 0.88653135299682617 0
0.73972707986831665 0.88897699117660522 0
0.7873988151550293 0.89125359058380127 0
0.83494758605957031 0.89431381225585938 0.0010448680259287357
0.88141554594039917 0.89444965124130249 0.0038330077659338713
0.92709660530090332 0.89403748512268066 0.0020255893468856812
0.96877634525299072 0.89264357089996338 5.7759003539104015e-05
0.9958382248878479 0.89300572872161865 0
1 0.89653056859970093 0
1 0.90054583549499512 0
0.01975097693502903 0.013688554987311363 0.02290363609790802
0.057571157813072205 0.015712423250079155 0.02375417947769165
0.098809577524662018 0.018856856971979141 0.026057867333292961
0.14821726083755493 0.023864476010203362 0.027900008484721184
0.21635091304779053 0.028813514858484268 0.030667742714285851
0.29633480310440063 0.033611074090003967 0.034737873822450638
0.39171251654624939 0.040723614394664764 0.040951404720544815
0.51226156949996948 0.053201861679553986 0.049285169690847397
0.64262986183166504 0.069945886731147766 0.057074721902608871
0.75666457414627075 0.086850844323635101 0.060329347848892212
0.84802371263504028 0.10391929745674133 0.058003012090921402
0.92177277803421021 0.12302117794752121 0.049724802374839783
0.98349738121032715 0.14469106495380402 0.035484477877616882
0.037435717880725861 0.045903779566287994 0.025998089462518692
0.066521376371383667 0.049178000539541245 0.026710733771324158
0.10580604523420334 0.05191020667552948 0.028534488752484322
0.15800078213214874 0.057820457965135574 0.030899900943040848
0.22673948109149933 0.065275885164737701 0.034730423241853714
0.30665609240531921 0.073140084743499756 0.039460815489292145
0.40164986252784729 0.083198130130767822 0.045716904103755951
0.52075529098510742 0.098548561334609985 0.053421948105096817
0.65036827325820923 0.11929906159639359 0.060652952641248703
0.76494425535202026 0.1415778249502182 0.064819708466529846
0.85599207878112793 0.16425387561321259 0.06283608078956604
0.9287717342376709 0.18883742392063141 0.054681051522493362
0.98717987537384033 0.21482470631599426 0.039056066423654556
0.065954692661762238 0.096981674432754517 0.029202720150351524
0.087723255157470703 0.10102801024913788 0.029281871393322945
0.11959092319011688 0.10406307131052017 0.030763333663344383
0.1693551242351532 0.11199988424777985 0.033485054969787598
0.24007566273212433 0.12076257169246674 0.038049690425395966
0.32169201970100403 0.1311679482460022 0.042958606034517288
0.41720491647720337 0.14400705695152283 0.048338405787944794
0.53659796714782715 0.15938539803028107 0.055073052644729614
0.66389113664627075 0.18101371824741364 0.060982514172792435
0.77469289302825928 0.20647025108337402 0.06502959132194519
0.86334007978439331 0.23366858065128326 0.063434988260269165
0.93409067392349243 0.26281026005744934 0.055468644946813583
0.98926931619644165 0.29194790124893188 0.039757315069437027
0.090034559369087219 0.17674599587917328 0.031917691230773926
0.1087929829955101 0.1815807968378067 0.030892226845026016
0.13256818056106567 0.18681842088699341 0.032263033092021942
0.18060974776744843 0.19433003664016724 0.035191703587770462
0.25443989038467407 0.20245251059532166 0.039489477872848511
0.3388354480266571 0.21410293877124786 0.043879877775907516
0.43785646557807922 0.22796280682086945 0.048920515924692154
0.56093293428421021 0.24123296141624451 0.055352859199047089
0.68514347076416016 0.26068076491355896 0.059927143156528473
0.7886466383934021 0.28674706816673279 0.061475582420825958
0.8719935417175293 0.31484097242355347 0.059765461832284927
0.94027715921401978 0.34375137090682983 0.052453763782978058
0.99175918102264404 0.37286508083343506 0.037197500467300415
0.082811065018177032 0.27764356136322021 0.034881547093391418
0.098156854510307312 0.28356814384460449 0.033044539391994476
0.12463080883026123 0.28972136974334717 0.035173408687114716
0.183179572224617 0.2952115535736084 0.037889577448368073
0.2665083110332489 0.30201935768127441 0.040652960538864136
0.35505455732345581 0.31416323781013489 0.044284939765930176
0.45840340852737427 0.32779628038406372 0.048957645893096924
0.58542913198471069 0.3393939733505249 0.054226040840148926
0.70757472515106201 0.35637527704238892 0.056902896612882614
0.80457299947738647 0.38015931844711304 0.055987250059843063
0.88264924287796021 0.40412265062332153 0.0533713698387146
0.94951236248016357 0.42612114548683167 0.047390986233949661
0.99537855386734009 0.44980958104133606 0.032928809523582458
0.052754629403352737 0.38637566566467285 0.036100964993238449
0.069271266460418701 0.39251270890235901 0.035186544060707092
0.10636579990386963 0.39771983027458191 0.036909349262714386
0.18014048039913177 0.40201699733734131 0.039517808705568314
