assets/lut/films negative color lomography redscale 100.cube
# Created by: G'MIC (https://gmic.eu)
TITLE "lomography_redscale_100"
# LUT size
LUT_3D_SIZE 5
# Data domain
DOMAIN_MIN 0.0 0.0 0.0
DOMAIN_MAX 1.0 1.0 1.0
# LUT data points
0.01759420707821846 0.0046698478981852531 0.0033894558437168598
0.16226042807102203 0.020293202251195908 0.037835229188203812
0.37864327430725098 0.054551173001527786 0.13445000350475311
0.60795682668685913 0.090260103344917297 0.22935718297958374
0.78304606676101685 0.096394680440425873 0.29178687930107117
0.043325118720531464 0.089625537395477295 0.018414277583360672
0.13524201512336731 0.104947529733181 0.036319881677627563
0.35421046614646912 0.13907071948051453 0.12324996292591095
0.61183083057403564 0.17732726037502289 0.23406149446964264
0.78759574890136719 0.19151589274406433 0.31179997324943542
0.046710699796676636 0.26105508208274841 0.053014852106571198
0.086474217474460602 0.27126950025558472 0.056439958512783051
0.32658159732818604 0.30406782031059265 0.12280566990375519
0.63688242435455322 0.34870293736457825 0.24681161344051361
0.85588663816452026 0.37775248289108276 0.33955207467079163
0 0.51325064897537231 0.091538026928901672
0 0.51406592130661011 0.074797295033931732
0.12635922431945801 0.52868586778640747 0.084057018160820007
0.61838680505752563 0.58956420421600342 0.2428445965051651
0.91464054584503174 0.62503784894943237 0.370240718126297
0 0.76170003414154053 0.12596236169338226
0.0060727884992957115 0.77181929349899292 0.098924063146114349
0.00035977832158096135 0.77224045991897583 0.046423263847827911
0.069408297538757324 0.79149550199508667 0.055895652621984482
0.89013242721557617 0.88314050436019897 0.36850225925445557
0.057572353631258011 0.028898680582642555 0.082222357392311096
0.20899021625518799 0.054529584944248199 0.098291255533695221
0.42011833190917969 0.086347721517086029 0.15401193499565125
0.63388431072235107 0.11936675757169724 0.24304033815860748
0.79381543397903442 0.12585429847240448 0.30537146329879761
0.07945658266544342 0.12514175474643707 0.10565083473920822
0.17711015045642853 0.13870543241500854 0.11383936554193497
0.40515521168708801 0.17474851012229919 0.15018902719020844
0.64243429899215698 0.20449693500995636 0.24561317265033722
0.80763775110244751 0.21958029270172119 0.31923988461494446
0.064565829932689667 0.29821711778640747 0.14189822971820831
0.11323665827512741 0.30646547675132751 0.13570505380630493
0.37972602248191833 0.33878675103187561 0.16353435814380646
0.6693727970123291 0.37936258316040039 0.25755012035369873
0.86393630504608154 0.40251901745796204 0.34487095475196838
0.0060983244329690933 0.52983766794204712 0.1729053407907486
0 0.53390991687774658 0.14729756116867065
0.16676260530948639 0.55950605869293213 0.13044092059135437
0.64985078573226929 0.61578470468521118 0.25680986046791077
0.92352235317230225 0.64921778440475464 0.376943439245224
0.0030870474874973297 0.77903032302856445 0.25290006399154663
0.016597941517829895 0.78315109014511108 0.22303667664527893
6.3279097958002239e-05 0.77668339014053345 0.097351431846618652
0.11251027882099152 0.80738371610641479 0.075630500912666321
0.91295933723449707 0.89637714624404907 0.3771672248840332
0.11340814083814621 0.070479355752468109 0.22332528233528137
0.27117082476615906 0.094973668456077576 0.23550622165203094
0.47576043009757996 0.12885065376758575 0.23986107110977173
0.67121291160583496 0.15425558388233185 0.25897181034088135
0.81010884046554565 0.16094422340393066 0.31694850325584412
0.13780234754085541 0.17994536459445953 0.27026078104972839
0.24285231530666351 0.19782614707946777 0.28179976344108582
0.46888965368270874 0.23378896713256836 0.28718653321266174
0.68840032815933228 0.26201477646827698 0.27098578214645386
0.83581048250198364 0.26940473914146423 0.33623108267784119
0.075940586626529694 0.36116340756416321 0.3199913501739502
0.17187502980232239 0.37424552440643311 0.33002382516860962
0.44980108737945557 0.4108995795249939 0.34647843241691589
0.71881455183029175 0.44507789611816406 0.31357190012931824
0.88740664720535278 0.45501124858856201 0.35795316100120544
0.00034344242885708809 0.56569212675094604 0.35561329126358032
0 0.57742297649383545 0.35674393177032471
0.288318932056427 0.60688048601150513 0.36601904034614563
0.70579665899276733 0.65978848934173584 0.35304340720176697
0.94701176881790161 0.68700790405273438 0.38155177235603333
0.0030141493771225214 0.79576659202575684 0.43516388535499573
0 0.79647952318191528 0.41402190923690796
0.0077879363670945168 0.79553234577178955 0.3526310920715332
0.13448342680931091 0.82766127586364746 0.2268311083316803
0.92768454551696777 0.91781508922576904 0.38729983568191528
0.20163549482822418 0.14788970351219177 0.41108995676040649
0.36271893978118896 0.17405876517295837 0.44466468691825867
0.53824788331985474 0.20718814432621002 0.45785725116729736
0.71378844976425171 0.22779598832130432 0.38782653212547302
0.83860784769058228 0.22731149196624756 0.31832835078239441
0.23718537390232086 0.27929025888442993 0.46915075182914734
0.35366430878639221 0.29519706964492798 0.49799564480781555
0.54698640108108521 0.32511615753173828 0.52921605110168457
0.73386466503143311 0.34819939732551575 0.47049859166145325
0.87393498420715332 0.35272526741027832 0.35247915983200073
0.17730769515037537 0.45295363664627075 0.52215301990509033
0.31289026141166687 0.46942856907844543 0.54439419507980347
0.54974067211151123 0.50145721435546875 0.58858960866928101
0.75820338726043701 0.52699959278106689 0.56633180379867554
0.92397356033325195 0.54130834341049194 0.38330012559890747
0.0013357873540371656 0.62779325246810913 0.53841745853424072
0.05593625083565712 0.63884371519088745 0.55882370471954346
0.44476553797721863 0.676738440990448 0.62228703498840332
0.75160056352615356 0.71675068140029907 0.64607995748519897
0.96854853630065918 0.74365013837814331 0.43498033285140991
0.00023103601415641606 0.81314623355865479 0.57294142246246338
0.0086954152211546898 0.81181943416595459 0.56188565492630005
0 0.81101816892623901 0.53362256288528442
0.30808624625205994 0.86690306663513184 0.60594004392623901
0.95947849750518799 0.94502848386764526 0.45377787947654724
0.37277328968048096 0.27972501516342163 0.61221927404403687
0.49497705698013306 0.30915287137031555 0.64291232824325562
0.6301683783531189 0.32927379012107849 0.673470139503479
0.75922542810440063 0.34821105003356934 0.66718995571136475
0.87539047002792358 0.33853143453598022 0.46348893642425537
0.41991868615150452 0.42048782110214233 0.67039573192596436
0.51529604196548462 0.43654546141624451 0.69760960340499878
0.65407508611679077 0.45682746171951294 0.73145526647567749
0.78857141733169556 0.47704905271530151 0.7363661527633667
0.90660083293914795 0.48250541090965271 0.6079210638999939
0.44557559490203857 0.58275842666625977 0.73104953765869141
0.52621281147003174 0.59466308355331421 0.75296211242675781
0.67678683996200562 0.61674922704696655 0.79327869415283203
0.81766277551651001 0.63990199565887451 0.80989772081375122
0.94147670269012451 0.64907217025756836 0.73753887414932251
0.32282587885856628 0.73663055896759033 0.76465505361557007
0.48456078767776489 0.7508278489112854 0.79921090602874756
0.66097474098205566 0.77769923210144043 0.84609973430633545
0.83605915307998657 0.80281412601470947 0.88399386405944824
0.97200506925582886 0.81606090068817139 0.84457916021347046
0.026164185255765915 0.85329204797744751 0.68994957208633423
0.019575381651520729 0.84701550006866455 0.67243576049804688
0.14658050239086151 0.8752092719078064 0.743155837059021
0.59455305337905884 0.9345821738243103 0.88265657424926758
0.97231066226959229 0.98008191585540771 0.94261687994003296
