assets/lut/films print kodak 2383 constlclip.cube
# Created by: G'MIC (https://gmic.eu)
TITLE "kodak_2383_constlclip"
# LUT size
LUT_3D_SIZE 7
# Data domain
DOMAIN_MIN 0.0 0.0 0.0
DOMAIN_MAX 1.0 1.0 1.0
# LUT data points
0.0090910522267222404 0.01698647253215313 0.015975803136825562
0.056634265929460526 0.037286557257175446 0.019332466647028923
0.14622880518436432 0.05494314432144165 0.011891921982169151
0.33939686417579651 0.091449171304702759 0.011789210140705109
0.48007288575172424 0.11808373034000397 0.015903966501355171
0.56776654720306396 0.13076338171958923 0.021173214539885521
0.60111546516418457 0.14267119765281677 0.020257972180843353
0.010347223840653896 0.064528971910476685 0.043701697140932083
0.058025240898132324 0.079312436282634735 0.041399054229259491
0.17748783528804779 0.096027731895446777 0.018760232254862785
0.39512330293655396 0.13136802613735199 0.0079729268327355385
0.55374497175216675 0.16343928873538971 0.012135359458625317
0.61912482976913452 0.17770951986312866 0.016738995909690857
0.66389721632003784 0.19325432181358337 0.015555587597191334
0.010344666428864002 0.12587383389472961 0.073891475796699524
0.023941144347190857 0.15881671011447906 0.057187456637620926
0.22138345241546631 0.20076878368854523 0.021255103871226311
0.48141330480575562 0.26263082027435303 0.0095856906846165657
0.649910569190979 0.27970772981643677 0.011322260834276676
0.70554333925247192 0.28727418184280396 0.020972711965441704
0.74742972850799561 0.32369846105575562 0.026727413758635521
0.0078431377187371254 0.25994700193405151 0.13572409749031067
0.0062582278624176979 0.30676653981208801 0.11437317728996277
0.18027679622173309 0.38607180118560791 0.020453149452805519
0.56307119131088257 0.47171205282211304 0.0027753792237490416
0.75519281625747681 0.50563687086105347 0.0094834417104721069
0.82155674695968628 0.52399486303329468 0.012076987884938717
0.86002695560455322 0.55843889713287354 0.012490455992519855
0.0078929224982857704 0.37014645338058472 0.17921319603919983
0.0059826420620083809 0.43480753898620605 0.15759056806564331
0.19495217502117157 0.5489305853843689 0.022421250119805336
0.6308097243309021 0.66791343688964844 0.0065648844465613365
0.83446604013442993 0.71385443210601807 0.036378748714923859
0.90986210107803345 0.73508250713348389 0.059157412499189377
0.93744373321533203 0.75143671035766602 0.06173502653837204
0.016539525240659714 0.43400782346725464 0.20657607913017273
0.038141511380672455 0.50663846731185913 0.18216578662395477
0.22868905961513519 0.62032788991928101 0.023170815780758858
0.65781128406524658 0.73819780349731445 0.016134867444634438
0.86883240938186646 0.79572796821594238 0.064103312790393829
0.93907076120376587 0.80839371681213379 0.084748648107051849
0.96707326173782349 0.81980502605438232 0.094922639429569244
0.016389435157179832 0.47761821746826172 0.22242943942546844
0.030025407671928406 0.5828624963760376 0.14103040099143982
0.3401433527469635 0.68314707279205322 0.016382988542318344
0.6926581859588623 0.77347582578659058 0.018966570496559143
0.89706432819366455 0.82935577630996704 0.063511013984680176
0.96306979656219482 0.84437090158462524 0.093371450901031494
0.98791790008544922 0.85130846500396729 0.10966192185878754
0.016954833641648293 0.026530470699071884 0.060403786599636078
0.059755630791187286 0.03782985731959343 0.061228029429912567
0.15602482855319977 0.059464741498231888 0.063247993588447571
0.36868253350257874 0.032458405941724777 0.032157044857740402
0.5275004506111145 0.021861821413040161 0.012851789593696594
0.60566854476928711 0.046327240765094757 0.022870695218443871
0.64073115587234497 0.047651000320911407 0.018686616793274879
0.0051522646099328995 0.072753831744194031 0.083261258900165558
0.055981326848268509 0.088745221495628357 0.085951589047908783
0.18398836255073547 0.10261994600296021 0.073377586901187897
0.428325355052948 0.10542386770248413 0.038916256278753281
0.6019102931022644 0.094370506703853607 0.011984851211309433
0.67060685157775879 0.1055874228477478 0.010700494982302189
0.70780092477798462 0.12045792490243912 0.0047955531626939774
0.0056638382375240326 0.14088469743728638 0.10982882976531982
0.035173721611499786 0.15936818718910217 0.10184656828641891
0.21579097211360931 0.21716482937335968 0.076384678483009338
0.50947874784469604 0.2445828765630722 0.026939736679196358
0.68585777282714844 0.2435569167137146 0.0050912145525217056
0.76288712024688721 0.25475883483886719 0.0074839275330305099
0.79849731922149658 0.28123524785041809 0.010877885855734348
0.0093858605250716209 0.27024343609809875 0.17428646981716156
0.013523326255381107 0.31951096653938293 0.16390180587768555
0.18260516226291656 0.40669584274291992 0.06228993833065033
0.58918863534927368 0.49075424671173096 0.0047972886823117733
0.78741264343261719 0.51255232095718384 0.0065526324324309826
0.86531811952590942 0.53564679622650146 0.020810550078749657
0.90401846170425415 0.56423121690750122 0.0055189691483974457
0.0098206168040633202 0.38662582635879517 0.22064614295959473
0.01129277516156435 0.45586532354354858 0.20800063014030457
0.11886610090732574 0.57294505834579468 0.065967977046966553
0.63360601663589478 0.69153070449829102 0.010454499162733555
0.86597746610641479 0.73200058937072754 0.042855698615312576
0.93438255786895752 0.74639052152633667 0.056279603391885757
0.96290910243988037 0.76681357622146606 0.054656293243169785
0.01886698417365551 0.44668576121330261 0.2538510262966156
0.012135314755141735 0.52316874265670776 0.23953589797019958
0.13351884484291077 0.64363640546798706 0.077953740954399109
0.66524022817611694 0.76755768060684204 0.0059550567530095577
0.89474916458129883 0.81760793924331665 0.058597207069396973
0.96834051609039307 0.83336693048477173 0.081602312624454498
0.98915082216262817 0.84183347225189209 0.12696342170238495
0.024738222360610962 0.51140797138214111 0.31020203232765198
0.028413465246558189 0.59945201873779297 0.30299800634384155
0.18558289110660553 0.71074146032333374 0.16745880246162415
0.68233275413513184 0.81140291690826416 0.11342135816812515
0.9200509786605835 0.85766398906707764 0.058345437049865723
0.99353539943695068 0.87312602996826172 0.11221769452095032
0.9993060827255249 0.8774304986000061 0.28252223134040833
0.013585049659013748 0.052842292934656143 0.13930842280387878
0.04910627007484436 0.024963334202766418 0.15070503950119019
0.15273815393447876 0.049431432038545609 0.16507020592689514
0.36658164858818054 0.028439959511160851 0.17343208193778992
0.55034244060516357 0.0039461920969188213 0.17812234163284302
0.64077699184417725 0.0037669162265956402 0.18705150485038757
0.66029554605484009 0.0051319645717740059 0.19169601798057556
0.0024772344622761011 0.085175290703773499 0.15039804577827454
0.037530906498432159 0.086142472922801971 0.18122950196266174
0.18919676542282104 0.10187220573425293 0.19609443843364716
0.43325638771057129 0.092547096312046051 0.20700958371162415
0.62904149293899536 0.032429281622171402 0.19988919794559479
0.70977544784545898 0.020005693659186363 0.19477541744709015
0.7482420802116394 0.019094085320830345 0.2167707234621048
0.0084654567763209343 0.16187714040279388 0.1826307475566864
0.0071451375260949135 0.1810121089220047 0.21775449812412262
0.19871178269386292 0.22173641622066498 0.24275410175323486
0.50290769338607788 0.25317025184631348 0.23922824859619141
0.7233576774597168 0.23335118591785431 0.20785444974899292
0.80690932273864746 0.24263636767864227 0.21661923825740814
0.84558653831481934 0.28383991122245789 0.23339541256427765
0.0086582405492663383 0.29199033975601196 0.2517915666103363
0.018798394128680229 0.34689003229141235 0.27984941005706787
0.11513569951057434 0.43226507306098938 0.2779591977596283
0.5922471284866333 0.50787687301635742 0.24104827642440796
0.83646857738494873 0.53825283050537109 0.2393639087677002
0.91940015554428101 0.55753898620605469 0.19454881548881531
0.95130234956741333 0.58675295114517212 0.23151625692844391
0.0037813673261553049 0.42272895574569702 0.31638619303703308
0.02017994225025177 0.49209308624267578 0.34174063801765442
0.065433219075202942 0.61149013042449951 0.30798843502998352
0.6343761682510376 0.7375950813293457 0.23984907567501068
0.91372841596603394 0.78255361318588257 0.12700572609901428
0.99200844764709473 0.79503989219665527 0.13670575618743896
0.99690431356430054 0.80439752340316772 0.21596594154834747
0.0022786159534007311 0.48689958453178406 0.36760556697845459
0.015718422830104828 0.55220848321914673 0.3825124204158783
0.052550103515386581 0.68335884809494019 0.35789024829864502
0.63847631216049194 0.81433331966400146 0.28521734476089478
0.92308521270751953 0.86812108755111694 0.21368697285652161
0.99897289276123047 0.87856459617614746 0.26369181275367737
0.99990648031234741 0.87825304269790649 0.35647228360176086
0.0079344203695654869 0.56506812572479248 0.45514830946922302
0.020856356248259544 0.63585358858108521 0.46641725301742554
0.10937241464853287 0.74642735719680786 0.4593958854675293
0.65541678667068481 0.85119009017944336 0.42561772465705872
0.90620845556259155 0.90129631757736206 0.42661446332931519
0.99562698602676392 0.91181010007858276 0.41136354207992554
1 0.91503477096557617 0.52289700508117676
0.0039344937540590763 0.10459735244512558 0.24776598811149597
0.035885471850633621 0.029810274019837379 0.30254614353179932
0.15475456416606903 0.010787141509354115 0.34394562244415283
0.38742789626121521 0.0063828262500464916 0.37165489792823792
0.56491029262542725 0.012803485617041588 0.3701949417591095
0.65182137489318848 0.017913578078150749 0.39432725310325623
0.67736935615539551 0.013301430270075798 0.3979591429233551
0.0039635752327740192 0.1431272029876709 0.28112030029296875
0.01377766951918602 0.11717752367258072 0.31465393304824829
0.17509375512599945 0.065428353846073151 0.39913743734359741
0.44638016819953918 0.070188023149967194 0.42157465219497681
0.64673924446105957 0.022383537143468857 0.41900509595870972
0.72279232740402222 0.015269559808075428 0.43764576315879822
0.75810092687606812 0.020443426445126534 0.45476382970809937
0.0031169967260211706 0.2134539932012558 0.31320846080780029
0.0039590871892869473 0.22710588574409485 0.36678043007850647
0.14036910235881805 0.24466148018836975 0.45927909016609192
0.51290595531463623 0.26259544491767883 0.49280339479446411
0.7281377911567688 0.26309815049171448 0.49677115678787231
0.81370800733566284 0.24469900131225586 0.50176084041595459
0.8500514030456543 0.29910856485366821 0.52146261930465698
0.0040213791653513908 0.35602349042892456 0.40684160590171814
0.0086430869996547699 0.39441215991973877 0.44447395205497742
0.046282347291707993 0.47534012794494629 0.52602410316467285
0.56487584114074707 0.56596893072128296 0.56557327508926392
0.81960791349411011 0.59021735191345215 0.56392872333526611
0.90903741121292114 0.59170621633529663 0.56212747097015381
0.94053226709365845 0.61273437738418579 0.58060038089752197
0.003580878721550107 0.48169878125190735 0.48279750347137451
0.0065045822411775589 0.53758174180984497 0.52430558204650879
0.0081380503252148628 0.6573072075843811 0.57776731252670288
0.56952351331710815 0.78342187404632568 0.60382354259490967
0.88226473331451416 0.83121716976165771 0.59046441316604614
0.97144871950149536 0.83762615919113159 0.59309405088424683
0.99265182018280029 0.84872138500213623 0.61887204647064209
0.01334832888096571 0.5458495020866394 0.52769142389297485
0.0072278492152690887 0.61854952573776245 0.57711654901504517
0.013680402189493179 0.72657626867294312 0.62357175350189209
0.58016926050186157 0.86535441875457764 0.64596879482269287
0.89333337545394897 0.91585284471511841 0.63592016696929932
0.98552578687667847 0.92082756757736206 0.63873475790023804
0.9991270899772644 0.93129044771194458 0.67887896299362183
0.0051601636223495007 0.61359626054763794 0.60669225454330444
0.0053326473571360111 0.68643045425415039 0.64523112773895264
0.020844373852014542 0.78667771816253662 0.68899893760681152
0.61084800958633423 0.89643949270248413 0.71286749839782715
0.88707894086837769 0.94107556343078613 0.70585083961486816
0.98852920532226562 0.95515620708465576 0.7134585976600647
0.9995880126953125 0.95441681146621704 0.7485622763633728
0.0039675245061516762 0.15261231362819672 0.32584100961685181
0.01474761962890625 0.11779771745204926 0.36737450957298279
0.14804521203041077 0.008333766832947731 0.47000423073768616
0.39033257961273193 0.006773585919290781 0.50620245933532715
0.56877356767654419 0.031039891764521599 0.52242040634155273
0.64668411016464233 0.012076014652848244 0.53347277641296387
0.68598824739456177 0.027163127437233925 0.55165368318557739
0.0039416742511093616 0.19027729332447052 0.36547869443893433
0.0073085110634565353 0.17913153767585754 0.40848186612129211
0.16278356313705444 0.024687763303518295 0.55173760652542114
0.44120001792907715 0.03333822637796402 0.58374488353729248
0.64911293983459473 0.0218392014503479 0.5939752459526062
0.72732532024383545 0.0069709778763353825 0.60776245594024658
0.76811587810516357 0.011410028673708439 0.62879770994186401
0.004538307897746563 0.27072569727897644 0.43028950691223145
0.0070325364358723164 0.27881067991256714 0.47270092368125916
0.088104367256164551 0.25529670715332031 0.61838173866271973
0.499502032995224 0.28661787509918213 0.68464159965515137
0.73425859212875366 0.25406369566917419 0.69036442041397095
0.82083964347839355 0.24004484713077545 0.69718080759048462
0.84922009706497192 0.28359583020210266 0.70896196365356445
0.01379705686122179 0.40904241800308228 0.52720433473587036
0.020167706534266472 0.446402907371521 0.57252496480941772
0.026021979749202728 0.50298535823822021 0.68465757369995117
0.53524762392044067 0.57565110921859741 0.7694661021232605
0.81364160776138306 0.60939443111419678 0.78173172473907471
0.90614908933639526 0.61322510242462158 0.78572720289230347
0.93507617712020874 0.63803374767303467 0.79471290111541748
0.012710152193903923 0.52971124649047852 0.60405117273330688
0.012817338109016418 0.57594072818756104 0.64902669191360474
0.0086529301479458809 0.68368130922317505 0.73854058980941772
0.53640687465667725 0.81456512212753296 0.82284009456634521
0.86128425598144531 0.86326402425765991 0.83656811714172363
0.96039152145385742 0.86388629674911499 0.83229422569274902
0.98651862144470215 0.87705183029174805 0.84197938442230225
0.02200712263584137 0.59342652559280396 0.65415745973587036
0.031201859936118126 0.65740454196929932 0.70633077621459961
0.015297908335924149 0.76102727651596069 0.78593379259109497
0.53408259153366089 0.89711868762969971 0.85642474889755249
0.86706662178039551 0.94237160682678223 0.84960895776748657
0.97196310758590698 0.95422130823135376 0.86185824871063232
0.9935297966003418 0.95385944843292236 0.86597591638565063
0.018495552241802216 0.64101803302764893 0.69809514284133911
0.0091530149802565575 0.71803748607635498 0.7634357213973999
0.015313885174691677 0.80666589736938477 0.83305752277374268
0.55334103107452393 0.91541659832000732 0.88220310211181641
0.86892789602279663 0.9650726318359375 0.88928681612014771
0.9673844575881958 0.97644078731536865 0.88818860054016113
0.99549317359924316 0.97945588827133179 0.89783251285552979
0.0052863773889839649 0.18240272998809814 0.36720839142799377
0.013840335421264172 0.16472128033638 0.40257591009140015
0.1513572484254837 0.0097359605133533478 0.54377216100692749
0.3784509003162384 0.0040541104972362518 0.5719946026802063
0.57972556352615356 0.04523366317152977 0.59655255079269409
0.65885287523269653 0.050825439393520355 0.60713762044906616
0.69750618934631348 0.031531047075986862 0.62664914131164551
0.0039319805800914764 0.22112539410591125 0.41414648294448853
0.003003288758918643 0.21431203186511993 0.45789054036140442
0.16108466684818268 0.029874000698328018 0.62451589107513428
0.44909951090812683 0.02024548128247261 0.67212826013565063
0.65708762407302856 0.010294611565768719 0.68675512075424194
0.73908215761184692 0.013931483961641788 0.69836145639419556
0.7789919376373291 0.037275217473506927 0.72066915035247803
0.00051119935233145952 0.30926564335823059 0.50241917371749878
0.011133665218949318 0.30991211533546448 0.55438518524169922
0.09027118980884552 0.28268846869468689 0.67407000064849854
0.5046989917755127 0.27269843220710754 0.76817029714584351
0.73097044229507446 0.25059661269187927 0.784251868724823
0.81922835111618042 0.23368304967880249 0.79062801599502563
0.85701793432235718 0.29372355341911316 0.81372427940368652
0.0076189525425434113 0.44172036647796631 0.59193694591522217
0.035078670829534531 0.47391811013221741 0.64289373159408569
0.019263472408056259 0.51763391494750977 0.76355195045471191
0.51991730928421021 0.59459394216537476 0.86625093221664429
0.80862021446228027 0.61953330039978027 0.88423341512680054
0.90144479274749756 0.62392807006835938 0.88193666934967041
0.935566246509552 0.65822625160217285 0.89838182926177979
0.01933644525706768 0.55722826719284058 0.66535192728042603
0.017706165090203285 0.60881417989730835 0.71718978881835938
0.037161823362112045 0.70674794912338257 0.81990641355514526
0.50882130861282349 0.81984144449234009 0.91893702745437622
0.85324156284332275 0.8675769567489624 0.9358752965927124
0.9546399712562561 0.87608581781387329 0.94345223903656006
0.98211264610290527 0.89091140031814575 0.94134056568145752
0.012240181677043438 0.61414724588394165 0.7057686448097229
0.024906173348426819 0.670512855052948 0.7544359564781189
0.024350827559828758 0.76771575212478638 0.84265613555908203
0.49018675088882446 0.90467733144760132 0.94485306739807129
0.8592522144317627 0.95171523094177246 0.95356833934783936
0.96159988641738892 0.96192032098770142 0.96013689041137695
0.98875099420547485 0.96521031856536865 0.96026182174682617
0.019321022555232048 0.65390473604202271 0.73992997407913208
0.021707138046622276 0.72936534881591797 0.8066747784614563
0.016731904819607735 0.81045401096343994 0.88037294149398804
0.54669982194900513 0.92658942937850952 0.9548105001449585
0.84768474102020264 0.96949422359466553 0.96302241086959839
0.95854443311691284 0.98294562101364136 0.96713018417358398
0.99135875701904297 0.98588091135025024 0.95994067192077637
0.00093249150086194277 0.19644074141979218 0.39146411418914795
0.00028435201966203749 0.18084080517292023 0.4289187490940094
0.16294576227664948 0.014914763160049915 0.60295045375823975
0.43241405487060547 0.004262079019099474 0.65389055013656616
0.61060053110122681 0.018764825537800789 0.65827351808547974
0.6958504319190979 0.032085493206977844 0.66439735889434814
0.72423070669174194 0.034540332853794098 0.67622178792953491
1.3643152669828851e-05 0.23878499865531921 0.43929114937782288
0.0066345212981104851 0.23649723827838898 0.47960826754570007
0.14175273478031158 0.099731743335723877 0.67219346761703491
0.46873745322227478 0.081736847758293152 0.7311021089553833
0.68245595693588257 0.03696034848690033 0.74825066328048706
0.76774019002914429 0.025146469473838806 0.75856488943099976
0.8029746413230896 0.053449906408786774 0.7730681300163269
3.7339155824156478e-05 0.32353472709655762 0.51884680986404419
0.0071340375579893589 0.32687491178512573 0.57225662469863892
0.070949941873550415 0.31096574664115906 0.70973449945449829
0.49719992280006409 0.32654011249542236 0.81394475698471069
0.7321961522102356 0.30055543780326843 0.82972127199172974
0.82236212491989136 0.30993515253067017 0.839111328125
0.86172068119049072 0.33827537298202515 0.84941238164901733
0.0024111729580909014 0.45384392142295837 0.61784267425537109
0.016349673271179199 0.48203161358833313 0.66351521015167236
0.015083732083439827 0.53357553482055664 0.77473890781402588
0.52047383785247803 0.60534894466400146 0.90103524923324585
0.8007206916809082 0.62794709205627441 0.91719752550125122
0.89460492134094238 0.61503511667251587 0.9183233380317688
0.93250727653503418 0.66223937273025513 0.93115746974945068
0.0085189072415232658 0.56151175498962402 0.68157589435577393
0.023228155449032784 0.61504489183425903 0.73552018404006958
0.016190936788916588 0.71053767204284668 0.8391149640083313
0.49222546815872192 0.82108938694000244 0.9510762095451355
0.84503966569900513 0.86884146928787231 0.97002249956130981
0.94782465696334839 0.87523752450942993 0.97429156303405762
0.97784900665283203 0.88820022344589233 0.97694307565689087
0.028851617127656937 0.61658370494842529 0.71789687871932983
0.011661185882985592 0.67536091804504395 0.77285158634185791
0.034123826771974564 0.77166450023651123 0.8617246150970459
0.47309628129005432 0.90258491039276123 0.96632784605026245
0.84937840700149536 0.95161831378936768 0.98431283235549927
0.95752829313278198 0.96297770738601685 0.98756390810012817
0.98862761259078979 0.97289454936981201 0.99097269773483276
0.0085636517032980919 0.67258000373840332 0.76623660326004028
0.012695088051259518 0.72768676280975342 0.81580662727355957
0.036301363259553909 0.81826192140579224 0.89866477251052856
0.52768236398696899 0.92679345607757568 0.97352498769760132
0.845603346824646 0.971294105052948 0.9854617714881897
0.94189047813415527 0.98283118009567261 0.98879033327102661
0.99151158332824707 0.9923895001411438 0.99296629428863525
