assets/lut/films negative color kodak elite color 200.cube
# Created by: G'MIC (https://gmic.eu)
TITLE "kodak_elite_color_200"
# LUT size
LUT_3D_SIZE 7
# Data domain
DOMAIN_MIN 0.0 0.0 0.0
DOMAIN_MAX 1.0 1.0 1.0
# LUT data points
0.024932067841291428 0.024241099134087563 0.026249829679727554
0.11914297193288803 0.025739677250385284 0.036202777177095413
0.23995198309421539 0.034115839749574661 0.043395757675170898
0.39084753394126892 0.046649858355522156 0.05393320694565773
0.58140164613723755 0.065292820334434509 0.071978971362113953
0.7774539589881897 0.095859065651893616 0.096554428339004517
0.95513361692428589 0.13820795714855194 0.12043166905641556
0.073456242680549622 0.11463074386119843 0.036150045692920685
0.13803021609783173 0.11637396365404129 0.039870139211416245
0.25437510013580322 0.12531283497810364 0.047417059540748596
0.40434539318084717 0.1397588849067688 0.056634414941072464
0.59604841470718384 0.15768706798553467 0.075017042458057404
0.78935015201568604 0.18857419490814209 0.10220060497522354
0.96310698986053467 0.22816175222396851 0.13475111126899719
0.12877283990383148 0.21956093609333038 0.046774830669164658
0.17234775424003601 0.22372335195541382 0.048874139785766602
0.28237244486808777 0.23038899898529053 0.055565569549798965
0.43650743365287781 0.24257129430770874 0.06652233749628067
0.62037700414657593 0.25795787572860718 0.087714537978172302
0.80383127927780151 0.29024931788444519 0.11255491524934769
0.97062844038009644 0.32744899392127991 0.14500764012336731
0.14423388242721558 0.35564365983009338 0.031515441834926605
0.19552117586135864 0.36008158326148987 0.036396235227584839
0.31302365660667419 0.36696729063987732 0.04005764052271843
0.47535255551338196 0.37577563524246216 0.048565119504928589
0.65389162302017212 0.38962787389755249 0.066016405820846558
0.82679980993270874 0.41120460629463196 0.088907934725284576
0.98009765148162842 0.43993932008743286 0.11473215371370316
0.19052593410015106 0.49629026651382446 0.0061045028269290924
0.25349134206771851 0.49821743369102478 0.0065264534205198288
0.37394428253173828 0.5028572678565979 0.0095836268737912178
0.53125786781311035 0.50967550277709961 0.016536189243197441
0.70148533582687378 0.51736611127853394 0.027641834691166878
0.86308342218399048 0.52768832445144653 0.043993093073368073
0.99266207218170166 0.54705160856246948 0.062484979629516602
0.30343848466873169 0.61723363399505615 0.0029622544534504414
0.36007145047187805 0.61660659313201904 0.0068031013943254948
0.46871668100357056 0.61537069082260132 0.0065965689718723297
0.60741251707077026 0.61772090196609497 0.0098927216604351997
0.76335620880126953 0.61933833360671997 0.011392346583306789
0.91154932975769043 0.62242448329925537 0.011642994359135628
1 0.63394618034362793 0.010875342413783073
0.45807743072509766 0.71566969156265259 0.0040324041619896889
0.49728637933731079 0.7151796817779541 0.020129574462771416
0.58031421899795532 0.71217983961105347 0.01673157699406147
0.69526869058609009 0.71204531192779541 0.015796631574630737
0.83074116706848145 0.71003967523574829 0.0091271195560693741
0.96151399612426758 0.7075379490852356 0.0042411652393639088
1 0.70755624771118164 0
0.032257828861474991 0.042395886033773422 0.13139468431472778
0.12821908295154572 0.05087706446647644 0.14205491542816162
0.2483314573764801 0.058142777532339096 0.15182429552078247
0.39957600831985474 0.067604586482048035 0.16596673429012299
0.58796203136444092 0.087382480502128601 0.1836249828338623
0.78045099973678589 0.11845213919878006 0.20793624222278595
0.95389515161514282 0.16283567249774933 0.22957061231136322
0.081049598753452301 0.13675893843173981 0.13547623157501221
0.14666973054409027 0.14186596870422363 0.14150057733058929
0.2570892870426178 0.1508423388004303 0.15209262073040009
0.40843597054481506 0.1623372882604599 0.16370722651481628
0.59989964962005615 0.17948147654533386 0.1811254620552063
0.79062366485595703 0.21078348159790039 0.2064482569694519
0.96106052398681641 0.25399115681648254 0.23473875224590302
0.1172017976641655 0.23998209834098816 0.13680638372898102
0.16791613399982452 0.24302233755588531 0.14130473136901855
0.28262078762054443 0.25114598870277405 0.15163353085517883
0.43655303120613098 0.26348698139190674 0.1624869704246521
0.62190079689025879 0.2826075553894043 0.18086627125740051
0.8048592209815979 0.31528788805007935 0.20670293271541595
0.96893393993377686 0.35641691088676453 0.23713657259941101
0.12354794889688492 0.37573444843292236 0.11089316010475159
0.18541994690895081 0.37732324004173279 0.11618785560131073
0.30756762623786926 0.38740658760070801 0.12590964138507843
0.47237595915794373 0.39710694551467896 0.13570921123027802
0.65466517210006714 0.4126342236995697 0.1526380330324173
0.82801198959350586 0.43883177638053894 0.17958797514438629
0.9790378212928772 0.4724331796169281 0.20871840417385101
0.17978624999523163 0.51620113849639893 0.06005777046084404
0.25083914399147034 0.51494103670120239 0.059732504189014435
0.37424793839454651 0.52139747142791748 0.067179739475250244
0.53310465812683105 0.530162513256073 0.076359286904335022
0.70360285043716431 0.53934395313262939 0.091701701283454895
0.86470723152160645 0.5562598705291748 0.12158749252557755
0.99205970764160156 0.58135426044464111 0.15313899517059326
0.31889662146568298 0.62489086389541626 0.010407421737909317
0.37287840247154236 0.62496435642242432 0.011044296436011791
0.47838336229324341 0.62476438283920288 0.013772103935480118
0.61498278379440308 0.62889212369918823 0.014875015243887901
0.76857525110244751 0.63435834646224976 0.022340184077620506
0.91691720485687256 0.64121460914611816 0.044503036886453629
0.99963611364364624 0.66056960821151733 0.064476534724235535
0.4809952974319458 0.70991343259811401 0
0.50985801219940186 0.71417456865310669 0.0053892694413661957
0.59478533267974854 0.70940351486206055 7.659314178454224e-06
0.70814532041549683 0.70899105072021484 0
0.83987134695053101 0.71070587635040283 1.4361213516167481e-06
0.96471643447875977 0.70835435390472412 0.0016643150011077523
1 0.70716708898544312 0
0.043083429336547852 0.073628291487693787 0.24583391845226288
0.13309532403945923 0.078502237796783447 0.25395706295967102
0.25697153806686401 0.083315633237361908 0.2665962278842926
0.41403478384017944 0.099478043615818024 0.28209275007247925
0.59946662187576294 0.12448841333389282 0.2981506884098053
0.78299665451049805 0.15583005547523499 0.32427003979682922
0.95179736614227295 0.19828164577484131 0.34979268908500671
0.091638974845409393 0.16312156617641449 0.25815680623054504
0.15138642489910126 0.16987016797065735 0.26427048444747925
0.26161620020866394 0.17870523035526276 0.27579262852668762
0.41992667317390442 0.19092941284179688 0.28948131203651428
0.60822057723999023 0.21068607270717621 0.30623605847358704
0.79190844297409058 0.24192476272583008 0.33032992482185364
0.95750910043716431 0.28660249710083008 0.35664677619934082
0.11374040693044662 0.26916277408599854 0.26639607548713684
0.16328096389770508 0.27322518825531006 0.27168768644332886
0.27836403250694275 0.28186362981796265 0.28208258748054504
0.4412531852722168 0.29149448871612549 0.29514202475547791
0.62564575672149658 0.31157529354095459 0.31370311975479126
0.80502378940582275 0.34242835640907288 0.33834770321846008
0.96522873640060425 0.38776755332946777 0.36717954277992249
0.11040737479925156 0.41075390577316284 0.2547207772731781
0.17497767508029938 0.41109570860862732 0.26202687621116638
0.30376270413398743 0.41947200894355774 0.27195802330970764
0.47287657856941223 0.42945897579193115 0.28317481279373169
0.65351557731628418 0.44575786590576172 0.30085837841033936
0.82631421089172363 0.4708312451839447 0.32930353283882141
0.97695386409759521 0.50645953416824341 0.3606560230255127
0.16322466731071472 0.55474209785461426 0.21101333200931549
0.2350199967622757 0.55691641569137573 0.21789351105690002
0.36380746960639954 0.56286686658859253 0.22871716320514679
0.5252845287322998 0.57341301441192627 0.23933081328868866
0.69445258378982544 0.58345621824264526 0.25490614771842957
0.85710519552230835 0.60020184516906738 0.29122406244277954
0.99017781019210815 0.62315446138381958 0.32975578308105469
0.30950087308883667 0.65923845767974854 0.11314317584037781
0.36448401212692261 0.66392993927001953 0.11514175683259964
0.46985140442848206 0.66474062204360962 0.13219784200191498
0.60551607608795166 0.67358124256134033 0.14589507877826691
0.75267815589904785 0.68290102481842041 0.15313193202018738
0.89671570062637329 0.69372636079788208 0.1889679878950119
0.99339914321899414 0.7124977707862854 0.22465971112251282
0.50475490093231201 0.71677941083908081 0
0.53591758012771606 0.72217261791229248 0.0002053653442999348
0.61452573537826538 0.71726995706558228 0.00040390912909060717
0.72451764345169067 0.71719920635223389 0.00094748102128505707
0.8463628888130188 0.72467249631881714 0.0033891715575009584
0.9684140682220459 0.71837455034255981 0.0063836788758635521
0.9988943338394165 0.72690421342849731 0.029426949098706245
0.051276788115501404 0.10476687550544739 0.38644698262214661
0.1382753849029541 0.10716335475444794 0.39206713438034058
0.26191237568855286 0.11573740839958191 0.40645596385002136
0.4216817319393158 0.13395786285400391 0.42513898015022278
0.60561424493789673 0.15615434944629669 0.44265618920326233
0.78617668151855469 0.19016218185424805 0.46451333165168762
0.95253968238830566 0.23530964553356171 0.48904258012771606
0.089521147310733795 0.1942548006772995 0.40893846750259399
0.15340016782283783 0.20026649534702301 0.41518124938011169
0.26684343814849854 0.20986451208591461 0.42958846688270569
0.42915475368499756 0.22310863435268402 0.44541266560554504
0.61442452669143677 0.24173633754253387 0.46159335970878601
0.79356813430786133 0.27380764484405518 0.48252388834953308
0.95590674877166748 0.3201124370098114 0.50717270374298096
0.11179047822952271 0.30577939748764038 0.43363022804260254
0.16430017352104187 0.31058827042579651 0.44061490893363953
0.28163653612136841 0.3158499002456665 0.45207476615905762
0.44835126399993896 0.3282943069934845 0.46525418758392334
0.62964910268783569 0.34604546427726746 0.48126232624053955
0.80364710092544556 0.37260615825653076 0.50179249048233032
0.95965886116027832 0.41954043507575989 0.52677750587463379
0.093834206461906433 0.45645573735237122 0.44629454612731934
0.16571426391601562 0.4569803774356842 0.45480385422706604
0.30241957306861877 0.45983856916427612 0.46330252289772034
0.47530964016914368 0.47198054194450378 0.47348347306251526
0.65194976329803467 0.48629274964332581 0.48810470104217529
0.82003307342529297 0.50748300552368164 0.51105308532714844
0.968822181224823 0.54310458898544312 0.53673923015594482
0.10705412179231644 0.61039227247238159 0.43965491652488708
0.19916237890720367 0.61301183700561523 0.44950443506240845
0.34656921029090881 0.61617118120193481 0.45485919713973999
0.5155104398727417 0.62620633840560913 0.46666434407234192
0.68366903066635132 0.63373911380767822 0.47896531224250793
0.84333533048629761 0.64791238307952881 0.50469070672988892
0.97998946905136108 0.67161959409713745 0.53226500749588013
0.25376901030540466 0.72738635540008545 0.38017523288726807
0.32152605056762695 0.72886574268341064 0.382435142993927
0.43957322835922241 0.7307249903678894 0.39490756392478943
0.58213335275650024 0.73943799734115601 0.41899055242538452
0.73294103145599365 0.7435840368270874 0.42742094397544861
0.87760907411575317 0.75447529554367065 0.45330071449279785
0.9921870231628418 0.77060163021087646 0.4897887110710144
0.49179941415786743 0.76539498567581177 0.10765369236469269
0.52826535701751709 0.76396113634109497 0.091430589556694031
0.60376149415969849 0.7653801441192627 0.11061824858188629
0.71365082263946533 0.7653232216835022 0.12486400455236435
0.83109152317047119 0.77225524187088013 0.13729465007781982
0.94931966066360474 0.78104609251022339 0.18201719224452972
1 0.80361878871917725 0.29246437549591064
0.059773270040750504 0.13835784792900085 0.54742807149887085
0.14533720910549164 0.14410953223705292 0.55179178714752197
0.26789358258247375 0.15735965967178345 0.56466567516326904
0.4311467707157135 0.16721172630786896 0.58054381608963013
0.61466240882873535 0.17951184511184692 0.59660822153091431
0.79068565368652344 0.21121707558631897 0.61383116245269775
0.95263230800628662 0.25616121292114258 0.63403999805450439
0.082315646111965179 0.22596947848796844 0.57857704162597656
0.15688040852546692 0.23210349678993225 0.58433806896209717
0.27699458599090576 0.24245022237300873 0.59558171033859253
0.44159042835235596 0.25242549180984497 0.60967040061950684
0.62347948551177979 0.26714372634887695 0.62361103296279907
0.79677653312683105 0.29657196998596191 0.63933736085891724
0.95343136787414551 0.34135299921035767 0.65929979085922241
0.10052870213985443 0.34000954031944275 0.61358249187469482
0.16648079454898834 0.34690636396408081 0.61877942085266113
0.29365965723991394 0.3504176139831543 0.62701016664505005
0.4619450569152832 0.3605315089225769 0.63905686140060425
0.6371651291847229 0.37872523069381714 0.65182352066040039
0.80376005172729492 0.40356141328811646 0.6647646427154541
0.95432817935943604 0.44466069340705872 0.68450289964675903
0.075154505670070648 0.49139019846916199 0.63734912872314453
0.1608249694108963 0.49749830365180969 0.6422584056854248
0.30893361568450928 0.49946194887161255 0.64950746297836304
0.48260843753814697 0.50965756177902222 0.65869307518005371
0.65380185842514038 0.52350568771362305 0.66751593351364136
0.81509411334991455 0.54165935516357422 0.68131071329116821
0.95901226997375488 0.57398778200149536 0.69946038722991943
0.063094764947891235 0.65733629465103149 0.65007060766220093
0.18161368370056152 0.66088306903839111 0.65056681632995605
0.34249392151832581 0.66156244277954102 0.65736454725265503
0.5134282112121582 0.66860270500183105 0.6671288013458252
0.67781198024749756 0.67741811275482178 0.67444288730621338
0.8312116265296936 0.68846654891967773 0.69144517183303833
0.96655821800231934 0.71171677112579346 0.7105710506439209
0.21417686343193054 0.7892569899559021 0.64593046903610229
0.29455775022506714 0.7895205020904541 0.64045184850692749
0.41991361975669861 0.7922852635383606 0.65081417560577393
0.56805258989334106 0.79527223110198975 0.65803563594818115
0.7181086540222168 0.80233728885650635 0.66943824291229248
0.85650604963302612 0.80933660268783569 0.68753951787948608
0.97953861951828003 0.82535815238952637 0.70453840494155884
0.43493098020553589 0.8586762547492981 0.49272844195365906
0.47947096824645996 0.85582667589187622 0.4853578507900238
0.55919367074966431 0.85657864809036255 0.48746362328529358
0.66886657476425171 0.85722124576568604 0.4946315586566925
0.78985613584518433 0.86183780431747437 0.51509964466094971
0.9123731255531311 0.86631733179092407 0.54211205244064331
0.99825239181518555 0.88559097051620483 0.60150700807571411
0.071488320827484131 0.17591702938079834 0.69514930248260498
0.16338112950325012 0.17625728249549866 0.69986230134963989
0.29163679480552673 0.18747858703136444 0.70903980731964111
0.45328608155250549 0.19241312146186829 0.72261959314346313
0.62971991300582886 0.19687627255916595 0.73781871795654297
0.79764074087142944 0.2217075377702713 0.75243407487869263
0.95343446731567383 0.26175406575202942 0.77004539966583252
0.096799395978450775 0.24560055136680603 0.73024183511734009
0.1795458197593689 0.24842719733715057 0.73447346687316895
0.30549457669258118 0.25838556885719299 0.74075651168823242
0.46719083189964294 0.26748782396316528 0.75165086984634399
0.64077925682067871 0.27925616502761841 0.76328748464584351
0.8051026463508606 0.30424144864082336 0.77457773685455322
0.95564359426498413 0.34639766812324524 0.79072111845016479
0.11498535424470901 0.36082044243812561 0.76693296432495117
0.19339454174041748 0.36545515060424805 0.76980727910995483
0.32343858480453491 0.36698636412620544 0.77285563945770264
0.48673665523529053 0.37572929263114929 0.78147560358047485
0.65563368797302246 0.390555739402771 0.79016852378845215
0.81287533044815063 0.41226634383201599 0.79618614912033081
0.95629346370697021 0.45260855555534363 0.81103760004043579
0.11793311685323715 0.51676911115646362 0.79281234741210938
0.19999155402183533 0.52211600542068481 0.79592216014862061
0.34045249223709106 0.52373731136322021 0.79989278316497803
0.50607484579086304 0.53220075368881226 0.80644136667251587
0.67094916105270386 0.54026615619659424 0.80961418151855469
0.82121390104293823 0.55708706378936768 0.81488251686096191
0.95758575201034546 0.59052097797393799 0.82867908477783203
0.14088231325149536 0.68766748905181885 0.81114357709884644
0.2295592725276947 0.69155967235565186 0.81335574388504028
0.37248045206069946 0.69342881441116333 0.81976240873336792
0.53288626670837402 0.6997215747833252 0.82351928949356079
0.68886315822601318 0.70464032888412476 0.82559370994567871
0.83154213428497314 0.71565240621566772 0.83353543281555176
0.9610094428062439 0.73934292793273926 0.84672003984451294
0.26035588979721069 0.83203613758087158 0.8210909366607666
0.32476124167442322 0.83391714096069336 0.82802224159240723
0.43649095296859741 0.83480179309844971 0.83634001016616821
0.57741677761077881 0.83791685104370117 0.83578133583068848
0.71838080883026123 0.84358447790145874 0.84217178821563721
0.84980267286300659 0.84852010011672974 0.85225975513458252
0.97224664688110352 0.86254334449768066 0.86239802837371826
0.43630218505859375 0.92909425497055054 0.76027363538742065
0.4700203537940979 0.93026256561279297 0.77364635467529297
0.5412527322769165 0.92965000867843628 0.77852159738540649
0.65122419595718384 0.93031007051467896 0.78210693597793579
0.76980531215667725 0.93268215656280518 0.79215985536575317
0.88661271333694458 0.93438506126403809 0.8055042028427124
0.9910627007484436 0.94601678848266602 0.83164167404174805
0.11056581139564514 0.20937968790531158 0.82939094305038452
0.20616415143013 0.19898422062397003 0.8327944278717041
0.33286988735198975 0.21352863311767578 0.83955287933349609
0.48613426089286804 0.21617689728736877 0.8508104681968689
0.65011084079742432 0.21762935817241669 0.86420542001724243
0.80956321954727173 0.23552992939949036 0.87870782613754272
0.96019947528839111 0.27022063732147217 0.89740538597106934
0.16382922232151031 0.24829769134521484 0.85695773363113403
0.24017533659934998 0.24940228462219238 0.86036902666091919
0.3572939932346344 0.2656170129776001 0.86488759517669678
0.50658398866653442 0.27802386879920959 0.87287336587905884
0.6666991114616394 0.28932651877403259 0.88218265771865845
0.82047903537750244 0.31105023622512817 0.89196658134460449
0.9646340012550354 0.35149937868118286 0.90934288501739502
0.20683203637599945 0.35596171021461487 0.88690656423568726
0.27228856086730957 0.36118599772453308 0.89009577035903931
0.38411596417427063 0.36582893133163452 0.89117169380187988
0.53129053115844727 0.37713101506233215 0.89613097906112671
0.68692457675933838 0.39146047830581665 0.90118646621704102
0.83156454563140869 0.41250723600387573 0.90526074171066284
0.96708112955093384 0.45509859919548035 0.92125862836837769
0.22752250730991364 0.51956272125244141 0.91539990901947021
0.2945924699306488 0.52405273914337158 0.9168505072593689
0.40923681855201721 0.52740085124969482 0.91750109195709229
0.55438083410263062 0.53467118740081787 0.92015331983566284
0.70481675863265991 0.54065901041030884 0.92091333866119385
0.84014749526977539 0.5606691837310791 0.92343074083328247
0.96721237897872925 0.59768104553222656 0.93818908929824829
0.26465407013893127 0.70051831007003784 0.9391600489616394
0.33162105083465576 0.70254760980606079 0.9379420280456543
0.44505694508552551 0.70532804727554321 0.9385828971862793
0.58204233646392822 0.71063977479934692 0.93993598222732544
0.71959441900253296 0.71361273527145386 0.9408307671546936
0.84732085466384888 0.72636014223098755 0.94286501407623291
0.96740883588790894 0.75368845462799072 0.9555467963218689
0.36019375920295715 0.85797905921936035 0.9592515230178833
0.41267934441566467 0.85691541433334351 0.95290261507034302
0.50390321016311646 0.85839003324508667 0.95726555585861206
0.62372457981109619 0.86091578006744385 0.95664769411087036
0.74339348077774048 0.86374729871749878 0.96124261617660522
0.86029964685440063 0.86763811111450195 0.96400851011276245
0.9734991192817688 0.88110005855560303 0.97384363412857056
0.49329906702041626 0.97677314281463623 0.95908313989639282
0.52108258008956909 0.97495865821838379 0.95439571142196655
0.58271753787994385 0.973621666431427 0.95404261350631714
0.68166512250900269 0.97316282987594604 0.94855755567550659
0.78495943546295166 0.97450125217437744 0.95525717735290527
0.8853076696395874 0.9771798849105835 0.97110551595687866
0.98470538854598999 0.98365533351898193 0.98193967342376709
