assets/lut/films print fuji 3510 cuspclip.cube
# Created by: G'MIC (https://gmic.eu)
TITLE "fuji_3510_cuspclip"
# LUT size
LUT_3D_SIZE 5
# Data domain
DOMAIN_MIN 0.0 0.0 0.0
DOMAIN_MAX 1.0 1.0 1.0
# LUT data points
0.016034742817282677 0.016715001314878464 0.015014722943305969
0.07576809823513031 0.038219064474105835 0.021211257204413414
0.32915559411048889 0.033375907689332962 0.0089784804731607437
0.53991937637329102 0.016475588083267212 0
0.60858708620071411 0.024108348414301872 0
0.0039755729958415031 0.11086446791887283 0.055176857858896255
0.094669520854949951 0.13895510137081146 0.048862695693969727
0.41112527251243591 0.18414841592311859 0.0034308789763599634
0.65203744173049927 0.20183883607387543 1.1848001122416463e-05
0.71999508142471313 0.21915270388126373 0.0025728861801326275
0.0072933570481836796 0.34792947769165039 0.14880985021591187
0.027877703309059143 0.35556486248970032 0.046167995780706406
0.48826220631599426 0.44238972663879395 0.0010763130849227309
0.7700616717338562 0.49480363726615906 0.019372858107089996
0.83261531591415405 0.51361954212188721 0.030776198953390121
0.020098548382520676 0.55202925205230713 0.2430223673582077
0.0020778132602572441 0.57493668794631958 0.1263987272977829
0.57811909914016724 0.69972831010818481 0.00076593138510361314
0.8686903715133667 0.74382710456848145 0.050155907869338989
0.93303334712982178 0.76231992244720459 0.063799761235713959
0.022739440202713013 0.62125015258789062 0.29387474060058594
0.064453423023223877 0.65454310178756714 0.063217893242835999
0.65326809883117676 0.78091490268707275 0.010923662222921848
0.92375040054321289 0.82889461517333984 0.061978239566087723
0.98249465227127075 0.83706653118133545 0.075214728713035583
0.022508673369884491 0.031071621924638748 0.10461921244859695
0.096080243587493896 0.050828326493501663 0.10125638544559479
0.38246336579322815 0.013433029875159264 0.092084847390651703
0.59252393245697021 0.0058725844137370586 0.092653952538967133
0.66607975959777832 0 0.085747785866260529
0.0074309553019702435 0.15532004833221436 0.15507838129997253
0.084268413484096527 0.15018726885318756 0.14881038665771484
0.4667033851146698 0.18306338787078857 0.13291135430335999
0.71483838558197021 0.14292635023593903 0.081794634461402893
0.78820157051086426 0.15676653385162354 0.087054327130317688
0.014332879334688187 0.43679091334342957 0.3145853579044342
0.023103093728423119 0.41443830728530884 0.21805450320243835
0.56469708681106567 0.48144140839576721 0.11850720643997192
0.86048173904418945 0.51186668872833252 0.056705206632614136
0.92124158143997192 0.52466112375259399 0.048753160983324051
0.026351405307650566 0.61065632104873657 0.38988089561462402
0.012206971645355225 0.6430475115776062 0.32447269558906555
0.61156648397445679 0.75471025705337524 0.074549071490764618
0.939827561378479 0.80946558713912964 0.050949200987815857
0.99398237466812134 0.82123589515686035 0.10743774473667145
0.026063522323966026 0.69213223457336426 0.51712357997894287
0.020118787884712219 0.72912979125976562 0.43752139806747437
0.62045276165008545 0.83038961887359619 0.36611479520797729
0.96320748329162598 0.88554686307907104 0.3029094934463501
1 0.89197856187820435 0.37523233890533447
0.0034657197538763285 0.077181138098239899 0.32890433073043823
0.10249002277851105 0.014922617003321648 0.33731493353843689
0.40053996443748474 0.0026537426747381687 0.36937180161476135
0.63053655624389648 0.00049157236935570836 0.39087307453155518
0.70031523704528809 0 0.40195053815841675
0.0024840112309902906 0.26664584875106812 0.44109022617340088
0.04329579696059227 0.20619839429855347 0.44017615914344788
0.49356764554977417 0.21270366013050079 0.47614014148712158
0.74591612815856934 0.1323091983795166 0.47121652960777283
0.80755579471588135 0.17240104079246521 0.46316707134246826
0.014993525110185146 0.53542113304138184 0.58820915222167969
0.011475791223347187 0.52799659967422485 0.58483207225799561
0.55033004283905029 0.55898666381835938 0.55699265003204346
0.8644866943359375 0.58111631870269775 0.56741917133331299
0.92975670099258423 0.59559673070907593 0.56246984004974365
0.0058860480785369873 0.69449836015701294 0.67459994554519653
0.006372115109115839 0.74017953872680664 0.68128973245620728
0.5469135046005249 0.8325304388999939 0.6324087381362915
0.93920350074768066 0.88909655809402466 0.63490301370620728
0.99563068151473999 0.88267022371292114 0.62057983875274658
0.0090176751837134361 0.75036942958831787 0.7420470118522644
0.005970001220703125 0.80279511213302612 0.75652563571929932
0.56422752141952515 0.89208203554153442 0.74920409917831421
0.93747943639755249 0.94933992624282837 0.75434142351150513
0.99818462133407593 0.95454365015029907 0.75585281848907471
0.0041025648824870586 0.23489290475845337 0.52340394258499146
0.10671857744455338 0.022682489827275276 0.53641790151596069
0.42283850908279419 0.0031976138707250357 0.57981240749359131
0.65298593044281006 0 0.60432928800582886
0.72705674171447754 0.001959572546184063 0.61803960800170898
0.00029195149545557797 0.36427751183509827 0.62928187847137451
0.022446336224675179 0.28748968243598938 0.65188562870025635
0.48890087008476257 0.19125176966190338 0.70370781421661377
0.75783312320709229 0.15085932612419128 0.72738051414489746
0.82242453098297119 0.1718239039182663 0.74390512704849243
0.019429778680205345 0.566153883934021 0.73481518030166626
0.025600971654057503 0.5757983922958374 0.77419531345367432
0.51354527473449707 0.59298723936080933 0.82749664783477783
0.85974258184432983 0.60890597105026245 0.8491174578666687
0.93006199598312378 0.63981515169143677 0.86135125160217285
0.021758854389190674 0.73126578330993652 0.81330519914627075
0.026894453912973404 0.77562963962554932 0.84914332628250122
0.47694787383079529 0.87996768951416016 0.90890645980834961
0.92259222269058228 0.92552000284194946 0.90649616718292236
0.98972046375274658 0.93215620517730713 0.91234678030014038
0.036685165017843246 0.76292330026626587 0.84007257223129272
0.023822963237762451 0.82377982139587402 0.88489961624145508
0.51268237829208374 0.92278790473937988 0.93166172504425049
0.9138106107711792 0.97648453712463379 0.94110214710235596
0.99448156356811523 0.98766911029815674 0.95250445604324341
0.00047411452396772802 0.30493038892745972 0.60355770587921143
0.083942592144012451 0.07606690376996994 0.6230781078338623
0.45240968465805054 0.0057109608314931393 0.69555485248565674
0.7003474235534668 0.0044408161193132401 0.71171814203262329
0.76162892580032349 0.013718189671635628 0.7233472466468811
0 0.39388176798820496 0.67581480741500854
0.005516441073268652 0.33267620205879211 0.71367031335830688
0.47456681728363037 0.24631768465042114 0.7908446192741394
0.76542162895202637 0.21077394485473633 0.81584501266479492
0.84196776151657104 0.259552001953125 0.83324652910232544
0.0057036308571696281 0.56922620534896851 0.7623479962348938
0.013194948434829712 0.59029805660247803 0.81412118673324585
0.49405843019485474 0.60297214984893799 0.89920264482498169
0.8554685115814209 0.62460803985595703 0.91781353950500488
0.93117862939834595 0.65844106674194336 0.93044584989547729
0.019917761906981468 0.736522376537323 0.84069263935089111
0.029427217319607735 0.77661424875259399 0.87541407346725464
0.44072866439819336 0.88395088911056519 0.9590333104133606
0.91117244958877563 0.93787652254104614 0.98312699794769287
0.9850277304649353 0.94543451070785522 0.98532426357269287
0.022844277322292328 0.76890784502029419 0.85809326171875
0.022622846066951752 0.82266783714294434 0.90203654766082764
0.46971073746681213 0.92626851797103882 0.96950250864028931
0.9066956639289856 0.98467481136322021 0.98723745346069336
0.98769265413284302 0.99482911825180054 0.9937482476234436
