assets/lut/films colorslide kodak e-100 gx ektachrome 100.cube
# Created by: G'MIC (https://gmic.eu)
TITLE "kodak_e-100_gx_ektachrome_100"
# LUT size
LUT_3D_SIZE 7
# Data domain
DOMAIN_MIN 0.0 0.0 0.0
DOMAIN_MAX 1.0 1.0 1.0
# LUT data points
0.028569689020514488 0.029592057690024376 0.028447559103369713
0.12595906853675842 0.013674029149115086 0.015735790133476257
0.25965067744255066 0.0084491055458784103 0.0075389486737549305
0.40675845742225647 0.00075297633884474635 0.0020167331676930189
0.55268549919128418 0 0
0.69017738103866577 0 0
0.8153347373008728 0 0
0.11382526904344559 0.16842660307884216 0.080231264233589172
0.18349160254001617 0.15310291945934296 0.07046382874250412
0.30826342105865479 0.13597333431243896 0.060467738658189774
0.45163583755493164 0.097771696746349335 0.04854990541934967
0.58799630403518677 0.048950720578432083 0.020731279626488686
0.71517479419708252 0.0054449792951345444 0.0020140854176133871
0.83202743530273438 0 0
0.179317906498909 0.33743715286254883 0.14874765276908875
0.24814838171005249 0.33317309617996216 0.14199064671993256
0.36978891491889954 0.31557127833366394 0.12511678040027618
0.50718009471893311 0.28315496444702148 0.1130022257566452
0.63839977979660034 0.22482657432556152 0.09119001030921936
0.75926125049591064 0.13484616577625275 0.063020341098308563
0.86386042833328247 0.043068680912256241 0.033923998475074768
0.28187686204910278 0.51932907104492188 0.21796593070030212
0.34049490094184875 0.51737368106842041 0.2142912894487381
0.44635805487632751 0.50617796182632446 0.20276463031768799
0.57161122560501099 0.49070799350738525 0.19413849711418152
0.69885420799255371 0.45877006649971008 0.17646102607250214
0.82325267791748047 0.40132936835289001 0.15687365829944611
0.92055612802505493 0.286661297082901 0.1261657178401947
0.41954129934310913 0.68908852338790894 0.29784822463989258
0.45482146739959717 0.6890941858291626 0.29669880867004395
0.53069818019866943 0.68337351083755493 0.29541662335395813
0.64095103740692139 0.6730802059173584 0.28505271673202515
0.75586730241775513 0.65864408016204834 0.27152052521705627
0.87298375368118286 0.62937414646148682 0.25401049852371216
0.9766460657119751 0.57313930988311768 0.22818441689014435
0.55705690383911133 0.83585584163665771 0.3993188738822937
0.58037835359573364 0.83829653263092041 0.39068281650543213
0.6360173225402832 0.83446478843688965 0.39362943172454834
0.72084277868270874 0.8299332857131958 0.38737261295318604
0.81462991237640381 0.82526201009750366 0.37489122152328491
0.91781044006347656 0.81039577722549438 0.36612275242805481
0.99867862462997437 0.77651560306549072 0.34790521860122681
0.70177853107452393 0.97087174654006958 0.51196765899658203
0.71702361106872559 0.97306913137435913 0.50266468524932861
0.75597834587097168 0.97047883272171021 0.50752389430999756
0.81708747148513794 0.97161829471588135 0.49939903616905212
0.89136999845504761 0.9725414514541626 0.48550978302955627
0.97050565481185913 0.96807873249053955 0.48504003882408142
0.99918657541275024 0.95705282688140869 0.47521871328353882
0.022210199385881424 0.030867572873830795 0.12768739461898804
0.11404493451118469 0.018760127946734428 0.11726922541856766
0.24629493057727814 0.017311993986368179 0.10033898800611496
0.39451196789741516 0.0046887118369340897 0.083734385669231415
0.55191659927368164 0.00065629248274490237 0.063760153949260712
0.69568777084350586 4.1288487409474328e-05 0.037751201540231705
0.8236926794052124 0 0.016167763620615005
0.094334639608860016 0.17618994414806366 0.18228857219219208
0.17050960659980774 0.16392944753170013 0.17402006685733795
0.29630911350250244 0.14307785034179688 0.1617901474237442
0.43981024622917175 0.10391091555356979 0.14674858748912811
0.58150190114974976 0.05808156356215477 0.1227521076798439
0.71181184053421021 0.018219681456685066 0.09428444504737854
0.82955068349838257 0.0021858664695173502 0.066641852259635925
0.15137597918510437 0.3465707004070282 0.24637883901596069
0.22903284430503845 0.34109598398208618 0.23799480497837067
0.35837548971176147 0.32322362065315247 0.22377198934555054
0.49877795577049255 0.29139482975006104 0.20895537734031677
0.63163846731185913 0.23475855588912964 0.18761000037193298
0.75194215774536133 0.14537942409515381 0.16421522200107574
0.8563382625579834 0.067775368690490723 0.13765361905097961
0.26034802198410034 0.52436548471450806 0.31014707684516907
0.32271212339401245 0.52218055725097656 0.30437421798706055
0.43599045276641846 0.51142627000808716 0.29384669661521912
0.56344437599182129 0.49508208036422729 0.28328463435173035
0.6917957067489624 0.46629005670547485 0.26762881875038147
0.81603586673736572 0.40798738598823547 0.24671608209609985
0.91113102436065674 0.29498249292373657 0.22339971363544464
0.39664176106452942 0.69111615419387817 0.38403409719467163
0.43977794051170349 0.69126647710800171 0.37822860479354858
0.52258408069610596 0.68533062934875488 0.37475693225860596
0.63201028108596802 0.67601120471954346 0.36749920248985291
0.74807697534561157 0.6612781286239624 0.3573225736618042
0.86554133892059326 0.63008743524551392 0.34002715349197388
0.96687978506088257 0.5725712776184082 0.31850197911262512
0.53954958915710449 0.83753591775894165 0.47168374061584473
0.56629312038421631 0.84010571241378784 0.45953285694122314
0.62496697902679443 0.836506187915802 0.46094870567321777
0.7100372314453125 0.8320426344871521 0.45662561058998108
0.80557799339294434 0.8267320990562439 0.44399622082710266
0.9108770489692688 0.81297963857650757 0.43494150042533875
0.99618172645568848 0.78177696466445923 0.42438644170761108
0.69002431631088257 0.97204446792602539 0.57235896587371826
0.70663344860076904 0.97411835193634033 0.56071823835372925
0.74578166007995605 0.97232699394226074 0.5628703236579895
0.80631065368652344 0.97279864549636841 0.55812174081802368
0.87972831726074219 0.97362887859344482 0.54390043020248413
0.96209001541137695 0.96991318464279175 0.54017025232315063
1 0.95529967546463013 0.53667646646499634
0.019897595047950745 0.040995083749294281 0.2506561279296875
0.10230937600135803 0.029778739437460899 0.24199622869491577
0.23311939835548401 0.017342660576105118 0.23002734780311584
0.38372728228569031 0.0047209346666932106 0.21508502960205078
0.54151397943496704 0.0027205673977732658 0.19668190181255341
0.68802809715270996 0.0032785004004836082 0.1765444278717041
0.81952756643295288 0.0023872375022619963 0.15521687269210815
0.079125724732875824 0.1860162615776062 0.30800256133079529
0.1524689644575119 0.17555578052997589 0.3044857382774353
0.28132718801498413 0.15249459445476532 0.29330426454544067
0.42756932973861694 0.11441104114055634 0.2767699658870697
0.57071530818939209 0.069048531353473663 0.25650683045387268
0.70189797878265381 0.021628690883517265 0.23264020681381226
0.81986045837402344 7.180606644396903e-06 0.20789410173892975
0.1116262674331665 0.35453695058822632 0.37039393186569214
0.19589000940322876 0.35000938177108765 0.36700552701950073
0.33936178684234619 0.3356378972530365 0.35796073079109192
0.48360991477966309 0.30309957265853882 0.34119608998298645
0.61900824308395386 0.24752037227153778 0.32218146324157715
0.74036651849746704 0.15719766914844513 0.29901608824729919
0.84118062257766724 0.058955501765012741 0.27164581418037415
0.22072476148605347 0.52738511562347412 0.43107619881629944
0.29480484127998352 0.52553516626358032 0.42861387133598328
0.41506335139274597 0.51884883642196655 0.4221988320350647
0.54588079452514648 0.50231963396072388 0.41276419162750244
0.67738115787506104 0.47934079170227051 0.39883339405059814
0.80414849519729614 0.42110773921012878 0.3786984384059906
0.89676660299301147 0.29852598905563354 0.35356283187866211
0.36178529262542725 0.69031429290771484 0.49754613637924194
0.41528046131134033 0.69139117002487183 0.49470916390419006
0.50466668605804443 0.68705320358276367 0.49055978655815125
0.61374825239181519 0.67961865663528442 0.48448538780212402
0.72999453544616699 0.66813582181930542 0.47661581635475159
0.85128813982009888 0.64076900482177734 0.4612371027469635
0.95394515991210938 0.57782763242721558 0.44265949726104736
0.51787710189819336 0.83594328165054321 0.57027626037597656
0.55118054151535034 0.83775657415390015 0.5643729567527771
0.61190438270568848 0.83577811717987061 0.56225824356079102
0.69528591632843018 0.83318418264389038 0.55794936418533325
0.79056245088577271 0.8305124044418335 0.54928773641586304
0.89818006753921509 0.81710314750671387 0.53904628753662109
0.99375420808792114 0.7804725170135498 0.52739006280899048
0.68110638856887817 0.96956926584243774 0.65341407060623169
0.70066797733306885 0.97079980373382568 0.64755433797836304
0.73882406949996948 0.9699782133102417 0.6482272744178772
0.79702877998352051 0.97233301401138306 0.64356517791748047
0.86907166242599487 0.97535067796707153 0.63474911451339722
0.95216387510299683 0.97240275144577026 0.6275056004524231
1 0.95431351661682129 0.62018853425979614
0.0067825019359588623 0.055954832583665848 0.39099356532096863
0.085657872259616852 0.042499959468841553 0.38344025611877441
0.21445855498313904 0.024821307510137558 0.37255308032035828
0.36568552255630493 0.0093264263123273849 0.35794991254806519
0.51944518089294434 0.00040785846067592502 0.34213671088218689
0.66647076606750488 0 0.32787626981735229
0.80071568489074707 0.00018727919086813927 0.31082329154014587
0.049504224210977554 0.20595245063304901 0.45083114504814148
0.11852485686540604 0.1933743953704834 0.44574892520904541
0.25692865252494812 0.16956846415996552 0.43455535173416138
0.40910777449607849 0.13470654189586639 0.41669768095016479
0.55129599571228027 0.074280276894569397 0.39851120114326477
0.68122929334640503 0.012096509337425232 0.37900340557098389
0.80066949129104614 0 0.3582339882850647
0.08731783926486969 0.36664602160453796 0.50857728719711304
0.1438496857881546 0.36528632044792175 0.50553697347640991
0.30415037274360657 0.34903055429458618 0.49550890922546387
0.46226507425308228 0.32047799229621887 0.47903192043304443
0.60195016860961914 0.26208776235580444 0.46122050285339355
0.72304677963256836 0.16491034626960754 0.4395107626914978
0.82097595930099487 0.044398333877325058 0.4134986400604248
0.16866324841976166 0.53591418266296387 0.56458860635757446
0.24739940464496613 0.53423625230789185 0.56300199031829834
0.37953591346740723 0.52876430749893188 0.55644923448562622
0.52259957790374756 0.51505535840988159 0.54618966579437256
0.65955674648284912 0.48785850405693054 0.53258341550827026
0.7873539924621582 0.42717432975769043 0.51491802930831909
0.88375651836395264 0.30969697237014771 0.4905693531036377
0.30874249339103699 0.69609123468399048 0.62366563081741333
0.37033596634864807 0.69686108827590942 0.62473142147064209
0.47205707430839539 0.69368255138397217 0.61796075105667114
0.59012508392333984 0.68659335374832153 0.60983806848526001
0.71108072996139526 0.67214614152908325 0.60250258445739746
0.83789253234863281 0.64426231384277344 0.58945673704147339
0.94360148906707764 0.58314341306686401 0.57022678852081299
0.48485216498374939 0.83982360363006592 0.68212211132049561
0.52134245634078979 0.84114229679107666 0.67920994758605957
0.58757740259170532 0.83946901559829712 0.67532455921173096
0.67592954635620117 0.83657693862915039 0.6701667308807373
0.77421563863754272 0.83411645889282227 0.66484910249710083
0.88206011056900024 0.82169169187545776 0.6558225154876709
0.98300516605377197 0.7856026291847229 0.64189672470092773
0.66776823997497559 0.97010719776153564 0.74870526790618896
0.68599998950958252 0.97130900621414185 0.74515783786773682
0.72488987445831299 0.97083574533462524 0.74397933483123779
0.78543710708618164 0.971568763256073 0.7415652871131897
0.85672104358673096 0.97542726993560791 0.73767614364624023
0.93678981065750122 0.97556811571121216 0.73059433698654175
0.99969053268432617 0.95898675918579102 0.7196083664894104
0.0012052498059347272 0.065080739557743073 0.53593605756759644
0.060717098414897919 0.057036381214857101 0.52804780006408691
0.18339183926582336 0.040710508823394775 0.51601344347000122
0.33918869495391846 0.018105031922459602 0.50058221817016602
0.49674078822135925 0.0012277939822524786 0.48719871044158936
0.64546710252761841 0 0.47485706210136414
0.78238141536712646 4.0450751839671284e-05 0.4571804404258728
0.019314514473080635 0.22715769708156586 0.59411364793777466
0.084337599575519562 0.21595838665962219 0.58700436353683472
0.22203674912452698 0.19325214624404907 0.57788288593292236
0.38434728980064392 0.15800820291042328 0.56138795614242554
0.53233176469802856 0.094739295542240143 0.54409754276275635
0.66359049081802368 0.022054485976696014 0.52499687671661377
0.78339403867721558 0 0.50160765647888184
0.038940548896789551 0.3849281370639801 0.64619642496109009
0.10605824738740921 0.38060212135314941 0.64126217365264893
0.26781648397445679 0.36502918601036072 0.63379496335983276
0.43931287527084351 0.34213733673095703 0.61873137950897217
0.58437037467956543 0.29327899217605591 0.60006946325302124
0.70981693267822266 0.19567565619945526 0.57998073101043701
0.80889254808425903 0.062400832772254944 0.5520210862159729
0.096731580793857574 0.55061179399490356 0.69628119468688965
0.17631931602954865 0.55023598670959473 0.69220620393753052
0.33267372846603394 0.54121804237365723 0.6882513165473938
0.49732765555381775 0.52909624576568604 0.67578577995300293
0.64098596572875977 0.504111647605896 0.66089522838592529
0.77375656366348267 0.45229044556617737 0.6474224328994751
0.87812346220016479 0.34858965873718262 0.62542897462844849
0.23385517299175262 0.70855683088302612 0.7507660984992981
0.30773156881332397 0.70932835340499878 0.74869364500045776
0.42770510911941528 0.70549887418746948 0.74268424510955811
0.56197100877761841 0.69794559478759766 0.73240625858306885
0.69256258010864258 0.68344694375991821 0.72226399183273315
0.8234260082244873 0.65894782543182373 0.7118370532989502
0.93455153703689575 0.60045671463012695 0.69411557912826538
0.44024688005447388 0.85058009624481201 0.79743075370788574
0.47873586416244507 0.85119462013244629 0.79339063167572021
0.55262160301208496 0.84929519891738892 0.78832334280014038
0.65085363388061523 0.84577304124832153 0.78205502033233643
0.75623017549514771 0.84064400196075439 0.77694880962371826
0.86702072620391846 0.82825618982315063 0.77013635635375977
0.96831023693084717 0.79535818099975586 0.75629830360412598
0.6429436206817627 0.97643423080444336 0.85314500331878662
0.65993082523345947 0.97662341594696045 0.84784984588623047
0.70185810327529907 0.97569054365158081 0.84415233135223389
0.76917660236358643 0.9744303822517395 0.84114032983779907
0.84268742799758911 0.97583174705505371 0.84119391441345215
0.92287665605545044 0.97675943374633789 0.83625465631484985
0.99640297889709473 0.96539753675460815 0.82267314195632935
0.00079706229735165834 0.1012079119682312 0.67600804567337036
0.032120991498231888 0.08683612197637558 0.66867673397064209
0.14284425973892212 0.06220245361328125 0.64735239744186401
0.31079983711242676 0.033110465854406357 0.62782520055770874
0.47804895043373108 0.0064850300550460815 0.61667335033416748
0.62987005710601807 3.5903033221984515e-06 0.60219484567642212
0.76677471399307251 0 0.5769389271736145
0.002217655535787344 0.25768977403640747 0.72914469242095947
0.039832156151533127 0.24621869623661041 0.72472310066223145
0.17104132473468781 0.22731824219226837 0.71273553371429443
0.358277827501297 0.19055169820785522 0.69352239370346069
0.51766443252563477 0.12667667865753174 0.681316077709198
0.65353554487228394 0.05106658861041069 0.65816903114318848
0.77248519659042358 5.3854550060350448e-05 0.62460100650787354
0.001393680926412344 0.40677055716514587 0.77231001853942871
0.048821780830621719 0.40519210696220398 0.76950228214263916
0.20959964394569397 0.3926030695438385 0.76349020004272461
0.40973728895187378 0.37227654457092285 0.74800246953964233
0.56635755300521851 0.33356738090515137 0.73730194568634033
0.70022118091583252 0.24041950702667236 0.71375495195388794
0.80326753854751587 0.093585550785064697 0.67579561471939087
0.026433069258928299 0.56681245565414429 0.81863492727279663
0.097046509385108948 0.56630969047546387 0.81433874368667603
0.263325035572052 0.55847424268722534 0.80860638618469238
0.46065318584442139 0.54753011465072632 0.79583477973937988
0.6160733699798584 0.52555185556411743 0.78490674495697021
0.7583116888999939 0.48698863387107849 0.77642852067947388
0.86858993768692017 0.37355878949165344 0.74617093801498413
0.13748803734779358 0.72025096416473389 0.87313878536224365
0.23780597746372223 0.72019356489181519 0.86911559104919434
0.37255370616912842 0.71869772672653198 0.86361634731292725
0.52377498149871826 0.71165043115615845 0.8553316593170166
0.66241860389709473 0.6974184513092041 0.84475493431091309
0.80148255825042725 0.6757931113243103 0.83350288867950439
0.92105245590209961 0.61477631330490112 0.80832493305206299
0.38155445456504822 0.85895490646362305 0.9067918062210083
0.43285030126571655 0.85805273056030273 0.90646332502365112
0.51217412948608398 0.85893195867538452 0.90468680858612061
0.61631947755813599 0.85789531469345093 0.89718329906463623
0.72709977626800537 0.85298317670822144 0.89013981819152832
0.84715092182159424 0.83892500400543213 0.88470232486724854
0.9570280909538269 0.80723822116851807 0.86982029676437378
0.60867929458618164 0.97886133193969727 0.95572733879089355
0.63239061832427979 0.97683823108673096 0.95155543088912964
0.66884422302246094 0.97683823108673096 0.94807267189025879
0.73918366432189941 0.97683823108673096 0.94231343269348145
0.81847637891769409 0.97867816686630249 0.94282835721969604
0.90678936243057251 0.97851014137268066 0.94032567739486694
0.99445295333862305 0.96803772449493408 0.92382097244262695
0 0.12277598679065704 0.76421618461608887
0.011602289974689484 0.11607685685157776 0.77000302076339722
0.11349056661128998 0.078562267124652863 0.74297505617141724
0.28901281952857971 0.052983377128839493 0.72326892614364624
0.46254318952560425 0.026823021471500397 0.71423459053039551
0.61832267045974731 0.010533366352319717 0.69887298345565796
0.75893276929855347 0.0013358471915125847 0.67211723327636719
0 0.287008136510849 0.82598912715911865
0.0038178388494998217 0.28212693333625793 0.83032816648483276
0.13238723576068878 0.25619038939476013 0.80892652273178101
0.33672946691513062 0.22225992381572723 0.78599971532821655
0.50280392169952393 0.16365979611873627 0.77800655364990234
0.64437997341156006 0.087788604199886322 0.7533382773399353
0.76688462495803833 0.0081801172345876694 0.71703433990478516
0 0.43532243371009827 0.86129814386367798
0.0052429498173296452 0.43356946110725403 0.86269426345825195
0.15481731295585632 0.41729480028152466 0.84765529632568359
0.37937629222869873 0.39448890089988708 0.83036959171295166
0.54720556735992432 0.36341217160224915 0.83154302835464478
0.69100207090377808 0.2736642062664032 0.79954534769058228
0.79903435707092285 0.12294565886259079 0.75969678163528442
0.004267329815775156 0.5852774977684021 0.89736074209213257
0.033155836164951324 0.58297920227050781 0.89370870590209961
0.18753066658973694 0.57343780994415283 0.88488787412643433
0.41658493876457214 0.5621829628944397 0.87698233127593994
0.5918160080909729 0.54879027605056763 0.87492412328720093
0.74356710910797119 0.50706237554550171 0.85419553518295288
0.86024922132492065 0.3943665623664856 0.8194388747215271
0.097058616578578949 0.7289164662361145 0.94612038135528564
0.17244045436382294 0.7296680212020874 0.93839472532272339
0.31083515286445618 0.72801262140274048 0.94015717506408691
0.48252618312835693 0.72252184152603149 0.93512064218521118
0.63674747943878174 0.71337366104125977 0.92621785402297974
0.78201234340667725 0.68885791301727295 0.91052556037902832
0.90507584810256958 0.62644481658935547 0.88178342580795288
0.32750165462493896 0.85973209142684937 0.97411155700683594
0.38152626156806946 0.86256951093673706 0.96965062618255615
0.46779671311378479 0.86274319887161255 0.98042207956314087
0.58366274833679199 0.86326140165328979 0.97084176540374756
0.70743811130523682 0.8621220588684082 0.95785832405090332
0.83268457651138306 0.8490680456161499 0.94767606258392334
0.94167476892471313 0.82067495584487915 0.94096881151199341
0.58379626274108887 0.97699499130249023 0.99880343675613403
0.6016121506690979 0.97932010889053345 0.99985313415527344
0.63531649112701416 0.97975462675094604 1
0.70833057165145874 0.98098486661911011 0.99977576732635498
0.80047780275344849 0.98269116878509521 0.99812835454940796
0.89425367116928101 0.98205113410949707 0.99396336078643799
0.98627805709838867 0.97568118572235107 0.99039071798324585
