assets/lut/films colorslide kodak elite chrome 200.cube
# Created by: G'MIC (https://gmic.eu)
TITLE "kodak_elite_chrome_200"
# LUT size
LUT_3D_SIZE 7
# Data domain
DOMAIN_MIN 0.0 0.0 0.0
DOMAIN_MAX 1.0 1.0 1.0
# LUT data points
0.025812067091464996 0.024270674213767052 0.022653810679912567
0.11675439029932022 0.014545290730893612 0.0087575875222682953
0.25405409932136536 0.0055178920738399029 0.0012908187927678227
0.41415128111839294 0.0010726031614467502 0
0.58062458038330078 0 0
0.74271994829177856 0 0
0.89668989181518555 0 0
0.10721588134765625 0.16944636404514313 0.075624965131282806
0.17547926306724548 0.15863776206970215 0.06186327338218689
0.31526291370391846 0.13567496836185455 0.040750749409198761
0.47284379601478577 0.10929429531097412 0.012991512194275856
0.62419396638870239 0.065874435007572174 0.0035162982530891895
0.76986128091812134 0.028601402416825294 0
0.90562158823013306 0.0013331843074411154 0
0.16752980649471283 0.35433486104011536 0.14714714884757996
0.2499832957983017 0.34643664956092834 0.13217991590499878
0.39122548699378967 0.32929658889770508 0.10593650490045547
0.54876971244812012 0.30710595846176147 0.075872249901294708
0.69844514131546021 0.26792189478874207 0.048967532813549042
0.8333086371421814 0.20215696096420288 0.023840855807065964
0.94138103723526001 0.11710939556360245 0.011243917047977448
0.27041620016098022 0.54331696033477783 0.21147137880325317
0.34809976816177368 0.54082518815994263 0.20084431767463684
0.47683843970298767 0.5301513671875 0.1787828654050827
0.62712216377258301 0.51720398664474487 0.15480607748031616
0.77648437023162842 0.4981960654258728 0.1247020959854126
0.91604840755462646 0.45742547512054443 0.096859276294708252
0.98613065481185913 0.39632612466812134 0.078400000929832458
0.41082042455673218 0.71296852827072144 0.27138644456863403
0.47198712825775146 0.71089720726013184 0.26743459701538086
0.57618588209152222 0.70306956768035889 0.24661414325237274
0.70612716674804688 0.69452261924743652 0.2227935791015625
0.84244883060455322 0.68383187055587769 0.1986670196056366
0.97263479232788086 0.66325503587722778 0.17545193433761597
1 0.62868708372116089 0.15502816438674927
0.54846072196960449 0.85875552892684937 0.3266863226890564
0.60007637739181519 0.85547095537185669 0.32118058204650879
0.68308985233306885 0.84940630197525024 0.30421009659767151
0.79102879762649536 0.84310495853424072 0.28586247563362122
0.91040194034576416 0.83578890562057495 0.26663663983345032
0.99912071228027344 0.82478690147399902 0.25018519163131714
1 0.80204057693481445 0.23299513757228851
0.6851649284362793 0.98815757036209106 0.36968827247619629
0.73340904712677002 0.98502343893051147 0.35801327228546143
0.7998734712600708 0.98188602924346924 0.35013982653617859
0.8876500129699707 0.97821599245071411 0.3424232006072998
0.98519116640090942 0.97367352247238159 0.33051818609237671
1 0.96936166286468506 0.31702971458435059
1 0.95708960294723511 0.30535140633583069
0.013516145758330822 0.02222931757569313 0.10168839991092682
0.09602278470993042 0.0093561206012964249 0.087546572089195251
0.23434649407863617 0.0053141424432396889 0.057611741125583649
0.39574334025382996 0.003115425817668438 0.03357531875371933
0.5583532452583313 0.00014271456166170537 0.011973167769610882
0.71109366416931152 0 0.00088134466204792261
0.85923689603805542 0 0
0.075315795838832855 0.15817147493362427 0.1658889502286911
0.15249603986740112 0.14775523543357849 0.14681960642337799
0.29040083289146423 0.12430247664451599 0.12164860218763351
0.44693085551261902 0.10145320743322372 0.08769148588180542
0.59647178649902344 0.064582109451293945 0.056712310761213303
0.73128557205200195 0.021825812757015228 0.019295396283268929
0.8639829158782959 0.00027211508131586015 0.0069251717068254948
0.1248687282204628 0.35213276743888855 0.23307448625564575
0.216042160987854 0.34218659996986389 0.21977353096008301
0.36128696799278259 0.32412010431289673 0.19373181462287903
0.51960784196853638 0.30212166905403137 0.16035887598991394
0.66824913024902344 0.26188048720359802 0.12900601327419281
0.80172485113143921 0.20378802716732025 0.093208849430084229
0.91532045602798462 0.12850441038608551 0.069000810384750366
0.22339253127574921 0.54466694593429565 0.29920852184295654
0.3094431459903717 0.54052293300628662 0.2919766902923584
0.447165846824646 0.53052550554275513 0.2693990170955658
0.6007344126701355 0.51864355802536011 0.24200357496738434
0.75060701370239258 0.49969857931137085 0.21542456746101379
0.89112025499343872 0.46763280034065247 0.1864432692527771
0.98489654064178467 0.40406951308250427 0.15772314369678497
0.37776085734367371 0.71485012769699097 0.35616716742515564
0.43770486116409302 0.71143525838851929 0.35697850584983826
0.54337149858474731 0.70560586452484131 0.34064054489135742
0.67643165588378906 0.69856685400009155 0.31695181131362915
0.81668221950531006 0.68928045034408569 0.29385989904403687
0.94952958822250366 0.66966944932937622 0.27323663234710693
0.99909895658493042 0.62938153743743896 0.24563348293304443
0.5215032696723938 0.8576698899269104 0.4125206470489502
0.56829261779785156 0.85512548685073853 0.4106103777885437
0.64505672454833984 0.85225421190261841 0.40301951766014099
0.75603121519088745 0.84811711311340332 0.38481312990188599
0.88239216804504395 0.8415495753288269 0.36323931813240051
0.99316120147705078 0.82895553112030029 0.34822759032249451
1 0.80504065752029419 0.32961860299110413
0.66059452295303345 0.98579239845275879 0.46059548854827881
0.70224732160568237 0.98361635208129883 0.4493841826915741
0.76204198598861694 0.98335307836532593 0.44856530427932739
0.85182833671569824 0.98179358243942261 0.44031631946563721
0.95992928743362427 0.9779161810874939 0.42335459589958191
1 0.9725080132484436 0.41138401627540588
1 0.96092677116394043 0.40114536881446838
0.0063385008834302425 0.016043120995163918 0.21880258619785309
0.057478573173284531 0.014068080112338066 0.20078684389591217
0.19280360639095306 0.0033143286127597094 0.17492114007472992
0.36084243655204773 0.0026850532740354538 0.13841329514980316
0.52326405048370361 4.308364077587612e-05 0.10797049105167389
0.67520666122436523 2.3336971935350448e-05 0.07689628005027771
0.82306760549545288 0.00021839515829924494 0.04993826150894165
0.059943839907646179 0.15183351933956146 0.27818280458450317
0.12411847710609436 0.13732430338859558 0.26531097292900085
0.24805530905723572 0.11084458231925964 0.24206726253032684
0.4050079882144928 0.085091747343540192 0.20684535801410675
0.5542755126953125 0.045122664421796799 0.17182973027229309
0.68996149301528931 0.01037153322249651 0.12851352989673615
0.8192906379699707 0 0.096966281533241272
0.076504647731781006 0.34516984224319458 0.34917598962783813
0.16447347402572632 0.33719632029533386 0.34210839867591858
0.31654304265975952 0.31770193576812744 0.31902423501014709
0.47629377245903015 0.29003497958183289 0.28779381513595581
0.62203758955001831 0.24541470408439636 0.25548073649406433
0.75210905075073242 0.18645672500133514 0.21708618104457855
0.86348658800125122 0.091193631291389465 0.17894105613231659
0.15226265788078308 0.53910988569259644 0.42037338018417358
0.24657861888408661 0.53727394342422485 0.41651558876037598
0.40035548806190491 0.52855020761489868 0.39712244272232056
0.55548655986785889 0.51398402452468872 0.37164551019668579
0.70136523246765137 0.49019688367843628 0.34570324420928955
0.84248071908950806 0.45615851879119873 0.31783643364906311
0.95852869749069214 0.38546749949455261 0.28245675563812256
0.30551305413246155 0.70876646041870117 0.47911682724952698
0.37954837083816528 0.70973604917526245 0.48015496134757996
0.49343526363372803 0.70592743158340454 0.46833926439285278
0.62921160459518433 0.69735902547836304 0.44691711664199829
0.76786082983016968 0.6851574182510376 0.42532610893249512
0.90474843978881836 0.6664239764213562 0.4057706892490387
0.9985923171043396 0.62466669082641602 0.37680652737617493
0.46588709950447083 0.85482674837112427 0.53057265281677246
0.51551324129104614 0.85652649402618408 0.53374397754669189
0.59249973297119141 0.85593652725219727 0.53167742490768433
0.7077333927154541 0.85143023729324341 0.51168185472488403
0.83441275358200073 0.84387260675430298 0.49055206775665283
0.95647150278091431 0.83227711915969849 0.47356435656547546
1 0.80665445327758789 0.4505692720413208
0.62114417552947998 0.9851449728012085 0.5776369571685791
0.65665519237518311 0.98622483015060425 0.57552516460418701
0.71369469165802002 0.98729425668716431 0.57464754581451416
0.80535358190536499 0.98606389760971069 0.56207484006881714
0.91432082653045654 0.98157793283462524 0.54376745223999023
0.99872684478759766 0.97497951984405518 0.52853977680206299
1 0.96527290344238281 0.51470237970352173
0.001636071247048676 0.0056823729537427425 0.3419189453125
0.041214782744646072 0.0069496901705861092 0.32612258195877075
0.15471765398979187 0.0030144187621772289 0.30329015851020813
0.31558388471603394 0.0012263878015801311 0.27391406893730164
0.47851738333702087 0.00026668474311009049 0.24748162925243378
0.63196420669555664 0.002646023640409112 0.2198074609041214
0.77692902088165283 0.0032271142117679119 0.19227738678455353
0.052144352346658707 0.13026152551174164 0.40659838914871216
0.094220556318759918 0.11890151351690292 0.39352890849113464
0.20276585221290588 0.094018109142780304 0.37003204226493835
0.35723182559013367 0.06745041161775589 0.33781352639198303
0.50881922245025635 0.039406195282936096 0.30689826607704163
0.64571964740753174 0.010072446428239346 0.27099418640136719
0.77174121141433716 0 0.23428352177143097
0.04849591851234436 0.32615542411804199 0.48074418306350708
0.11450686305761337 0.32129055261611938 0.47243595123291016
0.26843529939651489 0.29836022853851318 0.44953739643096924
0.42789697647094727 0.26878321170806885 0.41956865787506104
0.57440978288650513 0.23153258860111237 0.38865318894386292
0.70295208692550659 0.17552462220191956 0.35199454426765442
0.81347620487213135 0.088301114737987518 0.30959418416023254
0.080229021608829498 0.53342896699905396 0.55229336023330688
0.18480437994003296 0.53242462873458862 0.54794895648956299
0.35198113322257996 0.52064692974090576 0.5303109884262085
0.50776845216751099 0.50637805461883545 0.50675684213638306
0.65298151969909668 0.48381522297859192 0.47965416312217712
0.78981995582580566 0.44822725653648376 0.44950360059738159
0.90456229448318481 0.37603160738945007 0.41151022911071777
0.22934933006763458 0.70814257860183716 0.61085283756256104
0.31511914730072021 0.70970165729522705 0.61125200986862183
0.44149261713027954 0.70490747690200806 0.60043138265609741
0.58052593469619751 0.69556248188018799 0.58072519302368164
0.71839940547943115 0.68134969472885132 0.55734682083129883
0.85437405109405518 0.66383689641952515 0.53364443778991699
0.97270596027374268 0.62143468856811523 0.50240695476531982
0.39789760112762451 0.85860562324523926 0.6593097448348999
0.45661845803260803 0.86043369770050049 0.66246235370635986
0.54528570175170898 0.8596845269203186 0.65767449140548706
0.66073864698410034 0.85481554269790649 0.64108610153198242
0.7861284613609314 0.84675222635269165 0.62030196189880371
0.91173166036605835 0.83514785766601562 0.59975779056549072
0.99965822696685791 0.80831581354141235 0.57406854629516602
0.56362593173980713 0.98905426263809204 0.70306330919265747
0.60434097051620483 0.99066561460494995 0.70400083065032959
0.66772156953811646 0.9919087290763855 0.70142513513565063
0.75977855920791626 0.99124646186828613 0.68918192386627197
0.86819338798522949 0.98831415176391602 0.67205131053924561
0.97883176803588867 0.98353177309036255 0.65470224618911743
1 0.97173440456390381 0.63597327470779419
0 0 0.45996427536010742
0.016390347853302956 0.000213623046875 0.45115154981613159
0.12076427787542343 0.0045325187966227531 0.43474030494689941
0.27936407923698425 0.0099116908386349678 0.40974250435829163
0.44167336821556091 0.010498735122382641 0.38477131724357605
0.58678781986236572 0.00037280810647644103 0.35663262009620667
0.71932101249694824 0 0.32582452893257141
0.016432160511612892 0.098835840821266174 0.5251043438911438
0.051057435572147369 0.084198549389839172 0.51439422369003296
0.15418481826782227 0.069047532975673676 0.49283495545387268
0.31629997491836548 0.051184620708227158 0.46346890926361084
0.46804401278495789 0.034487210214138031 0.43467658758163452
0.59754800796508789 0.0023918601218611002 0.40045085549354553
0.71506106853485107 0 0.36193498969078064
0.024629734456539154 0.30106326937675476 0.5975683331489563
0.099768981337547302 0.29028943181037903 0.58741128444671631
0.22583761811256409 0.26538738608360291 0.56639456748962402
0.38419118523597717 0.23832526803016663 0.53930425643920898
0.52856796979904175 0.20392231643199921 0.50870656967163086
0.64963209629058838 0.13976041972637177 0.47118347883224487
0.75152158737182617 0.042543165385723114 0.42553058266639709
0.055256292223930359 0.52281254529953003 0.66961568593978882
0.15625087916851044 0.5208895206451416 0.66371339559555054
0.30605629086494446 0.50694233179092407 0.64799284934997559
0.46521416306495667 0.49302887916564941 0.62684577703475952
0.60774558782577515 0.46171891689300537 0.59901440143585205
0.73824912309646606 0.41983559727668762 0.5674101710319519
0.84940385818481445 0.34372630715370178 0.52696770429611206
0.17986878752708435 0.70946383476257324 0.73118031024932861
0.26732176542282104 0.70881438255310059 0.72935128211975098
0.39673087000846863 0.69992399215698242 0.71839624643325806
0.53902649879455566 0.69164973497390747 0.70064264535903931
0.67591410875320435 0.67412012815475464 0.6774977445602417
0.80900317430496216 0.65463131666183472 0.65205287933349609
0.92996364831924438 0.6105504035949707 0.61853134632110596
0.34496521949768066 0.86383563280105591 0.78061139583587646
0.40812590718269348 0.86409056186676025 0.78083711862564087
0.50342392921447754 0.86167675256729126 0.77422231435775757
0.62058264017105103 0.85743111371994019 0.76013356447219849
0.74437624216079712 0.84849441051483154 0.74079567193984985
0.87070274353027344 0.83490109443664551 0.719338059425354
0.98753535747528076 0.80664032697677612 0.69222772121429443
0.51414841413497925 0.99255663156509399 0.82369673252105713
0.55728268623352051 0.99324536323547363 0.82377451658248901
0.62632465362548828 0.99402886629104614 0.81953912973403931
0.71988558769226074 0.99449187517166138 0.8095242977142334
0.82776600122451782 0.99329346418380737 0.79485273361206055
0.9422793984413147 0.98936235904693604 0.77713465690612793
1 0.97655457258224487 0.75600320100784302
0 0 0.56665700674057007
0.0059189591556787491 0 0.56247353553771973
0.10283356904983521 0.00084415508899837732 0.55276286602020264
0.25456470251083374 0.0037351869978010654 0.52985924482345581
0.41168448328971863 0.006151924841105938 0.50481158494949341
0.54217708110809326 0 0.47062274813652039
0.66188520193099976 0 0.43500146269798279
0.0026493447367101908 0.048579871654510498 0.62818855047225952
0.034092098474502563 0.042615540325641632 0.61968451738357544
0.13171525299549103 0.038770068436861038 0.60173612833023071
0.28560361266136169 0.025458855554461479 0.57483816146850586
0.42831942439079285 0.0080473804846405983 0.54517394304275513
0.54975908994674683 0 0.50918924808502197
0.66345643997192383 0 0.47176378965377808
0.031586918979883194 0.25523760914802551 0.69885289669036865
0.081984452903270721 0.24564379453659058 0.69015377759933472
0.19522882997989655 0.22297118604183197 0.6697765588760376
0.34990859031677246 0.19681172072887421 0.64320451021194458
0.48348414897918701 0.15088221430778503 0.61073547601699829
0.59863263368606567 0.084585763514041901 0.57419437170028687
0.70473188161849976 0.017415992915630341 0.53379595279693604
0.065680377185344696 0.49693942070007324 0.77163493633270264
0.14028626680374146 0.49503004550933838 0.76616847515106201
0.27728378772735596 0.48029002547264099 0.75056701898574829
0.43437635898590088 0.46562424302101135 0.73009288311004639
0.56995648145675659 0.42583343386650085 0.70253103971481323
0.69420599937438965 0.38256603479385376 0.67270749807357788
0.80336058139801025 0.30769333243370056 0.63271278142929077
0.16962620615959167 0.70166391134262085 0.83643567562103271
0.24735748767852783 0.69849801063537598 0.83264696598052979
0.36996102333068848 0.68712449073791504 0.82154268026351929
0.51014167070388794 0.68024748563766479 0.80578422546386719
0.64167207479476929 0.66115105152130127 0.78549015522003174
0.77122944593429565 0.64130455255508423 0.76107984781265259
0.89333301782608032 0.59936964511871338 0.72825992107391357
0.32598558068275452 0.86222094297409058 0.88858813047409058
0.38244515657424927 0.86039561033248901 0.88660126924514771
0.47602823376655579 0.85676664113998413 0.87902361154556274
0.59065449237823486 0.85438108444213867 0.86733508110046387
0.70971643924713135 0.84587711095809937 0.85151886940002441
0.83235841989517212 0.83140301704406738 0.8309217095375061
0.95554476976394653 0.80154621601104736 0.80393117666244507
0.49001273512840271 0.99204879999160767 0.93316972255706787
0.52533513307571411 0.99225175380706787 0.93285268545150757
0.59569787979125977 0.99398064613342285 0.9283602237701416
0.68827909231185913 0.9955030083656311 0.92016315460205078
0.79208499193191528 0.99467122554779053 0.90830940008163452
0.9037359356880188 0.99158883094787598 0.89248085021972656
0.99839180707931519 0.97969138622283936 0.87143832445144653
0 0 0.66172605752944946
0.0069601768627762794 0 0.65609085559844971
0.098510310053825378 0 0.6461566686630249
0.23140080273151398 0 0.62749546766281128
0.37133404612541199 0 0.60194176435470581
0.49520742893218994 0 0.56856667995452881
0.61261969804763794 0 0.53516918420791626
0.00097787892445921898 0.0026478487998247147 0.71703660488128662
0.033041276037693024 0.0014605652540922165 0.70759224891662598
0.12498214095830917 0.0035533381160348654 0.69401925802230835
0.25757595896720886 0.0012066561030223966 0.6709589958190918
0.38616085052490234 0 0.63923513889312744
0.50406181812286377 0 0.60464811325073242
0.6204645037651062 0 0.57231330871582031
0.034607905894517899 0.18032608926296234 0.7834397554397583
0.076439693570137024 0.1737326979637146 0.77479773759841919
0.18122325837612152 0.16982845962047577 0.75908666849136353
0.31931665539741516 0.14504359662532806 0.73389160633087158
0.43691292405128479 0.07188764214515686 0.69654726982116699
0.54911535978317261 0.017925173044204712 0.66193652153015137
0.65871894359588623 0.00020117666281294078 0.62840420007705688
0.082442082464694977 0.4495905339717865 0.85951310396194458
0.14470788836479187 0.44145837426185608 0.85301560163497925
0.26641243696212769 0.43069666624069214 0.83867871761322021
0.41111749410629272 0.41333216428756714 0.81795662641525269
0.54017359018325806 0.37203392386436462 0.79034227132797241
0.6471179723739624 0.29973545670509338 0.75620031356811523
0.74418336153030396 0.20609678328037262 0.71599709987640381
0.18925279378890991 0.6715923547744751 0.92776668071746826
0.25360453128814697 0.66597950458526611 0.92262125015258789
0.36204439401626587 0.65674835443496704 0.91173708438873291
0.4917747974395752 0.64826864004135132 0.89712047576904297
0.6174854040145874 0.62986552715301514 0.87793952226638794
0.73413819074630737 0.59311091899871826 0.85221511125564575
0.84609454870223999 0.53882932662963867 0.82021838426589966
0.33548709750175476 0.84474855661392212 0.98345780372619629
0.38262221217155457 0.84166276454925537 0.98056596517562866
0.46644270420074463 0.8383747935295105 0.97306936979293823
0.57233506441116333 0.83488869667053223 0.96311533451080322
0.6825944185256958 0.82467746734619141 0.94944167137145996
0.79599642753601074 0.80726480484008789 0.93060493469238281
0.91289001703262329 0.77552324533462524 0.90564155578613281
0.48277390003204346 0.98507225513458252 1
0.51592189073562622 0.9859158992767334 1
0.58177059888839722 0.98861712217330933 0.99989873170852661
0.66845989227294922 0.99017137289047241 0.99947798252105713
0.76495015621185303 0.98919951915740967 0.9976356029510498
0.86960494518280029 0.98609167337417603 0.99219971895217896
0.97906208038330078 0.97550910711288452 0.9789963960647583
