assets/lut/films colorslide kodak ektachrome 100 vs generic.cube
# Created by: G'MIC (https://gmic.eu)
TITLE "kodak_ektachrome_100_vs_generic"
# LUT size
LUT_3D_SIZE 7
# Data domain
DOMAIN_MIN 0.0 0.0 0.0
DOMAIN_MAX 1.0 1.0 1.0
# LUT data points
0.028517585247755051 0.022298716008663177 0.022355098277330399
0.16551201045513153 0.016256429255008698 0.01654561422765255
0.36567166447639465 0.0087624192237854004 0.011597262695431709
0.618602454662323 0.0045073865912854671 0.010213037021458149
0.89336514472961426 0.0069464440457522869 0.0099428212270140648
1 0.012303161434829235 0.0097897695377469063
0.99937808513641357 0.0150349335744977 0.012337389402091503
0.055297926068305969 0.13375140726566315 0.034669328480958939
0.14209973812103271 0.13011077046394348 0.032876767218112946
0.35472327470779419 0.11624981462955475 0.027977902442216873
0.60604828596115112 0.10161358863115311 0.022397927939891815
0.87040489912033081 0.092665866017341614 0.018763508647680283
1 0.09300396591424942 0.016864312812685966
1 0.10910464823246002 0.019083030521869659
0.041404321789741516 0.3072935938835144 0.067265845835208893
0.089295767247676849 0.30610716342926025 0.063950739800930023
0.3329416811466217 0.29329726099967957 0.059410590678453445
0.58707195520401001 0.28392338752746582 0.05139242485165596
0.84587430953979492 0.27618968486785889 0.043520368635654449
0.99409866333007812 0.26445469260215759 0.040175493806600571
0.9995499849319458 0.26645225286483765 0.039233069866895676
0.00097626331262290478 0.52589237689971924 0.096018396317958832
0.021504420787096024 0.51923185586929321 0.090124867856502533
0.26058852672576904 0.50984948873519897 0.091581441462039948
0.56273633241653442 0.50678515434265137 0.086173206567764282
0.80708414316177368 0.49810498952865601 0.077339202165603638
0.97209841012954712 0.48703652620315552 0.072756759822368622
0.99922382831573486 0.48274868726730347 0.06897454708814621
0 0.72795265913009644 0.069586552679538727
0 0.72529000043869019 0.083507776260375977
0.10982692986726761 0.72267824411392212 0.093733862042427063
0.50110751390457153 0.71427625417709351 0.078078672289848328
0.76507681608200073 0.70400118827819824 0.076833851635456085
0.95668148994445801 0.69478845596313477 0.080223232507705688
0.9999469518661499 0.69353562593460083 0.081415481865406036
0 0.88481205701828003 0.060581028461456299
0.00028800216387026012 0.88675022125244141 0.066791936755180359
0.15003557503223419 0.88291573524475098 0.062723897397518158
0.48917272686958313 0.8732990026473999 0.038278002291917801
0.7358890175819397 0.86505985260009766 0.038753136992454529
0.91068631410598755 0.86147409677505493 0.052821602672338486
1 0.85472965240478516 0.065822035074234009
0.00060170493088662624 0.99435508251190186 0.11167416721582413
0.038301117718219757 0.99817937612533569 0.086639568209648132
0.21460556983947754 0.99846172332763672 0.07173493504524231
0.47864091396331787 0.99745911359786987 0.062209770083427429
0.6924247145652771 0.99751549959182739 0.072981737554073334
0.8911440372467041 0.99509614706039429 0.082689173519611359
0.99984323978424072 0.9892238974571228 0.077988132834434509
0.027990378439426422 0.023813076317310333 0.11864224821329117
0.16249111294746399 0.020577030256390572 0.11328837275505066
0.36077472567558289 0.011945612728595734 0.10814239084720612
0.61235356330871582 0.0056014866568148136 0.10065771639347076
0.8857530951499939 0.006371187511831522 0.091460675001144409
1 0.010027657262980938 0.084775559604167938
0.99950331449508667 0.012963822111487389 0.087839119136333466
0.054630056023597717 0.13481959700584412 0.13300211727619171
0.14525453746318817 0.13058537244796753 0.12877899408340454
0.34861922264099121 0.1182258129119873 0.12249751389026642
0.59880465269088745 0.10467459261417389 0.11513222754001617
0.86838966608047485 0.094149313867092133 0.10720527172088623
1 0.09108193963766098 0.099385596811771393
0.99937301874160767 0.097404569387435913 0.10067472606897354
0.037329759448766708 0.30986624956130981 0.1536872535943985
0.079727068543434143 0.30535393953323364 0.14903697371482849
0.32873991131782532 0.29191115498542786 0.14147688448429108
0.58420628309249878 0.28583630919456482 0.13548329472541809
0.84911149740219116 0.27167946100234985 0.13020497560501099
0.99786961078643799 0.25946471095085144 0.1217443123459816
0.99977225065231323 0.25745466351509094 0.11930851638317108
0.00023881500237621367 0.52625685930252075 0.17264798283576965
0.017274221405386925 0.52065694332122803 0.17112670838832855
0.26631799340248108 0.50979495048522949 0.16224618256092072
0.56188106536865234 0.5046459436416626 0.15349440276622772
0.8085024356842041 0.49673250317573547 0.14767862856388092
0.98234975337982178 0.48581460118293762 0.14295525848865509
1 0.48014628887176514 0.14493767917156219
0 0.73063689470291138 0.16547779738903046
0 0.72592437267303467 0.17826962471008301
0.15990015864372253 0.72066694498062134 0.17693233489990234
0.50848478078842163 0.7133786678314209 0.16195212304592133
0.76297956705093384 0.70490914583206177 0.15029992163181305
0.95568645000457764 0.69673031568527222 0.14511796832084656
1 0.69186317920684814 0.15379412472248077
0 0.88904917240142822 0.17751052975654602
0.00037039961898699403 0.88817256689071655 0.18031707406044006
0.15654730796813965 0.88255739212036133 0.17987751960754395
0.48109769821166992 0.87069469690322876 0.16711951792240143
0.73336434364318848 0.86439710855484009 0.15056677162647247
0.91480284929275513 0.86204272508621216 0.14812995493412018
1 0.85203647613525391 0.15697327256202698
0 0.99832868576049805 0.21841686964035034
0.017851751297712326 0.99926471710205078 0.1995454728603363
0.20273986458778381 0.99845904111862183 0.19794701039791107
0.47711914777755737 0.99611765146255493 0.19615323841571808
0.69689929485321045 0.99659627676010132 0.19083130359649658
0.88511067628860474 0.99574774503707886 0.18551740050315857
1 0.98648941516876221 0.18431578576564789
0.026201989501714706 0.023976629599928856 0.26460990309715271
0.16189345717430115 0.021897155791521072 0.26246345043182373
0.36032983660697937 0.014186754822731018 0.26017513871192932
0.61007702350616455 0.0059000053443014622 0.25404855608940125
0.87753832340240479 0.0039525199681520462 0.24845598638057709
1 0.0050930846482515335 0.23762190341949463
0.99414026737213135 0.0083676660433411598 0.23280827701091766
0.054904758930206299 0.13285376131534576 0.28483641147613525
0.15211987495422363 0.12870423495769501 0.27969309687614441
0.35026729106903076 0.1187346950173378 0.27234455943107605
0.60164898633956909 0.10398849844932556 0.26988005638122559
0.86969804763793945 0.090786054730415344 0.26449626684188843
0.99995285272598267 0.082141533493995667 0.25597131252288818
0.98649889230728149 0.087655194103717804 0.25263911485671997
0.033554691821336746 0.30937537550926208 0.29901969432830811
0.090928018093109131 0.30414906144142151 0.30350837111473083
0.33058127760887146 0.29342108964920044 0.29127663373947144
0.58338141441345215 0.28300502896308899 0.28931549191474915
0.85630232095718384 0.26608359813690186 0.28459519147872925
0.99947643280029297 0.25504732131958008 0.27489116787910461
0.99749600887298584 0.25353378057479858 0.26895543932914734
0.0015182645292952657 0.51972007751464844 0.32061648368835449
0.014748143032193184 0.5186455249786377 0.32176703214645386
0.24652944505214691 0.51428729295730591 0.31344252824783325
0.56560581922531128 0.50277048349380493 0.30886727571487427
0.81517857313156128 0.4939613938331604 0.30208763480186462
0.99105966091156006 0.48531728982925415 0.30122643709182739
1 0.47848469018936157 0.2959325909614563
0.00048268635873682797 0.72481417655944824 0.33090707659721375
0 0.7226865291595459 0.33986678719520569
0.10883648693561554 0.72094190120697021 0.33646416664123535
0.49912360310554504 0.71138709783554077 0.32227435708045959
0.76477956771850586 0.70369935035705566 0.31308689713478088
0.95828604698181152 0.69679635763168335 0.31890803575515747
0.99996346235275269 0.69215744733810425 0.31492418050765991
0 0.88586908578872681 0.35091069340705872
0.0054548224434256554 0.88203936815261841 0.35910874605178833
0.14398689568042755 0.88024216890335083 0.35524824261665344
0.46079537272453308 0.87109148502349854 0.34449091553688049
0.72589850425720215 0.86424839496612549 0.33528310060501099
0.9151914119720459 0.86181074380874634 0.33825522661209106
1 0.85193908214569092 0.33361133933067322
0 0.99877697229385376 0.37756562232971191
0.036228824406862259 0.99908232688903809 0.37350225448608398
0.20383484661579132 0.99850499629974365 0.37398377060890198
0.4698786735534668 0.99671190977096558 0.37231165170669556
0.6974378228187561 0.99579626321792603 0.36942762136459351
0.87665361166000366 0.99667096138000488 0.36911091208457947
1 0.98842424154281616 0.35794287919998169
0.028206320479512215 0.023263204842805862 0.46583238244056702
0.16208739578723907 0.02073955163359642 0.45894458889961243
0.35867971181869507 0.014973210170865059 0.45471090078353882
0.61153262853622437 0.0051975622773170471 0.44722312688827515
0.88327944278717041 0.0062527526170015335 0.43749320507049561
1 0.0088592078536748886 0.43019518256187439
0.99672114849090576 0.010161126963794231 0.42952123284339905
0.055649686604738235 0.13144263625144958 0.47891312837600708
0.16141244769096375 0.12555113434791565 0.47383618354797363
0.35288271307945251 0.11947187781333923 0.46773439645767212
0.60224133729934692 0.10446280986070633 0.46409565210342407
0.86990106105804443 0.094330072402954102 0.45505362749099731
1 0.089892566204071045 0.44748207926750183
0.99275678396224976 0.098206706345081329 0.44640287756919861
0.025207370519638062 0.30593511462211609 0.49138450622558594
0.081859126687049866 0.30614408850669861 0.4891623854637146
0.33205759525299072 0.29080769419670105 0.48522111773490906
0.59200137853622437 0.28056538105010986 0.48193347454071045
0.85749852657318115 0.26737502217292786 0.47395399212837219
0.99947601556777954 0.25809717178344727 0.46651798486709595
0.99676454067230225 0.26124370098114014 0.46552813053131104
0.0040248497389256954 0.52128368616104126 0.51088166236877441
0.0088162291795015335 0.51796913146972656 0.51233625411987305
0.24873217940330505 0.50926810503005981 0.50650429725646973
0.55791312456130981 0.50320702791213989 0.50146722793579102
0.81383144855499268 0.49326837062835693 0.49667569994926453
0.98735696077346802 0.48374274373054504 0.49300771951675415
1 0.47820204496383667 0.48770424723625183
0.00044943118700757623 0.72656929492950439 0.52816182374954224
0 0.72286564111709595 0.53275901079177856
0.13430558145046234 0.71728283166885376 0.53080463409423828
0.48725703358650208 0.70988923311233521 0.52406781911849976
0.76036769151687622 0.70389539003372192 0.51499658823013306
0.95633494853973389 0.69551295042037964 0.51468759775161743
1 0.68809115886688232 0.50992220640182495
0 0.88709878921508789 0.54323923587799072
8.7453801825176924e-05 0.88344460725784302 0.55052059888839722
0.12975457310676575 0.87937468290328979 0.54972761869430542
0.45729750394821167 0.87311983108520508 0.54205417633056641
0.72717076539993286 0.86449772119522095 0.53383171558380127
0.91595280170440674 0.86087954044342041 0.53339606523513794
1 0.85290634632110596 0.52965641021728516
0.00014935662329662591 0.99911534786224365 0.55706018209457397
0.029654290527105331 0.99880677461624146 0.56181228160858154
0.19342458248138428 0.99852943420410156 0.56424379348754883
0.47823140025138855 0.99802464246749878 0.56237936019897461
0.70846116542816162 0.99516075849533081 0.55739337205886841
0.89397042989730835 0.99328875541687012 0.55577170848846436
1 0.98853385448455811 0.54786604642868042
0.032377682626247406 0.019112769514322281 0.64907324314117432
0.16529341042041779 0.015230560675263405 0.64163988828659058
0.36110386252403259 0.0105882678180933 0.63513153791427612
0.61159831285476685 0.0048580095171928406 0.62816572189331055
0.86771005392074585 0.0050775865092873573 0.61907106637954712
0.99899888038635254 0.0087365396320819855 0.61498099565505981
0.99844801425933838 0.014020552858710289 0.61645019054412842
0.055387847125530243 0.12944027781486511 0.6611323356628418
0.15927168726921082 0.12431562691926956 0.65730834007263184
0.35222509503364563 0.11889810115098953 0.65248417854309082
0.60033905506134033 0.10920767486095428 0.647857666015625
0.86024564504623413 0.10006146878004074 0.63821649551391602
0.99896001815795898 0.098891392350196838 0.63105207681655884
0.99956870079040527 0.1078508272767067 0.62809395790100098
0.026413127779960632 0.3031652569770813 0.67539602518081665
0.092836253345012665 0.30496275424957275 0.67358541488647461
0.33298927545547485 0.29280814528465271 0.66982889175415039
0.58900958299636841 0.28691539168357849 0.66687345504760742
0.84700006246566772 0.27123785018920898 0.65828603506088257
0.99782705307006836 0.26413288712501526 0.64992284774780273
0.9999229907989502 0.26757678389549255 0.64493459463119507
9.4903683930169791e-05 0.52030318975448608 0.69640696048736572
0.014459003694355488 0.52046006917953491 0.69602459669113159
0.24938283860683441 0.5108301043510437 0.69090497493743896
0.56187313795089722 0.50231420993804932 0.68874329328536987
0.81347006559371948 0.49008604884147644 0.68119889497756958
0.98606789112091064 0.48283624649047852 0.67269414663314819
1 0.48003959655761719 0.6647762656211853
0 0.72965359687805176 0.71374028921127319
0.00013314042007550597 0.72195678949356079 0.71510249376296997
0.16568320989608765 0.71439242362976074 0.71071267127990723
0.50281697511672974 0.70891100168228149 0.70687687397003174
0.76335513591766357 0.70239007472991943 0.69972676038742065
0.94908016920089722 0.69458407163619995 0.69439750909805298
0.99997663497924805 0.68915224075317383 0.68722063302993774
0 0.88842403888702393 0.7208065390586853
0 0.88299411535263062 0.72696113586425781
0.11807218194007874 0.87386733293533325 0.7247886061668396
0.47247818112373352 0.86966937780380249 0.72123074531555176
0.73008555173873901 0.86515998840332031 0.71749532222747803
0.91791516542434692 0.86022192239761353 0.71412491798400879
1 0.85565251111984253 0.70905476808547974
0.00041987100848928094 0.99888664484024048 0.72662997245788574
0.015400337055325508 0.9985920786857605 0.73439991474151611
0.1672045886516571 0.99718040227890015 0.73651242256164551
0.48790416121482849 0.99560922384262085 0.73754209280014038
0.70211565494537354 0.99598264694213867 0.73406696319580078
0.88312506675720215 0.99538505077362061 0.7299458384513855
1 0.99084150791168213 0.72364449501037598
0.029929844662547112 0.017806947231292725 0.7928692102432251
0.16226515173912048 0.012667622417211533 0.78829056024551392
0.3576112687587738 0.0078382901847362518 0.78388750553131104
0.60906243324279785 0.0036334169562906027 0.78184694051742554
0.87289392948150635 0.0041602188721299171 0.77345401048660278
0.99993586540222168 0.0071165347471833229 0.76552277803421021
1 0.012538670562207699 0.76235783100128174
0.043692555278539658 0.13102246820926666 0.80587852001190186
0.14810691773891449 0.12337830662727356 0.80391150712966919
0.34414574503898621 0.11555714160203934 0.80127406120300293
0.59568959474563599 0.10757535696029663 0.79927712678909302
0.86167186498641968 0.098020978271961212 0.78966647386550903
0.99986249208450317 0.093402430415153503 0.78014647960662842
1 0.1027650386095047 0.77542680501937866
0.020876580849289894 0.30350238084793091 0.8216930627822876
0.089268706738948822 0.30087557435035706 0.82186120748519897
0.31813359260559082 0.29073336720466614 0.81838011741638184
0.58467024564743042 0.28772899508476257 0.81331264972686768
0.8450007438659668 0.27342233061790466 0.80491733551025391
0.99855399131774902 0.26125249266624451 0.79751908779144287
1 0.26186370849609375 0.79141342639923096
0.00023648131173104048 0.52039593458175659 0.84251993894577026
0.014125210233032703 0.5214276909828186 0.84119093418121338
0.23166343569755554 0.51061296463012695 0.83319050073623657
0.5570794939994812 0.5032724142074585 0.82855182886123657
0.80925190448760986 0.49298566579818726 0.82171988487243652
0.98926621675491333 0.48485812544822693 0.81787586212158203
1 0.48173698782920837 0.81108242273330688
0 0.72870939970016479 0.85727387666702271
0.00063548370962962508 0.72437131404876709 0.85573244094848633
0.16096985340118408 0.71736067533493042 0.84959572553634644
0.50960355997085571 0.7115892767906189 0.84978216886520386
0.75996536016464233 0.70430058240890503 0.8422321081161499
0.94164478778839111 0.69580018520355225 0.83628803491592407
0.99997520446777344 0.69278758764266968 0.8297232985496521
0 0.88718909025192261 0.86584895849227905
0 0.88630038499832153 0.87066632509231567
0.11076679825782776 0.87773740291595459 0.8641364574432373
0.47942990064620972 0.87083393335342407 0.86403566598892212
0.72756749391555786 0.86589884757995605 0.85806608200073242
0.91503345966339111 0.85723733901977539 0.85339105129241943
1 0.85174137353897095 0.84947413206100464
0.0016413669800385833 0.99795418977737427 0.87109506130218506
0.010298470966517925 0.99924677610397339 0.87913721799850464
0.13844943046569824 0.99777662754058838 0.87410354614257812
0.47878798842430115 0.99478435516357422 0.87515532970428467
0.69355076551437378 0.99575048685073853 0.87442845106124878
0.88145416975021362 0.99541997909545898 0.87026655673980713
0.99995332956314087 0.99528276920318604 0.86554121971130371
0.030542051419615746 0.02225048653781414 0.92003101110458374
0.16649915277957916 0.015579672530293465 0.91473847627639771
0.35898172855377197 0.010525527410209179 0.91095119714736938
0.60938119888305664 0.004818351473659277 0.91312849521636963
0.88714343309402466 0.0071673672646284103 0.90413188934326172
1 0.0099329184740781784 0.89341646432876587
0.99889522790908813 0.013530881144106388 0.88985329866409302
0.049723666161298752 0.13431885838508606 0.93116021156311035
0.15226684510707855 0.12867389619350433 0.92743748426437378
0.3477664589881897 0.11710649728775024 0.92538833618164062
0.59859055280685425 0.10887475311756134 0.92635160684585571
0.8679274320602417 0.098025679588317871 0.91616755723953247
1 0.086821146309375763 0.90523684024810791
0.99982559680938721 0.097759842872619629 0.90265238285064697
0.036028288304805756 0.30194485187530518 0.94688206911087036
0.098225057125091553 0.30454707145690918 0.9471772313117981
0.31667891144752502 0.28858661651611328 0.94480222463607788
0.58428448438644409 0.2860795259475708 0.93827849626541138
0.84003210067749023 0.27774509787559509 0.92876112461090088
0.99601286649703979 0.25888469815254211 0.92354100942611694
0.99918162822723389 0.25310125946998596 0.91994243860244751
0.0065002143383026123 0.52186822891235352 0.969962477684021
0.044786941260099411 0.51953232288360596 0.97071927785873413
0.23620642721652985 0.50823235511779785 0.96588319540023804
0.53873258829116821 0.50239467620849609 0.95747065544128418
0.8077394962310791 0.49465230107307434 0.95042937994003296
0.98780524730682373 0.48513525724411011 0.94716930389404297
1 0.48021653294563293 0.94281572103500366
6.9233014073688537e-05 0.72960984706878662 0.98327052593231201
0.011436507105827332 0.72467708587646484 0.98110044002532959
0.15719038248062134 0.71831208467483521 0.97818189859390259
0.49035319685935974 0.71002674102783203 0.98100435733795166
0.75792557001113892 0.701313316822052 0.974109947681427
0.93406844139099121 0.69537675380706787 0.96604627370834351
0.99614208936691284 0.69402080774307251 0.96428841352462769
0 0.88156163692474365 0.98808526992797852
1.9447476006462239e-05 0.88550865650177002 0.99221599102020264
0.14084134995937347 0.87662386894226074 0.99246567487716675
0.4925992488861084 0.87092792987823486 0.98950207233428955
0.72425001859664917 0.86429417133331299 0.98374629020690918
0.90883982181549072 0.85708737373352051 0.98276388645172119
0.99887418746948242 0.85159212350845337 0.98672193288803101
0.0027613472193479538 0.99449038505554199 0.99051988124847412
0.017085190862417221 0.99959808588027954 0.99339103698730469
0.16663837432861328 0.99855667352676392 0.99404340982437134
0.47781488299369812 0.99780702590942383 0.99401366710662842
0.68917924165725708 0.99636650085449219 0.99433571100234985
0.88896358013153076 0.99638956785202026 0.99084305763244629
0.99938279390335083 0.99078571796417236 0.99054086208343506
