assets/lut/films colorslide kodak kodachrome 25.cube
# Created by: G'MIC (https://gmic.eu)
TITLE "kodak_kodachrome_25"
# LUT size
LUT_3D_SIZE 5
# Data domain
DOMAIN_MIN 0.0 0.0 0.0
DOMAIN_MAX 1.0 1.0 1.0
# LUT data points
0.0069024031981825829 0.0056974524632096291 0.0087893912568688393
0.13206955790519714 0.016017794609069824 0.010950963944196701
0.50331312417984009 0.0089468266814947128 0.00038048237911425531
0.99796772003173828 0.051632765680551529 0.010343125090003014
1 0.3186248242855072 0.20252597332000732
0.097861163318157196 0.27433866262435913 0.13459724187850952
0.29500406980514526 0.28747665882110596 0.12667115032672882
0.61993700265884399 0.31460914015769958 0.11622477322816849
0.86284774541854858 0.40010431408882141 0.14860360324382782
0.99319225549697876 0.49710705876350403 0.24834661185741425
0.47186505794525146 0.61125391721725464 0.29012373089790344
0.5341154932975769 0.61320322751998901 0.28384464979171753
0.65987575054168701 0.61391967535018921 0.26830720901489258
0.81804323196411133 0.62462592124938965 0.25517266988754272
0.99094241857528687 0.65484946966171265 0.25848886370658875
0.68107771873474121 0.80724310874938965 0.3856029212474823
0.70487600564956665 0.80780363082885742 0.38687619566917419
0.76615965366363525 0.80534809827804565 0.37736022472381592
0.86975646018981934 0.80944633483886719 0.36878150701522827
0.99962282180786133 0.82014352083206177 0.35502451658248901
0.88754004240036011 0.9962877631187439 0.48942407965660095
0.9078485369682312 0.99675118923187256 0.48655694723129272
0.93731778860092163 0.9961475133895874 0.48294126987457275
0.97596335411071777 0.98357099294662476 0.46331876516342163
1 0.99760913848876953 0.46535283327102661
0.002171624917536974 0.0076078828424215317 0.19745801389217377
0.059581037610769272 0.0066262637265026569 0.20821678638458252
0.41052109003067017 0.0097320703789591789 0.17573902010917664
0.98942935466766357 0.052075553685426712 0.13886994123458862
1 0.30881521105766296 0.35352492332458496
0.067800216376781464 0.24957722425460815 0.27302953600883484
0.2318582683801651 0.25802707672119141 0.27660688757896423
0.59809249639511108 0.28580978512763977 0.28248348832130432
0.82004964351654053 0.3847821056842804 0.35815286636352539
0.98042285442352295 0.49728107452392578 0.4436899721622467
0.45679464936256409 0.60893100500106812 0.31544837355613708
0.52175772190093994 0.60638540983200073 0.32858636975288391
0.64414328336715698 0.6073651909828186 0.33085095882415771
0.79976540803909302 0.62093144655227661 0.35193929076194763
0.97640246152877808 0.64565610885620117 0.41630956530570984
0.67289036512374878 0.80031514167785645 0.38352188467979431
0.69935250282287598 0.80262064933776855 0.37591856718063354
0.76288092136383057 0.80309426784515381 0.36629033088684082
0.87540489435195923 0.80694246292114258 0.35958942770957947
0.99884206056594849 0.82224339246749878 0.34261247515678406
0.90066099166870117 0.99512732028961182 0.48263028264045715
0.9069439172744751 0.99413889646530151 0.48288515210151672
0.93495988845825195 0.99567615985870361 0.48051488399505615
0.98381108045578003 0.98906725645065308 0.46744710206985474
0.99996554851531982 0.99146699905395508 0.45519044995307922
0 0 0.31474897265434265
0.027693340554833412 0.0062778699211776257 0.31761768460273743
0.36201918125152588 0.00015474206884391606 0.2748216986656189
0.9860302209854126 0.018302364274859428 0.20756231248378754
0.99645674228668213 0.27328893542289734 0.40858516097068787
0.024184508249163628 0.19809646904468536 0.44549503922462463
0.153053879737854 0.21064294874668121 0.44069972634315491
0.55442148447036743 0.23436105251312256 0.42287573218345642
0.80773764848709106 0.34586307406425476 0.47037807106971741
0.9670829176902771 0.48240852355957031 0.54781258106231689
0.3109130859375 0.59151792526245117 0.61493784189224243
0.41460970044136047 0.58765196800231934 0.61087429523468018
0.5663752555847168 0.58916711807250977 0.60602033138275146
0.73505562543869019 0.60180854797363281 0.61149781942367554
0.93576508760452271 0.63485622406005859 0.62670612335205078
0.63265717029571533 0.79399222135543823 0.50986003875732422
0.65700995922088623 0.79548686742782593 0.51751881837844849
0.71816432476043701 0.79711306095123291 0.53399407863616943
0.81860613822937012 0.79785037040710449 0.5702928900718689
0.98140531778335571 0.81031948328018188 0.6183285117149353
0.87976217269897461 0.99096345901489258 0.47475975751876831
0.89382129907608032 0.99282246828079224 0.47726395726203918
0.92703866958618164 0.99641472101211548 0.50037801265716553
0.98345744609832764 0.99645417928695679 0.48330041766166687
0.99738097190856934 0.99912345409393311 0.44124650955200195
0 0 0.3850238025188446
1.4540728443535045e-05 0 0.3920440673828125
0.24091820418834686 0.0034077812451869249 0.36134231090545654
0.9693903923034668 0.0021883049048483372 0.24399402737617493
0.99890822172164917 0.22248391807079315 0.45449808239936829
0.0084979934617877007 0.12992382049560547 0.5094376802444458
0.075073614716529846 0.12969669699668884 0.50084859132766724
0.48511394858360291 0.14253929257392883 0.47048762440681458
0.83430123329162598 0.26040425896644592 0.50550568103790283
0.98171508312225342 0.4374937117099762 0.60382413864135742
0.18295472860336304 0.56503939628601074 0.73080110549926758
0.30625006556510925 0.56079560518264771 0.71853399276733398
0.51632916927337646 0.56627577543258667 0.71045947074890137
0.70509040355682373 0.57690238952636719 0.70683455467224121
0.91793268918991089 0.613727867603302 0.71677273511886597
0.51968216896057129 0.77842682600021362 0.80700719356536865
0.55475103855133057 0.77695506811141968 0.80352795124053955
0.62767410278320312 0.77905392646789551 0.80046123266220093
0.7491641640663147 0.78168183565139771 0.8031928539276123
0.93870288133621216 0.79429924488067627 0.80965620279312134
0.8533942699432373 0.99629294872283936 0.61742538213729858
0.86752426624298096 0.99699479341506958 0.61387401819229126
0.8978724479675293 0.99714744091033936 0.62317872047424316
0.94207757711410522 0.996937096118927 0.6614530086517334
0.99679511785507202 0.99537497758865356 0.71434003114700317
0 0 0.41935107111930847
0 0 0.43126401305198669
0.13143031299114227 0 0.40500834584236145
0.90533769130706787 0.0016767614288255572 0.26698064804077148
1 0.15732471644878387 0.42235541343688965
0.0031020371243357658 0.038423784077167511 0.51629608869552612
0.044293932616710663 0.053529791533946991 0.51490902900695801
0.39511540532112122 0.060519661754369736 0.4802297055721283
0.88332563638687134 0.1470319926738739 0.48085018992424011
0.9896969199180603 0.3856322169303894 0.61801302433013916
0.094863429665565491 0.52706152200698853 0.78315275907516479
0.1786809116601944 0.52632403373718262 0.76826953887939453
0.47189852595329285 0.52755367755889893 0.75335162878036499
0.69900405406951904 0.53664058446884155 0.74424219131469727
0.91588199138641357 0.589150071144104 0.75902509689331055
0.45934566855430603 0.76273483037948608 0.88712263107299805
0.49264603853225708 0.7641022801399231 0.89108097553253174
0.58798152208328247 0.765846848487854 0.88651007413864136
0.71758341789245605 0.76645618677139282 0.87939345836639404
0.91614335775375366 0.77508479356765747 0.87456369400024414
0.73209840059280396 0.98446410894393921 0.97627323865890503
0.75857830047607422 0.99159210920333862 0.9893798828125
0.79776793718338013 0.99566054344177246 0.99057102203369141
0.85478144884109497 0.99665701389312744 0.99480915069580078
0.97172534465789795 0.99588435888290405 0.99853390455245972
