assets/lut/films negative color kodak portra 160 vc.cube
# Created by: G'MIC (https://gmic.eu)
TITLE "kodak_portra_160_vc"
# LUT size
LUT_3D_SIZE 7
# Data domain
DOMAIN_MIN 0.0 0.0 0.0
DOMAIN_MAX 1.0 1.0 1.0
# LUT data points
0.017682528123259544 0.026018045842647552 0.028276076540350914
0.10598467290401459 0.037286017090082169 0.028940252959728241
0.29747450351715088 0.044845685362815857 0.020429439842700958
0.55499851703643799 0.026764513924717903 0.0019783468451350927
0.78268831968307495 0.033500298857688904 0
0.94417804479598999 0.085725419223308563 0
1 0.16873323917388916 0
0.002144981874153018 0.11682862043380737 0.047608006745576859
0.092576466500759125 0.13523779809474945 0.032749760895967484
0.31938073039054871 0.16237980127334595 0.0057100630365312099
0.57829511165618896 0.17035922408103943 2.297794162586797e-05
0.78878706693649292 0.18237881362438202 0
0.93871051073074341 0.2082991749048233 0
1 0.26250210404396057 0
0.00031349330674856901 0.32435363531112671 0.11065712571144104
0.0074137519113719463 0.31988024711608887 0.10640459507703781
0.3026166558265686 0.3694012463092804 0.035391461104154587
0.58054506778717041 0.38060757517814636 0.0016859016614034772
0.78081303834915161 0.35243028402328491 0
0.92360389232635498 0.34893140196800232 0
0.99883687496185303 0.37810021638870239 0.00064215564634650946
0 0.52141654491424561 0.20015281438827515
0.0027649672701954842 0.52263444662094116 0.20754535496234894
0.22596099972724915 0.53602737188339233 0.16465941071510315
0.51115185022354126 0.56270027160644531 0.08045477420091629
0.75545585155487061 0.56470519304275513 0.00023716945725027472
0.90570783615112305 0.52823126316070557 0.0018928229110315442
1 0.51319074630737305 0
0.083075910806655884 0.67902445793151855 0.31525656580924988
0.14471909403800964 0.68018209934234619 0.32320645451545715
0.29066476225852966 0.68144267797470093 0.31732457876205444
0.46245968341827393 0.68789595365524292 0.27659231424331665
0.67363911867141724 0.70281058549880981 0.14371161162853241
0.88153427839279175 0.7182319164276123 0.026738649234175682
0.99750030040740967 0.70104944705963135 0.021799439564347267
0.36492884159088135 0.81305110454559326 0.48138183355331421
0.40528792142868042 0.81010961532592773 0.49043303728103638
0.46333348751068115 0.80901306867599487 0.49054935574531555
0.54702270030975342 0.81075572967529297 0.47244399785995483
0.66663706302642822 0.82101595401763916 0.43202418088912964
0.81487113237380981 0.83268648386001587 0.36102983355522156
0.97984689474105835 0.85368317365646362 0.26808255910873413
0.60867458581924438 0.92585784196853638 0.67504101991653442
0.63560163974761963 0.92585784196853638 0.6852412223815918
0.65435904264450073 0.92585784196853638 0.68903964757919312
0.68928086757659912 0.92856442928314209 0.69001460075378418
0.74901372194290161 0.93674755096435547 0.6833227276802063
0.83301830291748047 0.94788205623626709 0.65445554256439209
0.93256038427352905 0.95797425508499146 0.61242866516113281
0.0082078669220209122 0.039989173412322998 0.14003929495811462
0.10719101876020432 0.039585966616868973 0.13522298634052277
0.30104270577430725 0.0099052730947732925 0.13355790078639984
0.56917136907577515 0.004575781524181366 0.14238861203193665
0.78698843717575073 0.023065919056534767 0.14940822124481201
0.93675708770751953 0.11820109933614731 0.13956001400947571
0.99976611137390137 0.21286769211292267 0.13131961226463318
2.9500324671971612e-05 0.14697813987731934 0.16226325929164886
0.10820967704057693 0.14897151291370392 0.16267724335193634
0.33977383375167847 0.15294910967350006 0.15337444841861725
0.59535163640975952 0.15837021172046661 0.14490205049514771
0.78904503583908081 0.1907721608877182 0.140472412109375
0.93433648347854614 0.22469267249107361 0.12227983772754669
0.99935293197631836 0.28088289499282837 0.11666068434715271
0.0018903096206486225 0.3544539213180542 0.22614261507987976
0.079567946493625641 0.3535829484462738 0.2271910160779953
0.32890558242797852 0.3732607364654541 0.19133384525775909
0.59147006273269653 0.37189698219299316 0.12018004804849625
0.78088998794555664 0.34387305378913879 0.085768647491931915
0.92663079500198364 0.35933738946914673 0.070757485926151276
0.99984723329544067 0.39270329475402832 0.076810114085674286
0.020301952958106995 0.54347223043441772 0.29458126425743103
0.095648989081382751 0.54143035411834717 0.29552128911018372
0.29177305102348328 0.53674113750457764 0.28779783844947815
0.52240073680877686 0.56096744537353516 0.19922046363353729
0.75701367855072021 0.55979835987091064 0.095963180065155029
0.91074341535568237 0.52167463302612305 0.028449548408389091
0.99988836050033569 0.51658159494400024 0.034766253083944321
0.11696036905050278 0.69017714262008667 0.37695425748825073
0.20795491337776184 0.68778908252716064 0.38128551840782166
0.34410104155540466 0.68384075164794922 0.38585740327835083
0.49181267619132996 0.6907004714012146 0.35305419564247131
0.68636405467987061 0.70914798974990845 0.28056904673576355
0.87906020879745483 0.71447068452835083 0.18317329883575439
0.99718362092971802 0.69167155027389526 0.1032583937048912
0.42481467127799988 0.81782907247543335 0.52341717481613159
0.44346025586128235 0.81338554620742798 0.52635544538497925
0.50276643037796021 0.80868244171142578 0.53573673963546753
0.58007484674453735 0.80958068370819092 0.52776908874511719
0.68111318349838257 0.82231074571609497 0.48695555329322815
0.81964582204818726 0.83392304182052612 0.42444720864295959
0.97299110889434814 0.84670156240463257 0.35443037748336792
0.64319628477096558 0.9291384220123291 0.70038694143295288
0.65696060657501221 0.92735195159912109 0.70331859588623047
0.68028169870376587 0.92585784196853638 0.7113538384437561
0.71758878231048584 0.92585784196853638 0.71652168035507202
0.76544106006622314 0.93387508392333984 0.70333957672119141
0.8325798511505127 0.94362038373947144 0.67500180006027222
0.93384701013565063 0.95589208602905273 0.63306128978729248
6.7677217884920537e-05 0.063321240246295929 0.36556804180145264
0.13453732430934906 0.081436187028884888 0.36210170388221741
0.34753966331481934 0.066610537469387054 0.35193628072738647
0.5628398060798645 0.0047740563750267029 0.3203713595867157
0.78401225805282593 0.001324388082139194 0.29121029376983643
0.94447541236877441 0.065784990787506104 0.31047484278678894
0.99985826015472412 0.28878948092460632 0.36359971761703491
8.3818624261766672e-05 0.20842604339122772 0.3784295916557312
0.113677017390728 0.20274138450622559 0.37816271185874939
0.37271666526794434 0.21189181506633759 0.36885583400726318
0.5903172492980957 0.15953508019447327 0.34547662734985352
0.78773438930511475 0.13747274875640869 0.33117082715034485
0.93179118633270264 0.26353538036346436 0.35160928964614868
1 0.3720303475856781 0.37461492419242859
5.4572610679315403e-05 0.39481803774833679 0.38967329263687134
0.11282747983932495 0.39843654632568359 0.39931163191795349
0.38513699173927307 0.39365479350090027 0.39533558487892151
0.6032027006149292 0.38129973411560059 0.36916527152061462
0.77723681926727295 0.39791169762611389 0.36330661177635193
0.91729211807250977 0.41952681541442871 0.36050811409950256
0.99697190523147583 0.44164666533470154 0.35747212171554565
0.17175999283790588 0.5707048773765564 0.44383677840232849
0.28532865643501282 0.56851506233215332 0.43906623125076294
0.39937096834182739 0.55887645483016968 0.43540087342262268
0.56126695871353149 0.57049232721328735 0.39885193109512329
0.7599174976348877 0.5514225959777832 0.3451373279094696
0.90939050912857056 0.52487373352050781 0.30988866090774536
0.99974775314331055 0.53687155246734619 0.30887463688850403
0.36438456177711487 0.70489323139190674 0.51200902462005615
0.39110204577445984 0.70223754644393921 0.50307565927505493
0.44949802756309509 0.69384545087814331 0.49852156639099121
0.54747790098190308 0.69431161880493164 0.49021822214126587
0.70416629314422607 0.71255439519882202 0.43863219022750854
0.87607282400131226 0.71216827630996704 0.38030311465263367
0.99480915069580078 0.67957377433776855 0.30892652273178101
0.52184522151947021 0.82149887084960938 0.60758525133132935
0.51344949007034302 0.81919246912002563 0.59808152914047241
0.55925166606903076 0.81448012590408325 0.60415875911712646
0.62108117341995239 0.81278622150421143 0.60607963800430298
0.70446783304214478 0.82050329446792603 0.57713383436203003
0.83016866445541382 0.83841300010681152 0.53025346994400024
0.96997809410095215 0.84691745042800903 0.47076678276062012
0.67234426736831665 0.93124127388000488 0.7328563928604126
0.66638541221618652 0.93091744184494019 0.72742807865142822
0.69509118795394897 0.93095415830612183 0.73663747310638428
0.73779666423797607 0.92974710464477539 0.74753624200820923
0.7793998122215271 0.93345588445663452 0.74112439155578613
0.84074372053146362 0.94648855924606323 0.71583729982376099
0.93466192483901978 0.9568791389465332 0.68151605129241943
0.00083740835543721914 0.13339033722877502 0.60055124759674072
0.13695509731769562 0.14093017578125 0.59769743680953979
0.44504603743553162 0.1926923394203186 0.59585243463516235
0.63432413339614868 0.19226129353046417 0.5776945948600769
0.77445262670516968 0.087359301745891571 0.52427005767822266
0.92476773262023926 0.056612156331539154 0.47776404023170471
0.99985063076019287 0.18169166147708893 0.46448764204978943
2.154182038793806e-05 0.27897769212722778 0.61159473657608032
0.15921764075756073 0.27311316132545471 0.60986292362213135
0.45832368731498718 0.30604040622711182 0.60433751344680786
0.62767904996871948 0.31281444430351257 0.57766145467758179
0.76892244815826416 0.23629641532897949 0.52505743503570557
0.92406398057937622 0.22447247803211212 0.49238583445549011
0.99971097707748413 0.33776357769966125 0.50793159008026123
0.0034212747123092413 0.46492457389831543 0.60566097497940063
0.14723585546016693 0.46035921573638916 0.60470032691955566
0.43326243758201599 0.44878605008125305 0.60183483362197876
0.62781953811645508 0.45744967460632324 0.58222705125808716
0.77043509483337402 0.41148373484611511 0.54309594631195068
0.91376364231109619 0.41908571124076843 0.52777081727981567
0.99662303924560547 0.46298402547836304 0.53092336654663086
0.13564914464950562 0.59998470544815063 0.58964931964874268
0.26115667819976807 0.59692692756652832 0.58866435289382935
0.44260287284851074 0.59170353412628174 0.59023594856262207
0.59823918342590332 0.57796895503997803 0.5785408616065979
0.75246930122375488 0.56479167938232422 0.54891383647918701
0.89403700828552246 0.58520799875259399 0.55705183744430542
0.9942551851272583 0.60222649574279785 0.55731093883514404
0.40914815664291382 0.72103524208068848 0.61818236112594604
0.47218352556228638 0.72076106071472168 0.6265329122543335
0.54642891883850098 0.71305012702941895 0.62606799602508545
0.62462902069091797 0.70559918880462646 0.62248152494430542
0.73205852508544922 0.71409064531326294 0.59368205070495605
0.88128942251205444 0.7037467360496521 0.54711496829986572
0.9921455979347229 0.68617725372314453 0.50667959451675415
0.58911168575286865 0.82555007934570312 0.69784200191497803
0.60643130540847778 0.82697457075119019 0.69838565587997437
0.63807898759841919 0.82527202367782593 0.69489109516143799
0.67046946287155151 0.81963419914245605 0.68795865774154663
0.73346519470214844 0.81835782527923584 0.68038296699523926
0.83671241998672485 0.83537751436233521 0.64628082513809204
0.97446721792221069 0.84806710481643677 0.59672814607620239
0.70868843793869019 0.93382918834686279 0.78237414360046387
0.70952761173248291 0.93424719572067261 0.78118181228637695
0.72258621454238892 0.93557655811309814 0.77938246726989746
0.75318318605422974 0.9335094690322876 0.78397589921951294
0.79260993003845215 0.93393182754516602 0.78658103942871094
0.85049217939376831 0.94773155450820923 0.77136754989624023
0.94779473543167114 0.96530038118362427 0.74417698383331299
0.033917926251888275 0.24251605570316315 0.77229732275009155
0.21440659463405609 0.25879612565040588 0.77153348922729492
0.48992088437080383 0.29169353842735291 0.76638233661651611
0.67758136987686157 0.3615155816078186 0.75382333993911743
0.81030696630477905 0.3609720766544342 0.7381700873374939
0.90957778692245483 0.3031056821346283 0.6951671838760376
0.99706721305847168 0.31974044442176819 0.65385371446609497
0.062245942652225494 0.35131314396858215 0.7764812707901001
0.2823549211025238 0.36445435881614685 0.77540010213851929
0.50360745191574097 0.38757681846618652 0.76967436075210571
0.6836126446723938 0.44524082541465759 0.75950378179550171
0.80562490224838257 0.44809707999229431 0.74045670032501221
0.90848958492279053 0.38356390595436096 0.70021063089370728
0.99559998512268066 0.39203450083732605 0.66072547435760498
0.22135777771472931 0.52168381214141846 0.76568049192428589
0.34044086933135986 0.51482361555099487 0.76556611061096191
0.50363779067993164 0.51037603616714478 0.76272070407867432
0.67931056022644043 0.54533380270004272 0.75531941652297974
0.79173332452774048 0.54447770118713379 0.74185150861740112
0.8931923508644104 0.50145149230957031 0.70468932390213013
0.99584251642227173 0.50388038158416748 0.67954879999160767
0.20456020534038544 0.63507539033889771 0.74639874696731567
0.32276114821434021 0.63630342483520508 0.74432528018951416
0.48131948709487915 0.63041788339614868 0.74470508098602295
0.64793998003005981 0.63131117820739746 0.74353295564651489
0.78010082244873047 0.64646387100219727 0.73921835422515869
0.88258230686187744 0.61352407932281494 0.71098130941390991
0.98839551210403442 0.62447202205657959 0.70888614654541016
0.39967206120491028 0.74156683683395386 0.7383454442024231
0.46015620231628418 0.74055898189544678 0.73822301626205444
0.54616498947143555 0.73746752738952637 0.74185442924499512
0.64756536483764648 0.73336285352706909 0.74188685417175293
0.76005953550338745 0.72790694236755371 0.73828321695327759
0.87567389011383057 0.72137439250946045 0.71786206960678101
0.98293787240982056 0.73198902606964111 0.71727794408798218
0.57968044281005859 0.84077554941177368 0.76868408918380737
0.61499345302581787 0.84267145395278931 0.77260637283325195
0.66462481021881104 0.84254080057144165 0.77534431219100952
0.72496992349624634 0.83796298503875732 0.77912908792495728
0.77524322271347046 0.83099502325057983 0.77354329824447632
0.85425984859466553 0.84306776523590088 0.75649970769882202
0.97973501682281494 0.83698058128356934 0.71840190887451172
0.7221301794052124 0.94229203462600708 0.83212721347808838
0.73618781566619873 0.94097709655761719 0.8378443717956543
0.75366544723510742 0.94105660915374756 0.83679497241973877
0.7882722020149231 0.94068288803100586 0.83943164348602295
0.81569725275039673 0.94188153743743896 0.83466637134552002
0.86648303270339966 0.94860440492630005 0.83385568857192993
0.95951014757156372 0.96451789140701294 0.80984264612197876
0.31512370705604553 0.3884139358997345 0.88476812839508057
0.40778103470802307 0.40108582377433777 0.88344293832778931
0.55702304840087891 0.43155339360237122 0.87849456071853638
0.70696759223937988 0.48251244425773621 0.86817753314971924
0.83337420225143433 0.56101495027542114 0.86559253931045532
0.9160340428352356 0.56069749593734741 0.8549346923828125
0.99336636066436768 0.51762902736663818 0.83504194021224976
0.3646894097328186 0.46705204248428345 0.88422411680221558
0.44429469108581543 0.47548761963844299 0.88215827941894531
0.57683098316192627 0.49936556816101074 0.87700110673904419
0.71684372425079346 0.53845882415771484 0.86817795038223267
0.83210855722427368 0.60014885663986206 0.8634028434753418
0.91200488805770874 0.59485161304473877 0.85619550943374634
0.98680192232131958 0.55453348159790039 0.83096212148666382
0.44132563471794128 0.580241858959198 0.8744361400604248
0.49447965621948242 0.5829697847366333 0.87428432703018188
0.586700439453125 0.58793765306472778 0.87375247478485107
0.71969044208526611 0.61519604921340942 0.86836528778076172
0.82785379886627197 0.65585446357727051 0.86450576782226562
0.90536510944366455 0.66016185283660889 0.85799425840377808
0.98633307218551636 0.61785298585891724 0.84150046110153198
0.4436018168926239 0.69005954265594482 0.86590999364852905
0.4969756007194519 0.69088953733444214 0.86532497406005859
0.59865206480026245 0.68709772825241089 0.86688822507858276
0.70705360174179077 0.69066029787063599 0.86462831497192383
0.82260704040527344 0.72012591361999512 0.86703288555145264
0.89361035823822021 0.72442924976348877 0.85814052820205688
0.97895652055740356 0.6854444146156311 0.83728611469268799
0.47135761380195618 0.77261233329772949 0.8575255274772644
0.51031219959259033 0.77401375770568848 0.86045253276824951
0.57959556579589844 0.77510738372802734 0.85900354385375977
0.68144762516021729 0.77006524801254272 0.86053276062011719
0.79574066400527954 0.77404129505157471 0.86071455478668213
0.88989853858947754 0.79090195894241333 0.85947650671005249
0.97110015153884888 0.76151591539382935 0.84344398975372314
0.58845525979995728 0.861766517162323 0.86052572727203369
0.61230504512786865 0.86221444606781006 0.8606797456741333
0.65993791818618774 0.86275219917297363 0.8620227575302124
0.72023022174835205 0.86156898736953735 0.86548453569412231
0.79013192653656006 0.85625994205474854 0.86321604251861572
0.87623214721679688 0.85345882177352905 0.86109352111816406
0.97823119163513184 0.84785455465316772 0.84171360731124878
0.71764934062957764 0.95936447381973267 0.89807939529418945
0.7185821533203125 0.95221197605133057 0.89161723852157593
0.74419552087783813 0.94854772090911865 0.88934248685836792
0.79448610544204712 0.95065873861312866 0.89331269264221191
0.84275180101394653 0.95208239555358887 0.89682853221893311
0.89789342880249023 0.9516569972038269 0.90182805061340332
0.96129214763641357 0.95809924602508545 0.88426023721694946
0.56999707221984863 0.57419830560684204 0.96846526861190796
0.60689079761505127 0.5838857889175415 0.96803748607635498
0.67962837219238281 0.60269016027450562 0.96373575925827026
0.77491378784179688 0.63459557294845581 0.95756787061691284
0.86377662420272827 0.6743847131729126 0.95405441522598267
0.93599176406860352 0.7241213321685791 0.94996654987335205
0.99824374914169312 0.72019439935684204 0.9465060830116272
0.58038222789764404 0.61132889986038208 0.96934902667999268
0.62149888277053833 0.61968564987182617 0.96782273054122925
0.69004315137863159 0.63368731737136841 0.96253740787506104
0.78005659580230713 0.66114538908004761 0.95717388391494751
0.86307287216186523 0.69381743669509888 0.95343929529190063
0.93322122097015381 0.74419713020324707 0.94930291175842285
0.99312978982925415 0.73334032297134399 0.94444102048873901
0.60655850172042847 0.67375051975250244 0.96536123752593994
0.64216619729995728 0.68044126033782959 0.96518754959106445
0.6966019868850708 0.68566817045211792 0.96276724338531494
0.78268516063690186 0.70932155847549438 0.95798194408416748
0.86274951696395874 0.73114013671875 0.95335006713867188
0.93046694993972778 0.77122914791107178 0.94875138998031616
0.99150079488754272 0.76300191879272461 0.94936245679855347
0.61896979808807373 0.75270432233810425 0.96239042282104492
0.6594463586807251 0.75287944078445435 0.96337789297103882
0.70745164155960083 0.74972879886627197 0.96299219131469727
0.77024555206298828 0.75632691383361816 0.95962899923324585
0.85478097200393677 0.77540057897567749 0.9571453332901001
0.92744946479797363 0.80632030963897705 0.95229613780975342
0.98769235610961914 0.80523198843002319 0.95250892639160156
0.59865754842758179 0.82341581583023071 0.96104013919830322
0.61718356609344482 0.82234734296798706 0.96188724040985107
0.67903846502304077 0.82267904281616211 0.96047651767730713
0.74934428930282593 0.82090663909912109 0.95963108539581299
0.83978766202926636 0.82501447200775146 0.96092551946640015
0.92441779375076294 0.84700733423233032 0.95755362510681152
0.98177909851074219 0.8509066104888916 0.95738506317138672
0.65638452768325806 0.90245711803436279 0.96583199501037598
0.66569191217422485 0.89724612236022949 0.96190005540847778
0.69795221090316772 0.89454025030136108 0.9587632417678833
0.74643242359161377 0.89570611715316772 0.96188724040985107
0.81747299432754517 0.89202994108200073 0.96221381425857544
0.90563619136810303 0.89933192729949951 0.96407335996627808
0.9839969277381897 0.91595584154129028 0.9607774019241333
0.74920839071273804 0.98999309539794922 0.98785912990570068
0.73868429660797119 0.97919237613677979 0.97351396083831787
0.75163352489471436 0.96977567672729492 0.96220898628234863
0.80261778831481934 0.97220975160598755 0.96743851900100708
0.85539257526397705 0.97202908992767334 0.9736209511756897
0.9114372730255127 0.97105729579925537 0.97350823879241943
0.98414367437362671 0.97804850339889526 0.97941428422927856
