assets/lut/films colorslide kodak elite extracolor 100.cube
# Created by: G'MIC (https://gmic.eu)
TITLE "kodak_elite_extracolor_100"
# LUT size
LUT_3D_SIZE 7
# Data domain
DOMAIN_MIN 0.0 0.0 0.0
DOMAIN_MAX 1.0 1.0 1.0
# LUT data points
0.037927381694316864 0.035773586481809616 0.032415218651294708
0.14770638942718506 0.023213166743516922 0.026344358921051025
0.26150345802307129 0.014866817742586136 0.015136090107262135
0.41655236482620239 0.0085333734750747681 0.012572583742439747
0.58801114559173584 0.0047647212632000446 0.0082884393632411957
0.71270859241485596 0 0.0014423595275729895
0.83774030208587646 0.00044495824840851128 8.8680491899140179e-05
0.11227650195360184 0.15782037377357483 0.069503799080848694
0.17648378014564514 0.15019601583480835 0.062936387956142426
0.299826979637146 0.13645537197589874 0.04741809144616127
0.4546239972114563 0.11056282371282578 0.035124160349369049
0.60777503252029419 0.073180601000785828 0.017260981723666191
0.72632551193237305 0.029950249940156937 0.0020537134259939194
0.84595751762390137 0.019362594932317734 0
0.14477549493312836 0.30834558606147766 0.10908754914999008
0.21546003222465515 0.30037984251976013 0.10460061579942703
0.34537684917449951 0.29155230522155762 0.091149531304836273
0.51053899526596069 0.26941785216331482 0.068967722356319427
0.6671680212020874 0.23079445958137512 0.044359423220157623
0.78103113174438477 0.17362666130065918 0.017734691500663757
0.88342010974884033 0.11189516633749008 0.00031373265665024519
0.17855075001716614 0.5231015682220459 0.12410393357276917
0.26490205526351929 0.51151794195175171 0.12679791450500488
0.39947906136512756 0.5060046911239624 0.11733853071928024
0.57498425245285034 0.48660984635353088 0.096358537673950195
0.7349359393119812 0.4597262442111969 0.074072711169719696
0.85592871904373169 0.40898734331130981 0.040873359888792038
0.94923096895217896 0.31345802545547485 0.0094412714242935181
0.24606038630008698 0.74060767889022827 0.092300280928611755
0.32924163341522217 0.73437350988388062 0.092948570847511292
0.47832930088043213 0.7280387282371521 0.076612032949924469
0.65852230787277222 0.71752315759658813 0.06559377908706665
0.80786502361297607 0.71140491962432861 0.05729268491268158
0.9388887882232666 0.68402570486068726 0.036623351275920868
0.99947535991668701 0.6079641580581665 0.015776794403791428
0.36362236738204956 0.90789777040481567 0.015976296737790108
0.42894238233566284 0.9145820140838623 0.030947277322411537
0.57158786058425903 0.91082316637039185 0.0043606027029454708
0.73125821352005005 0.91188210248947144 0.0050459466874599457
0.86927855014801025 0.91405957937240601 0.0052783293649554253
0.98673796653747559 0.88887703418731689 0.0045190099626779556
1 0.85582417249679565 0.0038022359367460012
0.51809579133987427 1 0
0.57613128423690796 1 0
0.68822300434112549 1 0
0.81779038906097412 1 0
0.9443892240524292 0.9999813437461853 0
0.99962085485458374 0.99997663497924805 5.3675033996114507e-05
1 0.99960792064666748 0
0.025486381724476814 0.039660945534706116 0.1347612589597702
0.11808963865041733 0.027322567999362946 0.12549814581871033
0.2473953515291214 0.018737778067588806 0.10919796675443649
0.40156364440917969 0.0094852820038795471 0.091829083859920502
0.57101404666900635 0.0057443357072770596 0.065195165574550629
0.70385420322418213 0 0.041458893567323685
0.82594841718673706 0 0.011774174869060516
0.096568100154399872 0.16199083626270294 0.1609872579574585
0.15419334173202515 0.15179134905338287 0.15230077505111694
0.28371092677116394 0.13605576753616333 0.13964873552322388
0.43751204013824463 0.10975878685712814 0.11960884183645248
0.59915614128112793 0.074213229119777679 0.088092133402824402
0.72019028663635254 0.026682998985052109 0.055065557360649109
0.83037674427032471 0.0062810559757053852 0.024444416165351868
0.12471189349889755 0.31018683314323425 0.18717280030250549
0.18810772895812988 0.30743557214736938 0.18290571868419647
0.3238120973110199 0.2968614399433136 0.17367343604564667
0.49142950773239136 0.27352938055992126 0.1506316214799881
0.65796124935150146 0.22980040311813354 0.11870141327381134
0.77155345678329468 0.16200016438961029 0.079645149409770966
0.86605465412139893 0.090862780809402466 0.043050505220890045
0.14555972814559937 0.51760232448577881 0.20266230404376984
0.23391737043857574 0.51764136552810669 0.20204450190067291
0.38298285007476807 0.51322239637374878 0.19283820688724518
0.56536287069320679 0.49381759762763977 0.17442293465137482
0.72972780466079712 0.4623245894908905 0.14761987328529358
0.84789115190505981 0.40402162075042725 0.10846912115812302
0.94208323955535889 0.31159487366676331 0.070455156266689301
0.20544382929801941 0.73787760734558105 0.18838568031787872
0.30060097575187683 0.72865974903106689 0.17186112701892853
0.46090865135192871 0.72762197256088257 0.15512830018997192
0.64340436458587646 0.72252517938613892 0.14644381403923035
0.79817557334899902 0.70927047729492188 0.12602058053016663
0.92592823505401611 0.6800658106803894 0.099068827927112579
0.99845927953720093 0.61474728584289551 0.073539704084396362
0.34134563803672791 0.90165406465530396 0.10639521479606628
0.41722220182418823 0.90031754970550537 0.086257040500640869
0.55719125270843506 0.90364295244216919 0.051562484353780746
0.71966421604156494 0.90321981906890869 0.037452127784490585
0.85898619890213013 0.90225589275360107 0.038838524371385574
0.98292458057403564 0.88966852426528931 0.014061572961509228
1 0.86756038665771484 0.037287048995494843
0.53123456239700317 0.99829554557800293 0
0.58669251203536987 0.99955016374588013 0
0.68745595216751099 1 0
0.81784319877624512 1 0
0.93663674592971802 1 0
0.99978816509246826 1 0
1 1 0
0.01771099679172039 0.04133937880396843 0.24273523688316345
0.092871785163879395 0.032471287995576859 0.23448333144187927
0.21415874361991882 0.022906584665179253 0.22113700211048126
0.37787249684333801 0.013445416465401649 0.19882683455944061
0.54713565111160278 0.0029030744917690754 0.17308646440505981
0.68417239189147949 0 0.14953790605068207
0.80751436948776245 0.00022286808234639466 0.10857774317264557
0.079069934785366058 0.16316522657871246 0.27493488788604736
0.13325351476669312 0.15422716736793518 0.26681503653526306
0.25324586033821106 0.14116917550563812 0.25529143214225769
0.41527661681175232 0.11463738232851028 0.23421858251094818
0.57769697904586792 0.068500667810440063 0.20736287534236908
0.700935959815979 0.019392440095543861 0.1745046079158783
0.81111544370651245 0.0050647212192416191 0.12799306213855743
0.091292724013328552 0.3137144148349762 0.30797058343887329
0.15900351107120514 0.30885100364685059 0.30295565724372864
0.29712989926338196 0.29654401540756226 0.29790708422660828
0.46991294622421265 0.27173694968223572 0.27650254964828491
0.63897490501403809 0.22929425537586212 0.24641269445419312
0.75447916984558105 0.15706372261047363 0.20802266895771027
0.84686940908432007 0.087172970175743103 0.16320818662643433
0.07935015857219696 0.51795005798339844 0.34431803226470947
0.18071457743644714 0.51419615745544434 0.3412652313709259
0.3482050895690918 0.51333069801330566 0.33409896492958069
0.53999108076095581 0.49413126707077026 0.31617727875709534
0.70944160223007202 0.46239593625068665 0.28985929489135742
0.83001172542572021 0.4033210277557373 0.25342527031898499
0.92370665073394775 0.31315445899963379 0.20960226655006409
0.11333394050598145 0.72865241765975952 0.36466029286384583
0.22971366345882416 0.72129476070404053 0.35721135139465332
0.41554668545722961 0.71963596343994141 0.34904366731643677
0.60863959789276123 0.716114342212677 0.33014360070228577
0.76934707164764404 0.69850844144821167 0.30658760666847229
0.90279078483581543 0.67427998781204224 0.27364763617515564
0.98982232809066772 0.61593258380889893 0.22690886259078979
0.24114221334457397 0.90205943584442139 0.3265431821346283
0.34375670552253723 0.89528429508209229 0.31425100564956665
0.50417119264602661 0.90266925096511841 0.31082051992416382
0.68091785907745361 0.90000802278518677 0.28950518369674683
0.82386630773544312 0.8959389328956604 0.27770587801933289
0.96387910842895508 0.88106405735015869 0.22037336230278015
1 0.85791325569152832 0.18175049126148224
0.47623428702354431 0.99749481678009033 0.086026452481746674
0.53780710697174072 0.99717515707015991 0.077137649059295654
0.64824503660202026 1 0.12000980973243713
0.79439085721969604 0.99990576505661011 0.083928473293781281
0.92555385828018188 0.99998277425765991 0.049103561788797379
0.9996679425239563 0.99975889921188354 0.025426184758543968
1 0.99801254272460938 0.007060750387609005
0.0025813982356339693 0.045930299907922745 0.36998173594474792
0.062705308198928833 0.034490726888179779 0.36818802356719971
0.18240717053413391 0.022657955065369606 0.3580758273601532
0.35466611385345459 0.016198355704545975 0.33182379603385925
0.52670657634735107 0.0079953065142035484 0.3085801899433136
0.66204214096069336 0.0010787963401526213 0.29147207736968994
0.78455245494842529 5.7175580877810717e-05 0.25390082597732544
0.036320000886917114 0.16872155666351318 0.41268593072891235
0.092238515615463257 0.15985444188117981 0.40802490711212158
0.21244998276233673 0.14330467581748962 0.39937439560890198
0.38766327500343323 0.11960460990667343 0.3790287971496582
0.55668884515762329 0.082658000290393829 0.35727682709693909
0.6810728907585144 0.03699161484837532 0.33347281813621521
0.7875899076461792 0.0056150546297430992 0.29272547364234924
0.03811684250831604 0.31888550519943237 0.46618366241455078
0.10109689831733704 0.31346526741981506 0.46032583713531494
0.24441327154636383 0.29797834157943726 0.45336052775382996
0.43786439299583435 0.2754509449005127 0.43677765130996704
0.61320346593856812 0.23759661614894867 0.41435560584068298
0.73238152265548706 0.16714677214622498 0.38441339135169983
0.8262137770652771 0.093735501170158386 0.34400680661201477
0.012974338605999947 0.52501410245895386 0.51956164836883545
0.096599891781806946 0.51860475540161133 0.51640647649765015
0.28132307529449463 0.51271843910217285 0.50856441259384155
0.49783527851104736 0.49774947762489319 0.4949832558631897
0.67662841081619263 0.46870261430740356 0.47752058506011963
0.80240488052368164 0.41306993365287781 0.4487660825252533
0.89959657192230225 0.32591596245765686 0.40774935483932495
0.0137545270845294 0.71656793355941772 0.55604195594787598
0.11641068011522293 0.71363246440887451 0.55685579776763916
0.33972057700157166 0.71023440361022949 0.54871213436126709
0.56261980533599854 0.70966869592666626 0.53499764204025269
0.73112601041793823 0.69380408525466919 0.51772135496139526
0.8704075813293457 0.67219442129135132 0.50201284885406494
0.97197806835174561 0.61182856559753418 0.4600856602191925
0.070669181644916534 0.88604193925857544 0.55706048011779785
0.20849683880805969 0.88404273986816406 0.56029504537582397
0.42864808440208435 0.88558685779571533 0.55437684059143066
0.62618410587310791 0.88842505216598511 0.54786461591720581
0.78029358386993408 0.88077658414840698 0.53175824880599976
0.92430037260055542 0.86849015951156616 0.51655679941177368
0.99933016300201416 0.83907949924468994 0.45683658123016357
0.26999887824058533 0.99894034862518311 0.42336156964302063
0.41328638792037964 0.99479323625564575 0.40388017892837524
0.56518733501434326 0.99929505586624146 0.41807857155799866
0.72019457817077637 0.99999356269836426 0.40260803699493408
0.86490070819854736 0.99964940547943115 0.37334835529327393
0.985645592212677 0.99724584817886353 0.33445075154304504
1 0.99446481466293335 0.25219416618347168
0 0.049547098577022552 0.51054370403289795
0.036021962761878967 0.037767507135868073 0.51476788520812988
0.14905306696891785 0.022497333586215973 0.50767308473587036
0.32127419114112854 0.015321499668061733 0.47928303480148315
0.4964955747127533 0.0073562324978411198 0.45757052302360535
0.62931680679321289 0.00078015797771513462 0.44541865587234497
0.74356722831726074 0 0.41328424215316772
0.0045060552656650543 0.1737806648015976 0.56285810470581055
0.05832691490650177 0.16823846101760864 0.56540524959564209
0.17130021750926971 0.14927229285240173 0.55658406019210815
0.35097014904022217 0.12411512434482574 0.53460335731506348
0.52907449007034302 0.092179559171199799 0.51436185836791992
0.6536707878112793 0.046362198889255524 0.4962712824344635
0.75357437133789062 0.0031115661840885878 0.46020928025245667
0.0020701838657259941 0.32428827881813049 0.6250617504119873
0.045111190527677536 0.32029473781585693 0.62223201990127563
0.18230052292346954 0.30799829959869385 0.61403864622116089
0.3936200737953186 0.28199061751365662 0.59797871112823486
0.58420586585998535 0.2479759007692337 0.5779605507850647
0.7080720067024231 0.17771178483963013 0.55296123027801514
0.79954648017883301 0.091432012617588043 0.51759225130081177
0 0.5316433310508728 0.68096411228179932
0.017004858702421188 0.52875775098800659 0.67664951086044312
0.18779951333999634 0.52207869291305542 0.67065954208374023
0.44908681511878967 0.50663644075393677 0.65895026922225952
0.64434355497360229 0.47931763529777527 0.64257967472076416
0.77622777223587036 0.42032045125961304 0.61947512626647949
0.87378650903701782 0.32900905609130859 0.58601862192153931
0 0.71424353122711182 0.72529911994934082
0.011281360872089863 0.71575987339019775 0.72251075506210327
0.2150706946849823 0.71029955148696899 0.71765232086181641
0.50693982839584351 0.70539897680282593 0.70594847202301025
0.6916813850402832 0.69027656316757202 0.69446605443954468
0.83579915761947632 0.66814231872558594 0.67608624696731567
0.94809192419052124 0.61270517110824585 0.64803522825241089
0.0040232487954199314 0.87183618545532227 0.74775409698486328
0.064495861530303955 0.87386798858642578 0.7454841136932373
0.2977195680141449 0.87330573797225952 0.74217689037322998
0.56843972206115723 0.87066549062728882 0.73137295246124268
0.73957592248916626 0.8651806116104126 0.72498291730880737
0.88338804244995117 0.85364151000976562 0.71032941341400146
0.99367177486419678 0.82692301273345947 0.68532097339630127
0.094614498317241669 0.99372661113739014 0.6967424750328064
0.20964379608631134 0.99136883020401001 0.68256187438964844
0.40821868181228638 0.99417221546173096 0.67949110269546509
0.62586015462875366 0.99646544456481934 0.67821013927459717
0.79456323385238647 0.99794429540634155 0.67960643768310547
0.94509398937225342 0.99442678689956665 0.65585875511169434
0.99996340274810791 0.99384331703186035 0.62717235088348389
0 0.062908276915550232 0.64197111129760742
0.0086482176557183266 0.055633231997489929 0.64294445514678955
0.10916519165039062 0.039699375629425049 0.6341928243637085
0.27868229150772095 0.018861344084143639 0.61381238698959351
0.46831178665161133 0.0042989393696188927 0.59444469213485718
0.60955131053924561 0 0.57723593711853027
0.71628320217132568 0 0.54850631952285767
0 0.18982243537902832 0.69317567348480225
0.019105201587080956 0.18707495927810669 0.69411659240722656
0.11806090176105499 0.1731811910867691 0.68650573492050171
0.30535748600959778 0.14554089307785034 0.66863381862640381
0.50490653514862061 0.10612631589174271 0.64837300777435303
0.63723546266555786 0.055426772683858871 0.62676960229873657
0.72822850942611694 0.0043386872857809067 0.59265196323394775
0.00065401860047131777 0.3481813371181488 0.74719321727752686
0.0061161266639828682 0.34318888187408447 0.74553388357162476
0.11183781176805496 0.334891676902771 0.74005818367004395
0.34184557199478149 0.31321930885314941 0.72701805830001831
0.5611463189125061 0.27739545702934265 0.70783525705337524
0.69433856010437012 0.20676511526107788 0.684456467628479
0.78745931386947632 0.11564268171787262 0.65292525291442871
0.0021411820780485868 0.55030149221420288 0.80053931474685669
0.00021048153575975448 0.54863327741622925 0.79699552059173584
0.10235682129859924 0.53890895843505859 0.79423052072525024
0.37881553173065186 0.52807307243347168 0.7851482629776001
0.61693590879440308 0.50296330451965332 0.76865339279174805
0.7609831690788269 0.44959202408790588 0.74959588050842285
0.86550706624984741 0.36559295654296875 0.72209769487380981
0.0012293796753510833 0.7186734676361084 0.85114049911499023
0 0.71574527025222778 0.84735667705535889
0.11994343250989914 0.71490943431854248 0.84326481819152832
0.43215084075927734 0.70967131853103638 0.83436703681945801
0.65655851364135742 0.69955950975418091 0.81957274675369263
0.81157213449478149 0.67758047580718994 0.8052554726600647
0.93086409568786621 0.62991678714752197 0.78778183460235596
0 0.86453711986541748 0.89153593778610229
0.00020360010967124254 0.86807429790496826 0.88312208652496338
0.15662352740764618 0.86770665645599365 0.88056087493896484
0.47851124405860901 0.86564379930496216 0.87291401624679565
0.70013189315795898 0.86212635040283203 0.86344057321548462
0.8511425256729126 0.85233408212661743 0.84862273931503296
0.97310811281204224 0.82731038331985474 0.83708930015563965
0.0040351566858589649 0.98603928089141846 0.88899058103561401
0.053290005773305893 0.98515433073043823 0.88478809595108032
0.2330053299665451 0.98741477727890015 0.87888950109481812
0.51075810194015503 0.99026012420654297 0.87115943431854248
0.73878985643386841 0.99240446090698242 0.86786401271820068
0.89619487524032593 0.9903990626335144 0.85775315761566162
0.99733388423919678 0.98431533575057983 0.83404433727264404
0 0.089952908456325531 0.76071828603744507
0 0.086389206349849701 0.75660651922225952
0.070959098637104034 0.067734904587268829 0.74708211421966553
0.23828557133674622 0.035278379917144775 0.7316933274269104
0.44772419333457947 0.0081421202048659325 0.71418243646621704
0.60019320249557495 0.0030926722101867199 0.69532334804534912
0.70983260869979858 0.0032253640238195658 0.67211532592773438
0 0.22402119636535645 0.80875700712203979
0 0.22442725300788879 0.80503201484680176
0.072243407368659973 0.21270625293254852 0.79698735475540161
0.2586769163608551 0.18100269138813019 0.78263908624649048
0.47743323445320129 0.13466885685920715 0.76323395967483521
0.62840211391448975 0.084704048931598663 0.74086999893188477
0.72988462448120117 0.029785964637994766 0.71439546346664429
0 0.38507953286170959 0.85876792669296265
0 0.38316422700881958 0.85529112815856934
0.05826587975025177 0.37507408857345581 0.84886068105697632
0.27450016140937805 0.35163873434066772 0.83581101894378662
0.51929962635040283 0.31764611601829529 0.81816840171813965
0.67496901750564575 0.25114074349403381 0.79696309566497803
0.78275156021118164 0.14499221742153168 0.77075523138046265
0.0015399259282276034 0.57247793674468994 0.9105149507522583
1.4211616871762089e-05 0.57476687431335449 0.90825808048248291
0.028478451073169708 0.56402450799942017 0.90301191806793213
0.25405716896057129 0.55022221803665161 0.8910222053527832
0.55850458145141602 0.53237175941467285 0.87772887945175171
0.73059320449829102 0.48964613676071167 0.86175984144210815
0.85427689552307129 0.40432626008987427 0.83650988340377808
0.0013423694763332605 0.73164474964141846 0.96000069379806519
0.00016922295617405325 0.72918224334716797 0.95584923028945923
0.026890220120549202 0.7271350622177124 0.95061397552490234
0.29087889194488525 0.72473901510238647 0.93911927938461304
0.59893351793289185 0.71592050790786743 0.92735588550567627
0.77707874774932861 0.69894146919250488 0.91540271043777466
0.91256046295166016 0.65507930517196655 0.90022939443588257
0 0.86813384294509888 0.99467498064041138
0 0.87079697847366333 0.98916620016098022
0.033573493361473083 0.87081718444824219 0.98707467317581177
0.29752066731452942 0.86946374177932739 0.9788442850112915
0.62126857042312622 0.86599433422088623 0.97202730178833008
0.81425124406814575 0.86447948217391968 0.95777195692062378
0.94895857572555542 0.83857780694961548 0.95410323143005371
0 0.98377120494842529 0.99891698360443115
0.0019130482105538249 0.98235994577407837 0.99985063076019287
0.10209374874830246 0.98380559682846069 0.99876207113265991
0.3458918035030365 0.98220157623291016 0.99367713928222656
0.63311147689819336 0.98624449968338013 0.9923628568649292
0.84437054395675659 0.98836624622344971 0.99066334962844849
0.98301917314529419 0.98314434289932251 0.98144704103469849
