assets/lut/films colorslide fuji provia 100f.cube
# Created by: G'MIC (https://gmic.eu)
TITLE "fuji_provia_100f"
# LUT size
LUT_3D_SIZE 5
# Data domain
DOMAIN_MIN 0.0 0.0 0.0
DOMAIN_MAX 1.0 1.0 1.0
# LUT data points
0.03630002960562706 0.031280666589736938 0.027555113658308983
0.25065708160400391 0.029380260035395622 0.023723063990473747
0.51507371664047241 0.018717164173722267 0.0076524773612618446
0.83650851249694824 0.013155573979020119 0.0013469023397192359
1 0.01371638011187315 0
0.10843177884817123 0.2679755687713623 0.13828076422214508
0.27435111999511719 0.26066631078720093 0.12666857242584229
0.53026926517486572 0.25161486864089966 0.10641041398048401
0.84694921970367432 0.22267745435237885 0.061103567481040955
1 0.2072148323059082 0.012348429299890995
0.12229174375534058 0.52852600812911987 0.27209341526031494
0.29509821534156799 0.52925127744674683 0.26214456558227539
0.55837315320968628 0.52238911390304565 0.24171122908592224
0.86163914203643799 0.51562434434890747 0.2022324800491333
1 0.4982793927192688 0.12499760836362839
0.22543378174304962 0.81044948101043701 0.41891247034072876
0.36490681767463684 0.8163256049156189 0.41632801294326782
0.61101174354553223 0.81187939643859863 0.39512857794761658
0.8777846097946167 0.81874763965606689 0.36768019199371338
1 0.80191570520401001 0.30306661128997803
0.50444728136062622 1 0.58271074295043945
0.5828697681427002 1 0.58848041296005249
0.7430310845375061 1 0.58166766166687012
0.94089657068252563 0.99972790479660034 0.57480311393737793
1 1 0.51835227012634277
0.01499545481055975 0.017471687868237495 0.15384911000728607
0.21692958474159241 0.0094557665288448334 0.14050418138504028
0.48711594939231873 0.012280408293008804 0.11366025358438492
0.80966347455978394 0.0021072686649858952 0.083305135369300842
1 0 0.016475213691592216
0.07512163370847702 0.24565330147743225 0.25283345580101013
0.24049140512943268 0.24295498430728912 0.24351409077644348
0.50466275215148926 0.23009955883026123 0.22238969802856445
0.82552617788314819 0.20421193540096283 0.18506245315074921
1 0.16239005327224731 0.11282642185688019
0.07993277907371521 0.51838856935501099 0.36568579077720642
0.26259782910346985 0.51658511161804199 0.35732576251029968
0.53316974639892578 0.51211410760879517 0.34446069598197937
0.82902848720550537 0.50289690494537354 0.3165249228477478
1 0.48192659020423889 0.25395625829696655
0.16635708510875702 0.81345075368881226 0.50219511985778809
0.32325407862663269 0.81339234113693237 0.4957638680934906
0.57723510265350342 0.80461114645004272 0.48349481821060181
0.85221081972122192 0.80866843461990356 0.45950749516487122
1 0.79463082551956177 0.41278225183486938
0.51646584272384644 0.99995797872543335 0.66236883401870728
0.57867079973220825 1 0.65879523754119873
0.71558821201324463 1 0.65383142232894897
0.92584002017974854 0.99820423126220703 0.64445453882217407
1 1 0.60130876302719116
0.003687944496050477 0.0025986167602241039 0.2922346293926239
0.17245984077453613 0.00044412052375264466 0.28014850616455078
0.4469616711139679 6.247127748792991e-05 0.26563668251037598
0.76938247680664062 0 0.23891955614089966
1 0 0.18672426044940948
0.04690735787153244 0.21558789908885956 0.38824716210365295
0.19974185526371002 0.20989134907722473 0.38321247696876526
0.46170535683631897 0.19810475409030914 0.36853337287902832
0.78471833467483521 0.16984416544437408 0.34505149722099304
1 0.1322532445192337 0.29367467761039734
0.03182779997587204 0.49745070934295654 0.49949336051940918
0.2074010819196701 0.49619179964065552 0.49655413627624512
0.49255838990211487 0.49183341860771179 0.49108338356018066
0.79312729835510254 0.48153525590896606 0.46910062432289124
1 0.44798386096954346 0.42502108216285706
0.055028535425662994 0.79968774318695068 0.63298940658569336
0.24876584112644196 0.79231399297714233 0.632088303565979
0.53293299674987793 0.78862428665161133 0.6248772144317627
0.81638878583908081 0.7938227653503418 0.6056486964225769
1 0.77590394020080566 0.570343017578125
0.50334793329238892 0.99585378170013428 0.77714675664901733
0.55407142639160156 1 0.77139735221862793
0.6874508261680603 1 0.76710790395736694
0.88910436630249023 1 0.75966936349868774
1 1 0.73018485307693481
0 0 0.44619929790496826
0.10896596312522888 0 0.43947711586952209
0.38444316387176514 0 0.43624076247215271
0.71895110607147217 0 0.41977199912071228
0.99987274408340454 0 0.37974044680595398
0.018231559544801712 0.15924474596977234 0.54375600814819336
0.12910299003124237 0.15094952285289764 0.54081171751022339
0.40925514698028564 0.13973332941532135 0.53374952077865601
0.72792190313339233 0.10845468193292618 0.51543855667114258
0.99091559648513794 0.056075751781463623 0.47843477129936218
0.015398047864437103 0.46529611945152283 0.65748220682144165
0.12722721695899963 0.46163126826286316 0.65465885400772095
0.43763744831085205 0.45457649230957031 0.65037214756011963
0.74825453758239746 0.43892812728881836 0.63627910614013672
1 0.39935553073883057 0.60620576143264771
0.00028762817964889109 0.77591180801391602 0.77970403432846069
0.15395607054233551 0.7758796215057373 0.77862089872360229
0.46977031230926514 0.77318680286407471 0.77388882637023926
0.76906222105026245 0.76770222187042236 0.76433920860290527
1 0.74609661102294922 0.73832648992538452
0.34187975525856018 0.99779409170150757 0.89961451292037964
0.49493929743766785 0.99750864505767822 0.90077203512191772
0.64064329862594604 0.99801820516586304 0.89927405118942261
0.8541223406791687 0.99783271551132202 0.8929707407951355
0.99912554025650024 0.99755227565765381 0.87790864706039429
0 0 0.60141247510910034
0.06097908690571785 0 0.60313528776168823
0.31591862440109253 0 0.60920697450637817
0.65157860517501831 0.00051918777171522379 0.59509563446044922
0.98446863889694214 0 0.55269110202789307
0.00042959474376402795 0.074986822903156281 0.69922882318496704
0.039696697145700455 0.061201881617307663 0.69839006662368774
0.32519733905792236 0.080323070287704468 0.69776648283004761
0.67158281803131104 0.034904584288597107 0.67943358421325684
0.98949617147445679 0.055035654455423355 0.64914309978485107
0.00080560421338304877 0.40485081076622009 0.81450831890106201
0.028485272079706192 0.39955353736877441 0.81359714269638062
0.33917558193206787 0.39129170775413513 0.80970299243927002
0.68504565954208374 0.36559012532234192 0.79742681980133057
0.99163568019866943 0.35195982456207275 0.77610284090042114
0 0.73490405082702637 0.92563378810882568
0.021117521449923515 0.7318648099899292 0.92519277334213257
0.38365444540977478 0.7259717583656311 0.92108452320098877
0.69976460933685303 0.71956658363342285 0.91645991802215576
0.99468165636062622 0.70162177085876465 0.90152144432067871
0.26804551482200623 0.9900507926940918 0.99705207347869873
0.353290855884552 0.98941659927368164 0.99428015947341919
0.59156322479248047 0.98766243457794189 0.99551355838775635
0.8007509708404541 0.9921301007270813 0.99594604969024658
0.99557793140411377 0.98902219533920288 0.99472320079803467
