assets/lut/films print fuji 3513 constlclip.cube
# Created by: G'MIC (https://gmic.eu)
TITLE "fuji_3513_constlclip"
# LUT size
LUT_3D_SIZE 7
# Data domain
DOMAIN_MIN 0.0 0.0 0.0
DOMAIN_MAX 1.0 1.0 1.0
# LUT data points
0.010951966047286987 0.020266873762011528 0.024316795170307159
0.06214388832449913 0.033714532852172852 0.026134984567761421
0.14897297322750092 0.042590361088514328 0.013064620085060596
0.32772982120513916 0.058250576257705688 0.0097163179889321327
0.42143180966377258 0.083160176873207092 0.0060358834452927113
0.49901098012924194 0.096917919814586639 0.017796549946069717
0.53745299577713013 0.10770242661237717 0.023272136226296425
0.011271174065768719 0.073445186018943787 0.047142524272203445
0.054549258202314377 0.082215763628482819 0.048454269766807556
0.17251266539096832 0.10038042068481445 0.017286323010921478
0.35357785224914551 0.12883400917053223 0.008238205686211586
0.4949544370174408 0.14814159274101257 0.0089529147371649742
0.57776671648025513 0.16302253305912018 0.01573924720287323
0.60460811853408813 0.17147085070610046 0.026476796716451645
0.0041426117531955242 0.14367549121379852 0.076432019472122192
0.01122334785759449 0.15944759547710419 0.055407833307981491
0.18766717612743378 0.19889141619205475 0.0066556292586028576
0.40756601095199585 0.2504134476184845 0.0039344937540590763
0.56950420141220093 0.26607879996299744 0.0092802755534648895
0.65023642778396606 0.27071097493171692 0.019025286659598351
0.68518030643463135 0.28474259376525879 0.025531977415084839
0.0065223542042076588 0.26169052720069885 0.12616772949695587
0.014888269826769829 0.29580557346343994 0.10965841263532639
0.18906059861183167 0.36663925647735596 0.0078020580112934113
0.49698475003242493 0.44052669405937195 0.0079217497259378433
0.69353783130645752 0.47623151540756226 0.014524901285767555
0.76630926132202148 0.47668361663818359 0.013954237103462219
0.78684723377227783 0.48695525527000427 0.019415298476815224
0.019968952983617783 0.37273260951042175 0.1684369295835495
0.024869522079825401 0.41314676403999329 0.15632247924804688
0.20753742754459381 0.51429736614227295 0.012653306126594543
0.56447297334671021 0.61387050151824951 0.0184452123939991
0.77427548170089722 0.6660495400428772 0.013068434782326221
0.85428154468536377 0.67506861686706543 0.011935649439692497
0.88549518585205078 0.68751108646392822 0.02920888178050518
0.029588228091597557 0.43840193748474121 0.19817261397838593
0.018149057403206825 0.48958912491798401 0.16743192076683044
0.25411558151245117 0.60001504421234131 0.014998252503573895
0.59688735008239746 0.69247180223464966 0.0079368287697434425
0.81199496984481812 0.74935853481292725 0.038766957819461823
0.90467697381973267 0.77166265249252319 0.057510584592819214
0.93400657176971436 0.78081536293029785 0.077659487724304199
0.020540902391076088 0.50250953435897827 0.23730303347110748
0.0109913544729352 0.578072190284729 0.16883395612239838
0.30676412582397461 0.674213707447052 0.0096137849614024162
0.64216464757919312 0.75222188234329224 0.015643520280718803
0.84895622730255127 0.80088913440704346 0.036167025566101074
0.95013147592544556 0.81991285085678101 0.06206677109003067
0.97678995132446289 0.83108770847320557 0.10992316156625748
0.0081042125821113586 0.03058076836168766 0.058969490230083466
0.042781934142112732 0.032292235642671585 0.055253434926271439
0.15535372495651245 0.041589640080928802 0.058514837175607681
0.34952875971794128 0.0228462815284729 0.022993693128228188
0.48451262712478638 0.022037265822291374 0.021705253049731255
0.57436823844909668 0.035437505692243576 0.042625561356544495
0.59245294332504272 0.027635686099529266 0.031912066042423248
0.014420093968510628 0.083178050816059113 0.083593703806400299
0.044507239013910294 0.08416728675365448 0.080007486045360565
0.19740600883960724 0.10131159424781799 0.070025786757469177
0.42394530773162842 0.10812097042798996 0.019056925550103188
0.57941925525665283 0.088250145316123962 0.021484285593032837
0.65629744529724121 0.09042695164680481 0.02028229646384716
0.69031345844268799 0.097968906164169312 0.020864794030785561
0.0062566120177507401 0.15555304288864136 0.10861844569444656
0.015046661719679832 0.17175179719924927 0.10378911346197128
0.21879255771636963 0.22293247282505035 0.076576709747314453
0.48764720559120178 0.25693431496620178 0.020433641970157623
0.66253721714019775 0.2705845832824707 0.021748950704932213
0.7425229549407959 0.25594261288642883 0.014487667009234428
0.79092973470687866 0.28315630555152893 0.02214253693819046
0.0096606090664863586 0.28835761547088623 0.17275607585906982
0.014275539666414261 0.32251530885696411 0.15792243182659149
0.20486645400524139 0.40561240911483765 0.051911819726228714
0.55226689577102661 0.46671575307846069 0.0112241106107831
0.76911300420761108 0.49472984671592712 0.013101345859467983
0.85005903244018555 0.49961161613464355 0.007136909756809473
0.87505203485488892 0.51848030090332031 0.014681528322398663
0.007307778112590313 0.40725818276405334 0.22190080583095551
0.014089426957070827 0.45772626996040344 0.21623706817626953
0.15212270617485046 0.57581645250320435 0.042505569756031036
0.60017460584640503 0.66730213165283203 0.013550014235079288
0.83721381425857544 0.71194678544998169 0.031957395374774933
0.92488193511962891 0.72614163160324097 0.032964847981929779
0.95084035396575928 0.73632800579071045 0.038913369178771973
0.01851552352309227 0.4676782488822937 0.27163061499595642
0.013561428524553776 0.52740252017974854 0.26241585612297058
0.12664571404457092 0.65185892581939697 0.10396984219551086
0.61535418033599854 0.75701063871383667 0.019698692485690117
0.86914396286010742 0.80742150545120239 0.014264409430325031
0.96934777498245239 0.82417947053909302 0.058247435837984085
0.98878800868988037 0.829670250415802 0.10183493047952652
0.019887601956725121 0.54146915674209595 0.3641258180141449
0.030251970514655113 0.62286663055419922 0.35219711065292358
0.17289523780345917 0.72827231884002686 0.26405584812164307
0.63916516304016113 0.81179827451705933 0.23765659332275391
0.89922094345092773 0.85558342933654785 0.14312823116779327
0.99608474969863892 0.87196803092956543 0.18091090023517609
0.9994315505027771 0.87349075078964233 0.32758638262748718
0.0040344838052988052 0.046987839043140411 0.14499081671237946
0.040412422269582748 0.027986938133835793 0.16375699639320374
0.16746048629283905 0.02835317887365818 0.16781087219715118
0.36828339099884033 0.013974328525364399 0.17418788373470306
0.51846539974212646 0.015530918724834919 0.17934826016426086
0.58705657720565796 0.033584639430046082 0.18142104148864746
0.62968409061431885 0.035250779241323471 0.19829916954040527
0.003952415194362402 0.10722135752439499 0.16685526072978973
0.028525752946734428 0.10074064880609512 0.18697048723697662
0.21059605479240417 0.11621084809303284 0.21344347298145294
0.44915992021560669 0.093115530908107758 0.21366016566753387
0.63331711292266846 0.033027753233909607 0.20872281491756439
0.70353883504867554 0.030497802421450615 0.19626864790916443
0.73856234550476074 0.028970561921596527 0.20461703836917877
0.0080780778080224991 0.1982811838388443 0.21453608572483063
0.011001900769770145 0.20632322132587433 0.22805431485176086
0.2066919356584549 0.24619127810001373 0.25419461727142334
0.50602459907531738 0.2795291543006897 0.24256089329719543
0.7107536792755127 0.25065624713897705 0.22643274068832397
0.80603092908859253 0.25759440660476685 0.23238800466060638
0.83704268932342529 0.2876226007938385 0.23880793154239655
0.0080614276230335236 0.33318355679512024 0.28420469164848328
0.023469647392630577 0.3724035918712616 0.2950187623500824
0.1290174275636673 0.45635250210762024 0.30103018879890442
0.57542973756790161 0.51599311828613281 0.26646566390991211
0.80383092164993286 0.51920926570892334 0.25585594773292542
0.90070605278015137 0.53583139181137085 0.23809254169464111
0.93420869112014771 0.56295841932296753 0.24845056235790253
0.0065302229486405849 0.46049025654792786 0.3505517840385437
0.010430070571601391 0.50587564706802368 0.36117279529571533
0.080577492713928223 0.62820959091186523 0.3487306535243988
0.60011172294616699 0.72582614421844482 0.27406606078147888
0.88543593883514404 0.77328670024871826 0.26882299780845642
0.9790414571762085 0.780997633934021 0.22711697220802307
0.99737215042114258 0.79285836219787598 0.27037131786346436
0.015351464040577412 0.52157652378082275 0.41467535495758057
0.018352553248405457 0.57710945606231689 0.42416143417358398
0.050833459943532944 0.70019412040710449 0.40579912066459656
0.59833264350891113 0.81311511993408203 0.36783111095428467
0.89919191598892212 0.86448842287063599 0.32219967246055603
0.98956477642059326 0.87163287401199341 0.33057138323783875
1 0.87832939624786377 0.41205030679702759
0.0088500678539276123 0.59839123487472534 0.5115741491317749
0.027231568470597267 0.66651797294616699 0.5214841365814209
0.12468732893466949 0.76729309558868408 0.51768255233764648
0.61315375566482544 0.85157626867294312 0.49575835466384888
0.87506771087646484 0.89701414108276367 0.49229604005813599
0.99218463897705078 0.91359817981719971 0.48556464910507202
1 0.91569977998733521 0.56262660026550293
0.0042657740414142609 0.10469690710306168 0.23353651165962219
0.036503825336694717 0.028733855113387108 0.28912129998207092
0.18549439311027527 0.0071932775899767876 0.33406275510787964
0.38433989882469177 0.012743107974529266 0.33722695708274841
0.54040622711181641 0.02735685370862484 0.35167384147644043
0.61239790916442871 0.038399878889322281 0.35804811120033264
0.65214782953262329 0.034941744059324265 0.38212800025939941
0.0070334789343178272 0.1607695072889328 0.28312057256698608
0.013119297102093697 0.14548635482788086 0.32329735159873962
0.19542674720287323 0.11183401197195053 0.41705647110939026
0.46516725420951843 0.098235681653022766 0.42314788699150085
0.64486080408096313 0.028032533824443817 0.43117272853851318
0.72250008583068848 0.023400625213980675 0.43354827165603638
0.755626380443573 0.022784648463129997 0.44491001963615417
0.0065669640898704529 0.25678598880767822 0.36162653565406799
0.01449946966022253 0.25521382689476013 0.38641920685768127
0.13531395792961121 0.27904394268989563 0.47431609034538269
0.51945102214813232 0.30951818823814392 0.50621753931045532
0.73002457618713379 0.27774012088775635 0.49806472659111023
0.80967068672180176 0.2718348503112793 0.49880954623222351
0.8415215015411377 0.30107644200325012 0.52654945850372314
0.007951115258038044 0.40617308020591736 0.45558097958564758
0.024359175935387611 0.43216347694396973 0.48038461804389954
0.08200526237487793 0.49923130869865417 0.54114174842834473
0.56165999174118042 0.56959211826324463 0.57485365867614746
0.82029449939727783 0.5787283182144165 0.56041574478149414
0.90323793888092041 0.58172845840454102 0.57298791408538818
0.93293935060501099 0.61422371864318848 0.5750051736831665
0.015207043848931789 0.5330997109413147 0.52494353055953979
0.0064170090481638908 0.57705187797546387 0.55427199602127075
0.011299313046038151 0.68507617712020874 0.60345935821533203
0.56896454095840454 0.78466606140136719 0.61836689710617065
0.87143218517303467 0.82518738508224487 0.62524771690368652
0.97525501251220703 0.83851099014282227 0.62273287773132324
0.99307155609130859 0.84256893396377563 0.63546204566955566
0.013727659359574318 0.58497697114944458 0.56502735614776611
0.0067828758619725704 0.64762407541275024 0.60395866632461548
0.018644519150257111 0.75764495134353638 0.65845715999603271
0.53341031074523926 0.86296284198760986 0.68087887763977051
0.88284844160079956 0.91526502370834351 0.6840367317199707
0.98342430591583252 0.92518526315689087 0.69009220600128174
0.99890446662902832 0.92233669757843018 0.71161413192749023
0.0031211106106638908 0.64370214939117432 0.64420896768569946
0.013925290666520596 0.72355413436889648 0.69740813970565796
0.034884016960859299 0.80824583768844604 0.73269379138946533
0.56460565328598022 0.89451467990875244 0.75642293691635132
0.8512151837348938 0.93878769874572754 0.7626272439956665
0.98494160175323486 0.95502680540084839 0.75878047943115234
0.99899601936340332 0.95464885234832764 0.78705888986587524
0.0065219355747103691 0.15353210270404816 0.3092445433139801
0.016528978943824768 0.12670095264911652 0.36031830310821533
0.17864911258220673 0.0073368595913052559 0.46785798668861389
0.3937554657459259 0.01826680451631546 0.49160504341125488
0.5546649694442749 0.035119254142045975 0.49499538540840149
0.62983113527297974 0.033052273094654083 0.50375717878341675
0.66633933782577515 0.032361529767513275 0.52462482452392578
0.0026123793795704842 0.20903092622756958 0.38486897945404053
0.0038923225365579128 0.20080497860908508 0.43560725450515747
0.18511146306991577 0.10168226808309555 0.56650620698928833
0.47562775015830994 0.070687480270862579 0.60398036241531372
0.65501266717910767 0.026833612471818924 0.61338740587234497
0.73418116569519043 0.022603906691074371 0.61854594945907593
0.76754987239837646 0.024578198790550232 0.63614708185195923
0.001550083514302969 0.29396858811378479 0.46180012822151184
0.0057598785497248173 0.30244457721710205 0.50917428731918335
0.11500818282365799 0.29518109560012817 0.65352892875671387
0.51099175214767456 0.32073515653610229 0.69806897640228271
0.73686975240707397 0.31320559978485107 0.71433568000793457
0.81937700510025024 0.29131343960762024 0.71137785911560059
0.85011333227157593 0.32601514458656311 0.71373337507247925
0.013805359601974487 0.4457639753818512 0.56273114681243896
0.034333217889070511 0.47649320960044861 0.59736210107803345
0.024875940755009651 0.53359180688858032 0.71487957239151001
0.54050731658935547 0.59992921352386475 0.77269893884658813
0.81013953685760498 0.6217924952507019 0.78731638193130493
0.90244561433792114 0.61717647314071655 0.79306471347808838
0.9343942403793335 0.65009325742721558 0.80183035135269165
0.029904788359999657 0.5747222900390625 0.64260846376419067
0.018580762669444084 0.62331771850585938 0.68673866987228394
0.0072431229054927826 0.71574562788009644 0.76467907428741455
0.50966399908065796 0.81413924694061279 0.83575147390365601
0.85037350654602051 0.85815274715423584 0.84659481048583984
0.95695245265960693 0.86952126026153564 0.84814423322677612
0.98689013719558716 0.87826603651046753 0.85402441024780273
0.020731892436742783 0.62273943424224854 0.67458432912826538
0.014962469227612019 0.68094062805175781 0.72060298919677734
0.019158188253641129 0.78516823053359985 0.80748844146728516
0.51177334785461426 0.89743107557296753 0.869454026222229
0.86141365766525269 0.94357621669769287 0.88199096918106079
0.97200703620910645 0.95751696825027466 0.88611757755279541
0.99668377637863159 0.95887666940689087 0.89808195829391479
0.0073053399100899696 0.67426049709320068 0.73080617189407349
0.011980199255049229 0.74942773580551147 0.79217606782913208
0.018501041457056999 0.82987803220748901 0.85665041208267212
0.53175550699234009 0.91968262195587158 0.90628612041473389
0.85315859317779541 0.96551388502120972 0.9124559760093689
0.97444647550582886 0.97946548461914062 0.91838669776916504
0.99537283182144165 0.98163384199142456 0.9334598183631897
0.001464350032620132 0.17834286391735077 0.36416596174240112
0.012213553301990032 0.15893317759037018 0.4054330587387085
0.18208914995193481 0.017745522782206535 0.54969686269760132
0.40908962488174438 0.020733164623379707 0.57348167896270752
0.57472306489944458 0.037813566625118256 0.60225939750671387
0.65155243873596191 0.043429385870695114 0.60439234972000122
0.68229442834854126 0.03912784531712532 0.61524569988250732
0.0017741783522069454 0.23767125606536865 0.4431510865688324
0.0082741528749465942 0.22304223477840424 0.49577206373214722
0.19516119360923767 0.099633388221263885 0.67032217979431152
0.47106409072875977 0.075083188712596893 0.70775413513183594
0.67036730051040649 0.025032822042703629 0.71951484680175781
0.74351984262466431 0.026243546977639198 0.71798759698867798
0.77985107898712158 0.026755537837743759 0.73187822103500366
0.0020369286648929119 0.32619863748550415 0.51310467720031738
0.011827251873910427 0.33864733576774597 0.57453137636184692
0.11404882371425629 0.31517347693443298 0.72256612777709961
0.49664527177810669 0.322593092918396 0.79653441905975342
0.73561906814575195 0.31446516513824463 0.80885380506515503
0.8201524019241333 0.28448137640953064 0.80746084451675415
0.85264933109283447 0.33212423324584961 0.81249713897705078
0.017418716102838516 0.47043141722679138 0.61359357833862305
0.033464841544628143 0.50778543949127197 0.66354560852050781
0.025038745254278183 0.55505752563476562 0.78896164894104004
0.51893675327301025 0.61317801475524902 0.8817487359046936
0.79839056730270386 0.63245421648025513 0.89068448543548584
0.89400142431259155 0.6236501932144165 0.88756930828094482
0.92982184886932373 0.65338099002838135 0.90639722347259521
0.027396498247981071 0.59079927206039429 0.6885141134262085
0.023865599185228348 0.64103275537490845 0.74035054445266724
0.03633880615234375 0.7351372241973877 0.83851391077041626
0.49624690413475037 0.82811152935028076 0.92723953723907471
0.83003968000411987 0.86983048915863037 0.94148427248001099
0.94814395904541016 0.88250356912612915 0.94107741117477417
0.97568708658218384 0.88243192434310913 0.9448392391204834
0.022873792797327042 0.64337152242660522 0.72469431161880493
0.015442133881151676 0.69667118787765503 0.77509814500808716
0.018979810178279877 0.80563199520111084 0.87330788373947144
0.47108945250511169 0.91185158491134644 0.9477725625038147
0.85021275281906128 0.95723772048950195 0.96240866184234619
0.95954692363739014 0.96684259176254272 0.95731157064437866
0.99074029922485352 0.97388637065887451 0.96402490139007568
0.016558762639760971 0.68644601106643677 0.76624435186386108
0.026006346568465233 0.74775564670562744 0.81909871101379395
0.023382792249321938 0.83679330348968506 0.90180015563964844
0.51465833187103271 0.92633354663848877 0.95710104703903198
0.83960014581680298 0.97125118970870972 0.96804642677307129
0.96734505891799927 0.98826253414154053 0.97886019945144653
0.98952877521514893 0.98759591579437256 0.97148531675338745
0.00024056527763605118 0.20563213527202606 0.40976819396018982
0.0061144512146711349 0.18846428394317627 0.4606119692325592
0.18969134986400604 0.013231509365141392 0.63139617443084717
0.43594762682914734 0.0060599683783948421 0.65569686889648438
0.61032700538635254 0.028101019561290741 0.66550940275192261
0.69975590705871582 0.028480589389801025 0.68707752227783203
0.72204816341400146 0.026569247245788574 0.6892162561416626
0.001216394710354507 0.2623198926448822 0.47560593485832214
0.0061007481999695301 0.26035800576210022 0.52344942092895508
0.14825841784477234 0.16227662563323975 0.7116163969039917
0.48738038539886475 0.15055067837238312 0.76576292514801025
0.68772029876708984 0.094756364822387695 0.77919954061508179
0.7802613377571106 0.079408176243305206 0.78964471817016602
0.8057674765586853 0.11700338870286942 0.79708683490753174
0.0041659488342702389 0.35087531805038452 0.54492729902267456
0.011228808201849461 0.359392911195755 0.60156244039535522
0.089421831071376801 0.34813675284385681 0.74779999256134033
0.50277435779571533 0.3628440797328949 0.83624178171157837
0.72823226451873779 0.35327866673469543 0.84872138500213623
0.8243822455406189 0.32324936985969543 0.84372860193252563
0.86084651947021484 0.35948342084884644 0.8613516092300415
0.030474914237856865 0.48830258846282959 0.63627487421035767
0.039626762270927429 0.51361030340194702 0.67889082431793213
0.021386703476309776 0.56094789505004883 0.81452137231826782
0.51679068803787231 0.61914592981338501 0.90710985660552979
0.79791510105133057 0.64953035116195679 0.92618238925933838
0.89597946405410767 0.64064580202102661 0.92518723011016846
0.92796462774276733 0.65432190895080566 0.92879569530487061
0.015364508144557476 0.60525345802307129 0.70752036571502686
0.02401224710047245 0.64990782737731934 0.7556341290473938
0.010881520807743073 0.73669707775115967 0.85728490352630615
0.47208550572395325 0.83319711685180664 0.95113134384155273
0.8212323784828186 0.87628859281539917 0.96992963552474976
0.94700801372528076 0.88599342107772827 0.97422891855239868
0.97958230972290039 0.90066063404083252 0.97932547330856323
0.010286249220371246 0.65003526210784912 0.73799806833267212
0.030555814504623413 0.70252525806427002 0.78863203525543213
0.034010451287031174 0.80339890718460083 0.88249498605728149
0.44748181104660034 0.91297024488449097 0.96617716550827026
0.83448177576065063 0.96133118867874146 0.98405498266220093
0.96716362237930298 0.97781860828399658 0.99094408750534058
0.98792493343353271 0.96824473142623901 0.98916202783584595
0.015486414544284344 0.69243508577346802 0.77764952182769775
0.012553675100207329 0.75837630033493042 0.83618432283401489
0.022006075829267502 0.8378605842590332 0.90994381904602051
0.49808844923973083 0.92877542972564697 0.9715765118598938
0.83299165964126587 0.97252178192138672 0.98535537719726562
0.95595860481262207 0.98787391185760498 0.99215686321258545
0.98951047658920288 0.99150228500366211 0.99426686763763428
