assets/lut/films colorslide fuji superia 200 xpro.cube
# Created by: G'MIC (https://gmic.eu)
TITLE "fuji_superia_200_xpro"
# LUT size
LUT_3D_SIZE 7
# Data domain
DOMAIN_MIN 0.0 0.0 0.0
DOMAIN_MAX 1.0 1.0 1.0
# LUT data points
0.00039984012255445123 0.033237967640161514 0.21420636773109436
0.00062795903068035841 0.052863791584968567 0.24103406071662903
0.0033779519144445658 0.072819970548152924 0.26799267530441284
0.018859399482607841 0.076221615076065063 0.26503109931945801
0.086996279656887054 0.05748334527015686 0.26755622029304504
0.20083469152450562 0.061476882547140121 0.28140074014663696
0.35056072473526001 0.084970064461231232 0.28338813781738281
0.0025827744975686073 0.22544664144515991 0.35772848129272461
0.010324127040803432 0.2350517064332962 0.36520302295684814
0.021707393229007721 0.2400127649307251 0.37800228595733643
0.058201044797897339 0.22521084547042847 0.37543320655822754
0.14737346768379211 0.19706982374191284 0.36452212929725647
0.26316511631011963 0.1883598268032074 0.35885769128799438
0.40169182419776917 0.19298739731311798 0.35401454567909241
0.0017373028676956892 0.39935877919197083 0.47633731365203857
0.00086294434731826186 0.40224489569664001 0.47901025414466858
0.0083123296499252319 0.40544098615646362 0.47793769836425781
0.047195032238960266 0.39333543181419373 0.46651625633239746
0.19117087125778198 0.35487467050552368 0.44789215922355652
0.32965946197509766 0.32000786066055298 0.42649626731872559
0.46264368295669556 0.30048093199729919 0.41266551613807678
0 0.64507323503494263 0.59305071830749512
4.8110065108630806e-05 0.64404314756393433 0.59396892786026001
0.00040800805436447263 0.63737612962722778 0.59078633785247803
0.059588070958852768 0.61473953723907471 0.57841295003890991
0.27594843506813049 0.55356895923614502 0.5459323525428772
0.41554751992225647 0.48654893040657043 0.50928020477294922
0.5449213981628418 0.43695792555809021 0.48336347937583923
0.023132368922233582 0.91888308525085449 0.72514605522155762
0.0052897436544299126 0.92237198352813721 0.72264671325683594
0.0023952110204845667 0.92052608728408813 0.71763902902603149
0.13427424430847168 0.88781428337097168 0.70243877172470093
0.35883083939552307 0.81188249588012695 0.65878546237945557
0.51403123140335083 0.71117782592773438 0.60902506113052368
0.6492077112197876 0.61983001232147217 0.56966221332550049
0.47882792353630066 0.99927693605422974 0.84631192684173584
0.45587319135665894 1 0.85098832845687866
0.50533878803253174 1 0.86604040861129761
0.52785837650299072 1 0.87128394842147827
0.57486379146575928 0.99990338087081909 0.82607376575469971
0.64851170778274536 0.96750098466873169 0.74687403440475464
0.77531778812408447 0.86277109384536743 0.67232340574264526
0.95037466287612915 1 0.98767411708831787
0.95421898365020752 1 0.9857182502746582
0.95950913429260254 1 0.98999863862991333
0.97232019901275635 0.99919813871383667 0.99985295534133911
0.9759412407875061 0.99763113260269165 0.99837112426757812
0.97713971138000488 0.99953615665435791 0.98352158069610596
0.99171727895736694 0.99978744983673096 0.84935295581817627
0 0.063638009130954742 0.37511160969734192
0 0.074611961841583252 0.38629701733589172
0 0.092327088117599487 0.39349678158760071
0.0017589494818821549 0.078734487295150757 0.38283684849739075
0.051193986088037491 0.058858368545770645 0.36512738466262817
0.17576242983341217 0.073546960949897766 0.36449834704399109
0.34231552481651306 0.11624713987112045 0.36545956134796143
0.00054092408390715718 0.2389882504940033 0.46765920519828796
5.9838390598088154e-07 0.24197854101657867 0.46723920106887817
0.005784651730209589 0.24159421026706696 0.46861940622329712
0.044374324381351471 0.22276033461093903 0.45462682843208313
0.12572643160820007 0.1950632631778717 0.43012601137161255
0.24401724338531494 0.19493082165718079 0.41790705919265747
0.38700330257415771 0.20286421477794647 0.41085302829742432
0.0022833133116364479 0.40550735592842102 0.54604232311248779
0.0042869416065514088 0.40684100985527039 0.5453382134437561
0.0024578617885708809 0.40403357148170471 0.54361104965209961
0.043810676783323288 0.38541969656944275 0.52722436189651489
0.15400835871696472 0.34960916638374329 0.49915921688079834
0.30650275945663452 0.3183739185333252 0.47336649894714355
0.44324791431427002 0.30119198560714722 0.46034157276153564
0.0064971474930644035 0.64055871963500977 0.64547073841094971
0.0048477174714207649 0.64326602220535278 0.64702457189559937
0 0.63482058048248291 0.64036422967910767
0.049073178321123123 0.60025691986083984 0.62106430530548096
0.24997030198574066 0.54067617654800415 0.58561360836029053
0.39304080605506897 0.48088440299034119 0.55205762386322021
0.52419948577880859 0.43569672107696533 0.52549237012863159
0.002078815596178174 0.92781466245651245 0.77046370506286621
0.021228296682238579 0.91072481870651245 0.76603227853775024
0.0023620903957635164 0.90907496213912964 0.75780218839645386
0.097009412944316864 0.86671584844589233 0.73776602745056152
0.3329092264175415 0.78741073608398438 0.69689655303955078
0.49417957663536072 0.69348382949829102 0.64601606130599976
0.63088434934616089 0.61480677127838135 0.60440576076507568
0.43150490522384644 0.99993449449539185 0.90599161386489868
0.45019245147705078 0.99996119737625122 0.91041648387908936
0.45110425353050232 1 0.91249066591262817
0.50139778852462769 0.9993775486946106 0.90060144662857056
0.53515660762786865 0.99656081199645996 0.8600231409072876
0.62690913677215576 0.95350879430770874 0.77095764875411987
0.76679027080535889 0.84989917278289795 0.69912225008010864
0.93645566701889038 1 0.99650359153747559
0.93181228637695312 1 0.99939495325088501
0.94501656293869019 0.9981575608253479 0.99986433982849121
0.95624303817749023 0.99786877632141113 1
0.9622008204460144 0.99843800067901611 0.99884283542633057
0.97055375576019287 0.99855148792266846 0.9878806471824646
0.97793173789978027 1 0.86393815279006958
0 0.094141401350498199 0.48042199015617371
0 0.10065198689699173 0.47980824112892151
0 0.099574685096740723 0.47223648428916931
0.00065247778547927737 0.077012129127979279 0.45427289605140686
0.052091844379901886 0.074499331414699554 0.43958023190498352
0.17155985534191132 0.10017405450344086 0.43318769335746765
0.31645441055297852 0.12139172852039337 0.42661145329475403
0 0.25312966108322144 0.55318754911422729
0 0.2505449652671814 0.54987806081771851
0.0052033816464245319 0.24401389062404633 0.54179126024246216
0.038565900176763535 0.22590775787830353 0.52021390199661255
0.1196783035993576 0.20635806024074554 0.49672988057136536
0.22604915499687195 0.20476855337619781 0.4840463399887085
0.36535391211509705 0.20668984949588776 0.4710020124912262
5.7444854064669926e-06 0.42354711890220642 0.62606078386306763
0.00093353871488943696 0.4191596508026123 0.61963409185409546
0.0048715630546212196 0.40844625234603882 0.61254334449768066
0.047787610441446304 0.38048776984214783 0.59034138917922974
0.15030117332935333 0.34196975827217102 0.56425076723098755
0.2804470956325531 0.3172701895236969 0.54070919752120972
0.42209425568580627 0.30239516496658325 0.52083128690719604
0.00090167473535984755 0.64612507820129395 0.71905505657196045
8.9009605289902538e-05 0.64016997814178467 0.71429717540740967
0.00014359717897605151 0.62242412567138672 0.70471048355102539
0.058665212243795395 0.57760012149810791 0.67855215072631836
0.22310683131217957 0.51942336559295654 0.64471501111984253
0.36614671349525452 0.47380739450454712 0.61134350299835205
0.50625127553939819 0.43895420432090759 0.58104020357131958
0.00033467609318904579 0.90935599803924561 0.83767849206924438
0.00016018736641854048 0.90508401393890381 0.83224260807037354
0.00010471718269400299 0.87993156909942627 0.81964749097824097
0.072868242859840393 0.82541495561599731 0.79240334033966064
0.31571093201637268 0.75209003686904907 0.74789977073669434
0.47602897882461548 0.67477452754974365 0.69899529218673706
0.61570346355438232 0.6129763126373291 0.65453678369522095
0.34622934460639954 1 0.98014408349990845
0.38473221659660339 0.99974334239959717 0.98233020305633545
0.38683772087097168 0.99974775314331055 0.97244280576705933
0.39932066202163696 1 0.94961267709732056
0.48481577634811401 0.993927001953125 0.88801324367523193
0.6049344539642334 0.93609696626663208 0.80750644207000732
0.74915444850921631 0.82981777191162109 0.74213683605194092
0.89757299423217773 1 1
0.90118181705474854 0.99983841180801392 1
0.92043471336364746 0.99998754262924194 0.9982343316078186
0.93308335542678833 0.99971407651901245 0.99620956182479858
0.9450829029083252 0.99917328357696533 0.99989885091781616
0.95237404108047485 0.99903756380081177 0.99120742082595825
0.96298426389694214 0.99948954582214355 0.89944851398468018
9.9271885119378567e-05 0.12593258917331696 0.56627267599105835
8.2666731032077223e-05 0.11829456686973572 0.55724418163299561
0.00021826052397955209 0.10415974259376526 0.5444256067276001
0.005108268465846777 0.091777846217155457 0.5301252007484436
0.051840133965015411 0.10540267080068588 0.52222096920013428
0.16201208531856537 0.11527319252490997 0.51035046577453613
0.30727922916412354 0.14232049882411957 0.49802291393280029
1.8490061847842298e-05 0.26577699184417725 0.63408756256103516
0.00038196338573470712 0.26211541891098022 0.623343825340271
0.0043946509249508381 0.24665224552154541 0.61302447319030762
0.043383549898862839 0.23211728036403656 0.59561985731124878
0.10989656299352646 0.22089307010173798 0.57720744609832764
0.21665187180042267 0.21700352430343628 0.55853080749511719
0.35952645540237427 0.22698540985584259 0.54003888368606567
0 0.42826211452484131 0.70356810092926025
0 0.41782483458518982 0.69456309080123901
0.0055125965736806393 0.39766129851341248 0.68224233388900757
0.045058052986860275 0.3719036877155304 0.65780138969421387
0.13056257367134094 0.3432219922542572 0.63178783655166626
0.2714422345161438 0.32555663585662842 0.60786336660385132
0.41812783479690552 0.32059401273727417 0.58605438470840454
0.0019129883730784059 0.62961041927337646 0.7858588695526123
0.0036566939670592546 0.61488872766494751 0.77825146913528442
0.00037934546708129346 0.59224182367324829 0.76318728923797607
0.077579349279403687 0.55095475912094116 0.73403745889663696
0.22161023318767548 0.50380003452301025 0.70270049571990967
0.35867688059806824 0.47089719772338867 0.67237251996994019
0.49997219443321228 0.44813206791877747 0.64231818914413452
0 0.87787127494812012 0.89111924171447754
6.471521919593215e-05 0.86783456802368164 0.88071238994598389
0.0025639701634645462 0.82762956619262695 0.86232692003250122
0.14678822457790375 0.778126060962677 0.82983732223510742
0.33821773529052734 0.71532195806503296 0.79173475503921509
0.47023487091064453 0.65900266170501709 0.75164115428924561
0.6049456000328064 0.61143428087234497 0.70962357521057129
0.28601905703544617 1 0.99040591716766357
0.29747828841209412 0.99987983703613281 0.9961743950843811
0.34123513102531433 0.99978440999984741 0.98989427089691162
0.36459848284721375 0.99706000089645386 0.95930629968643188
0.46997544169425964 0.97839605808258057 0.91138988733291626
0.58785158395767212 0.91581135988235474 0.85551935434341431
0.72970408201217651 0.8127673864364624 0.79176366329193115
0.87227129936218262 1 1
0.88018286228179932 0.9974176287651062 0.99833071231842041
0.89327919483184814 0.99902975559234619 0.99888646602630615
0.90378046035766602 0.99920344352722168 0.99880266189575195
0.91769874095916748 0.99695628881454468 0.99999064207077026
0.92039644718170166 0.99672186374664307 0.99604338407516479
0.94352936744689941 0.99655342102050781 0.92917168140411377
4.5237822632770985e-05 0.14163720607757568 0.63964372873306274
0.0008331448188982904 0.13337913155555725 0.6299593448638916
1.5079273907758761e-05 0.13446362316608429 0.62055999040603638
0.010586966760456562 0.13443012535572052 0.60916239023208618
0.071764402091503143 0.14141188561916351 0.59725064039230347
0.17769376933574677 0.14809522032737732 0.582133948802948
0.32620790600776672 0.19033326208591461 0.57254081964492798
0.00011333391012158245 0.27509337663650513 0.70221155881881714
0.0081297028809785843 0.27100101113319397 0.6889069676399231
0.01462789811193943 0.26133504509925842 0.67895758152008057
0.051262155175209045 0.25194504857063293 0.66630780696868896
0.11833478510379791 0.24159438908100128 0.6469109058380127
0.22907733917236328 0.2424529492855072 0.62878388166427612
0.37174570560455322 0.26606523990631104 0.6152573823928833
0 0.41570925712585449 0.76026219129562378
0.0017349392874166369 0.40603002905845642 0.74685746431350708
0.020321520045399666 0.39003661274909973 0.73507863283157349
0.071920551359653473 0.37035003304481506 0.7194409966468811
0.15796756744384766 0.35046395659446716 0.69751930236816406
0.28426733613014221 0.34241169691085815 0.6771852970123291
0.42605224251747131 0.35084724426269531 0.65749824047088623
2.7286305339657702e-05 0.59156185388565063 0.8294561505317688
0 0.57810056209564209 0.81889379024505615
0.027760360389947891 0.55938416719436646 0.8068268895149231
0.12763036787509918 0.53168791532516479 0.78593671321868896
0.24922327697277069 0.4996076226234436 0.76095229387283325
0.36973845958709717 0.47881060838699341 0.73663043975830078
0.50227510929107666 0.4665258526802063 0.70899450778961182
0.00064350204775109887 0.81819868087768555 0.92489933967590332
0.0032706914935261011 0.80430132150650024 0.91476768255233765
0.074328295886516571 0.7757028341293335 0.89948999881744385
0.22704829275608063 0.73707067966461182 0.87066173553466797
0.36149072647094727 0.69399565458297729 0.83888953924179077
0.47609195113182068 0.65587472915649414 0.80798166990280151
0.60037964582443237 0.61265826225280762 0.76952838897705078
0.22274084389209747 0.9994385838508606 0.99979883432388306
0.25005155801773071 0.99759829044342041 0.99935120344161987
0.296956866979599 0.99172329902648926 0.99359238147735596
0.39317965507507324 0.97429215908050537 0.97330021858215332
0.48526358604431152 0.94045531749725342 0.9452974796295166
0.59445202350616455 0.87234145402908325 0.89635902643203735
0.72182953357696533 0.79305338859558105 0.84390956163406372
0.84606343507766724 0.99920344352722168 1
0.85582637786865234 0.99901574850082397 0.99809300899505615
0.84690845012664795 0.99921977519989014 1
0.85745954513549805 0.99804145097732544 1
0.85760974884033203 0.99885439872741699 1
0.87066447734832764 1 0.99680984020233154
0.91657716035842896 0.99696332216262817 0.95628392696380615
0 0.18394258618354797 0.70964175462722778
0.0034359502606093884 0.17497892677783966 0.70053529739379883
0.011467593722045422 0.18199265003204346 0.69653105735778809
0.047349024564027786 0.18115639686584473 0.68353581428527832
0.11101045459508896 0.18380860984325409 0.67071330547332764
0.20491805672645569 0.19300839304924011 0.65904849767684937
0.34496602416038513 0.23709575831890106 0.65114420652389526
6.1783139244653285e-05 0.29301637411117554 0.75908780097961426
0.010410563088953495 0.28653967380523682 0.74831712245941162
0.04253571480512619 0.281617671251297 0.74249112606048584
0.090890385210514069 0.27728533744812012 0.73196578025817871
0.15658116340637207 0.2729952335357666 0.71585273742675781
0.25849419832229614 0.28022637963294983 0.70259344577789307
0.39256623387336731 0.31055149435997009 0.69158142805099487
0.0002346412802580744 0.4065413773059845 0.80644148588180542
0.0075326957739889622 0.39828860759735107 0.79765135049819946
0.058569155633449554 0.39278107881546021 0.78962725400924683
0.12845857441425323 0.38227322697639465 0.77847468852996826
0.21155662834644318 0.37142649292945862 0.76339256763458252
0.31926235556602478 0.37380483746528625 0.74828332662582397
0.44825530052185059 0.39078795909881592 0.73155206441879272
0.031732715666294098 0.56412225961685181 0.87020444869995117
0.038910374045372009 0.55367022752761841 0.86119085550308228
0.10847223550081253 0.54353606700897217 0.8518710732460022
0.20594757795333862 0.52579253911972046 0.83719313144683838
0.3023051917552948 0.50611603260040283 0.81868726015090942
0.40408232808113098 0.49751898646354675 0.80124616622924805
0.52202135324478149 0.49679082632064819 0.77849084138870239
0.13867934048175812 0.75423526763916016 0.94674199819564819
0.15989068150520325 0.74380791187286377 0.93979275226593018
0.2390156090259552 0.73066383600234985 0.9308428168296814
0.33131459355354309 0.70487850904464722 0.91376149654388428
0.41853475570678711 0.67423796653747559 0.88541895151138306
0.50884062051773071 0.65057194232940674 0.86362570524215698
0.61539000272750854 0.62619298696517944 0.83238130807876587
0.32504680752754211 0.98032879829406738 0.99931234121322632
0.35250362753868103 0.96818077564239502 0.99930757284164429
0.39419782161712646 0.96015834808349609 0.99909782409667969
0.45717936754226685 0.9307628870010376 0.99255132675170898
0.53073519468307495 0.89134228229522705 0.97194808721542358
0.62025445699691772 0.8406522274017334 0.94463199377059937
0.72885119915008545 0.78056234121322632 0.89496392011642456
0.81086105108261108 0.99808812141418457 1
0.80245000123977661 0.99934631586074829 0.99989497661590576
0.81424689292907715 0.99788898229598999 0.99974370002746582
0.81552267074584961 0.99974250793457031 0.99803698062896729
0.80677562952041626 1 1
0.84913855791091919 0.99805694818496704 0.99863606691360474
0.8972548246383667 0.98729407787322998 0.9826587438583374
0.011519862338900566 0.22360400855541229 0.77373963594436646
0.02350565604865551 0.2235986590385437 0.76628053188323975
0.044632885605096817 0.22178512811660767 0.76032698154449463
0.088062793016433716 0.22410587966442108 0.75138008594512939
0.16124401986598969 0.23962283134460449 0.74518430233001709
0.25666874647140503 0.25786802172660828 0.7373046875
0.38784763216972351 0.29821407794952393 0.7287832498550415
0.030664781108498573 0.31763768196105957 0.81357628107070923
0.032684758305549622 0.31835860013961792 0.80908548831939697
0.076980471611022949 0.31739422678947449 0.80411869287490845
0.13455557823181152 0.31637051701545715 0.79465740919113159
0.20873415470123291 0.32380712032318115 0.78705400228500366
0.3084767758846283 0.33674922585487366 0.7775464653968811
0.4332621693611145 0.36333438754081726 0.76457256078720093
0.053170356899499893 0.42227596044540405 0.85680246353149414
0.058641739189624786 0.41968521475791931 0.85324645042419434
0.12554460763931274 0.4189598560333252 0.8464093804359436
0.20029787719249725 0.41692334413528442 0.83715075254440308
0.27639734745025635 0.41451093554496765 0.82814115285873413
0.37316271662712097 0.42218908667564392 0.81745791435241699
0.49107387661933899 0.43993410468101501 0.80186116695404053
0.16262774169445038 0.55952179431915283 0.91010618209838867
0.18161502480506897 0.55169814825057983 0.90690737962722778
0.23384237289428711 0.54651451110839844 0.8980831503868103
0.30215144157409668 0.53911793231964111 0.88787740468978882
0.37427213788032532 0.53011304140090942 0.87607282400131226
0.45934280753135681 0.53068238496780396 0.86406224966049194
0.56491738557815552 0.53722351789474487 0.84494751691818237
0.33435285091400146 0.72277712821960449 0.96710407733917236
0.36458760499954224 0.70895951986312866 0.9675450325012207
0.39357712864875793 0.69925308227539062 0.95872020721435547
0.44107654690742493 0.6903495192527771 0.94778239727020264
0.49585074186325073 0.67199987173080444 0.93125671148300171
0.56362855434417725 0.66292011737823486 0.91757124662399292
0.65643388032913208 0.65558534860610962 0.89339417219161987
0.49416276812553406 0.91140282154083252 0.99933278560638428
0.5106431245803833 0.90013962984085083 0.99950754642486572
0.53242945671081543 0.88801127672195435 0.99909049272537231
0.57461512088775635 0.8674081563949585 0.99688726663589478
0.62258046865463257 0.84312045574188232 0.98925256729125977
0.68227052688598633 0.81779640913009644 0.97773605585098267
0.77041524648666382 0.78750151395797729 0.94222980737686157
0.78997600078582764 1 1
0.79127764701843262 1 1
0.81290537118911743 0.99971044063568115 1
0.80914807319641113 1 0.99875211715698242
0.82137084007263184 0.99963128566741943 1
0.86099553108215332 0.99538344144821167 1
0.9347882866859436 0.97030258178710938 0.99579298496246338
