assets/lut/films negative color kodak elite color 200.cube
# Created by: G'MIC (https://gmic.eu)
TITLE "kodak_elite_color_200"
# LUT size
LUT_3D_SIZE 13
# Data domain
DOMAIN_MIN 0.0 0.0 0.0
DOMAIN_MAX 1.0 1.0 1.0
# LUT data points
0.024932067841291428 0.024241099134087563 0.026249829679727554
0.06670919805765152 0.024399401620030403 0.030929610133171082
0.11914297193288803 0.025739677250385284 0.036202777177095413
0.17740853130817413 0.028946731239557266 0.04037812352180481
0.23995198309421539 0.034115839749574661 0.043395757675170898
0.31009677052497864 0.040269874036312103 0.047178260982036591
0.39084753394126892 0.046649858355522156 0.05393320694565773
0.48291271924972534 0.05452289804816246 0.062628969550132751
0.58140164613723755 0.065292820334434509 0.071978971362113953
0.68110531568527222 0.079012580215930939 0.083359859883785248
0.7774539589881897 0.095859065651893616 0.096554428339004517
0.86897552013397217 0.11618503928184509 0.10848322510719299
0.95513361692428589 0.13820795714855194 0.12043166905641556
0.044950954616069794 0.068942323327064514 0.030188886448740959
0.07806435227394104 0.069431424140930176 0.032432928681373596
0.12577202916145325 0.070738337934017181 0.036668740212917328
0.18344281613826752 0.073958359658718109 0.040883563458919525
0.24478165805339813 0.079514719545841217 0.043691553175449371
0.31317314505577087 0.086846999824047089 0.046274732798337936
0.39447289705276489 0.093487560749053955 0.052533768117427826
0.48822608590126038 0.10103469341993332 0.061426572501659393
0.58771109580993652 0.111639104783535 0.070251211524009705
0.68780291080474854 0.12554886937141418 0.08140091598033905
0.78363406658172607 0.14197859168052673 0.096683233976364136
0.87426537275314331 0.16135899722576141 0.11204484105110168
0.95945131778717041 0.18261030316352844 0.12650953233242035
0.073456242680549622 0.11463074386119843 0.036150045692920685
0.097512096166610718 0.11497525870800018 0.036995489150285721
0.13803021609783173 0.11637396365404129 0.039870139211416245
0.19339282810688019 0.11958546191453934 0.044143304228782654
0.25437510013580322 0.12531283497810364 0.047417059540748596
0.32321718335151672 0.13273179531097412 0.050689458847045898
0.40434539318084717 0.1397588849067688 0.056634414941072464
0.49734574556350708 0.14724572002887726 0.065419979393482208
0.59604841470718384 0.15768706798553467 0.075017042458057404
0.69463109970092773 0.17187473177909851 0.086570024490356445
0.78935015201568604 0.18857419490814209 0.10220060497522354
0.87885773181915283 0.20750655233860016 0.11912760883569717
0.96310698986053467 0.22816175222396851 0.13475111126899719
0.10515055805444717 0.16346167027950287 0.043527252972126007
0.12323857098817825 0.16435869038105011 0.043688274919986725
0.15590649843215942 0.16636855900287628 0.045517656952142715
0.2066284716129303 0.16917857527732849 0.049215368926525116
0.26789754629135132 0.17390859127044678 0.053080718964338303
0.33797475695610046 0.1811017245054245 0.057095233350992203
0.41937136650085449 0.18790750205516815 0.063347429037094116
0.5106087327003479 0.19497543573379517 0.072641067206859589
0.60701221227645874 0.20516552031040192 0.083287276327610016
0.70306658744812012 0.21976235508918762 0.095089465379714966
0.79587125778198242 0.23711603879928589 0.10982546210289001
0.88383424282073975 0.25599724054336548 0.12666566669940948
0.96684819459915161 0.27605211734771729 0.14264290034770966
0.12877283990383148 0.21956093609333038 0.046774830669164658
0.14331154525279999 0.22121186554431915 0.046813726425170898
0.17234775424003601 0.22372335195541382 0.048874139785766602
0.22029361128807068 0.2263733297586441 0.051659572869539261
0.28237244486808777 0.23038899898529053 0.055565569549798965
0.35426574945449829 0.23656633496284485 0.059851568192243576
0.43650743365287781 0.24257129430770874 0.06652233749628067
0.526680588722229 0.24835684895515442 0.076474539935588837
0.62037700414657593 0.25795787572860718 0.087714537978172302
0.71355491876602173 0.27292519807815552 0.098850265145301819
0.80383127927780151 0.29024931788444519 0.11255491524934769
0.89015507698059082 0.30840465426445007 0.1291557252407074
0.97062844038009644 0.32744899392127991 0.14500764012336731
0.13759942352771759 0.28476449847221375 0.042236059904098511
0.15349449217319489 0.28658825159072876 0.044179264456033707
0.18323464691638947 0.28934496641159058 0.046185705810785294
0.23201851546764374 0.29227730631828308 0.04851798340678215
0.29596677422523499 0.29618892073631287 0.051332511007785797
0.37104538083076477 0.30114337801933289 0.055195529013872147
0.45499303936958313 0.30600205063819885 0.061536047607660294
0.54492646455764771 0.3115507960319519 0.070877984166145325
0.6358838677406311 0.32052132487297058 0.081612668931484222
0.72642993927001953 0.33370000123977661 0.09260144829750061
0.8139229416847229 0.34914642572402954 0.10558087378740311
0.89760154485702515 0.36542737483978271 0.12051551789045334
0.9747270941734314 0.3825344443321228 0.13509847223758698
0.14423388242721558 0.35564365983009338 0.031515441834926605
0.16254407167434692 0.35747522115707397 0.033866029232740402
0.19552117586135864 0.36008158326148987 0.036396235227584839
0.24722069501876831 0.36304882168769836 0.037975549697875977
0.31302365660667419 0.36696729063987732 0.04005764052271843
0.39012917876243591 0.37130409479141235 0.043540071696043015
0.47535255551338196 0.37577563524246216 0.048565119504928589
0.56466788053512573 0.38175597786903381 0.056169368326663971
0.65389162302017212 0.38962787389755249 0.066016405820846558
0.74186605215072632 0.39914143085479736 0.076919659972190857
0.82679980993270874 0.41120460629463196 0.088907934725284576
0.90725576877593994 0.4249671995639801 0.10170750319957733
0.98009765148162842 0.43993932008743286 0.11473215371370316
0.15982913970947266 0.42739760875701904 0.017684128135442734
0.18124601244926453 0.42903774976730347 0.019566269591450691
0.21830390393733978 0.43080812692642212 0.021049035713076591
0.27180486917495728 0.43342739343643188 0.02207794226706028
0.33851301670074463 0.43728849291801453 0.024460047483444214
0.41565996408462524 0.44147354364395142 0.027657093480229378
0.50054001808166504 0.44575875997543335 0.031879633665084839
0.58794546127319336 0.45147889852523804 0.037822168320417404
0.67538619041442871 0.45735746622085571 0.046084176748991013
0.76102340221405029 0.46354895830154419 0.056218750774860382
0.84328442811965942 0.47198900580406189 0.066835574805736542
0.91949170827865601 0.48304000496864319 0.07774004340171814
0.98599779605865479 0.49575218558311462 0.089331425726413727
0.19052593410015106 0.49629026651382446 0.0061045028269290924
0.21340838074684143 0.49773234128952026 0.0063943453133106232
0.25349134206771851 0.49821743369102478 0.0065264534205198288
0.30811929702758789 0.49954366683959961 0.0072340425103902817
0.37394428253173828 0.5028572678565979 0.0095836268737912178
0.44897750020027161 0.50635015964508057 0.01291212160140276
0.53125786781311035 0.50967550277709961 0.016536189243197441
0.61626780033111572 0.5134962797164917 0.020979966968297958
0.70148533582687378 0.51736611127853394 0.027641834691166878
0.7844046950340271 0.52159970998764038 0.035760361701250076
0.86308342218399048 0.52768832445144653 0.043993093073368073
0.93503105640411377 0.53631442785263062 0.052349045872688293
0.99266207218170166 0.54705160856246948 0.062484979629516602
0.23839244246482849 0.55988121032714844 0.001052422565408051
0.26028579473495483 0.56121611595153809 0.0012223187368363142
0.30110114812850952 0.55999660491943359 0.00050042843213304877
0.35523790121078491 0.5599370002746582 0.0002790114376693964
0.4186866283416748 0.56130504608154297 0.0021709816064685583
0.4900936484336853 0.56423413753509521 0.0056246290914714336
0.56767970323562622 0.56600856781005859 0.0084210261702537537
0.64934569597244263 0.56796097755432129 0.010269194841384888
0.73134714365005493 0.57038658857345581 0.014967465773224831
0.81120872497558594 0.5731615424156189 0.020195022225379944
0.88610410690307617 0.57738602161407471 0.024148829281330109
0.95361441373825073 0.58381998538970947 0.028398072347044945
0.99795049428939819 0.59310764074325562 0.035706941038370132
0.30343848466873169 0.61723363399505615 0.0029622544534504414
0.32312208414077759 0.61829966306686401 0.0068967333063483238
0.36007145047187805 0.61660659313201904 0.0068031013943254948
0.41012772917747498 0.6147160530090332 0.0052768480964004993
0.46871668100357056 0.61537069082260132 0.0065965689718723297
0.53462666273117065 0.61682981252670288 0.0093440935015678406
0.60741251707077026 0.61772090196609497 0.0098927216604351997
0.68476837873458862 0.61817038059234619 0.0095197046175599098
0.76335620880126953 0.61933833360671997 0.011392346583306789
0.84019219875335693 0.62068694829940796 0.012715777382254601
0.91154932975769043 0.62242448329925537 0.011642994359135628
0.97393155097961426 0.62647396326065063 0.0090766008943319321
1 0.63394618034362793 0.010875342413783073
0.37909987568855286 0.66908091306686401 0.0077293696813285351
0.39604443311691284 0.67034739255905151 0.016523353755474091
0.42643898725509644 0.66840863227844238 0.019317403435707092
0.4695892333984375 0.6664435863494873 0.017479002475738525
0.52226758003234863 0.66622245311737061 0.016804026439785957
0.58222651481628418 0.6668626070022583 0.018290411680936813
0.64939284324645996 0.66689658164978027 0.017559800297021866
0.72179794311523438 0.66634392738342285 0.014621734619140625
0.79610228538513184 0.66625446081161499 0.01393395196646452
0.86911046504974365 0.66621077060699463 0.014101514592766762
0.93708384037017822 0.66563212871551514 0.0085867634043097496
0.99048030376434326 0.66696876287460327 0.00063081627013161778
1 0.67159152030944824 2.5670668037491851e-05
0.45807743072509766 0.71566969156265259 0.0040324041619896889
0.47244915366172791 0.71633231639862061 0.014330531470477581
0.49728637933731079 0.7151796817779541 0.020129574462771416
0.53397279977798462 0.71288055181503296 0.018920479342341423
0.58031421899795532 0.71217983961105347 0.01673157699406147
0.63459193706512451 0.71232092380523682 0.016982164233922958
0.69526869058609009 0.71204531192779541 0.015796631574630737
0.76208758354187012 0.71022093296051025 0.011146111413836479
0.83074116706848145 0.71003967523574829 0.0091271195560693741
0.89831501245498657 0.70972049236297607 0.0091017633676528931
0.96151399612426758 0.7075379490852356 0.0042411652393639088
0.99874615669250488 0.70603412389755249 5.1341336074983701e-05
1 0.70755624771118164 0
0.027171220630407333 0.03099670447409153 0.077675729990005493
0.070514976978302002 0.033680591732263565 0.082467399537563324
0.12462038546800613 0.036605477333068848 0.088873066008090973
0.18262527883052826 0.040340527892112732 0.093239054083824158
0.24409231543540955 0.044915128499269485 0.096754930913448334
0.3133697509765625 0.049750607460737228 0.10189975053071976
0.39365342259407043 0.055300991982221603 0.10971122980117798
0.48510035872459412 0.062920860946178436 0.11870244145393372
0.58371663093566895 0.07397092878818512 0.12808425724506378
0.68320339918136597 0.087263278663158417 0.14021129906177521
0.77924734354019165 0.10432659834623337 0.1529231071472168
0.86975991725921631 0.12596859037876129 0.16339373588562012
0.95500129461288452 0.14909067749977112 0.17418718338012695
0.047132350504398346 0.078512497246265411 0.079222813248634338
0.081856325268745422 0.080462560057640076 0.081866636872291565
0.13122707605361938 0.082573413848876953 0.087402060627937317
0.18862631916999817 0.085616976022720337 0.092359639704227448
0.24828723073005676 0.090850606560707092 0.096041209995746613
0.31630611419677734 0.096516400575637817 0.10039778798818588
0.397187739610672 0.10241991281509399 0.10711291432380676
0.49006122350692749 0.10987243801355362 0.11559932678937912
0.58946102857589722 0.12019108980894089 0.12508758902549744
0.68923914432525635 0.13388901948928833 0.13686695694923401
0.78487294912338257 0.15096323192119598 0.15080872178077698
0.87487220764160156 0.17135277390480042 0.1644330620765686
0.95937281847000122 0.19381527602672577 0.17765058577060699
0.075264632701873779 0.12481062859296799 0.083054140210151672
0.10146897286176682 0.12600967288017273 0.084529504179954529
0.14304147660732269 0.12792150676250458 0.088326819241046906
0.19700922071933746 0.13104185461997986 0.093220233917236328
0.25612351298332214 0.13649964332580566 0.097629725933074951
0.32410717010498047 0.14319969713687897 0.10201981663703918
0.4054589569568634 0.14955484867095947 0.10823456943035126
0.49843877553939819 0.15669012069702148 0.11646202206611633
0.59724533557891846 0.16696244478225708 0.12628133594989777
0.69567310810089111 0.1809554398059845 0.13825953006744385
0.79007649421691895 0.19807069003582001 0.15271230041980743
0.87926256656646729 0.21815189719200134 0.16813068091869354
0.96266549825668335 0.24003756046295166 0.18311125040054321
0.10376482456922531 0.17325292527675629 0.087480135262012482
0.12402904778718948 0.174118772149086 0.0883980393409729
0.15758505463600159 0.17636162042617798 0.090962246060371399
0.20764297246932983 0.17942214012145996 0.095413163304328918
0.26793989539146423 0.18474544584751129 0.10021683573722839
0.3373778760433197 0.19152042269706726 0.10496767610311508
0.41897624731063843 0.1979115754365921 0.11104659736156464
0.51090347766876221 0.20494295656681061 0.11968711763620377
0.60765045881271362 0.21530106663703918 0.1300286203622818
0.70368301868438721 0.22983528673648834 0.14197412133216858
0.79645311832427979 0.24749135971069336 0.15647466480731964
0.88404369354248047 0.26744145154953003 0.17246954143047333
0.96618330478668213 0.288755863904953 0.1879810243844986
0.12162308394908905 0.22877804934978485 0.087465353310108185
0.13883547484874725 0.22963431477546692 0.088700465857982635
0.17015601694583893 0.23191818594932556 0.091189302504062653
0.21930542588233948 0.23490732908248901 0.095194093883037567
0.28137552738189697 0.23956245183944702 0.09975123405456543
0.353157639503479 0.24573051929473877 0.10441502928733826
0.43587693572044373 0.25185278058052063 0.11060304939746857
0.52682018280029297 0.25871634483337402 0.11944360285997391
0.62078160047531128 0.26913580298423767 0.1301080733537674
0.71430474519729614 0.28410544991493225 0.1420987993478775
0.80456501245498657 0.30152097344398499 0.15610802173614502
0.89018148183822632 0.32069173455238342 0.17191313207149506
0.97023707628250122 0.34123638272285461 0.18745134770870209
0.12791210412979126 0.29331079125404358 0.080140024423599243
0.14600814878940582 0.29412800073623657 0.081944935023784637
0.1787579357624054 0.29648491740226746 0.084695257246494293
0.2294447124004364 0.29981008172035217 0.088042944669723511
0.29417052865028381 0.30442166328430176 0.092130236327648163
0.36909383535385132 0.30980709195137024 0.096494294703006744
0.45374792814254761 0.31468665599822998 0.10238442569971085
0.54509651660919189 0.32100889086723328 0.11051873862743378
0.63666468858718872 0.33136278390884399 0.12123209983110428
0.72705537080764771 0.34516432881355286 0.13311870396137238
0.81482219696044922 0.36131057143211365 0.14668165147304535
0.89777356386184692 0.37870374321937561 0.16163767874240875
0.97425669431686401 0.39756041765213013 0.17663289606571198
0.13362731039524078 0.36451709270477295 0.064502343535423279
0.15428166091442108 0.36509585380554199 0.067187651991844177
0.19046086072921753 0.3670191764831543 0.069364242255687714
0.2433185875415802 0.37048739194869995 0.072407335042953491
0.30988532304763794 0.3754027783870697 0.076141148805618286
0.38713368773460388 0.38039553165435791 0.080451369285583496
0.47458243370056152 0.38411685824394226 0.085289508104324341
0.56568372249603271 0.3896336555480957 0.092134632170200348
0.65526437759399414 0.399036705493927 0.10253416746854782
0.74305003881454468 0.41067063808441162 0.11458253860473633
0.8277275562286377 0.42389559745788574 0.12768590450286865
0.90772068500518799 0.43916395306587219 0.14124464988708496
0.97948020696640015 0.45599934458732605 0.15542060136795044
0.15002261102199554 0.43656173348426819 0.044982567429542542
0.1739475429058075 0.43697720766067505 0.045721780508756638
0.21359209716320038 0.43795013427734375 0.047331191599369049
0.26880335807800293 0.4409070611000061 0.049778956919908524
0.33591285347938538 0.44553539156913757 0.05334613099694252
0.4137578010559082 0.45033591985702515 0.057466514408588409
0.50010764598846436 0.45388111472129822 0.06174926832318306
0.58958470821380615 0.45866802334785461 0.067833922803401947
0.67719399929046631 0.46583473682403564 0.077442973852157593
0.76272624731063843 0.47446373105049133 0.089319802820682526
0.84399288892745972 0.48481717705726624 0.10191526263952255
0.92008930444717407 0.49757027626037598 0.11446431279182434
0.98599779605865479 0.51201951503753662 0.12811502814292908
0.1845068484544754 0.5047106146812439 0.025131151080131531
0.20979893207550049 0.50479841232299805 0.024435633793473244
0.25195738673210144 0.50425076484680176 0.023531101644039154
0.30798500776290894 0.50553637742996216 0.024412686005234718
0.37436270713806152 0.50945049524307251 0.02831757441163063
0.44999921321868896 0.51378583908081055 0.032883930951356888
0.53287440538406372 0.51711428165435791 0.036540552973747253
0.61864942312240601 0.52048569917678833 0.041471324861049652
0.70385265350341797 0.52557647228240967 0.050037801265716553
0.78686505556106567 0.53167837858200073 0.061320479959249496
0.86478239297866821 0.53985965251922607 0.072767741978168488
0.936290442943573 0.55021828413009644 0.084393911063671112
0.99254268407821655 0.56263995170593262 0.097975984215736389
0.23955635726451874 0.5656287670135498 0.010595882311463356
0.26327621936798096 0.56575340032577515 0.0096797868609428406
0.30446723103523254 0.5639643669128418 0.0067308614961802959
0.35916662216186523 0.56261241436004639 0.0050484449602663517
0.42228925228118896 0.56553608179092407 0.008867630735039711
0.49313050508499146 0.5693703293800354 0.014101410284638405
0.57120537757873535 0.57169336080551147 0.015720667317509651
0.65279132127761841 0.57342028617858887 0.017805615440011024
0.73478955030441284 0.57706105709075928 0.025361662730574608
0.81470441818237305 0.5816725492477417 0.035066027194261551
0.8894423246383667 0.58698081970214844 0.043052405118942261
0.95489966869354248 0.5952569842338562 0.051562052220106125
0.99774801731109619 0.60647976398468018 0.064124196767807007
0.31000587344169617 0.61992794275283813 0.0030914307571947575
0.33014649152755737 0.62065631151199341 0.0062540392391383648
0.36631709337234497 0.61826390027999878 0.0047008739784359932
0.41648513078689575 0.61566305160522461 0.0011446635471656919
0.47414299845695496 0.61701673269271851 0.0030830982141196728
0.539142906665802 0.61983191967010498 0.0074005573987960815
0.61176317930221558 0.62070542573928833 0.0061032162047922611
0.68923056125640869 0.62101751565933228 0.0039788638241589069
0.76755630970001221 0.62373799085617065 0.010100091807544231
0.8446236252784729 0.62623471021652222 0.017269030213356018
0.91651427745819092 0.62773698568344116 0.017772451043128967
0.97580939531326294 0.63280630111694336 0.01878763921558857
0.99995690584182739 0.64341413974761963 0.027958724647760391
0.38800379633903503 0.6688123345375061 0.001407189411111176
0.40350395441055298 0.67064136266708374 0.010630184784531593
0.43198677897453308 0.66904962062835693 0.015092438086867332
0.47497260570526123 0.66672348976135254 0.010868491604924202
0.52740240097045898 0.66613763570785522 0.0080628935247659683
0.58677369356155396 0.66761386394500732 0.0090775731950998306
0.6534382700920105 0.66796714067459106 0.0069603263400495052
0.72619199752807617 0.66741520166397095 0.0030682731885462999
0.80010443925857544 0.6687237024307251 0.00540949497371912
0.87299197912216187 0.6693652868270874 0.011428399011492729
0.94136130809783936 0.66670852899551392 0.005790037102997303
0.99202126264572144 0.66715919971466064 0.00043574313167482615
1 0.67536824941635132 0.0018496643751859665
0.46751266717910767 0.7127341628074646 0.00016552794841118157
0.47956141829490662 0.71454459428787231 0.0060166004113852978
0.50204455852508545 0.71404051780700684 0.014443386346101761
0.53865474462509155 0.71201968193054199 0.0099713196977972984
0.58548057079315186 0.71023648977279663 0.0046815760433673859
0.63890373706817627 0.71048229932785034 0.0046101738698780537
0.69914358854293823 0.71076291799545288 0.0040497123263776302
0.76600116491317749 0.71004903316497803 0.0010919907363131642
0.83418369293212891 0.71004903316497803 0.0011595482937991619
0.89988970756530762 0.71028536558151245 0.0041417288593947887
0.96172821521759033 0.70747488737106323 0.0018378463573753834
0.99857103824615479 0.70319730043411255 0
1 0.70628958940505981 0
0.032257828861474991 0.042395886033773422 0.13139468431472778
0.075388364493846893 0.046495579183101654 0.13579446077346802
0.12821908295154572 0.05087706446647644 0.14205491542816162
0.1857796311378479 0.054778590798377991 0.14716900885105133
0.2483314573764801 0.058142777532339096 0.15182429552078247
0.31874433159828186 0.062141343951225281 0.1577288806438446
0.39957600831985474 0.067604586482048035 0.16596673429012299
0.49054229259490967 0.075932718813419342 0.17444208264350891
0.58796203136444092 0.087382480502128601 0.1836249828338623
0.68592554330825806 0.10110197216272354 0.19560642540454865
0.78045099973678589 0.11845213919878006 0.20793624222278595
0.86984288692474365 0.13961139321327209 0.21840064227581024
0.95389515161514282 0.16283567249774933 0.22957061231136322
0.052806466817855835 0.090814746916294098 0.13224911689758301
0.088559918105602264 0.093450121581554413 0.13578775525093079
0.13548445701599121 0.097129419445991516 0.14118540287017822
0.1906958669424057 0.10085222125053406 0.14658033847808838
0.25121155381202698 0.10468781739473343 0.15146179497241974
0.32060697674751282 0.10928046703338623 0.15672366321086884
0.40224730968475342 0.11480425298213959 0.16362869739532471
0.49482479691505432 0.12245041877031326 0.17147637903690338
0.59318459033966064 0.1330929696559906 0.18082478642463684
0.69122135639190674 0.14674609899520874 0.19280780851840973
0.7853817343711853 0.16383430361747742 0.20580682158470154
0.87441611289978027 0.18466466665267944 0.21835216879844666
0.95780760049819946 0.20751214027404785 0.23113872110843658
0.081049598753452301 0.13675893843173981 0.13547623157501221
0.10786163061857224 0.13865114748477936 0.13776913285255432
0.14666973054409027 0.14186596870422363 0.14150057733058929
0.19800662994384766 0.14584396779537201 0.14666596055030823
0.2570892870426178 0.1508423388004303 0.15209262073040009
0.3256661593914032 0.15679845213890076 0.1572597473859787
0.40843597054481506 0.1623372882604599 0.16370722651481628
0.50187802314758301 0.16929776966571808 0.17155943810939789
0.59989964962005615 0.17948147654533386 0.1811254620552063
0.6972423791885376 0.19336713850498199 0.19294904172420502
0.79062366485595703 0.21078348159790039 0.2064482569694519
0.87850570678710938 0.23126386106014252 0.22035959362983704
0.96106052398681641 0.25399115681648254 0.23473875224590302
0.10635331273078918 0.18453089892864227 0.1386902779340744
0.12592625617980957 0.18592031300067902 0.13955491781234741
0.15871818363666534 0.18902987241744995 0.14272704720497131
0.20798519253730774 0.19284908473491669 0.14753483235836029
0.2681785523891449 0.19828954339027405 0.15307320654392242
0.33728513121604919 0.20494925975799561 0.15839408338069916
0.41996723413467407 0.21080940961837769 0.16475231945514679
0.51293009519577026 0.21765975654125214 0.17256620526313782
0.60944837331771851 0.22803297638893127 0.18255741894245148
0.70496827363967896 0.24264232814311981 0.19462130963802338
0.79663479328155518 0.2602790892124176 0.20824821293354034
0.88347828388214111 0.28101614117622375 0.22318996489048004
0.96468520164489746 0.30318135023117065 0.23813405632972717
0.1172017976641655 0.23998209834098816 0.13680638372898102
0.13489112257957458 0.2404024749994278 0.1384473592042923
0.16791613399982452 0.24302233755588531 0.14130473136901855
0.21915103495121002 0.24634723365306854 0.14616717398166656
0.28262078762054443 0.25114598870277405 0.15163353085517883
