assets/lut/films print fuji 3510 constlclip.cube
# Created by: G'MIC (https://gmic.eu)
TITLE "fuji_3510_constlclip"
# LUT size
LUT_3D_SIZE 13
# Data domain
DOMAIN_MIN 0.0 0.0 0.0
DOMAIN_MAX 1.0 1.0 1.0
# LUT data points
0.018483748659491539 0.021254595369100571 0.015903279185295105
0.038681942969560623 0.031381584703922272 0.020092623308300972
0.061044011265039444 0.039902839809656143 0.023168018087744713
0.084630914032459259 0.04547901451587677 0.023322910070419312
0.13923390209674835 0.052672531455755234 0.018311280757188797
0.23400150239467621 0.061233639717102051 0.009112129919230938
0.31699943542480469 0.070102795958518982 0.0039495727978646755
0.38323074579238892 0.078631505370140076 0.0038066341076046228
0.44495001435279846 0.087336629629135132 0.0030199836473912001
0.48896452784538269 0.094517305493354797 0.0081250360235571861
0.51824581623077393 0.098942942917346954 0.013522758148610592
0.53942191600799561 0.10358326882123947 0.01350739412009716
0.55051857233047485 0.10663999617099762 0.012718604877591133
0.020271750167012215 0.04740326851606369 0.027347445487976074
0.037700295448303223 0.05699525773525238 0.029771542176604271
0.05914948508143425 0.066202811896800995 0.032485302537679672
0.094860285520553589 0.074059277772903442 0.031533572822809219
0.15837341547012329 0.083275862038135529 0.023372964933514595
0.2521013617515564 0.092096306383609772 0.011386093683540821
0.34244367480278015 0.098005421459674835 0.005110766738653183
0.41628029942512512 0.10527535527944565 0.0036434696521610022
0.48047330975532532 0.11425518244504929 0.0015437257243320346
0.52532994747161865 0.12111696600914001 0.0064791063778102398
0.55612802505493164 0.12750431895256042 0.013191851787269115
0.57669872045516968 0.13300751149654388 0.016148392111063004
0.58660167455673218 0.13862107694149017 0.018451301380991936
0.018497690558433533 0.076219700276851654 0.042444385588169098
0.027640204876661301 0.085946850478649139 0.042210686951875687
0.052110034972429276 0.095768749713897705 0.042926263064146042
0.10467514395713806 0.10341291129589081 0.040460489690303802
0.17387799918651581 0.11406607180833817 0.02889697439968586
0.27044665813446045 0.12644031643867493 0.012466116808354855
0.37117108702659607 0.13207483291625977 0.0061082127504050732
0.44750407338142395 0.13910867273807526 0.0039030935149639845
0.513377845287323 0.14798985421657562 0.0015013152733445168
0.56069117784500122 0.15939468145370483 0.0057666106149554253
0.59357643127441406 0.16999350488185883 0.012580183334648609
0.61387097835540771 0.17629165947437286 0.016679098829627037
0.62249386310577393 0.18055717647075653 0.022591684013605118
0.013194529339671135 0.10925405472517014 0.060889299958944321
0.013344379141926765 0.11726072430610657 0.056859169155359268
0.035395186394453049 0.1256469190120697 0.053613055497407913
0.10485851764678955 0.13406959176063538 0.048476949334144592
0.18601405620574951 0.14966252446174622 0.026227928698062897
0.28660869598388672 0.16361993551254272 0.0080177159979939461
0.40113827586174011 0.17374403774738312 0.0070403153076767921
0.48094990849494934 0.18440572917461395 0.0055306977592408657
0.54650312662124634 0.20130562782287598 0.0078717246651649475
0.59926766157150269 0.21548394858837128 0.01055221538990736
0.63301622867584229 0.22486257553100586 0.010987135581672192
0.64969879388809204 0.22760027647018433 0.013651185669004917
0.65826356410980225 0.22995862364768982 0.019205549731850624
0.0099708708003163338 0.15282890200614929 0.083434388041496277
0.0090853078290820122 0.16391460597515106 0.077923685312271118
0.015311237424612045 0.17526590824127197 0.067686505615711212
0.088180497288703918 0.1908307671546936 0.051523603498935699
0.20048157870769501 0.20967516303062439 0.017923662438988686
0.30805504322052002 0.22780327498912811 0.0043197930790483952
0.42346048355102539 0.24503242969512939 0.0060341032221913338
0.50890105962753296 0.25193005800247192 0.0092053133994340897
0.57832896709442139 0.26238229870796204 0.013929030857980251
0.63327270746231079 0.27335652709007263 0.011951910331845284
0.6721157431602478 0.28117644786834717 0.0062611447647213936
0.68827259540557861 0.28926149010658264 0.0093730855733156204
0.69911062717437744 0.29224279522895813 0.011996669694781303
0.013450711965560913 0.21284036338329315 0.10992468893527985
0.015013900585472584 0.22559063136577606 0.1050097867846489
0.0099287889897823334 0.23827061057090759 0.089561015367507935
0.051501687616109848 0.25808447599411011 0.058878384530544281
0.2086355984210968 0.29453474283218384 0.015358449891209602
0.3397422730922699 0.32175838947296143 0.0056860381737351418
0.45051360130310059 0.33842206001281738 0.0055480506271123886
0.53751039505004883 0.34265407919883728 0.0094584599137306213
0.61466675996780396 0.34809035062789917 0.012629520148038864
0.6686365008354187 0.35292431712150574 0.010263809934258461
0.71027213335037231 0.36622297763824463 0.0078475354239344597
0.73292768001556396 0.38049018383026123 0.011506548151373863
0.74702370166778564 0.37973824143409729 0.011420650407671928
0.016397558152675629 0.27432462573051453 0.13464163243770599
0.02163066528737545 0.28777849674224854 0.13408295810222626
0.018251905217766762 0.3015388548374176 0.12014774978160858
0.035841774195432663 0.32654383778572083 0.073516666889190674
0.17600889503955841 0.3752286434173584 0.012440879829227924
0.34920921921730042 0.41132575273513794 0.0043165469542145729
0.47973358631134033 0.43324059247970581 0.0046370862983167171
0.57817822694778442 0.44714456796646118 0.0077002430334687233
0.65950232744216919 0.45517241954803467 0.01010507345199585
0.71352469921112061 0.45638686418533325 0.012824459001421928
0.75197803974151611 0.47016081213951111 0.014693510718643665
0.77654379606246948 0.48166227340698242 0.020677125081419945
0.78485065698623657 0.47781068086624146 0.026721131056547165
0.019637208431959152 0.33429139852523804 0.15793593227863312
0.020845735445618629 0.34878140687942505 0.15721270442008972
0.019853509962558746 0.36767202615737915 0.14759531617164612
0.02557079866528511 0.39636752009391785 0.092954210937023163
0.15754027664661407 0.4450429379940033 0.010913505218923092
0.3509029746055603 0.48508080840110779 0.0039770537987351418
0.5066533088684082 0.52571815252304077 0.0042231390252709389
0.62385833263397217 0.55200433731079102 0.0050736968405544758
0.70707815885543823 0.56310880184173584 0.0067524481564760208
0.76106834411621094 0.56085646152496338 0.015575379133224487
0.79641610383987427 0.57012873888015747 0.023503607138991356
0.82096952199935913 0.58387190103530884 0.021473350003361702
0.8324781060218811 0.59026682376861572 0.018293537199497223
0.025114456191658974 0.38916057348251343 0.17877425253391266
0.015895171090960503 0.40774822235107422 0.17426604032516479
0.0099185565486550331 0.43301454186439514 0.16164296865463257
0.021495340391993523 0.46595796942710876 0.10721896588802338
0.16360604763031006 0.51404255628585815 0.014232635498046875
0.36272719502449036 0.55921858549118042 0.0043185963295400143
0.52305251359939575 0.60085529088973999 0.0052194185554981232
0.6569288969039917 0.6346437931060791 0.0054221958853304386
0.74761712551116943 0.65161925554275513 0.0096332775428891182
0.80610650777816772 0.65386110544204712 0.025819666683673859
0.84285902976989746 0.66218435764312744 0.040516108274459839
0.86879074573516846 0.6777527928352356 0.034362941980361938
0.87593227624893188 0.68330943584442139 0.020285647362470627
0.030034847557544708 0.42958632111549377 0.19173702597618103
0.019675536081194878 0.4501592218875885 0.18640798330307007
0.015087710693478584 0.47711288928985596 0.17217087745666504
0.043708112090826035 0.5109369158744812 0.11652709543704987
0.19073992967605591 0.56754440069198608 0.016722720116376877
0.39019632339477539 0.61696088314056396 0.004166831262409687
0.54744791984558105 0.65880674123764038 0.0053523792885243893
0.67841124534606934 0.69310623407363892 0.0074025620706379414
0.77594316005706787 0.7155340313911438 0.022358659654855728
0.84422880411148071 0.72744607925415039 0.045866139233112335
0.87930673360824585 0.73284763097763062 0.056622181087732315
0.89602673053741455 0.7355085015296936 0.056617975234985352
0.90130215883255005 0.73506921529769897 0.047742161899805069
0.015226581133902073 0.45324191451072693 0.19815963506698608
0.016521977260708809 0.47394451498985291 0.19577151536941528
0.013478447683155537 0.49972188472747803 0.17953589558601379
0.041750874370336533 0.54057514667510986 0.11645588278770447
0.22176659107208252 0.60128939151763916 0.022942861542105675
0.42984002828598022 0.65706253051757812 0.0076010609045624733
0.577292799949646 0.69675648212432861 0.0074268863536417484
0.69424641132354736 0.72566217184066772 0.017039414495229721
0.7907099723815918 0.74825799465179443 0.035612381994724274
0.85716038942337036 0.76400595903396606 0.055189169943332672
0.89438217878341675 0.77174443006515503 0.063053205609321594
0.91426247358322144 0.77559542655944824 0.067154407501220703
0.92496144771575928 0.77766358852386475 0.073444172739982605
0.018716011196374893 0.47631794214248657 0.21547651290893555
0.027335776016116142 0.49945062398910522 0.20657949149608612
0.026887482032179832 0.52923953533172607 0.18467205762863159
0.053309123963117599 0.57197248935699463 0.10011258721351624
0.24312426149845123 0.62868160009384155 0.018849810585379601
0.4583914577960968 0.68827229738235474 0.01494248304516077
0.60446083545684814 0.7322344183921814 0.011010114103555679
0.71242862939834595 0.75521814823150635 0.025901256129145622
0.80818301439285278 0.77596074342727661 0.036790855228900909
0.8734811544418335 0.78937363624572754 0.056054327636957169
0.91758954524993896 0.79893052577972412 0.071742460131645203
0.93934845924377441 0.80404150485992432 0.0735197514295578
0.95078539848327637 0.80689084529876709 0.082366436719894409
0.011203227564692497 0.51299452781677246 0.24351939558982849
0.025949994102120399 0.54561644792556763 0.22528861463069916
0.028329033404588699 0.58891314268112183 0.18026550114154816
0.074239514768123627 0.62784349918365479 0.08436400443315506
0.28817605972290039 0.67159634828567505 0.021023230627179146
0.48655024170875549 0.72030776739120483 0.0072229122743010521
0.62867522239685059 0.75601965188980103 0.014992074109613895
0.73491770029067993 0.77758675813674927 0.031202832236886024
0.83632111549377441 0.80087387561798096 0.028019504621624947
0.90206295251846313 0.81360763311386108 0.043295677751302719
0.94476598501205444 0.82329553365707397 0.06259734183549881
0.96456342935562134 0.82654809951782227 0.067213349044322968
0.97510242462158203 0.82965868711471558 0.071486257016658783
0.022142596542835236 0.026355056092143059 0.030579974874854088
0.034336913377046585 0.031511716544628143 0.03111572191119194
0.056846544146537781 0.040659736841917038 0.033789720386266708
0.085905067622661591 0.048130754381418228 0.036636292934417725
0.14769451320171356 0.053041376173496246 0.031726311892271042
0.24210831522941589 0.056600995361804962 0.013353639282286167
0.33333566784858704 0.055097542703151703 0.0039592520333826542
0.40672710537910461 0.065893299877643585 0.0078585157170891762
0.47017806768417358 0.080558285117149353 0.0060303332284092903
0.52203112840652466 0.083054021000862122 0.0056110904552042484
0.55195552110671997 0.089282557368278503 0.011097298003733158
0.56901627779006958 0.08736807107925415 0.009723917581140995
0.57885420322418213 0.087129287421703339 0.0092159491032361984
0.021092688664793968 0.048938482999801636 0.036636862903833389
0.035943347960710526 0.057724583894014359 0.040310338139533997
0.057210959494113922 0.068843930959701538 0.044488765299320221
0.095188707113265991 0.077346727252006531 0.046802341938018799
0.16797313094139099 0.082955785095691681 0.038551434874534607
0.2660122811794281 0.086218953132629395 0.019337313249707222
0.36736965179443359 0.081731788814067841 0.0060840682126581669
0.44702252745628357 0.083400323987007141 0.0040972842834889889
0.50519394874572754 0.097070075571537018 0.0037573422305285931
0.55141520500183105 0.10602477192878723 0.004945164080709219
0.58419978618621826 0.11492206156253815 0.0093181533738970757
0.60829120874404907 0.11382690072059631 0.010715380311012268
0.62137401103973389 0.11339163780212402 0.013383319601416588
0.017129801213741302 0.076031945645809174 0.046904098242521286
0.028859606012701988 0.087831340730190277 0.052533753216266632
0.050613537430763245 0.099644511938095093 0.056885678321123123
0.10419544577598572 0.10722820460796356 0.056117024272680283
0.18472878634929657 0.11426495015621185 0.044972214847803116
0.28785058856010437 0.1231110543012619 0.024004977196455002
0.39732509851455688 0.12471678853034973 0.011456777341663837
0.47991457581520081 0.1269308477640152 0.0042279111221432686
0.54269176721572876 0.12942905724048615 0.005175901111215353
0.58976668119430542 0.14224395155906677 0.0055080191232264042
0.62474668025970459 0.15533772110939026 0.0077787511982023716
0.64551365375518799 0.16158926486968994 0.009755527600646019
0.65705734491348267 0.17331387102603912 0.013564091175794601
0.012273586355149746 0.11380402743816376 0.070642285048961639
0.014808968640863895 0.12066928297281265 0.068678297102451324
0.034279678016901016 0.12985904514789581 0.068336695432662964
0.1042453870177269 0.14021599292755127 0.065157242119312286
0.19841566681861877 0.15569581091403961 0.047821614891290665
0.31028270721435547 0.17131528258323669 0.029492590576410294
0.42617514729499817 0.17989028990268707 0.024533290416002274
0.51526570320129395 0.18205621838569641 0.0069552403874695301
0.57929831743240356 0.19665887951850891 0.0094851329922676086
0.62878167629241943 0.20931990444660187 0.014731672592461109
0.6608424186706543 0.2117716372013092 0.0089463181793689728
0.68045097589492798 0.21656204760074615 0.0069452770985662937
0.69342619180679321 0.23343221843242645 0.0099983960390090942
0.011611459776759148 0.1583363264799118 0.098326802253723145
0.010503401979804039 0.16772478818893433 0.092275209724903107
0.017710322514176369 0.17984162271022797 0.08325774222612381
0.087034456431865692 0.19832327961921692 0.069655969738960266
0.20457689464092255 0.22074523568153381 0.036721456795930862
0.33158588409423828 0.23688210546970367 0.022888019680976868
0.44628548622131348 0.24665182828903198 0.018387738615274429
0.54098349809646606 0.25115114450454712 0.0086423689499497414
0.61369037628173828 0.26877903938293457 0.016229232773184776
0.66620069742202759 0.28161519765853882 0.020568264648318291
0.69986766576766968 0.27923101186752319 0.0064968932420015335
0.72025531530380249 0.28894579410552979 0.0042566936463117599
0.73437672853469849 0.29661655426025391 0.0049721961840987206
0.012298240326344967 0.21637082099914551 0.12450334429740906
0.01237010583281517 0.23059087991714478 0.11674515902996063
0.0098557416349649429 0.2468266487121582 0.10148904472589493
0.057831123471260071 0.26904585957527161 0.071978971362113953
0.21769875288009644 0.30630561709403992 0.016798296943306923
0.35577872395515442 0.32790699601173401 0.0075615677051246166
0.47105056047439575 0.33814516663551331 0.0073845656588673592
0.56799781322479248 0.34612110257148743 0.0071205287240445614
0.65323078632354736 0.3612460196018219 0.0083805909380316734
0.70698332786560059 0.36989602446556091 0.0084550743922591209
0.74164921045303345 0.37428128719329834 0.004024894442409277
0.76363694667816162 0.38644817471504211 0.006996828131377697
0.77646952867507935 0.39087203145027161 0.013817761093378067
0.01585947722196579 0.28062516450881958 0.15159326791763306
0.015055368654429913 0.29602175951004028 0.14476621150970459
0.0086496835574507713 0.31472957134246826 0.12648074328899384
0.030639529228210449 0.33900445699691772 0.08195871114730835
0.18666575849056244 0.38517042994499207 0.010915748775005341
0.3716684877872467 0.41913464665412903 0.0043917638249695301
0.50582647323608398 0.44551360607147217 0.0051740012131631374
0.61244481801986694 0.45981547236442566 0.0053104925900697708
0.69811075925827026 0.47255989909172058 0.006360027939081192
0.75282853841781616 0.48025566339492798 0.010063635185360909
0.78647738695144653 0.48585709929466248 0.012557489797472954
0.80820685625076294 0.49540746212005615 0.021813232451677322
0.81769436597824097 0.50037640333175659 0.029047813266515732
0.02205403707921505 0.34731009602546692 0.1787235289812088
0.014700721018016338 0.35978707671165466 0.17296792566776276
0.0086013199761509895 0.38355234265327454 0.15803901851177216
0.013359114527702332 0.41612854599952698 0.10824360698461533
0.14848493039608002 0.46314129233360291 0.018831994384527206
0.37264817953109741 0.50799047946929932 0.0078391432762145996
0.53592425584793091 0.55137509107589722 0.00815607700496912
0.65541630983352661 0.57157033681869507 0.0040074815042316914
0.74265807867050171 0.58360201120376587 0.0046904920600354671
0.80095857381820679 0.59189140796661377 0.012530098669230938
0.83492565155029297 0.59687167406082153 0.026893481612205505
0.85622608661651611 0.60713249444961548 0.020041268318891525
0.86717510223388672 0.61417502164840698 0.01302312221378088
0.030010104179382324 0.40755981206893921 0.20200096070766449
0.014109383337199688 0.4185696542263031 0.19652660191059113
0.008948247879743576 0.44361200928688049 0.18252713978290558
0.010545140132308006 0.48381352424621582 0.12281288951635361
0.14053614437580109 0.53909152746200562 0.015997434034943581
0.39182025194168091 0.59073203802108765 0.0097572328522801399
0.55488675832748413 0.63006049394607544 0.0087922187522053719
0.68399339914321899 0.65715378522872925 0.006159673910588026
0.78281921148300171 0.6767805814743042 0.016426026821136475
0.84345334768295288 0.68638426065444946 0.029866971075534821
0.87855762243270874 0.69535571336746216 0.045184221118688583
0.90047121047973633 0.70214486122131348 0.039667002856731415
0.90666991472244263 0.70262664556503296 0.02216205932199955
0.022277487441897392 0.4437861442565918 0.21639825403690338
0.014227264560759068 0.45936501026153564 0.21307821571826935
0.015382235869765282 0.48784056305885315 0.19991289079189301
0.020873440429568291 0.52875232696533203 0.13445118069648743
0.14952576160430908 0.58970874547958374 0.013959129340946674
0.40545573830604553 0.64244037866592407 0.0068742190487682819
0.57553446292877197 0.68369966745376587 0.0086701484397053719
0.70742809772491455 0.7159234881401062 0.010054659098386765
0.81038939952850342 0.73947322368621826 0.030910387635231018
0.87926238775253296 0.7541353702545166 0.057138599455356598
0.9109920859336853 0.7596392035484314 0.064484059810638428
0.92665326595306396 0.759513258934021 0.06422220915555954
0.93264389038085938 0.75753450393676758 0.054971389472484589
0.017728334292769432 0.46687701344490051 0.23192596435546875
0.015045779757201672 0.48950189352035522 0.23247264325618744
0.012109778821468353 0.5220412015914917 0.21507623791694641
0.012285449542105198 0.56235140562057495 0.14713536202907562
0.16423915326595306 0.62409067153930664 0.019756510853767395
0.4236503541469574 0.67720270156860352 0.0070843864232301712
0.59614437818527222 0.71574020385742188 0.0060312459245324135
0.72302055358886719 0.74662959575653076 0.01351509802043438
0.82068759202957153 0.7695959210395813 0.036887358874082565
0.8936120867729187 0.78801637887954712 0.061679869890213013
0.9270595908164978 0.79400384426116943 0.065189599990844727
0.94483798742294312 0.79688221216201782 0.067904286086559296
0.95557278394699097 0.79884713888168335 0.080792292952537537
0.027786584571003914 0.49193072319030762 0.25822010636329651
0.015694068744778633 0.51627957820892334 0.25683143734931946
0.01205393485724926 0.54983413219451904 0.23250140249729156
0.017530627548694611 0.59361147880554199 0.15677820146083832
0.18497328460216522 0.66019314527511597 0.028941644355654716
0.44992628693580627 0.70997458696365356 0.02094370499253273
0.61738413572311401 0.74826675653457642 0.014064145274460316
0.73852056264877319 0.77701610326766968 0.020895296707749367
0.83681184053421021 0.79721367359161377 0.034907232969999313
0.91083139181137085 0.81346267461776733 0.054135207086801529
0.94848978519439697 0.82039833068847656 0.055232297629117966
0.96725255250930786 0.82594865560531616 0.072571277618408203
0.97618889808654785 0.82889991998672485 0.10571730136871338
0.021540338173508644 0.53158283233642578 0.29904597997665405
0.027517370879650116 0.55936181545257568 0.28974774479866028
0.010524330660700798 0.60383790731430054 0.26967290043830872
0.042655929923057556 0.64671331644058228 0.1955534964799881
0.22566971182823181 0.70162409543991089 0.10952039062976837
0.47587877511978149 0.74931889772415161 0.08190898597240448
0.63881325721740723 0.78394538164138794 0.073496304452419281
0.76152491569519043 0.8077387809753418 0.056882865726947784
0.86696374416351318 0.82604420185089111 0.021793754771351814
0.94193047285079956 0.84086871147155762 0.023046949878334999
0.97447460889816284 0.84646546840667725 0.045699473470449448
0.98689311742782593 0.84892207384109497 0.099558614194393158
0.99173152446746826 0.85068386793136597 0.15727707743644714
0.026011718437075615 0.031361434608697891 0.05283031240105629
0.030110856518149376 0.03183414414525032 0.049713913351297379
0.054249212145805359 0.04136320948600769 0.054287750273942947
0.092294089496135712 0.052065771073102951 0.062229771167039871
0.15759752690792084 0.055419951677322388 0.059641789644956589
0.25737890601158142 0.04777831956744194 0.046205826103687286
0.35987862944602966 0.025927210226655006 0.026676103472709656
0.43992295861244202 0.014577439054846764 0.013971425592899323
0.50367885828018188 0.020036466419696808 0.014518199488520622
0.5487406849861145 0.018834087997674942 0.014494174160063267
0.57443851232528687 0.023434223607182503 0.017790939658880234
0.60099905729293823 0.026093786582350731 0.021948900073766708
0.61508309841156006 0.025853116065263748 0.023407669737935066
0.019957253709435463 0.051811937242746353 0.063016079366207123
0.029100829735398293 0.05966988205909729 0.065138183534145355
0.053976230323314667 0.072493702173233032 0.070361405611038208
0.097818933427333832 0.082681380212306976 0.075663626194000244
0.1784384697675705 0.086992062628269196 0.070237375795841217
0.28522440791130066 0.078505814075469971 0.0524253249168396
0.39051687717437744 0.059378590434789658 0.027516428381204605
0.48247486352920532 0.040712200105190277 0.01487681083381176
0.5485609769821167 0.029715070500969887 0.022584279999136925
0.59027260541915894 0.030124949291348457 0.01800384558737278
0.6164976954460144 0.033943250775337219 0.013839392922818661
0.64432686567306519 0.029534567147493362 0.016260633245110512
0.66645663976669312 0.028707526624202728 0.023747073486447334
0.013702153228223324 0.079875737428665161 0.076773837208747864
0.024993343278765678 0.091001622378826141 0.081705950200557709
0.047163434326648712 0.10562160611152649 0.086886465549468994
0.10016664862632751 0.11721300333738327 0.089896030724048615
0.19684942066669464 0.12599042057991028 0.084252268075942993
0.31595644354820251 0.12736824154853821 0.065770380198955536
0.42565116286277771 0.11950875073671341 0.039789266884326935
0.51824212074279785 0.10770486295223236 0.020132161676883698
0.58739429712295532 0.082377173006534576 0.024330528452992439
0.63468623161315918 0.08575834333896637 0.018506458029150963
0.66189754009246826 0.10245626419782639 0.0098631316795945168
0.68301844596862793 0.10568644106388092 0.011126873083412647
0.70122706890106201 0.10387276858091354 0.022218307480216026
0.012153087183833122 0.12062937766313553 0.098360635340213776
0.019214823842048645 0.12939710915088654 0.10010439157485962
0.035413734614849091 0.13947363197803497 0.10039303451776505
0.098762258887290955 0.15653832256793976 0.10147624462842941
0.21088823676109314 0.17460902035236359 0.095781408250331879
0.34439182281494141 0.18728241324424744 0.081284932792186737
0.45731920003890991 0.18419241905212402 0.057427261024713516
0.55291467905044556 0.17576003074645996 0.02557079866528511
0.62394744157791138 0.1739426851272583 0.017595373094081879
0.67645812034606934 0.17909325659275055 0.012647651135921478
0.70741814374923706 0.18844443559646606 0.0098212743178009987
