assets/lut/films print kodak 2393 constlclip.cube
# Created by: G'MIC (https://gmic.eu)
TITLE "kodak_2393_constlclip"
# LUT size
LUT_3D_SIZE 13
# Data domain
DOMAIN_MIN 0.0 0.0 0.0
DOMAIN_MAX 1.0 1.0 1.0
# LUT data points
0.012323028407990932 0.025246579200029373 0.026682790368795395
0.027293186634778976 0.030972080305218697 0.024934850633144379
0.045128408819437027 0.035160843282938004 0.020496249198913574
0.073717691004276276 0.038163308054208755 0.013235593214631081
0.13762985169887543 0.047890368849039078 0.0059746238403022289
0.21452486515045166 0.067421495914459229 0.00827051792293787
0.29911753535270691 0.086157031357288361 0.009652530774474144
0.37927037477493286 0.10009605437517166 0.011003621853888035
0.43497666716575623 0.10565553605556488 0.012455674819648266
0.47394734621047974 0.11023982614278793 0.015196452848613262
0.50414937734603882 0.11380696296691895 0.017011590301990509
0.52468079328536987 0.11567587405443192 0.016201289370656013
0.53710454702377319 0.11834170669317245 0.016510054469108582
0.013625814579427242 0.03540332242846489 0.031350903213024139
0.024409439414739609 0.043298520147800446 0.030998963862657547
0.043333973735570908 0.050612237304449081 0.027876446023583412
0.084064647555351257 0.057344593107700348 0.018934153020381927
0.14518938958644867 0.066721208393573761 0.0079651921987533569
0.22507022321224213 0.083564504981040955 0.0046449098736047745
0.31749871373176575 0.10144104063510895 0.0050575104542076588
0.40231946110725403 0.1148388460278511 0.0073835034854710102
0.47032862901687622 0.12187944352626801 0.0088603748008608818
0.51125603914260864 0.12798307836055756 0.010559217073023319
0.54333591461181641 0.13247297704219818 0.011688935570418835
0.5655561089515686 0.13427726924419403 0.012186581268906593
0.56937658786773682 0.14144843816757202 0.018103417009115219
0.012644150294363499 0.047890800982713699 0.03577149286866188
0.01852334663271904 0.059659097343683243 0.037044361233711243
0.039912503212690353 0.070704728364944458 0.032123923301696777
0.091884464025497437 0.081371024250984192 0.021216867491602898
0.15386398136615753 0.090663060545921326 0.0094596417620778084
0.2428194135427475 0.10672463476657867 0.0025283813010901213
0.34270980954170227 0.13018777966499329 0.003857780946418643
0.43171876668930054 0.14316913485527039 0.0050346222706139088
0.5054057240486145 0.14784498512744904 0.0074655269272625446
0.54992765188217163 0.15648633241653442 0.0095201078802347183
0.57931321859359741 0.16384454071521759 0.011292940005660057
0.59846991300582886 0.16989761590957642 0.013769157230854034
0.60073477029800415 0.17351770401000977 0.016927562654018402
0.0086971204727888107 0.07373269647359848 0.046249449253082275
0.0090725468471646309 0.080444052815437317 0.037956733256578445
0.025358028709888458 0.091941475868225098 0.02899119071662426
0.087466761469841003 0.11134130507707596 0.019362401217222214
0.16923981904983521 0.13337352871894836 0.010360552929341793
0.27751860022544861 0.15722137689590454 0.0030813179910182953
0.38622099161148071 0.17816819250583649 0.0023889129515737295
0.47802305221557617 0.19021789729595184 0.0055657331831753254
0.55364364385604858 0.20022270083427429 0.01165378000587225
0.59586983919143677 0.20757830142974854 0.014496493153274059
0.61942058801651001 0.21171601116657257 0.015826506540179253
0.63515901565551758 0.21915936470031738 0.016666367650032043
0.64097893238067627 0.22470121085643768 0.015131093561649323
0.0057872249744832516 0.10737005621194839 0.064006701111793518
0.0047814464196562767 0.11417829990386963 0.053213097155094147
0.012029550969600677 0.12984338402748108 0.03889942541718483
0.075226277112960815 0.16110570728778839 0.019073620438575745
0.18729962408542633 0.19109621644020081 0.011230902746319771
0.31057953834533691 0.21891146898269653 0.0049253278411924839
0.4335997998714447 0.24570032954216003 0.0022718391846865416
0.52921515703201294 0.26148787140846252 0.0037787193432450294
0.60455948114395142 0.27391302585601807 0.0096170315518975258
0.64605528116226196 0.27980193495750427 0.014883303083479404
0.66817522048950195 0.28201639652252197 0.022318238392472267
0.68366032838821411 0.28755715489387512 0.023997945711016655
0.6965298056602478 0.29889816045761108 0.01313807163387537
0.0070645799860358238 0.1542130708694458 0.084941089153289795
0.0080956406891345978 0.17003676295280457 0.08139413595199585
0.010841174982488155 0.19351205229759216 0.067804716527462006
0.047738946974277496 0.2334299236536026 0.016844790428876877
0.19263939559459686 0.27156537771224976 0.0079660452902317047
0.35051301121711731 0.30729284882545471 0.0053346971981227398
0.49248334765434265 0.34425953030586243 0.0040992735885083675
0.58689004182815552 0.36407005786895752 0.0044415043666958809
0.65759754180908203 0.37026971578598022 0.0042583988979458809
0.6998482346534729 0.37620022892951965 0.0090234195813536644
0.72527879476547241 0.38203758001327515 0.021166140213608742
0.74341863393783569 0.39150950312614441 0.02334238775074482
0.76042366027832031 0.40506452322006226 0.011323711834847927
0.0098118055611848831 0.21114547550678253 0.1097346767783165
0.0075866398401558399 0.23140682280063629 0.10606285184621811
0.0072733862325549126 0.26511883735656738 0.091797053813934326
0.046190701425075531 0.31317144632339478 0.049382198601961136
0.21231326460838318 0.3624747097492218 0.021353224292397499
0.39299488067626953 0.41153779625892639 0.0109849963337183
0.5447198748588562 0.45673966407775879 0.0083921393379569054
0.65454268455505371 0.48385989665985107 0.012720594182610512
0.72537833452224731 0.4955177903175354 0.011208059266209602
0.76557815074920654 0.50034481287002563 0.0075058434158563614
0.78977471590042114 0.50561696290969849 0.015898805111646652
0.80874240398406982 0.51907962560653687 0.01656634733080864
0.82656091451644897 0.53615987300872803 0.0079357968643307686
0.0079427082091569901 0.26563426852226257 0.1349102109670639
0.004199981689453125 0.28935733437538147 0.13187061250209808
0.0061386856250464916 0.33240002393722534 0.11363136768341064
0.052828229963779449 0.38956701755523682 0.073029883205890656
0.23247675597667694 0.44859015941619873 0.024061838164925575
0.43180167675018311 0.51227462291717529 0.012125022709369659
0.58976262807846069 0.56423383951187134 0.009096871130168438
0.70604509115219116 0.5932425856590271 0.014835851266980171
0.78508085012435913 0.61226892471313477 0.014849345199763775
0.82992720603942871 0.62079352140426636 0.0058052362874150276
0.85147684812545776 0.62493205070495605 0.01523163728415966
0.86617350578308105 0.63248872756958008 0.023206688463687897
0.88124412298202515 0.64702200889587402 0.01691143587231636
0.0042740767821669579 0.31317552924156189 0.15178987383842468
0.0095939189195632935 0.33941870927810669 0.14934550225734711
0.025453411042690277 0.39471226930618286 0.13529585301876068
0.062705963850021362 0.45082750916481018 0.084158189594745636
0.25823605060577393 0.52054202556610107 0.016852255910634995
0.4668872058391571 0.59187358617782593 0.0091568892821669579
0.62691390514373779 0.64274054765701294 0.0054351808503270149
0.74577498435974121 0.67570757865905762 0.010464761406183243
0.82241737842559814 0.69356924295425415 0.023432862013578415
0.87267613410949707 0.70672249794006348 0.024336721748113632
0.89609807729721069 0.71380949020385742 0.038654431700706482
0.90899181365966797 0.71715521812438965 0.052376661449670792
0.91301560401916504 0.71612751483917236 0.051345765590667725
0.0046335854567587376 0.34068286418914795 0.16268984973430634
0.016119295731186867 0.38035446405410767 0.15984752774238586
0.025163508951663971 0.43354895710945129 0.14620195329189301
0.058543156832456589 0.49039456248283386 0.086945883929729462
0.2692941427230835 0.56062495708465576 0.014595076441764832
0.48024344444274902 0.63196629285812378 0.0080538280308246613
0.64471089839935303 0.68401151895523071 0.006883030291646719
0.76234710216522217 0.72105807065963745 0.022254643961787224
0.8462257981300354 0.74611783027648926 0.050399944186210632
0.89525479078292847 0.7584453821182251 0.061637789011001587
0.91947269439697266 0.76325744390487671 0.067866489291191101
0.93385303020477295 0.76540946960449219 0.071899369359016418
0.93711662292480469 0.76475763320922852 0.073160506784915924
0.0051031825132668018 0.3635217547416687 0.17145046591758728
0.015169600024819374 0.41034096479415894 0.16748656332492828
0.022491678595542908 0.45944267511367798 0.14883445203304291
0.06266060471534729 0.51784378290176392 0.075486093759536743
0.27819997072219849 0.5839688777923584 0.016891494393348694
0.48191428184509277 0.64961874485015869 0.0081938952207565308
0.65368866920471191 0.70504647493362427 0.0078141605481505394
0.76457822322845459 0.74147754907608032 0.031047612428665161
0.8543124794960022 0.77055323123931885 0.058499772101640701
0.90994840860366821 0.78639417886734009 0.072544023394584656
0.93797510862350464 0.79202747344970703 0.076474748551845551
0.94919931888580322 0.79195272922515869 0.07915179431438446
0.95303577184677124 0.79222959280014038 0.081487603485584259
0.0031411414965987206 0.39749982953071594 0.18112407624721527
0.0078694215044379234 0.45000803470611572 0.16894824802875519
0.033498369157314301 0.49959477782249451 0.12121209502220154
0.10189992934465408 0.55411213636398315 0.047866389155387878
0.31534761190414429 0.61528640985488892 0.011796509847044945
0.50379401445388794 0.67441254854202271 0.0079530607908964157
0.66391205787658691 0.72375321388244629 0.0093454401940107346
0.77059513330459595 0.75793701410293579 0.032832261174917221
0.85963213443756104 0.78524631261825562 0.060188755393028259
0.91718852519989014 0.80229729413986206 0.074608460068702698
0.95215725898742676 0.81312441825866699 0.08114064484834671
0.96272021532058716 0.81367683410644531 0.084248729050159454
0.9660114049911499 0.8132699728012085 0.085546590387821198
0.0077188527211546898 0.45102024078369141 0.20101262629032135
0.018736820667982101 0.50199210643768311 0.17154569923877716
0.05079326406121254 0.55217605829238892 0.087887629866600037
0.17121045291423798 0.60156607627868652 0.025694679468870163
0.37421724200248718 0.65227389335632324 0.0105857253074646
0.53817909955978394 0.70339459180831909 0.01129862479865551
0.6833418607711792 0.74429535865783691 0.011588302440941334
0.78477627038955688 0.77356588840484619 0.031721226871013641
0.86641955375671387 0.79760551452636719 0.063749201595783234
0.92088496685028076 0.8134426474571228 0.0786285400390625
0.95726633071899414 0.82347404956817627 0.089027151465415955
0.97260892391204834 0.82754093408584595 0.090185783803462982
0.97718507051467896 0.83090734481811523 0.10076015442609787
0.008753698319196701 0.029737195000052452 0.040238533169031143
0.020466793328523636 0.033009007573127747 0.039699643850326538
0.043811991810798645 0.036909755319356918 0.035004142671823502
0.084777593612670898 0.039341751486063004 0.026977762579917908
0.14945445954799652 0.03764120489358902 0.011585818603634834
0.22573040425777435 0.049088660627603531 0.0052279005758464336
0.30713188648223877 0.067066848278045654 0.00687408447265625
0.39044865965843201 0.074814721941947937 0.010163639672100544
0.45796555280685425 0.087934084236621857 0.013421720825135708
0.49333569407463074 0.094399727880954742 0.016795273870229721
0.51683282852172852 0.095957465469837189 0.015652315691113472
0.53696137666702271 0.099568292498588562 0.018422609195113182
0.55023825168609619 0.10649137198925018 0.024660656228661537
0.009768407791852951 0.042129501700401306 0.043994229286909103
0.018364386633038521 0.046854220330715179 0.043288420885801315
0.044993516057729721 0.050256334245204926 0.038709916174411774
0.086395546793937683 0.051941443234682083 0.030969193205237389
0.15449020266532898 0.057971041649580002 0.017110712826251984
0.24548293650150299 0.07103411853313446 0.0045646666549146175
0.33500209450721741 0.092708051204681396 0.0056363870389759541
0.42057409882545471 0.095995552837848663 0.011384852230548859
0.49047642946243286 0.10334620624780655 0.015331253409385681
0.53116625547409058 0.11600923538208008 0.017866965383291245
0.5566977858543396 0.11797748506069183 0.010402185842394829
0.57554924488067627 0.12063700705766678 0.010188113898038864
0.58138382434844971 0.12617743015289307 0.019111469388008118
0.012032766826450825 0.058634109795093536 0.049293726682662964
0.014026133343577385 0.0621311254799366 0.046907864511013031
0.042463295161724091 0.070967912673950195 0.042236626148223877
0.094295009970664978 0.081200584769248962 0.033500805497169495
0.16815963387489319 0.090731993317604065 0.018851067870855331
0.27078935503959656 0.10139597207307816 0.0048168106004595757
0.37219390273094177 0.1214713454246521 0.0053828670643270016
0.45755216479301453 0.1217924952507019 0.011564097367227077
0.5286020040512085 0.12618820369243622 0.016008384525775909
0.57078844308853149 0.1448809951543808 0.017785748466849327
0.59770059585571289 0.14974714815616608 0.010991877876222134
0.61533987522125244 0.15837807953357697 0.012756451964378357
0.62264841794967651 0.16118359565734863 0.01833210326731205
0.010718267410993576 0.08008430153131485 0.057930964976549149
0.010636513121426105 0.086295217275619507 0.054304532706737518
0.033754356205463409 0.1019662469625473 0.046691447496414185
0.099034853279590607 0.12000654637813568 0.033587377518415451
0.18362481892108917 0.13419339060783386 0.018047662451863289
0.30171766877174377 0.15096971392631531 0.0061775208450853825
0.41162109375 0.16598936915397644 0.0040392708033323288
0.50162535905838013 0.16967153549194336 0.0083685331046581268
0.57438939809799194 0.17894016206264496 0.014910275116562843
0.61529320478439331 0.19311879575252533 0.018225261941552162
0.64209067821502686 0.19634386897087097 0.01622873917222023
0.65589058399200439 0.20986445248126984 0.019611537456512451
0.66695541143417358 0.22302094101905823 0.016914905980229378
0.0051409103907644749 0.10587466508150101 0.068925224244594574
0.0066330702975392342 0.11646153777837753 0.06491570919752121
0.016456380486488342 0.13800886273384094 0.059830684214830399
0.080382630228996277 0.16360506415367126 0.038318216800689697
0.20128388702869415 0.19508659839630127 0.015147997997701168
0.34256291389465332 0.22944627702236176 0.0063636330887675285
0.46227464079856873 0.24820591509342194 0.0039215688593685627
0.55558866262435913 0.25563204288482666 0.0046163224615156651
0.62869471311569214 0.2631777822971344 0.0091170370578765869
0.66934049129486084 0.27562683820724487 0.011542106978595257
0.69156938791275024 0.28082665801048279 0.015542108565568924
0.70469957590103149 0.28703242540359497 0.018937144428491592
0.71537452936172485 0.29977744817733765 0.010843613184988499
0.0042384578846395016 0.15269502997398376 0.092056497931480408
0.0047114654444158077 0.17262832820415497 0.086925819516181946
0.010928748175501823 0.20392705500125885 0.078071966767311096
0.051045048981904984 0.2430855929851532 0.040474835783243179
0.21468740701675415 0.28775984048843384 0.0095202429220080376
0.38167545199394226 0.32554608583450317 0.0045250686816871166
0.51574027538299561 0.35386818647384644 0.0048829172737896442
0.61098766326904297 0.37058377265930176 0.0053954031318426132
0.68149268627166748 0.37766072154045105 0.0065902858041226864
0.72234392166137695 0.3840574324131012 0.0090016238391399384
0.74944794178009033 0.39087679982185364 0.012643732130527496
0.7663998007774353 0.39985230565071106 0.014847475104033947
0.77595454454421997 0.41339698433876038 0.012562202289700508
0.0093544004485011101 0.21952646970748901 0.12810227274894714
0.0073688281700015068 0.24205413460731506 0.1172802671790123
0.0085179349407553673 0.27791616320610046 0.10294793546199799
0.040491394698619843 0.32238346338272095 0.062745936214923859
0.2268320769071579 0.38110262155532837 0.012922129593789577
0.41585257649421692 0.43509197235107422 0.0074998894706368446
0.55968892574310303 0.46816849708557129 0.0077616521157324314
0.66970789432525635 0.49281832575798035 0.010497568175196648
0.73901695013046265 0.50000572204589844 0.013530013151466846
0.7805027961730957 0.50345849990844727 0.012757633812725544
0.80809587240219116 0.51469272375106812 0.010367419570684433
0.82919156551361084 0.52864229679107666 0.012439144775271416
0.84510987997055054 0.5453065037727356 0.014717281796038151
0.012437723577022552 0.27685943245887756 0.15804509818553925
0.0095686670392751694 0.30532041192054749 0.14969240128993988
0.011194490827620029 0.34353435039520264 0.13170081377029419
0.041679650545120239 0.39572447538375854 0.08676619827747345
0.23028405010700226 0.46760085225105286 0.013944887556135654
0.43463519215583801 0.53068894147872925 0.0070447283796966076
0.59844762086868286 0.5744515061378479 0.0053218170069158077
0.71314412355422974 0.60257530212402344 0.0093243466690182686
0.79514968395233154 0.61913061141967773 0.0086974501609802246
0.84006756544113159 0.6263471245765686 0.008544502779841423
0.86642760038375854 0.63547581434249878 0.0075591742061078548
0.8835023045539856 0.64549607038497925 0.015133637003600597
0.89553666114807129 0.65257155895233154 0.02250741608440876
0.010344157926738262 0.31898212432861328 0.17279145121574402
0.014025280252099037 0.35160857439041138 0.1681990772485733
0.021265292540192604 0.40170639753341675 0.15348339080810547
0.068414516746997833 0.45567291975021362 0.10177730768918991
0.24801965057849884 0.53658902645111084 0.019806595519185066
0.45371076464653015 0.6018558144569397 0.0068099675700068474
0.62694281339645386 0.65176302194595337 0.0074387793429195881
0.75071686506271362 0.68634742498397827 0.016473956406116486
0.83500397205352783 0.70547080039978027 0.021097758784890175
0.88443571329116821 0.71779197454452515 0.027221724390983582
0.90782451629638672 0.72288203239440918 0.030434267595410347
0.92023825645446777 0.72504860162734985 0.04716859757900238
0.92584854364395142 0.72521913051605225 0.055811729282140732
0.0050706304609775543 0.34967696666717529 0.18215212225914001
0.017725072801113129 0.38558918237686157 0.18058948218822479
0.019354263320565224 0.44041633605957031 0.16334225237369537
0.053921103477478027 0.49924537539482117 0.10760541260242462
0.25515854358673096 0.57722610235214233 0.024442275986075401
0.46557307243347168 0.64198011159896851 0.010965744033455849
0.64020401239395142 0.69388753175735474 0.015914782881736755
0.76791197061538696 0.73163330554962158 0.028823956847190857
0.85584872961044312 0.75343054533004761 0.050974544137716293
0.90713047981262207 0.76749670505523682 0.063411980867385864
0.93228036165237427 0.77284097671508789 0.068685151636600494
0.9447893500328064 0.7746577262878418 0.070152178406715393
0.94848215579986572 0.7739683985710144 0.072442330420017242
0.0042396094650030136 0.37210723757743835 0.19047476351261139
0.02057189866900444 0.41533747315406799 0.19136545062065125
0.021566683426499367 0.46624460816383362 0.17285044491291046
0.040307827293872833 0.52813088893890381 0.10357348620891571
0.26758530735969543 0.60118520259857178 0.025338400155305862
0.48100864887237549 0.66367793083190918 0.017553934827446938
0.65279799699783325 0.71891772747039795 0.016283102333545685
0.77321910858154297 0.75631022453308105 0.030466176569461823
0.86468613147735596 0.7810707688331604 0.058663535863161087
0.91865140199661255 0.79399174451828003 0.073796816170215607
0.94719994068145752 0.79997152090072632 0.078665293753147125
0.96052026748657227 0.80438244342803955 0.079637758433818817
0.96526831388473511 0.80548298358917236 0.084545299410820007
0.0065094740130007267 0.40569743514060974 0.20882192254066467
0.017700748518109322 0.45668387413024902 0.20095063745975494
0.02078266441822052 0.50581800937652588 0.1717856377363205
0.041668687015771866 0.56753057241439819 0.09814734011888504
0.28930774331092834 0.63561230897903442 0.030380921438336372
0.50516664981842041 0.6935761570930481 0.025289019569754601
0.6702083945274353 0.74336081743240356 0.012251521460711956
0.7857668399810791 0.77809375524520874 0.026393845677375793
0.87472748756408691 0.80108410120010376 0.057164974510669708
0.9300273060798645 0.81293791532516479 0.067379042506217957
0.95956188440322876 0.81952440738677979 0.08049532026052475
0.97206652164459229 0.82364165782928467 0.091653667390346527
0.97649103403091431 0.82349932193756104 0.095855459570884705
0.013942210003733635 0.46786636114120483 0.24519112706184387
0.023669583722949028 0.51293849945068359 0.2320171445608139
0.011139484122395515 0.5706067681312561 0.18776917457580566
0.057608600705862045 0.6221623420715332 0.1133708581328392
0.32037514448165894 0.67835325002670288 0.041580140590667725
0.5333782434463501 0.73313885927200317 0.029130673035979271
0.68638652563095093 0.76926606893539429 0.018528837710618973
0.80192774534225464 0.79755318164825439 0.023661505430936813
0.88703268766403198 0.81643503904342651 0.055665288120508194
0.9448859691619873 0.82934558391571045 0.051986962556838989
0.97196012735366821 0.83558756113052368 0.073604315519332886
0.98476141691207886 0.83926600217819214 0.080878362059593201
0.9880073070526123 0.84181362390518188 0.11690939962863922
0.0047928453423082829 0.03367200493812561 0.05239327996969223
0.010798973962664604 0.03297506645321846 0.05701896920800209
0.040266778320074081 0.036723688244819641 0.053683396428823471
0.088804952800273895 0.038915820419788361 0.048912301659584045
0.15298430621623993 0.030621832236647606 0.036645282059907913
0.23802676796913147 0.017541354522109032 0.01817556656897068
0.32123354077339172 0.017433734610676765 0.012839642353355885
0.4016154408454895 0.029429282993078232 0.0175437331199646
0.4803321361541748 0.05678926408290863 0.024629944935441017
0.51571404933929443 0.065582320094108582 0.027671424672007561
0.53677302598953247 0.058976355940103531 0.023950360715389252
0.55679577589035034 0.057464733719825745 0.028580939397215843
0.56894409656524658 0.052988838404417038 0.030211489647626877
0.00734685268253088 0.047437466681003571 0.059746745973825455
0.011436358094215393 0.046968139708042145 0.061823077499866486
0.040026303380727768 0.048785176128149033 0.060650665313005447
0.08334001898765564 0.049297362565994263 0.053842581808567047
0.16080968081951141 0.04970112070441246 0.037336401641368866
0.26210153102874756 0.045240409672260284 0.015572222881019115
0.36165034770965576 0.042906053364276886 0.020046278834342957
0.44912406802177429 0.050422564148902893 0.028142772614955902
0.51560670137405396 0.065214984118938446 0.031149515882134438
0.55366498231887817 0.086248494684696198 0.033020619302988052
0.57990038394927979 0.07659459114074707 0.02703113853931427
0.59887218475341797 0.073043793439865112 0.025299835950136185
0.60904592275619507 0.076593942940235138 0.020313786342740059
0.013120254501700401 0.067048497498035431 0.066768020391464233
0.013426702469587326 0.067275360226631165 0.068490825593471527
0.033878866583108902 0.072454996407032013 0.073801018297672272
0.08365941047668457 0.081286683678627014 0.065384566783905029
0.17655046284198761 0.090668395161628723 0.043201804161071777
0.29023903608322144 0.091589502990245819 0.019252568483352661
0.40010717511177063 0.08119596540927887 0.019877729937434196
0.48799523711204529 0.079819023609161377 0.025452796369791031
0.55555588006973267 0.092689812183380127 0.02492808923125267
0.59705078601837158 0.11016622930765152 0.025714261457324028
0.62669110298156738 0.10169104486703873 0.019983014091849327
0.64341753721237183 0.11303893476724625 0.021129399538040161
0.65447503328323364 0.12273154407739639 0.022047707810997963
0.017562476918101311 0.084801137447357178 0.073815442621707916
0.016362104564905167 0.090253658592700958 0.074867010116577148
0.024446390569210052 0.10654935985803604 0.07928001880645752
0.079091094434261322 0.12180184572935104 0.071742773056030273
0.18789689242839813 0.14000982046127319 0.049748647958040237
0.31764623522758484 0.14744342863559723 0.025234133005142212
0.43689391016960144 0.14348189532756805 0.012811234220862389
0.53260070085525513 0.13845813274383545 0.0098548885434865952
0.60586273670196533 0.14771224558353424 0.01581491157412529
0.64404094219207764 0.15702228248119354 0.019990449771285057
0.6730036735534668 0.15668961405754089 0.015921933576464653
