assets/lut/films negative color fuji superia reala 100.cube
# Created by: G'MIC (https://gmic.eu)
TITLE "fuji_superia_reala_100"
# LUT size
LUT_3D_SIZE 7
# Data domain
DOMAIN_MIN 0.0 0.0 0.0
DOMAIN_MAX 1.0 1.0 1.0
# LUT data points
0.058325555175542831 0.055410571396350861 0.051956325769424438
0.22444711625576019 0.040515869855880737 0.035190969705581665
0.39024311304092407 0.026620663702487946 0.027592483907938004
0.55759584903717041 0.013580322265625 0.026346933096647263
0.71849411725997925 0.0031141242943704128 0.028073254972696304
0.86051273345947266 4.9546186346560717e-05 0.066211983561515808
0.97546690702438354 0 0.11952893435955048
0.11200238764286041 0.2340276837348938 0.10681179165840149
0.23784531652927399 0.22019354999065399 0.094103716313838959
0.40316185355186462 0.19990967214107513 0.086893476545810699
0.57475292682647705 0.16929042339324951 0.077457398176193237
0.73760735988616943 0.11948225647211075 0.072169691324234009
0.87683039903640747 0.047557096928358078 0.08964182436466217
0.98559165000915527 0.001589606748893857 0.13168634474277496
0.1053473949432373 0.4008842408657074 0.14446975290775299
0.25194722414016724 0.39329120516777039 0.13202674686908722
0.42179200053215027 0.38110506534576416 0.1278785914182663
0.59647876024246216 0.35953912138938904 0.12990066409111023
0.75925451517105103 0.31985533237457275 0.13798679411411285
0.89703106880187988 0.25407955050468445 0.16152562201023102
0.99376469850540161 0.17419855296611786 0.19337648153305054
0.16776439547538757 0.55763161182403564 0.12479819357395172
0.2957974374294281 0.55677253007888794 0.11600109934806824
0.45990991592407227 0.54952418804168701 0.11598446220159531
0.63048768043518066 0.53655797243118286 0.12315294146537781
0.78484612703323364 0.51855909824371338 0.1518048495054245
0.91933339834213257 0.48997029662132263 0.20323364436626434
0.99763250350952148 0.42973116040229797 0.25628310441970825
0.26297366619110107 0.70043593645095825 0.067181497812271118
0.37518012523651123 0.70277613401412964 0.072175838053226471
0.52568799257278442 0.69532191753387451 0.065368518233299255
0.68599259853363037 0.68687629699707031 0.066700056195259094
0.82877546548843384 0.68043744564056396 0.094063088297843933
0.95448571443557739 0.66486310958862305 0.15082827210426331
0.99949038028717041 0.62755578756332397 0.25820204615592957
0.34259584546089172 0.82667791843414307 0.0033992393873631954
0.44805735349655151 0.82334566116333008 0.014095949940383434
0.58877944946289062 0.81895053386688232 0.0075646792538464069
0.74797528982162476 0.81566464900970459 0.0096772434189915657
0.90704846382141113 0.8100583553314209 0.02438679151237011
0.99950814247131348 0.80383265018463135 0.03297756239771843
1 0.78817319869995117 0.14281474053859711
0.35893458127975464 0.95318806171417236 0
0.45850825309753418 0.94592142105102539 0
0.59808081388473511 0.94524145126342773 0
0.75863468647003174 0.94589507579803467 0
0.92205965518951416 0.94183284044265747 0
0.99997472763061523 0.9390873908996582 0
1 0.93165338039398193 0.0015336279757320881
0.0588352270424366 0.054250679910182953 0.19329272210597992
0.20822511613368988 0.039782699197530746 0.17324623465538025
0.37735578417778015 0.019428836181759834 0.15689738094806671
0.543387770652771 0.0099279666319489479 0.14484462141990662
0.70172631740570068 0.0038203818257898092 0.14499957859516144
0.84554725885391235 0.0032522163819521666 0.17512394487857819
0.96828216314315796 0.00036719828494824469 0.20977595448493958
0.0906500443816185 0.23481510579586029 0.23510909080505371
0.22210048139095306 0.22123122215270996 0.22017741203308105
0.3901265561580658 0.1970367431640625 0.20700104534626007
0.55756890773773193 0.16521503031253815 0.19182990491390228
0.71678167581558228 0.11760242283344269 0.18291828036308289
0.85645967721939087 0.050564292818307877 0.18708546459674835
0.97390520572662354 0.0013154123444110155 0.20377089083194733
0.089580580592155457 0.40365678071975708 0.26267868280410767
0.22762705385684967 0.3962731659412384 0.25145325064659119
0.40250486135482788 0.38365179300308228 0.24304328858852386
0.57518118619918823 0.36053735017776489 0.23777547478675842
0.73552489280700684 0.32002225518226624 0.23915190994739532
0.87410587072372437 0.25101178884506226 0.24674427509307861
0.98297631740570068 0.16395840048789978 0.26175016164779663
0.15417362749576569 0.56122410297393799 0.24745258688926697
0.26754480600357056 0.56098383665084839 0.23511381447315216
0.43070772290229797 0.55599761009216309 0.24019941687583923
0.60230112075805664 0.54226559400558472 0.24169595539569855
0.75660699605941772 0.52095288038253784 0.2602597177028656
0.8952903151512146 0.48614150285720825 0.29635152220726013
0.9909970760345459 0.42234516143798828 0.33713361620903015
0.26687830686569214 0.70395159721374512 0.16266255080699921
0.36468884348869324 0.70477980375289917 0.15549446642398834
0.50490367412567139 0.70068418979644775 0.16694177687168121
0.65985405445098877 0.69263762235641479 0.17196403443813324
0.7967715859413147 0.68401938676834106 0.20004861056804657
0.9308168888092041 0.66580092906951904 0.26668035984039307
0.99823826551437378 0.62939226627349854 0.36475586891174316
0.39945429563522339 0.82914537191390991 0.016775393858551979
0.48305341601371765 0.82573586702346802 0.012288456782698631
0.6053655743598938 0.82175964117050171 0.017347851768136024
0.74807256460189819 0.81873506307601929 0.024908073246479034
0.88669085502624512 0.81399893760681152 0.058354664593935013
0.98727428913116455 0.80574703216552734 0.10551727563142776
1 0.78816205263137817 0.29394227266311646
0.39476871490478516 0.95601141452789307 0.0001509124122094363
0.47614598274230957 0.95115554332733154 0.00039497824036516249
0.61567693948745728 0.95001637935638428 0
0.76404035091400146 0.95034468173980713 0
0.92781847715377808 0.9462745189666748 0
1 0.94055414199829102 0
1 0.93255090713500977 0.048360623419284821
0.068660959601402283 0.060388259589672089 0.31566968560218811
0.2067655622959137 0.045459762215614319 0.29347068071365356
0.37164115905761719 0.022504141554236412 0.27375489473342896
0.53082454204559326 0.0074931127019226551 0.25667682290077209
0.68373644351959229 0.00022600959346164018 0.24147751927375793
0.82750856876373291 0 0.24992711842060089
0.95520740747451782 0 0.27469748258590698
0.10428497940301895 0.23388318717479706 0.36235108971595764
0.21262034773826599 0.22290176153182983 0.34971758723258972
0.37990367412567139 0.19552543759346008 0.33301559090614319
0.54270565509796143 0.15866419672966003 0.31101912260055542
0.69650542736053467 0.10518576204776764 0.28471392393112183
0.83630120754241943 0.040679663419723511 0.26891571283340454
0.95715981721878052 0.00013104606478009373 0.26923811435699463
0.083435758948326111 0.40458488464355469 0.40492522716522217
0.2104986160993576 0.39866021275520325 0.39591604471206665
0.38519984483718872 0.38359326124191284 0.38474616408348083
0.55530554056167603 0.35743191838264465 0.37028533220291138
0.71153241395950317 0.31349858641624451 0.35461023449897766
0.85232251882553101 0.24604177474975586 0.34300321340560913
0.96905028820037842 0.15094350278377533 0.33546596765518188
0.11924903839826584 0.56490588188171387 0.42120683193206787
0.22402830421924591 0.56467193365097046 0.41652587056159973
0.39504992961883545 0.55824154615402222 0.41295439004898071
0.56852930784225464 0.54659652709960938 0.40509086847305298
0.72379219532012939 0.52491933107376099 0.40477737784385681
0.86727732419967651 0.48943257331848145 0.41322028636932373
0.9826887845993042 0.41910997033119202 0.42316645383834839
0.20501516759395599 0.70829278230667114 0.38673558831214905
0.29503971338272095 0.70822048187255859 0.38795799016952515
0.4438820481300354 0.7044450044631958 0.39348235726356506
0.60387450456619263 0.69765818119049072 0.39343142509460449
0.74399334192276001 0.68755418062210083 0.40904834866523743
0.88308262825012207 0.66990852355957031 0.43198093771934509
0.99195921421051025 0.63418221473693848 0.46987324953079224
0.3899800181388855 0.82975679636001587 0.19746144115924835
0.4476463794708252 0.82915961742401123 0.21171236038208008
0.55767583847045898 0.82712066173553467 0.22960430383682251
0.68681669235229492 0.82589292526245117 0.24571716785430908
0.81442850828170776 0.81927502155303955 0.29062995314598083
0.92770898342132568 0.81084764003753662 0.37728780508041382
0.99854105710983276 0.7925305962562561 0.474749356508255
0.47171080112457275 0.95573955774307251 0.00028568343259394169
0.53350716829299927 0.95545428991317749 0
0.65719389915466309 0.95443445444107056 0.00026011746376752853
0.79974520206451416 0.95113545656204224 0.00020428825519047678
0.94537663459777832 0.94847267866134644 0.0022842108737677336
0.99939554929733276 0.94508099555969238 0.022813610732555389
0.99989718198776245 0.93570572137832642 0.17416930198669434
0.080598585307598114 0.057684265077114105 0.42691981792449951
0.21969608962535858 0.041434686630964279 0.40134590864181519
0.37365970015525818 0.021085476502776146 0.38002115488052368
0.52450871467590332 0.0063596237450838089 0.36021909117698669
0.67259204387664795 9.1911766503471881e-05 0.34203144907951355
0.81364089250564575 0 0.33820977807044983
0.94115966558456421 0 0.3479616641998291
0.11619216203689575 0.23023025691509247 0.48485371470451355
0.2305084615945816 0.21724696457386017 0.46795129776000977
0.38231474161148071 0.19257213175296783 0.44631668925285339
0.53610455989837646 0.15680207312107086 0.42001250386238098
0.68408787250518799 0.10139568895101547 0.39111202955245972
0.82156902551651001 0.040562976151704788 0.36548453569412231
0.94378852844238281 0 0.35112768411636353
0.1014687642455101 0.40238192677497864 0.53959596157073975
0.22605681419372559 0.39548113942146301 0.52998858690261841
0.38422861695289612 0.38152036070823669 0.51310974359512329
0.54511517286300659 0.35900279879570007 0.49022248387336731
0.69518822431564331 0.31107291579246521 0.46742433309555054
0.83464920520782471 0.23911862075328827 0.44433021545410156
0.95563262701034546 0.12499045580625534 0.41593846678733826
0.10424463450908661 0.56852531433105469 0.58061808347702026
0.20926578342914581 0.56525075435638428 0.57611125707626343
0.37845999002456665 0.55741399526596069 0.56443876028060913
0.54744929075241089 0.54729408025741577 0.54785013198852539
0.70069867372512817 0.52739417552947998 0.53618091344833374
0.84406715631484985 0.49457478523254395 0.52962106466293335
0.9715455174446106 0.41663777828216553 0.51507329940795898
0.15033386647701263 0.71306663751602173 0.59214544296264648
0.24010859429836273 0.71165221929550171 0.5923391580581665
0.3991788923740387 0.70688545703887939 0.58067780733108521
0.56177634000778198 0.70129656791687012 0.5705796480178833
0.70812821388244629 0.68787366151809692 0.56792634725570679
0.84818029403686523 0.66886144876480103 0.56985139846801758
0.97793841361999512 0.63486319780349731 0.57925558090209961
0.26049074530601501 0.83633244037628174 0.54193079471588135
0.33693757653236389 0.83509385585784912 0.54494500160217285
0.46082663536071777 0.83313596248626709 0.54874569177627563
0.60064047574996948 0.8297913670539856 0.53948521614074707
0.73455828428268433 0.8231123685836792 0.55548453330993652
0.8738442063331604 0.81366086006164551 0.57660150527954102
0.9862554669380188 0.79530686140060425 0.60012125968933105
0.5205417275428772 0.95779561996459961 0.10322858393192291
0.57155942916870117 0.95983052253723145 0.08893604576587677
0.66018426418304443 0.95713794231414795 0.10682998597621918
0.76346057653427124 0.95728158950805664 0.14518119394779205
0.88785815238952637 0.9552646279335022 0.17175817489624023
0.97610747814178467 0.95289653539657593 0.25698941946029663
0.99981778860092163 0.94080883264541626 0.4494401216506958
0.11519981920719147 0.043507847934961319 0.52612984180450439
0.24678914248943329 0.027988897636532784 0.49965518712997437
0.38435208797454834 0.012608801014721394 0.47780513763427734
0.52510994672775269 0.0024196698796004057 0.45591604709625244
0.66659337282180786 0 0.43538996577262878
0.80242073535919189 0 0.42406252026557922
0.92807573080062866 0.00064293359173461795 0.42541530728340149
0.15400803089141846 0.22016508877277374 0.58749520778656006
0.26468688249588013 0.20539619028568268 0.56858175992965698
0.39636668562889099 0.18118566274642944 0.54595226049423218
0.53681176900863647 0.14550131559371948 0.51908892393112183
0.67746078968048096 0.093444839119911194 0.48867988586425781
0.81066393852233887 0.040716297924518585 0.45713526010513306
0.93244147300720215 3.0517578125e-05 0.43434345722198486
0.17384067177772522 0.39843490719795227 0.6482994556427002
0.26955890655517578 0.390520840883255 0.63695073127746582
0.3997463583946228 0.37505200505256653 0.61867398023605347
0.54463213682174683 0.34892836213111877 0.59430074691772461
0.68737244606018066 0.30144703388214111 0.56659775972366333
0.82200300693511963 0.22582206130027771 0.53289222717285156
0.94388949871063232 0.10781879723072052 0.49328720569610596
0.16737069189548492 0.56860172748565674 0.70154476165771484
0.25489696860313416 0.5640566349029541 0.69396752119064331
0.39373719692230225 0.55576390027999878 0.68051069974899292
0.54556190967559814 0.54389256238937378 0.66149419546127319
0.69135165214538574 0.52485001087188721 0.64307290315628052
0.83016777038574219 0.48992037773132324 0.62591832876205444
0.96006250381469727 0.41368305683135986 0.59984177350997925
0.1780983954668045 0.71519917249679565 0.73492753505706787
0.26135081052780151 0.71199166774749756 0.72568190097808838
0.40208804607391357 0.70696181058883667 0.71615850925445557
0.55117708444595337 0.70138663053512573 0.69961071014404297
0.69288074970245361 0.69030410051345825 0.68780297040939331
0.82749438285827637 0.67148381471633911 0.68269568681716919
0.95944589376449585 0.63324666023254395 0.67886650562286377
0.22604997456073761 0.84133583307266235 0.73943513631820679
0.30418705940246582 0.83776479959487915 0.72697818279266357
0.42839771509170532 0.83402562141418457 0.72885251045227051
0.56608057022094727 0.83292615413665771 0.71375894546508789
0.70226550102233887 0.82743924856185913 0.71287286281585693
0.83651053905487061 0.81624925136566162 0.71014946699142456
0.96726101636886597 0.79430955648422241 0.72150725126266479
0.35239729285240173 0.96966570615768433 0.53691381216049194
0.40687987208366394 0.96691280603408813 0.54760313034057617
0.50868016481399536 0.96466153860092163 0.55131369829177856
0.63215118646621704 0.96586787700653076 0.56276178359985352
0.76003289222717285 0.96470737457275391 0.57155144214630127
0.88744866847991943 0.9594007134437561 0.60276776552200317
0.99665528535842896 0.94554620981216431 0.66173464059829712
0.17146357893943787 0.027174018323421478 0.6122017502784729
0.28966107964515686 0.015610997565090656 0.58781814575195312
0.41293454170227051 0.0050190943293273449 0.56445199251174927
0.53951990604400635 4.8110065108630806e-05 0.53987342119216919
0.66885405778884888 0 0.51349365711212158
0.79496109485626221 0 0.49187621474266052
0.91534161567687988 0 0.48231595754623413
0.22742642462253571 0.20406590402126312 0.66537332534790039
0.32018914818763733 0.19112204015254974 0.6501808762550354
0.42995911836624146 0.16759990155696869 0.63004297018051147
0.55227869749069214 0.13117234408855438 0.60270017385482788
0.67961210012435913 0.079751409590244293 0.5676078200340271
0.80319023132324219 0.020854515954852104 0.52702969312667847
0.92064893245697021 0 0.49770185351371765
0.25825655460357666 0.39049455523490906 0.72687828540802002
0.33480629324913025 0.38418135046958923 0.71763181686401367
0.43750786781311035 0.36814513802528381 0.70338255167007446
0.56077057123184204 0.33895033597946167 0.68014967441558838
0.69075465202331543 0.29182174801826477 0.64757019281387329
0.81599348783493042 0.2145504504442215 0.60438740253448486
0.93347573280334473 0.11851309984922409 0.56217712163925171
0.26404860615730286 0.56740540266036987 0.7870858907699585
0.33279454708099365 0.56421256065368652 0.77928239107131958
0.43721133470535278 0.55604463815689087 0.76987385749816895
0.56302404403686523 0.54218906164169312 0.75363248586654663
0.69601237773895264 0.52313363552093506 0.73196262121200562
0.82433074712753296 0.48235467076301575 0.70569771528244019
0.94836121797561646 0.40537446737289429 0.67319655418395996
0.27509567141532898 0.71459460258483887 0.83267271518707275
0.34104710817337036 0.71210265159606934 0.82177877426147461
0.44398844242095947 0.70811092853546143 0.81731551885604858
0.56508076190948486 0.70095837116241455 0.80776757001876831
0.69336426258087158 0.69220900535583496 0.79122340679168701
0.81870412826538086 0.67100584506988525 0.7750314474105835
0.94742304086685181 0.62654811143875122 0.75843602418899536
0.28909379243850708 0.84300023317337036 0.87190717458724976
0.34779760241508484 0.8400423526763916 0.85722750425338745
0.44636568427085876 0.83853024244308472 0.85636913776397705
0.56479007005691528 0.83669799566268921 0.8516920804977417
0.69270187616348267 0.82931429147720337 0.83144283294677734
0.82080113887786865 0.81456607580184937 0.81887692213058472
0.9561505913734436 0.79353427886962891 0.81505274772644043
0.30412158370018005 0.97611528635025024 0.83630335330963135
0.34066066145896912 0.97523891925811768 0.83051401376724243
0.45317342877388 0.97355502843856812 0.81178504228591919
0.57469266653060913 0.97434371709823608 0.81558996438980103
0.69439208507537842 0.97195541858673096 0.81536734104156494
0.83034712076187134 0.96280986070632935 0.81191939115524292
0.97535532712936401 0.95164632797241211 0.81016725301742554
0.26811447739601135 0.0099137844517827034 0.68253284692764282
0.36085310578346252 0.0049293218180537224 0.66416662931442261
0.46143612265586853 0.00033389820600859821 0.64312601089477539
0.56963539123535156 0 0.61695760488510132
0.68249118328094482 0 0.58526712656021118
0.79597920179367065 0 0.55375397205352783
0.9086800217628479 0 0.53558516502380371
0.3314424455165863 0.17897506058216095 0.72959750890731812
0.39968651533126831 0.1704099178314209 0.72062617540359497
0.48391696810722351 0.14820487797260284 0.70494824647903442
0.58507424592971802 0.10812857002019882 0.67788445949554443
0.6942981481552124 0.045743949711322784 0.63797599077224731
0.80351680517196655 0.00068769266363233328 0.58822554349899292
0.91308599710464478 0 0.55122113227844238
0.35665205121040344 0.3709806501865387 0.79629004001617432
0.41671675443649292 0.3683021068572998 0.78912961483001709
0.49547812342643738 0.35198795795440674 0.7775808572769165
0.59585869312286377 0.31946471333503723 0.75456565618515015
0.70690751075744629 0.26596859097480774 0.71864932775497437
0.81692022085189819 0.17754696309566498 0.66710555553436279
0.92411309480667114 0.070436231791973114 0.6141931414604187
0.36496108770370483 0.55255800485610962 0.86448878049850464
0.42157566547393799 0.55495011806488037 0.85632121562957764
0.50130504369735718 0.54593580961227417 0.84779202938079834
0.60243213176727295 0.52889323234558105 0.83140403032302856
0.71573424339294434 0.50674092769622803 0.80751323699951172
0.83031117916107178 0.46577981114387512 0.77605855464935303
0.94189119338989258 0.37101423740386963 0.731689453125
0.38451814651489258 0.70591682195663452 0.91796231269836426
0.43850678205490112 0.70710539817810059 0.90870541334152222
0.51271152496337891 0.70354366302490234 0.90404361486434937
0.60790115594863892 0.69643884897232056 0.8931889533996582
0.71690714359283447 0.68749964237213135 0.87422996759414673
0.83034509420394897 0.66648942232131958 0.85327494144439697
0.94938457012176514 0.61688077449798584 0.82681071758270264
0.39820504188537598 0.84065502882003784 0.96944677829742432
0.44236311316490173 0.83988887071609497 0.96003502607345581
0.51316362619400024 0.83949548006057739 0.9576793909072876
0.60690832138061523 0.83499950170516968 0.95010125637054443
0.7136160135269165 0.82804721593856812 0.92884117364883423
0.82675737142562866 0.8161659836769104 0.91887247562408447
0.9571298360824585 0.79481852054595947 0.91467750072479248
0.39251959323883057 0.97799670696258545 0.98721921443939209
0.42423737049102783 0.97642713785171509 0.97948479652404785
0.50072300434112549 0.9752766489982605 0.97239655256271362
0.60356837511062622 0.97150123119354248 0.97273129224777222
0.70576590299606323 0.96994876861572266 0.96182817220687866
0.8186800479888916 0.96701401472091675 0.96181100606918335
0.96417278051376343 0.96356463432312012 0.96166008710861206
