assets/lut/films colorslide polaroid 669.cube
# Created by: G'MIC (https://gmic.eu)
TITLE "polaroid_669"
# LUT size
LUT_3D_SIZE 5
# Data domain
DOMAIN_MIN 0.0 0.0 0.0
DOMAIN_MAX 1.0 1.0 1.0
# LUT data points
0.016914516687393188 0.15287463366985321 0.11792336404323578
0.16315054893493652 0.1587737649679184 0.12529835104942322
0.40705052018165588 0.16307412087917328 0.1404542475938797
0.67820960283279419 0.14768479764461517 0.15704867243766785
0.92733508348464966 0.17327362298965454 0.19155010581016541
0.027177728712558746 0.24902504682540894 0.14312969148159027
0.19481325149536133 0.25059050321578979 0.13492071628570557
0.48015666007995605 0.27175948023796082 0.15743300318717957
0.72593635320663452 0.27379265427589417 0.17910309135913849
0.94478529691696167 0.30947771668434143 0.20800712704658508
0.092055484652519226 0.414987713098526 0.16120046377182007
0.2143196314573288 0.40121525526046753 0.16062390804290771
0.43598100543022156 0.42019400000572205 0.13855269551277161
0.71861636638641357 0.46821922063827515 0.16535548865795135
0.9591529369354248 0.55378776788711548 0.27372455596923828
0.10645946115255356 0.60907161235809326 0.15063583850860596
0.22292129695415497 0.58362048864364624 0.15898291766643524
0.41205096244812012 0.59608340263366699 0.13805374503135681
0.64448529481887817 0.64016437530517578 0.05067424476146698
0.90794110298156738 0.7251092791557312 0.11454696953296661
0.30485948920249939 0.94623905420303345 0.26527190208435059
0.38106071949005127 0.93945598602294922 0.25910532474517822
0.52779704332351685 0.94122594594955444 0.24766851961612701
0.73967921733856201 0.95874011516571045 0.24653491377830505
0.95605605840682983 0.97448903322219849 0.27303850650787354
0.0004036249010823667 0.17302140593528748 0.22282728552818298
0.17841140925884247 0.18435783684253693 0.24434097111225128
0.44761493802070618 0.17912700772285461 0.27366477251052856
0.7053418755531311 0.13795709609985352 0.2723330557346344
0.93263888359069824 0.15854586660861969 0.29697206616401672
0.0047287135384976864 0.28359457850456238 0.2698415219783783
0.24119292199611664 0.29029104113578796 0.29369166493415833
0.50426262617111206 0.28936251997947693 0.30497828125953674
0.73282915353775024 0.27990400791168213 0.30186691880226135
0.94380444288253784 0.31424546241760254 0.31934627890586853
0.082001209259033203 0.4776250422000885 0.29150760173797607
0.25566351413726807 0.45766559243202209 0.29352638125419617
0.47582548856735229 0.45565426349639893 0.26957905292510986
0.74087566137313843 0.49869763851165771 0.31657877564430237
0.95772898197174072 0.56214171648025513 0.38835537433624268
0.13827948272228241 0.65583962202072144 0.27438923716545105
0.24620786309242249 0.63563138246536255 0.26217958331108093
0.42312520742416382 0.62043356895446777 0.24547161161899567
0.6618841290473938 0.65996098518371582 0.20807379484176636
0.91932177543640137 0.74340981245040894 0.28354969620704651
0.26694381237030029 0.95127040147781372 0.35404044389724731
0.36540678143501282 0.94973886013031006 0.34170526266098022
0.51531487703323364 0.94087451696395874 0.33508777618408203
0.74507796764373779 0.96025681495666504 0.3546694815158844
0.94952154159545898 0.97146475315093994 0.36001735925674438
0.0086644338443875313 0.2302202582359314 0.49374580383300781
0.086259759962558746 0.22710748016834259 0.5168570876121521
0.52200758457183838 0.25319105386734009 0.56827843189239502
0.76681351661682129 0.3073420524597168 0.59550464153289795
0.95711827278137207 0.32013145089149475 0.57524740695953369
0 0.37015137076377869 0.52532482147216797
0.2123769223690033 0.35415428876876831 0.55893772840499878
0.55337750911712646 0.38306674361228943 0.60132300853729248
0.76953589916229248 0.41700553894042969 0.61025232076644897
0.95971852540969849 0.38085171580314636 0.57533413171768188
0.017931664362549782 0.56394666433334351 0.56729364395141602
0.29111281037330627 0.55359113216400146 0.56857740879058838
0.54822260141372681 0.56541067361831665 0.60063594579696655
0.75822597742080688 0.55711621046066284 0.59194540977478027
0.94765079021453857 0.55036669969558716 0.56559890508651733
0.0070676165632903576 0.76800918579101562 0.53143256902694702
0.27013897895812988 0.75742506980895996 0.54070180654525757
0.45679950714111328 0.70956093072891235 0.50707131624221802
0.69012248516082764 0.71766608953475952 0.47371214628219604
0.92902207374572754 0.78584438562393188 0.57012152671813965
0.28989675641059875 0.9706616997718811 0.57605528831481934
0.34565818309783936 0.96779799461364746 0.56357258558273315
0.49210342764854431 0.9599795937538147 0.51708650588989258
0.70292317867279053 0.96354669332504272 0.49944326281547546
0.94562935829162598 0.97452652454376221 0.5352855920791626
0.0079252356663346291 0.34653979539871216 0.80793815851211548
0.0025269901379942894 0.32932877540588379 0.81519871950149536
0.52687555551528931 0.37560999393463135 0.83622062206268311
0.8064265251159668 0.47541317343711853 0.84894150495529175
0.94617128372192383 0.56850814819335938 0.85310643911361694
0.0049359342083334923 0.4798089861869812 0.80991321802139282
0.11698102951049805 0.45401683449745178 0.81836318969726562
0.54577702283859253 0.48889908194541931 0.83896738290786743
0.79922080039978027 0.5739787220954895 0.84468835592269897
0.93387728929519653 0.65777719020843506 0.86006689071655273
0.0087312739342451096 0.64090502262115479 0.77992314100265503
0.21675707399845123 0.64157551527023315 0.78575670719146729
0.54451704025268555 0.64952456951141357 0.81527453660964966
0.78523349761962891 0.7324795126914978 0.85057532787322998
0.91921371221542358 0.77395904064178467 0.85538709163665771
0.092426925897598267 0.83549946546554565 0.80118006467819214
0.3065229058265686 0.83273601531982422 0.80146336555480957
0.53597158193588257 0.83651220798492432 0.8152163028717041
0.75597268342971802 0.84783428907394409 0.83388650417327881
0.91689187288284302 0.8393557071685791 0.82377952337265015
0.42348682880401611 0.99128866195678711 0.81018555164337158
0.47702121734619141 0.98842787742614746 0.80740326642990112
0.58655267953872681 0.98523670434951782 0.80923759937286377
0.71419233083724976 0.97645670175552368 0.77608668804168701
0.93111598491668701 0.98392969369888306 0.77401483058929443
0.26267370581626892 0.59137076139450073 0.95731943845748901
0.38760605454444885 0.58130687475204468 0.95517009496688843
0.62923389673233032 0.63677775859832764 0.94945216178894043
0.83374893665313721 0.74121534824371338 0.94822210073471069
0.94006842374801636 0.80580973625183105 0.94105613231658936
0.41114693880081177 0.69405996799468994 0.94756782054901123
0.47023788094520569 0.67990392446517944 0.94742751121520996
0.63634061813354492 0.70025897026062012 0.9456784725189209
0.83097416162490845 0.78718405961990356 0.94296419620513916
0.93594372272491455 0.84230703115463257 0.93715709447860718
0.44702592492103577 0.82367032766342163 0.93374061584472656
0.50777906179428101 0.81506443023681641 0.93455970287322998
0.64754700660705566 0.8043091893196106 0.93926835060119629
0.82378935813903809 0.85443109273910522 0.93684011697769165
0.93310010433197021 0.90120857954025269 0.93500882387161255
0.38400021195411682 0.93251711130142212 0.92496347427368164
0.45260578393936157 0.93120443820953369 0.92484849691390991
0.59536373615264893 0.91648566722869873 0.92435550689697266
0.80341577529907227 0.91892516613006592 0.93000471591949463
0.93220454454421997 0.96199238300323486 0.93748676776885986
0.65966987609863281 1 0.94371408224105835
0.65935993194580078 0.99890023469924927 0.92347866296768188
0.74383270740509033 0.99831455945968628 0.9300529956817627
0.83716541528701782 0.99668276309967041 0.9333183765411377
0.93784129619598389 0.9970594048500061 0.9379875659942627
