assets/lut/films colorslide kodak elite extracolor 100.cube
# Created by: G'MIC (https://gmic.eu)
TITLE "kodak_elite_extracolor_100"
# LUT size
LUT_3D_SIZE 13
# Data domain
DOMAIN_MIN 0.0 0.0 0.0
DOMAIN_MAX 1.0 1.0 1.0
# LUT data points
0.037927381694316864 0.035773586481809616 0.032415218651294708
0.093076340854167938 0.029079047963023186 0.029533131048083305
0.14770638942718506 0.023213166743516922 0.026344358921051025
0.2022358626127243 0.01994507759809494 0.020149126648902893
0.26150345802307129 0.014866817742586136 0.015136090107262135
0.33052465319633484 0.0092753395438194275 0.012993981130421162
0.41655236482620239 0.0085333734750747681 0.012572583742439747
0.50797480344772339 0.0092885484918951988 0.011682308278977871
0.58801114559173584 0.0047647212632000446 0.0082884393632411957
0.65185678005218506 4.2006548028439283e-05 0.0034798416309058666
0.71270859241485596 0 0.0014423595275729895
0.77591454982757568 0 0.00093792186817154288
0.83774030208587646 0.00044495824840851128 8.8680491899140179e-05
0.072770990431308746 0.10115882754325867 0.04843495786190033
0.11249386519193649 0.095982752740383148 0.045431457459926605
0.16130676865577698 0.086740009486675262 0.042829535901546478
0.21723763644695282 0.080765806138515472 0.03521893173456192
0.27901586890220642 0.072665363550186157 0.027995733544230461
0.34963783621788025 0.060753513127565384 0.024826273322105408
0.43201413750648499 0.051939751952886581 0.02229817770421505
0.51736509799957275 0.043062560260295868 0.018132453784346581
0.59164059162139893 0.027178984135389328 0.011095263995230198
0.65213066339492798 0.0070091844536364079 0.0040446710772812366
0.71283811330795288 0.0011008019791916013 0.00095922430045902729
0.77693665027618408 0.001431693322956562 2.9979031751281582e-05
0.83903497457504272 0.00400517787784338 0
0.11227650195360184 0.15782037377357483 0.069503799080848694
0.13749676942825317 0.15586791932582855 0.066640056669712067
0.17648378014564514 0.15019601583480835 0.062936387956142426
0.23326967656612396 0.14440111815929413 0.055491071194410324
0.299826979637146 0.13645537197589874 0.04741809144616127
0.37355160713195801 0.12441687285900116 0.041240543127059937
0.4546239972114563 0.11056282371282578 0.035124160349369049
0.53610002994537354 0.094594143331050873 0.027185507118701935
0.60777503252029419 0.073180601000785828 0.017260981723666191
0.66803455352783203 0.047949008643627167 0.0076920753344893456
0.72632551193237305 0.029950249940156937 0.0020537134259939194
0.7866169810295105 0.022341484203934669 9.4424976850859821e-05
0.84595751762390137 0.019362594932317734 0
0.13360755145549774 0.22500079870223999 0.091617569327354431
0.15581706166267395 0.22356654703617096 0.088562987744808197
0.19289003312587738 0.22016799449920654 0.084119461476802826
0.25162532925605774 0.2144969254732132 0.077763333916664124
0.32138147950172424 0.20778000354766846 0.069655157625675201
0.39853215217590332 0.197696253657341 0.060710445046424866
0.4815029501914978 0.18282775580883026 0.050871007144451141
0.56363588571548462 0.16410443186759949 0.039995696395635605
0.63547027111053467 0.14251156151294708 0.028637440875172615
0.69596183300018311 0.1165006011724472 0.017171477898955345
0.75111860036849976 0.090343460440635681 0.007145182229578495
0.80592459440231323 0.068634718656539917 0.0010318083222955465
0.86081516742706299 0.054094024002552032 0
0.14477549493312836 0.30834558606147766 0.10908754914999008
0.17278538644313812 0.30483391880989075 0.10810805857181549
0.21546003222465515 0.30037984251976013 0.10460061579942703
0.27485600113868713 0.29608190059661865 0.09926314651966095
0.34537684917449951 0.29155230522155762 0.091149531304836273
0.42475354671478271 0.28295055031776428 0.080984480679035187
0.51053899526596069 0.26941785216331482 0.068967722356319427
0.59479719400405884 0.25101146101951599 0.056612875312566757
0.6671680212020874 0.23079445958137512 0.044359423220157623
0.72760730981826782 0.20519012212753296 0.031323228031396866
0.78103113174438477 0.17362666130065918 0.017734691500663757
0.83251035213470459 0.13920600712299347 0.0054944953881204128
0.88342010974884033 0.11189516633749008 0.00031373265665024519
0.15989072620868683 0.40847408771514893 0.11944125592708588
0.19321177899837494 0.40336793661117554 0.12193403393030167
0.24124965071678162 0.39667785167694092 0.12059426307678223
0.30110383033752441 0.39351901412010193 0.11625657975673676
0.37154713273048401 0.39088901877403259 0.10903890430927277
0.45312020182609558 0.38286030292510986 0.098452426493167877
0.54122024774551392 0.3709200918674469 0.086485572159290314
0.62627571821212769 0.35552456974983215 0.07465815544128418
0.70014429092407227 0.33747535943984985 0.061957236379384995
0.76153194904327393 0.31404104828834534 0.046829942613840103
0.81576836109161377 0.28038877248764038 0.030387429520487785
0.86606395244598389 0.23615333437919617 0.014618054963648319
0.91323554515838623 0.19623632729053497 0.0030803754925727844
0.17855075001716614 0.5231015682220459 0.12410393357276917
0.21408894658088684 0.51853674650192261 0.12867642939090729
0.26490205526351929 0.51151794195175171 0.12679791450500488
0.32687512040138245 0.50840795040130615 0.12285657227039337
0.39947906136512756 0.5060046911239624 0.11733853071928024
0.48458760976791382 0.49771597981452942 0.1076178178191185
0.57498425245285034 0.48660984635353088 0.096358537673950195
0.66039866209030151 0.47413134574890137 0.085957467555999756
0.7349359393119812 0.4597262442111969 0.074072711169719696
0.79911321401596069 0.44049292802810669 0.058774866163730621
0.85592871904373169 0.40898734331130981 0.040873359888792038
0.90583080053329468 0.36178481578826904 0.023910462856292725
0.94923096895217896 0.31345802545547485 0.0094412714242935181
0.20499636232852936 0.63906735181808472 0.11765407770872116
0.24023762345314026 0.63560187816619873 0.12169472128152847
0.29223453998565674 0.62873589992523193 0.11765265464782715
0.35744744539260864 0.62505620718002319 0.11266396939754486
0.4345984160900116 0.62290173768997192 0.10738117247819901
0.52324426174163818 0.61536109447479248 0.099307805299758911
0.61432820558547974 0.60635876655578613 0.090520121157169342
0.69645363092422485 0.59826856851577759 0.08266882598400116
0.77092874050140381 0.5895037055015564 0.073811396956443787
0.83801645040512085 0.57536858320236206 0.060778375715017319
0.89866471290588379 0.55153751373291016 0.044536799192428589
0.94805061817169189 0.50949478149414062 0.028409037739038467
0.98434293270111084 0.46065160632133484 0.014918054454028606
0.24606038630008698 0.74060767889022827 0.092300280928611755
0.27876275777816772 0.73900330066680908 0.096849851310253143
0.32924163341522217 0.73437350988388062 0.092948570847511292
0.39680403470993042 0.73133504390716553 0.085074342787265778
0.47832930088043213 0.7280387282371521 0.076612032949924469
0.56932014226913452 0.72262358665466309 0.069892182946205139
0.65852230787277222 0.71752315759658813 0.06559377908706665
0.73722684383392334 0.71492922306060791 0.061846327036619186
0.80786502361297607 0.71140491962432861 0.05729268491268158
0.87670409679412842 0.70204275846481323 0.048852000385522842
0.9388887882232666 0.68402570486068726 0.036623351275920868
0.98366886377334595 0.65103685855865479 0.025649994611740112
0.99947535991668701 0.6079641580581665 0.015776794403791428
0.30041390657424927 0.82919228076934814 0.055840302258729935
0.3283945620059967 0.83062911033630371 0.06520349532365799
0.37522697448730469 0.8289228081703186 0.062443811446428299
0.44243621826171875 0.82675635814666748 0.049823939800262451
0.52465403079986572 0.82375991344451904 0.03664073720574379
0.61404323577880859 0.82021713256835938 0.030544819310307503
0.69963538646697998 0.81749361753463745 0.030014935880899429
0.77324491739273071 0.81990140676498413 0.030082119628787041
0.84221333265304565 0.81918495893478394 0.02864391915500164
0.91133660078048706 0.80984234809875488 0.025146977975964546
0.97142642736434937 0.79161131381988525 0.019798891618847847
0.99899172782897949 0.76908034086227417 0.01633923128247261
1 0.73952221870422363 0.011537963524460793
0.36362236738204956 0.90789777040481567 0.015976296737790108
0.38669794797897339 0.91348105669021606 0.031176727265119553
0.42894238233566284 0.9145820140838623 0.030947277322411537
0.49369674921035767 0.91295892000198364 0.015031208284199238
0.57158786058425903 0.91082316637039185 0.0043606027029454708
0.65337997674942017 0.91039860248565674 0.0026960785035043955
0.73125821352005005 0.91188210248947144 0.0050459466874599457
0.80220001935958862 0.91400337219238281 0.0059698964469134808
0.86927855014801025 0.91405957937240601 0.0052783293649554253
0.93396908044815063 0.90477770566940308 0.0047948947176337242
0.98673796653747559 0.88887703418731689 0.0045190099626779556
1 0.87598979473114014 0.0056649153120815754
1 0.85582417249679565 0.0038022359367460012
0.43653216958045959 0.97501391172409058 0
0.45661574602127075 0.98199158906936646 0.001350836711935699
0.49471005797386169 0.98448312282562256 0.0018058776622638106
0.55442655086517334 0.98370832204818726 5.3480558563023806e-05
0.62432777881622314 0.98323661088943481 0
0.69698292016983032 0.9841463565826416 0
0.7673296332359314 0.98555535078048706 0.00015713561151642352
0.83575201034545898 0.98479938507080078 0.00035666671465151012
0.89969396591186523 0.9823840856552124 0.0001005434532999061
0.95516002178192139 0.97505027055740356 0.00074153224704787135
0.9907149076461792 0.97298038005828857 0.00099882239010185003
1 0.97025316953659058 0.00021897858823649585
1 0.95415550470352173 0
0.51809579133987427 1 0
0.5407264232635498 1 0
0.57613128423690796 1 0
0.62715756893157959 1 0
0.68822300434112549 1 0
0.75283718109130859 1 0
0.81779038906097412 1 0
0.88282376527786255 1 0
0.9443892240524292 0.9999813437461853 0
0.98914128541946411 0.99927341938018799 0.00029015634208917618
0.99962085485458374 0.99997663497924805 5.3675033996114507e-05
1 1 0
1 0.99960792064666748 0
0.030773133039474487 0.038251973688602448 0.085508577525615692
0.078175440430641174 0.030354803428053856 0.082641467452049255
0.13171523809432983 0.023920470848679543 0.076579026877880096
0.19055870175361633 0.019970044493675232 0.067750044167041779
0.25404742360115051 0.01517327968031168 0.059593558311462402
0.32507085800170898 0.010190687142312527 0.053609661757946014
0.40910887718200684 0.0081965429708361626 0.048357374966144562
0.49846869707107544 0.0079359766095876694 0.041293993592262268
0.5793260931968689 0.0043486650101840496 0.03175729513168335
0.64671915769577026 0.00014670877135358751 0.022313166409730911
0.70880985260009766 0 0.014485377818346024
0.77117836475372314 0 0.0073698004707694054
0.83242946863174438 0 0.00098067638464272022
0.06558692455291748 0.1029445007443428 0.099679447710514069
0.099050499498844147 0.096361972391605377 0.095816805958747864
0.14625409245491028 0.08672814816236496 0.090709269046783447
0.20626853406429291 0.079067572951316833 0.082134559750556946
0.2721707820892334 0.070967130362987518 0.073373414576053619
0.34366849064826965 0.0599491186439991 0.066768109798431396
0.42468518018722534 0.050313554704189301 0.059887081384658813
0.50969558954238892 0.04129459336400032 0.050239354372024536
0.58641570806503296 0.027377663180232048 0.037980593740940094
0.65033906698226929 0.0093581108376383781 0.025675440207123756
0.71040165424346924 0.0012556188739836216 0.0159122534096241
0.77214276790618896 0.00018660601926967502 0.0076940646395087242
0.83268898725509644 0.00033705469104461372 0.0012719397200271487
0.1079193577170372 0.16082413494586945 0.11447548866271973
0.12920856475830078 0.15683551132678986 0.11061520874500275
0.16416001319885254 0.15023316442966461 0.10566642880439758
0.22282052040100098 0.14237721264362335 0.098761826753616333
0.29161611199378967 0.13431274890899658 0.090381383895874023
0.36554574966430664 0.12299010157585144 0.082066163420677185
0.44638612866401672 0.10933350026607513 0.072871237993240356
0.52947992086410522 0.094037078320980072 0.060714062303304672
0.60481119155883789 0.07440020889043808 0.046309258788824081
0.66697937250137329 0.049543403089046478 0.032308854162693024
0.72350978851318359 0.027932379394769669 0.020539168268442154
0.78110867738723755 0.016233092173933983 0.010080913081765175
0.83846902847290039 0.011091314256191254 0.0025805006735026836
0.13065315783023834 0.2269468754529953 0.13018637895584106
0.14953272044658661 0.22430513799190521 0.12677453458309174
0.18312768638134003 0.22074311971664429 0.12247239798307419
0.24169617891311646 0.21403132379055023 0.11700804531574249
0.31218448281288147 0.20703262090682983 0.10910072922706604
0.38860592246055603 0.19817472994327545 0.09904789924621582
0.47186759114265442 0.18350781500339508 0.087503321468830109
0.5566716194152832 0.16509692370891571 0.07382608950138092
0.63266825675964355 0.14369919896125793 0.058610383421182632
0.69453322887420654 0.1163707971572876 0.043481219559907913
0.74753689765930176 0.085606895387172699 0.029240701347589493
0.79953098297119141 0.059897866100072861 0.01615937240421772
0.85261714458465576 0.042741544544696808 0.005726922769099474
0.13880139589309692 0.30831658840179443 0.14334490895271301
0.16273893415927887 0.30623254179954529 0.14187553524971008
0.20303294062614441 0.30309072136878967 0.1394316703081131
0.26286813616752625 0.29824301600456238 0.13494861125946045
0.33458372950553894 0.29298025369644165 0.12732554972171783
0.41413900256156921 0.28514578938484192 0.11652553826570511
0.50116211175918579 0.27123862504959106 0.10404042154550552
0.58814024925231934 0.25199609994888306 0.090365223586559296
0.66385698318481445 0.23058630526065826 0.075252294540405273
0.725067138671875 0.20301143825054169 0.058682162314653397
0.77687978744506836 0.16800105571746826 0.041654206812381744
0.8262450098991394 0.13035817444324493 0.025546308606863022
0.87562119960784912 0.10035964101552963 0.012239567935466766
0.15041837096214294 0.4055878221988678 0.15115690231323242
0.1802808940410614 0.40398213267326355 0.15310455858707428
0.22626587748527527 0.40115663409233093 0.1525578647851944
0.28805345296859741 0.39818233251571655 0.14889450371265411
0.36161041259765625 0.39336088299751282 0.14171484112739563
0.44488370418548584 0.38411948084831238 0.13130183517932892
0.53460836410522461 0.37193861603736877 0.11970797926187515
0.62223714590072632 0.35568320751190186 0.1072952002286911
0.69794470071792603 0.33630555868148804 0.092761427164077759
0.75957792997360229 0.31180369853973389 0.074957244098186493
0.81179416179656982 0.27656590938568115 0.055584222078323364
0.86099517345428467 0.23051345348358154 0.037356059998273849
0.90761876106262207 0.18941345810890198 0.022233985364437103
0.1663234680891037 0.51898765563964844 0.15522564947605133
0.20050773024559021 0.51751041412353516 0.15755410492420197
0.25070586800575256 0.51453715562820435 0.15633253753185272
0.31561991572380066 0.51238465309143066 0.15266922116279602
0.3923335075378418 0.508056640625 0.14655263721942902
0.47939488291740417 0.499185711145401 0.13774731755256653
0.57129192352294922 0.48875272274017334 0.12788990139961243
0.6583629846572876 0.47561556100845337 0.11705263704061508
0.73391592502593994 0.45966646075248718 0.10370760411024094
0.7977137565612793 0.43944409489631653 0.086559697985649109
0.85323894023895264 0.40701946616172791 0.067040868103504181
0.90325814485549927 0.35993844270706177 0.048408582806587219
0.94720917940139771 0.31306207180023193 0.033038418740034103
0.19034615159034729 0.63614171743392944 0.15003302693367004
0.22624008357524872 0.63261479139328003 0.14979979395866394
0.27949827909469604 0.62870675325393677 0.14490802586078644
0.34805896878242493 0.62704527378082275 0.13954439759254456
0.42884340882301331 0.62387609481811523 0.13356050848960876
0.51906359195709229 0.61794602870941162 0.12751796841621399
0.6109623908996582 0.61032456159591675 0.12076579034328461
0.69536429643630981 0.60186070203781128 0.11170190572738647
0.7702527642250061 0.59117871522903442 0.10032972693443298
0.83677190542221069 0.57505863904953003 0.086068473756313324
0.89624059200286865 0.54881250858306885 0.069007426500320435
0.94650852680206299 0.50757348537445068 0.05284055694937706
0.98443353176116943 0.46134722232818604 0.039466168731451035
0.22987821698188782 0.73951703310012817 0.12881410121917725
0.2644747793674469 0.73490291833877563 0.12495790421962738
0.31741461157798767 0.73084038496017456 0.11637087166309357
0.38787993788719177 0.72895389795303345 0.10751964896917343
0.47193154692649841 0.72783815860748291 0.098585925996303558
0.56356596946716309 0.72400760650634766 0.094581156969070435
0.65356576442718506 0.71989244222640991 0.093058384954929352
0.73408752679824829 0.71652764081954956 0.085290171205997467
0.80659908056259155 0.71093058586120605 0.077353581786155701
0.87512314319610596 0.70016646385192871 0.068803004920482635
0.93611979484558105 0.68032407760620117 0.05714639276266098
0.98151159286499023 0.64902776479721069 0.046678416430950165
0.99944967031478882 0.6102524995803833 0.037627693265676498
0.28638628125190735 0.82739889621734619 0.094415895640850067
0.31719455122947693 0.82539796829223633 0.091166175901889801
0.36656051874160767 0.82266205549240112 0.080358155071735382
0.43547230958938599 0.82193672657012939 0.064142070710659027
0.51880550384521484 0.82038921117782593 0.046931248158216476
0.60791367292404175 0.81873512268066406 0.042746689170598984
0.69373923540115356 0.8165925145149231 0.043050654232501984
0.7699015736579895 0.81581860780715942 0.037099126726388931
0.84016895294189453 0.81502991914749146 0.037363000214099884
0.90892082452774048 0.80735456943511963 0.036638669669628143
0.96856188774108887 0.79076999425888062 0.031832601875066757
0.99834012985229492 0.77022761106491089 0.02995636872947216
1 0.74434208869934082 0.028698639944195747
0.35677435994148254 0.90416854619979858 0.046417731791734695
0.38307580351829529 0.906532883644104 0.04828542098402977
0.42671951651573181 0.90654361248016357 0.038872856646776199
0.49025711417198181 0.90643072128295898 0.01911296509206295
0.56780314445495605 0.90623295307159424 0.0046223062090575695
0.65004277229309082 0.90676283836364746 0.0027846989687532187
0.72876113653182983 0.90713834762573242 0.0026837368495762348
0.80086237192153931 0.90740102529525757 0.0014353434089571238
0.86785554885864258 0.90916210412979126 0.004158693365752697
0.93288296461105347 0.90332096815109253 0.0050581688992679119
0.98543691635131836 0.89089673757553101 0.0037791682407259941
1 0.87964338064193726 0.0077237598598003387
1 0.86284369230270386 0.014513023197650909
0.4385913610458374 0.96844017505645752 0.0024344052653759718
0.46180316805839539 0.97351551055908203 0.0032215493265539408
0.49971970915794373 0.97619980573654175 0.0015143599594011903
0.55567997694015503 0.97770243883132935 8.787267142906785e-05
0.62380391359329224 0.97940617799758911 0
0.6966092586517334 0.98148828744888306 0
0.76814848184585571 0.9822458028793335 0
0.83561962842941284 0.98229390382766724 0
0.89849257469177246 0.98279094696044922 0
0.95507824420928955 0.97867852449417114 0
0.99285751581192017 0.97528576850891113 0
1 0.9727899432182312 3.9493338590546045e-06
1 0.96200573444366455 0.00072844262467697263
0.52680021524429321 0.99980628490447998 0
0.55060118436813354 1 0
0.5842818021774292 1 0
0.6320725679397583 1 0
0.6907050609588623 1 0
0.754524827003479 1 0
0.81971514225006104 1 0
0.882679283618927 1 0
0.94095867872238159 1 0
0.98584485054016113 1 0
0.99967688322067261 1 0
1 1 0
1 0.99999767541885376 0
0.025486381724476814 0.039660945534706116 0.1347612589597702
0.06608252227306366 0.033395908772945404 0.13092157244682312
0.11808963865041733 0.027322567999362946 0.12549814581871033
0.17976652085781097 0.023022925481200218 0.11782364547252655
0.2473953515291214 0.018737778067588806 0.10919796675443649
0.31976541876792908 0.013270853087306023 0.101073257625103
0.40156364440917969 0.0094852820038795471 0.091829083859920502
0.48897060751914978 0.008404197171330452 0.079423420131206512
0.57101404666900635 0.0057443357072770596 0.065195165574550629
0.64098465442657471 0.00057618384016677737 0.0532645583152771
0.70385420322418213 0 0.041458893567323685
0.76552653312683105 0 0.026465501636266708
0.82594841718673706 0 0.011774174869060516
0.058161463588476181 0.10225080698728561 0.14674164354801178
0.089284427464008331 0.095854878425598145 0.14263930916786194
0.13526453077793121 0.088331170380115509 0.13848245143890381
0.19693842530250549 0.081698715686798096 0.13176852464675903
0.26662862300872803 0.074063904583454132 0.12369905412197113
0.33812680840492249 0.062634050846099854 0.11541818082332611
0.4170859158039093 0.050806548446416855 0.10607051104307175
0.50125676393508911 0.040986228734254837 0.092279039323329926
0.57997775077819824 0.02840016596019268 0.076393455266952515
0.64715814590454102 0.011825756169855595 0.061691388487815857
0.70733684301376343 0.001833119080401957 0.047160293906927109
0.76672983169555664 5.0683116569416597e-05 0.03142254427075386
0.82534825801849365 0 0.017446301877498627
0.096568100154399872 0.16199083626270294 0.1609872579574585
0.11911214143037796 0.15744787454605103 0.15651370584964752
0.15419334173202515 0.15179134905338287 0.15230077505111694
0.21349784731864929 0.14452359080314636 0.14697249233722687
0.28371092677116394 0.13605576753616333 0.13964873552322388
0.35739591717720032 0.12473006546497345 0.13061533868312836
0.43751204013824463 0.10975878685712814 0.11960884183645248
0.52146536111831665 0.09346955269575119 0.10506489872932434
0.59915614128112793 0.074213229119777679 0.088092133402824402
0.66400504112243652 0.049517042934894562 0.071572668850421906
0.72019028663635254 0.026682998985052109 0.055065557360649109
0.77501356601715088 0.012981010600924492 0.038590822368860245
0.83037674427032471 0.0062810559757053852 0.024444416165351868
0.11790937185287476 0.22975026071071625 0.17505703866481781
0.13615694642066956 0.22791393101215363 0.17077863216400146
0.17116023600101471 0.2241860032081604 0.16742265224456787
0.23083081841468811 0.21705187857151031 0.16343744099140167
0.30214217305183411 0.20964331924915314 0.15668755769729614
0.37841513752937317 0.20064659416675568 0.14655865728855133
0.46206730604171753 0.18500402569770813 0.13414792716503143
0.54810363054275513 0.16541922092437744 0.11914718896150589
0.62674921751022339 0.14303126931190491 0.10183362662792206
0.69022589921951294 0.11388781666755676 0.08389388769865036
0.74252951145172119 0.081085160374641418 0.065771244466304779
0.79257416725158691 0.053198765963315964 0.0478363037109375
0.84353351593017578 0.034845806658267975 0.032889977097511292
0.12471189349889755 0.31018683314323425 0.18717280030250549
0.14648374915122986 0.31016984581947327 0.18448431789875031
0.18810772895812988 0.30743557214736938 0.18290571868419647
0.25059497356414795 0.30223202705383301 0.18012912571430206
0.3238120973110199 0.2968614399433136 0.17367343604564667
0.40341106057167053 0.28870803117752075 0.16323593258857727
0.49142950773239136 0.27352938055992126 0.1506316214799881
0.58022940158843994 0.25264385342597961 0.13596272468566895
0.65796124935150146 0.22980040311813354 0.11870141327381134
0.72036659717559814 0.19989112019538879 0.099953703582286835
0.77155345678329468 0.16200016438961029 0.079645149409770966
0.8186836838722229 0.12198233604431152 0.059451516717672348
0.86605465412139893 0.090862780809402466 0.043050505220890045
0.13299195468425751 0.40528354048728943 0.1966978907585144
0.16305437684059143 0.40514540672302246 0.19679176807403564
0.21013909578323364 0.40461724996566772 0.19628022611141205
0.27477237582206726 0.40292096138000488 0.19380494952201843
0.35112252831459045 0.39828944206237793 0.18751010298728943
0.43594810366630554 0.38924679160118103 0.17771312594413757
0.5272667407989502 0.37451064586639404 0.16606929898262024
0.61656159162521362 0.35727772116661072 0.15232843160629272
0.69327050447463989 0.33661124110221863 0.13622908294200897
0.75515186786651611 0.30931153893470764 0.1169063076376915
0.80706697702407837 0.27074897289276123 0.09534677118062973
0.85420793294906616 0.22348469495773315 0.073762960731983185
