assets/lut/films colorslide kodak elite chrome 400.cube
# Created by: G'MIC (https://gmic.eu)
TITLE "kodak_elite_chrome_400"
# LUT size
LUT_3D_SIZE 5
# Data domain
DOMAIN_MIN 0.0 0.0 0.0
DOMAIN_MAX 1.0 1.0 1.0
# LUT data points
0.023666247725486755 0.02435506135225296 0.022937161847949028
0.16860346496105194 0.020034251734614372 0.0079668527469038963
0.41771304607391357 0.028242342174053192 0.0049165613017976284
0.67207539081573486 0.038309283554553986 0
0.90077710151672363 0.077193960547447205 0.0025543961673974991
0.13118350505828857 0.22304902970790863 0.090965002775192261
0.23800599575042725 0.21707057952880859 0.076158873736858368
0.47650444507598877 0.19198475778102875 0.04151008278131485
0.70176136493682861 0.12844431400299072 0.0089642247185111046
0.91849726438522339 0.058724585920572281 0
0.23679882287979126 0.52350282669067383 0.18567138910293579
0.36682841181755066 0.5194583535194397 0.1712823212146759
0.57198888063430786 0.51891601085662842 0.12589770555496216
0.77014309167861938 0.47167328000068665 0.056420106440782547
0.97701501846313477 0.32056665420532227 0.001145531190559268
0.46444225311279297 0.76330798864364624 0.35438969731330872
0.53036534786224365 0.76506954431533813 0.34125107526779175
0.65784317255020142 0.77077013254165649 0.2927129864692688
0.82934707403182983 0.77034711837768555 0.18932752311229706
0.99816238880157471 0.73930007219314575 0.0061027975752949715
0.6891016960144043 0.97860699892044067 0.55494415760040283
0.7140117883682251 0.98277837038040161 0.54687368869781494
0.78626006841659546 0.98596584796905518 0.53015470504760742
0.90364289283752441 0.98856449127197266 0.49720141291618347
0.99781918525695801 0.98884487152099609 0.27020299434661865
0.011787683703005314 0.021551528945565224 0.15565003454685211
0.14333312213420868 0.015279597602784634 0.13506835699081421
0.39685630798339844 0.018274823203682899 0.088227652013301849
0.66646832227706909 0.025951385498046875 0.020926052704453468
0.91024672985076904 0.08258761465549469 0
0.097578026354312897 0.22757226228713989 0.23527596890926361
0.21824023127555847 0.21488957107067108 0.21755093336105347
0.46882331371307373 0.19057679176330566 0.16998682916164398
0.69458341598510742 0.12310054898262024 0.090241454541683197
0.92182213068008423 0.070587232708930969 0.00076271506259217858
0.20828354358673096 0.51515400409698486 0.34027764201164246
0.33787870407104492 0.51904386281967163 0.32286781072616577
0.55123293399810791 0.51383018493652344 0.28284171223640442
0.75251275300979614 0.48026320338249207 0.19347396492958069
0.96774256229400635 0.3233514130115509 0.038910195231437683
0.45908528566360474 0.75499337911605835 0.47002243995666504
0.51121789216995239 0.75893652439117432 0.46263355016708374
0.64071112871170044 0.75882411003112793 0.4352259635925293
0.80890500545501709 0.75476324558258057 0.36337220668792725
0.99333631992340088 0.72803199291229248 0.15243245661258698
0.66885173320770264 0.9767717719078064 0.62128812074661255
0.70688343048095703 0.97881197929382324 0.61456394195556641
0.78044307231903076 0.98144388198852539 0.60106581449508667
0.8944585919380188 0.98616355657577515 0.56995093822479248
1 0.98445844650268555 0.43911540508270264
0.0051614800468087196 0.017303541302680969 0.35635998845100403
0.10198856145143509 0.011483181267976761 0.34667864441871643
0.36157774925231934 0.01004924438893795 0.30723577737808228
0.64076125621795654 0.015920078381896019 0.21349842846393585
0.89731669425964355 0.058926943689584732 0.053650457412004471
0.062163215130567551 0.22937694191932678 0.45023640990257263
0.17261745035648346 0.22035333514213562 0.44299662113189697
0.43311405181884766 0.19626036286354065 0.41181904077529907
0.66192841529846191 0.12053417414426804 0.34448534250259399
0.89049661159515381 0.035904575139284134 0.18203520774841309
0.13820728659629822 0.5121954083442688 0.5333181619644165
0.2760358452796936 0.51564812660217285 0.52924036979675293
0.51012468338012695 0.511710524559021 0.5096784234046936
0.71704632043838501 0.46961823105812073 0.46115127205848694
0.93670123815536499 0.32093194127082825 0.33322778344154358
0.42374247312545776 0.74991387128829956 0.62364292144775391
0.48166513442993164 0.75359421968460083 0.61770355701446533
0.61099469661712646 0.7533305287361145 0.6031680703163147
0.77756482362747192 0.74665111303329468 0.572978675365448
0.97998523712158203 0.7092888355255127 0.47902777791023254
0.66300380229949951 0.9719700813293457 0.73695820569992065
0.68167084455490112 0.97250139713287354 0.73086458444595337
0.76287746429443359 0.97613179683685303 0.72126609086990356
0.87888956069946289 0.9837261438369751 0.70126223564147949
0.99990308284759521 0.97609126567840576 0.62940675020217896
0.00093671015929430723 0.022262617945671082 0.56585448980331421
0.073114730417728424 0.01242458913475275 0.56591916084289551
0.31367442011833191 0.0086459442973136902 0.55357789993286133
0.59086465835571289 0.00033964269096031785 0.51886224746704102
0.84694474935531616 0.0096705267205834389 0.40025797486305237
0.00084611482452601194 0.25793293118476868 0.63737744092941284
0.10422750562429428 0.24294675886631012 0.63027137517929077
0.38877943158149719 0.22037686407566071 0.62208473682403564
0.62790346145629883 0.13782824575901031 0.60208344459533691
0.84467405080795288 0.025971775874495506 0.5265427827835083
0.059908922761678696 0.51732450723648071 0.6997065544128418
0.20410898327827454 0.51445454359054565 0.6977849006652832
0.4696621298789978 0.51263213157653809 0.68718045949935913
0.68647569417953491 0.48427057266235352 0.66801482439041138
0.89886564016342163 0.34410178661346436 0.61484956741333008
0.3667658269405365 0.75047177076339722 0.77400237321853638
0.43597209453582764 0.75261515378952026 0.77168089151382446
0.57326531410217285 0.75692403316497803 0.76339852809906006
0.74848181009292603 0.74805271625518799 0.74920618534088135
0.9476165771484375 0.70708942413330078 0.69908618927001953
0.64096373319625854 0.9627450704574585 0.85919153690338135
0.66020947694778442 0.96588808298110962 0.85808849334716797
0.73912394046783447 0.97109287977218628 0.85519206523895264
0.85812282562255859 0.97755891084671021 0.8446190357208252
0.995888352394104 0.97181046009063721 0.80675411224365234
0 0.0504886694252491 0.74700897932052612
0.019211594015359879 0.039472214877605438 0.74691975116729736
0.2444453239440918 0.031231001019477844 0.73631232976913452
0.55054199695587158 0.010103726759552956 0.71716666221618652
0.80305588245391846 0 0.67586213350296021
0 0.29736387729644775 0.80509293079376221
0.0082910275086760521 0.28944289684295654 0.80543386936187744
0.2926725447177887 0.26719191670417786 0.79805105924606323
0.58426904678344727 0.17845331132411957 0.78137338161468506
0.81258100271224976 0.031522054225206375 0.75383049249649048
0.0015790901379659772 0.53110617399215698 0.86268383264541626
0.089122429490089417 0.5317840576171875 0.86090940237045288
0.40787690877914429 0.53599613904953003 0.8611864447593689
0.64134228229522705 0.5165097713470459 0.85151928663253784
0.86811846494674683 0.39186692237854004 0.82533961534500122
0.21368327736854553 0.75106543302536011 0.91830974817276001
0.3232634961605072 0.75345432758331299 0.91814196109771729
0.5117906928062439 0.75917989015579224 0.91995000839233398
0.70494687557220459 0.75543826818466187 0.91683495044708252
0.91212624311447144 0.71629917621612549 0.89525127410888672
0.60598641633987427 0.95783776044845581 0.98306429386138916
0.61700892448425293 0.96337622404098511 0.98679441213607788
0.69566476345062256 0.96760177612304688 0.98892402648925781
0.82457935810089111 0.97343462705612183 0.98618429899215698
0.97905468940734863 0.97718209028244019 0.97866559028625488
