assets/lut/films colorslide kodak kodachrome 64 generic.cube
# Created by: G'MIC (https://gmic.eu)
TITLE "kodak_kodachrome_64_generic"
# LUT size
LUT_3D_SIZE 7
# Data domain
DOMAIN_MIN 0.0 0.0 0.0
DOMAIN_MAX 1.0 1.0 1.0
# LUT data points
0.026062969118356705 0.01272475253790617 0.0073401657864451408
0.11958033591508865 0.015431841835379601 0.015730090439319611
0.29456028342247009 0.020444532856345177 0.022142162546515465
0.54480266571044922 0.024650005623698235 0.023666456341743469
0.79732877016067505 0.03165784478187561 0.024468844756484032
0.98293524980545044 0.036689009517431259 0.024907190352678299
1 0.036287419497966766 0.027105532586574554
0.046884872019290924 0.10810966044664383 0.024088945239782333
0.11702974885702133 0.11260715872049332 0.026274826377630234
0.30501067638397217 0.11943751573562622 0.030252838507294655
0.55104106664657593 0.13176563382148743 0.035716097801923752
0.79045045375823975 0.14271588623523712 0.03970540314912796
0.97336852550506592 0.14428219199180603 0.041575010865926743
1 0.14996476471424103 0.043281584978103638
0.026743436232209206 0.29023757576942444 0.048864852637052536
0.072301976382732391 0.29436829686164856 0.050762835890054703
0.30863595008850098 0.29390829801559448 0.05315825343132019
0.54263496398925781 0.31254169344902039 0.060906011611223221
0.77137339115142822 0.31801959872245789 0.062701448798179626
0.96801084280014038 0.31377658247947693 0.064345791935920715
1 0.31940737366676331 0.063243165612220764
0 0.50783365964889526 0.067455023527145386
0.029883934184908867 0.51091265678405762 0.073082000017166138
0.25887483358383179 0.51405811309814453 0.079001739621162415
0.52408778667449951 0.5180172324180603 0.079060226678848267
0.75289374589920044 0.52696061134338379 0.081646323204040527
0.93871027231216431 0.53119450807571411 0.081673502922058105
1 0.53333336114883423 0.081001400947570801
0 0.70894801616668701 0.070242829620838165
0.018928198143839836 0.70740056037902832 0.058262858539819717
0.20305497944355011 0.70904833078384399 0.07326209545135498
0.49425244331359863 0.71182781457901001 0.06673557311296463
0.72607719898223877 0.72302550077438354 0.077705472707748413
0.89947187900543213 0.73054152727127075 0.069694608449935913
0.9993557333946228 0.7331923246383667 0.080618932843208313
0.010480394586920738 0.86658817529678345 0.051642563194036484
0.071422562003135681 0.86274123191833496 0.012083554640412331
0.26988920569419861 0.85724973678588867 0.016167823225259781
0.51585620641708374 0.85901248455047607 0.02998848631978035
0.72058737277984619 0.86438471078872681 0.035965804010629654
0.87763404846191406 0.87383037805557251 0.02735830657184124
0.99426573514938354 0.88306611776351929 0.04662710428237915
0.060712102800607681 0.99122989177703857 0.056621089577674866
0.16071797907352448 0.98862552642822266 0.017566502094268799
0.34839251637458801 0.98407584428787231 0.010549313388764858
0.54869085550308228 0.98357903957366943 0.02256794273853302
0.71627825498580933 0.9857751727104187 0.035766482353210449
0.8555564284324646 0.99103957414627075 0.046390965580940247
0.98858195543289185 0.99533969163894653 0.063269548118114471
0.019809648394584656 0.016100849956274033 0.1030348539352417
0.12239242345094681 0.015046227723360062 0.10896748304367065
0.30227029323577881 0.021122472360730171 0.11863262951374054
0.55045163631439209 0.0238991379737854 0.12147080898284912
0.80110925436019897 0.028330350294709206 0.12218098342418671
0.9826846718788147 0.032834146171808243 0.12017107009887695
1 0.03504803404211998 0.1295473575592041
0.041340816766023636 0.10912315547466278 0.11284185945987701
0.1190623864531517 0.11178889870643616 0.11443828791379929
0.3112579882144928 0.11567447334527969 0.11735252290964127
0.55438166856765747 0.12291300296783447 0.12282578647136688
0.78823769092559814 0.1327807605266571 0.12889502942562103
0.9585079550743103 0.13863435387611389 0.13239802420139313
0.9987797737121582 0.14584824442863464 0.13684439659118652
0.037344615906476974 0.2929401695728302 0.1325928270816803
0.08688073605298996 0.29080203175544739 0.13307593762874603
0.30686703324317932 0.29414293169975281 0.13249233365058899
0.5411684513092041 0.30583906173706055 0.13762278854846954
0.77191388607025146 0.31297075748443604 0.14053142070770264
0.96272832155227661 0.31835857033729553 0.14359940588474274
0.99635779857635498 0.32114413380622864 0.14859035611152649
0.0031138849444687366 0.5078703761100769 0.14345689117908478
0.026863053441047668 0.50832748413085938 0.15049001574516296
0.26077720522880554 0.51318025588989258 0.14693084359169006
0.5310400128364563 0.52010905742645264 0.14497977495193481
0.7540777325630188 0.52678847312927246 0.14683613181114197
0.94378376007080078 0.53242349624633789 0.15875391662120819
1 0.53578394651412964 0.16496433317661285
0 0.70376104116439819 0.14066161215305328
0.00067835790105164051 0.70340853929519653 0.14429590106010437
0.20245671272277832 0.70784348249435425 0.14432032406330109
0.51337736845016479 0.71480089426040649 0.14292168617248535
0.72889119386672974 0.72287088632583618 0.1610104888677597
0.89896249771118164 0.72843915224075317 0.15861240029335022
0.99893254041671753 0.72863578796386719 0.16323868930339813
0 0.85511249303817749 0.15899889171123505
0.021116742864251137 0.8568386435508728 0.13075579702854156
0.24146012961864471 0.85592973232269287 0.14455050230026245
0.52385449409484863 0.86011713743209839 0.15989744663238525
0.72422683238983154 0.86688017845153809 0.16997949779033661
0.87554895877838135 0.87262868881225586 0.15919120609760284
0.99495780467987061 0.87482458353042603 0.16039153933525085
0.030009444802999496 0.98245120048522949 0.1960659921169281
0.11737054586410522 0.983661949634552 0.1651671826839447
0.32236942648887634 0.98126387596130371 0.16627581417560577
0.55167239904403687 0.9805341362953186 0.18343216180801392
0.72184932231903076 0.98396050930023193 0.196854367852211
0.85870808362960815 0.98839974403381348 0.20180787146091461
0.99287116527557373 0.99070256948471069 0.20530468225479126
0.01414916105568409 0.0097919842228293419 0.28273221850395203
0.11574958264827728 0.013336615636944771 0.28069904446601868
0.3033677339553833 0.018552457913756371 0.28900822997093201
0.54751485586166382 0.023096196353435516 0.29032236337661743
0.79271149635314941 0.027423754334449768 0.29170909523963928
0.97932696342468262 0.032033402472734451 0.28971275687217712
1 0.038204282522201538 0.29605767130851746
0.046418987214565277 0.10250940918922424 0.28911852836608887
0.12011374533176422 0.10469081997871399 0.28561234474182129
0.31261482834815979 0.11254410445690155 0.2932126522064209
0.55109894275665283 0.1187593936920166 0.30051615834236145
0.78572070598602295 0.12771779298782349 0.30429479479789734
0.95631182193756104 0.14003917574882507 0.30285447835922241
0.99722295999526978 0.1498466283082962 0.30391025543212891
0.047185186296701431 0.28518849611282349 0.30258285999298096
0.096523120999336243 0.286092609167099 0.30919322371482849
0.3135620653629303 0.29737949371337891 0.31103438138961792
0.54130828380584717 0.30207225680351257 0.31326368451118469
0.77543836832046509 0.30872133374214172 0.31549018621444702
0.96201062202453613 0.31702783703804016 0.32006344199180603
0.99996912479400635 0.31554895639419556 0.32541915774345398
0.0039197583682835102 0.50152379274368286 0.31743344664573669
0.031464040279388428 0.50344949960708618 0.32581868767738342
0.27058613300323486 0.50775754451751709 0.32145911455154419
0.53261697292327881 0.51371556520462036 0.3308526873588562
0.75295770168304443 0.52363526821136475 0.32754480838775635
0.94299602508544922 0.52764558792114258 0.33964604139328003
1 0.52983838319778442 0.33795180916786194
0 0.69824361801147461 0.32722413539886475
0 0.69893562793731689 0.34186956286430359
0.17375801503658295 0.70434999465942383 0.34195196628570557
0.50788271427154541 0.71250057220458984 0.33737382292747498
0.73006194829940796 0.71895283460617065 0.35176348686218262
0.90264546871185303 0.72272598743438721 0.35463327169418335
0.99926519393920898 0.72385638952255249 0.35363864898681641
0 0.84934127330780029 0.3552280068397522
0.0064540337771177292 0.85434836149215698 0.35245534777641296
0.22776933014392853 0.85559159517288208 0.35951772332191467
0.53107857704162598 0.85896128416061401 0.36477845907211304
0.7252953052520752 0.86494392156600952 0.36863222718238831
0.87269824743270874 0.87104135751724243 0.37465676665306091
0.99430364370346069 0.87245893478393555 0.37250161170959473
0.0093413861468434334 0.97674655914306641 0.38890725374221802
0.083180986344814301 0.98332077264785767 0.37585011124610901
0.30574807524681091 0.98104113340377808 0.3795817494392395
0.55586820840835571 0.97891223430633545 0.38876014947891235
0.72400593757629395 0.98325616121292114 0.38987773656845093
0.85572725534439087 0.98876607418060303 0.39018493890762329
0.99561607837677002 0.98854166269302368 0.39242333173751831
0.021474441513419151 0.011461864225566387 0.48311257362365723
0.1207982525229454 0.010486842133104801 0.48449268937110901
0.30723261833190918 0.016304194927215576 0.48992571234703064
0.54356175661087036 0.020125130191445351 0.49310353398323059
0.78541040420532227 0.025830138474702835 0.49761900305747986
0.98049366474151611 0.029494475573301315 0.5009419322013855
1 0.038200557231903076 0.50257253646850586
0.045859511941671371 0.10422073304653168 0.49392664432525635
0.12751863896846771 0.10201980173587799 0.49006110429763794
0.31892630457878113 0.10651206225156784 0.49843895435333252
0.5517585277557373 0.11879173666238785 0.50530660152435303
0.78621840476989746 0.12875494360923767 0.51046288013458252
0.96484982967376709 0.14037060737609863 0.51204186677932739
1 0.15350531041622162 0.51072221994400024
0.03265044093132019 0.28426483273506165 0.50724202394485474
0.087216004729270935 0.28453472256660461 0.50661599636077881
0.30808746814727783 0.28637653589248657 0.51053696870803833
0.54732561111450195 0.29951193928718567 0.51259911060333252
0.77775579690933228 0.30570143461227417 0.51876914501190186
0.9662594199180603 0.31489527225494385 0.52294427156448364
1 0.32157739996910095 0.52256041765213013
0.0010034898295998573 0.49808147549629211 0.52669680118560791
0.037757020443677902 0.50067597627639771 0.52733391523361206
0.27670645713806152 0.50287801027297974 0.52586477994918823
0.53081470727920532 0.51396411657333374 0.52995413541793823
0.75385850667953491 0.51873147487640381 0.53413379192352295
0.944968581199646 0.52410578727722168 0.53846031427383423
1 0.52645540237426758 0.53654736280441284
0 0.69981867074966431 0.54279810190200806
0.0033496033865958452 0.69983893632888794 0.54720264673233032
0.22001448273658752 0.7049826979637146 0.5456392765045166
0.51387172937393188 0.71199196577072144 0.54786723852157593
0.73008555173873901 0.71494978666305542 0.55388987064361572
0.9063536524772644 0.71614283323287964 0.55648916959762573
0.99877792596817017 0.72194921970367432 0.55373585224151611
0 0.85457789897918701 0.56308764219284058
0.021017171442508698 0.85465329885482788 0.5652616024017334
0.25149369239807129 0.85694986581802368 0.56608617305755615
0.52690774202346802 0.86068427562713623 0.56754964590072632
0.72485494613647461 0.86199414730072021 0.5685994029045105
0.87959462404251099 0.86675488948822021 0.57248246669769287
0.99351805448532104 0.87356555461883545 0.57130235433578491
0.0015969220548868179 0.97954398393630981 0.58160436153411865
0.077561303973197937 0.98321527242660522 0.58037710189819336
0.3030642569065094 0.97990244626998901 0.5814928412437439
0.54489469528198242 0.98023098707199097 0.58204907178878784
0.72136986255645752 0.98289340734481812 0.57937717437744141
0.85793143510818481 0.98786091804504395 0.58254104852676392
0.99359697103500366 0.9887092113494873 0.58525097370147705
0.040926616638898849 0.0024385340511798859 0.65686869621276855
0.12958340346813202 0.0060639325529336929 0.66721177101135254
0.30061715841293335 0.014886369928717613 0.67522245645523071
0.54117244482040405 0.017176145687699318 0.67595928907394409
0.79384350776672363 0.019695103168487549 0.67969262599945068
0.98219364881515503 0.024258004501461983 0.68251776695251465
1 0.028587864711880684 0.67737674713134766
0.057597681879997253 0.092552527785301208 0.67585432529449463
0.13719533383846283 0.095993116497993469 0.67898613214492798
0.31679734587669373 0.10359052568674088 0.68454122543334961
0.54966193437576294 0.11285454034805298 0.68884158134460449
0.78980535268783569 0.1192631721496582 0.69352930784225464
0.98092615604400635 0.13071446120738983 0.69408911466598511
1 0.1461949348449707 0.69055306911468506
0.032829612493515015 0.27461403608322144 0.69139140844345093
0.091462917625904083 0.28034582734107971 0.69221127033233643
0.30774608254432678 0.28224942088127136 0.69538652896881104
0.550761878490448 0.28813517093658447 0.69653570652008057
0.7786719799041748 0.29261687397956848 0.70261991024017334
0.9704245924949646 0.30571144819259644 0.70513784885406494
1 0.31722044944763184 0.70218294858932495
0.00013710471102967858 0.49288737773895264 0.70724940299987793
0.03739624097943306 0.49723720550537109 0.70679080486297607
0.2815278172492981 0.4986412525177002 0.71064937114715576
0.53478056192398071 0.50657200813293457 0.70975673198699951
0.75875240564346313 0.51047211885452271 0.71565926074981689
0.94731777906417847 0.51896542310714722 0.72086626291275024
1 0.52186137437820435 0.71809417009353638
0 0.69695878028869629 0.72289168834686279
0.0042699328623712063 0.69592845439910889 0.7236219048500061
0.2134614884853363 0.70011579990386963 0.72582697868347168
0.51641899347305298 0.7044110894203186 0.72933578491210938
0.7316969633102417 0.70819962024688721 0.73336488008499146
0.90491032600402832 0.71430516242980957 0.73684394359588623
0.99941408634185791 0.71493947505950928 0.73529136180877686
0.00073207780951634049 0.84698724746704102 0.73954313993453979
0.037350837141275406 0.84590750932693481 0.73788750171661377
0.24897916615009308 0.84893596172332764 0.74121689796447754
0.52651143074035645 0.85355734825134277 0.74428761005401611
0.72538131475448608 0.86085814237594604 0.74595320224761963
0.88029283285140991 0.86355561017990112 0.74791806936264038
0.99480569362640381 0.86635011434555054 0.7460290789604187
0.0021091834641993046 0.97330945730209351 0.74992567300796509
0.10389763116836548 0.97306269407272339 0.7487567663192749
0.32906997203826904 0.97146588563919067 0.75148624181747437
0.54938787221908569 0.97696411609649658 0.74969398975372314
0.72115451097488403 0.98203194141387939 0.74910229444503784
0.85585135221481323 0.98627543449401855 0.75903594493865967
0.99475830793380737 0.98481380939483643 0.75883275270462036
0.058258999139070511 0 0.79515421390533447
0.13757124543190002 0.0019869636744260788 0.80598175525665283
0.29777061939239502 0.011863304302096367 0.8141244649887085
0.53700470924377441 0.014140618965029716 0.81646728515625
0.78920698165893555 0.015976041555404663 0.81703287363052368
0.97995376586914062 0.018464077264070511 0.81657904386520386
1 0.017547084018588066 0.81529480218887329
0.066317148506641388 0.085621774196624756 0.81329631805419922
0.13705390691757202 0.090998552739620209 0.81635081768035889
0.31318923830986023 0.099789276719093323 0.82342499494552612
0.5457160472869873 0.1076396256685257 0.82951599359512329
0.78497272729873657 0.11406960338354111 0.83169829845428467
0.97636014223098755 0.12166582047939301 0.83057785034179688
1 0.13075602054595947 0.83247512578964233
0.034949269145727158 0.27658921480178833 0.82821059226989746
0.097482971847057343 0.27670884132385254 0.82700109481811523
0.31252419948577881 0.28299376368522644 0.8317376971244812
0.54786580801010132 0.29026409983634949 0.83477520942687988
0.77877694368362427 0.28937932848930359 0.84164154529571533
0.96199125051498413 0.29741689562797546 0.84392821788787842
1 0.3040216863155365 0.84595352411270142
7.4678311648312956e-05 0.49240690469741821 0.84332132339477539
0.040494762361049652 0.49332785606384277 0.84687143564224243
0.27967581152915955 0.4988856315612793 0.84744715690612793
0.5333549976348877 0.50547701120376587 0.84433221817016602
0.76165652275085449 0.50826358795166016 0.85596960783004761
0.94657659530639648 0.51670354604721069 0.86094826459884644
1 0.51644116640090942 0.85907286405563354
0.00014060524699743837 0.69258564710617065 0.85858893394470215
0.015091376379132271 0.69007545709609985 0.86464667320251465
0.23230047523975372 0.69681864976882935 0.86513060331344604
0.51855331659317017 0.70308774709701538 0.86453449726104736
0.73506814241409302 0.70773792266845703 0.87157076597213745
0.90649628639221191 0.71424239873886108 0.87844395637512207
0.99941408634185791 0.71235150098800659 0.87499189376831055
0.00078490015584975481 0.84402978420257568 0.87299787998199463
0.052615117281675339 0.84622490406036377 0.86888039112091064
0.28331539034843445 0.84803205728530884 0.86960798501968384
0.53469246625900269 0.85117310285568237 0.87493801116943359
0.72648054361343384 0.85746026039123535 0.87542366981506348
0.88252294063568115 0.8609083890914917 0.88119304180145264
0.99084317684173584 0.86703282594680786 0.88128608465194702
0 0.97548854351043701 0.88399308919906616
0.11154644191265106 0.975566565990448 0.88240253925323486
0.36034169793128967 0.97232675552368164 0.88566499948501587
0.55843091011047363 0.97880750894546509 0.88057559728622437
0.72253948450088501 0.98381990194320679 0.87988972663879395
0.85953158140182495 0.9856865406036377 0.88675606250762939
0.99665707349777222 0.98485404253005981 0.89111936092376709
0.074488773941993713 0 0.90407764911651611
0.15572555363178253 0.00073619169415906072 0.90849888324737549
0.31021136045455933 0.011329486034810543 0.91349488496780396
0.54207396507263184 0.015372242778539658 0.92099606990814209
0.79046773910522461 0.020390603691339493 0.92272406816482544
0.9817885160446167 0.021008346229791641 0.92204266786575317
1 0.014392179436981678 0.92853635549545288
0.073698319494724274 0.086463853716850281 0.91525214910507202
0.13955241441726685 0.086887598037719727 0.91545754671096802
0.31105723977088928 0.10088092833757401 0.92455416917800903
0.54820817708969116 0.10753302276134491 0.93576729297637939
0.78606116771697998 0.11879099160432816 0.93596506118774414
0.97986334562301636 0.12193832546472549 0.93193036317825317
1 0.12449523061513901 0.94515031576156616
0.040633752942085266 0.26685246825218201 0.92606866359710693
0.090071670711040497 0.27057850360870361 0.92586660385131836
0.30944699048995972 0.27919605374336243 0.93983834981918335
0.550403892993927 0.28617390990257263 0.94596254825592041
0.77870553731918335 0.29143902659416199 0.94815653562545776
0.95112752914428711 0.29628786444664001 0.94767403602600098
0.99997270107269287 0.29636687040328979 0.95752257108688354
5.9509278798941523e-05 0.48856636881828308 0.94379979372024536
0.0088001471012830734 0.49218258261680603 0.94511562585830688
0.27485057711601257 0.4923732578754425 0.96106022596359253
0.53309649229049683 0.49978908896446228 0.95877248048782349
0.75838643312454224 0.50621145963668823 0.9655577540397644
0.94096851348876953 0.5146794319152832 0.96325039863586426
1 0.51192289590835571 0.96444171667098999
0.00013321521691977978 0.6892278790473938 0.96435892581939697
0.010487829335033894 0.68789499998092651 0.9744911789894104
0.2277175635099411 0.69323736429214478 0.97899001836776733
0.51939898729324341 0.69890236854553223 0.97693109512329102
0.73623913526535034 0.7042313814163208 0.98148274421691895
0.90686476230621338 0.71192353963851929 0.9845995306968689
0.99975872039794922 0.70712578296661377 0.97970914840698242
2.297794162586797e-05 0.83895766735076904 0.98600232601165771
0.032639849931001663 0.84277021884918213 0.98067581653594971
0.26106128096580505 0.84511590003967285 0.98170202970504761
0.53634822368621826 0.85006558895111084 0.98250317573547363
0.73230195045471191 0.85239183902740479 0.98404252529144287
0.88077741861343384 0.85838156938552856 0.9891514778137207
0.99569135904312134 0.85628968477249146 0.99176609516143799
0.0059396182186901569 0.97436803579330444 0.9955751895904541
0.12666371464729309 0.97337079048156738 0.99530112743377686
0.3579595685005188 0.97171229124069214 0.99608981609344482
0.55550152063369751 0.97763758897781372 0.9942057728767395
0.72869640588760376 0.97790920734405518 0.99575275182723999
0.85786789655685425 0.98418408632278442 0.99261951446533203
0.99706542491912842 0.98614305257797241 0.99890261888504028
