assets/lut/films negative color lomography redscale 100.cube
# Created by: G'MIC (https://gmic.eu)
TITLE "lomography_redscale_100"
# LUT size
LUT_3D_SIZE 7
# Data domain
DOMAIN_MIN 0.0 0.0 0.0
DOMAIN_MAX 1.0 1.0 1.0
# LUT data points
0.01759420707821846 0.0046698478981852531 0.0033894558437168598
0.11116048693656921 0.013801110908389091 0.02043558843433857
0.22354888916015625 0.030124738812446594 0.06274539977312088
0.37864327430725098 0.054551173001527786 0.13445000350475311
0.53776025772094727 0.079957745969295502 0.20163664221763611
0.67011910676956177 0.096049919724464417 0.25332885980606079
0.78304606676101685 0.096394680440425873 0.29178687930107117
0.029421234503388405 0.054204452782869339 0.013502068817615509
0.091317407786846161 0.064227387309074402 0.020990453660488129
0.20015782117843628 0.080639734864234924 0.053113900125026703
0.3566364049911499 0.10638643056154251 0.12494791299104691
0.53269279003143311 0.13390719890594482 0.20131710171699524
0.67036151885986328 0.15038055181503296 0.26001051068305969
0.77909296751022339 0.15325689315795898 0.30483701825141907
0.057909272611141205 0.13286538422107697 0.026619765907526016
0.09593634307384491 0.14109548926353455 0.034239210188388824
0.186539426445961 0.1563289612531662 0.060685716569423676
0.3531261682510376 0.1819504052400589 0.12396660447120667
0.53943264484405518 0.21038559079170227 0.20274297893047333
0.68806517124176025 0.22882452607154846 0.26703029870986938
0.80752027034759521 0.24291171133518219 0.31991761922836304
0.046710699796676636 0.26105508208274841 0.053014852106571198
0.066024944186210632 0.26690572500228882 0.053633205592632294
0.12971594929695129 0.27844968438148499 0.066576562821865082
0.32658159732818604 0.30406782031059265 0.12280566990375519
0.54428517818450928 0.33721843361854553 0.20742557942867279
0.71585536003112793 0.35743182897567749 0.28100347518920898
0.85588663816452026 0.37775248289108276 0.33955207467079163
0.002184310695156455 0.43044325709342957 0.081776700913906097
0.0031755184754729271 0.43214601278305054 0.075744941830635071
0.033847421407699585 0.43396815657615662 0.066350050270557404
0.22111417353153229 0.45493429899215698 0.10339841991662979
0.51424247026443481 0.49631503224372864 0.20008666813373566
0.73586940765380859 0.52100855112075806 0.29269373416900635
0.89733850955963135 0.54135262966156006 0.36026525497436523
0 0.59518194198608398 0.10072635114192963
0.0012653126614168286 0.59829884767532349 0.096485763788223267
0 0.59683358669281006 0.067415960133075714
0.030448524281382561 0.60147958993911743 0.062723152339458466
0.3613373339176178 0.63798046112060547 0.150090292096138
0.71909260749816895 0.68265432119369507 0.28743040561676025
0.92464637756347656 0.7080608606338501 0.37839913368225098
0 0.76170003414154053 0.12596236169338226
0.0051702163182199001 0.7689557671546936 0.11373530328273773
0.00065816246205940843 0.77255827188491821 0.079497858881950378
0.00035977832158096135 0.77224045991897583 0.046423263847827911
0.014577663503587246 0.77864879369735718 0.027407238259911537
0.34312602877616882 0.82415372133255005 0.16211307048797607
0.89013242721557617 0.88314050436019897 0.36850225925445557
0.040599193423986435 0.021115051582455635 0.046918876469135284
0.14228302240371704 0.034076105803251266 0.060265544801950455
0.25680789351463318 0.052926920354366302 0.086735039949417114
0.40518510341644287 0.075679123401641846 0.14368180930614471
0.55757135152816772 0.10020286589860916 0.20995037257671356
0.6829906702041626 0.11903280764818192 0.26383161544799805
0.78926116228103638 0.11699289083480835 0.30082288384437561
0.051880884915590286 0.07471899688243866 0.059264134615659714
0.11748898029327393 0.084541961550712585 0.066131383180618286
0.23261672258377075 0.10233360528945923 0.08162398636341095
0.38924935460090637 0.12732276320457458 0.1376708447933197
0.55537623167037964 0.15126925706863403 0.20927901566028595
0.68493944406509399 0.16719932854175568 0.26704797148704529
0.79060906171798706 0.17114563286304474 0.30934956669807434
0.076944924890995026 0.15697810053825378 0.078238151967525482
0.11844887584447861 0.1622464507818222 0.081622958183288574
0.21319115161895752 0.1772749274969101 0.095102973282337189
0.38577592372894287 0.20153920352458954 0.14084364473819733
0.56481361389160156 0.22552023828029633 0.21547703444957733
0.70260000228881836 0.24333137273788452 0.27497917413711548
0.81624549627304077 0.256914883852005 0.32354399561882019
0.059461630880832672 0.28335669636726379 0.10315933078527451
0.079319462180137634 0.28696230053901672 0.098948247730731964
0.15927687287330627 0.29763448238372803 0.10172796994447708
0.35953137278556824 0.32283768057823181 0.14046347141265869
0.56826001405715942 0.35335981845855713 0.21769392490386963
0.73000055551528931 0.37297627329826355 0.28688427805900574
0.85931700468063354 0.39003488421440125 0.34167033433914185
0.013584690168499947 0.44221696257591248 0.12369485199451447
0.0045558554120361805 0.44642087817192078 0.11258579045534134
0.036256395280361176 0.45053973793983459 0.098930120468139648
0.24847757816314697 0.47569093108177185 0.11939601600170135
0.54256463050842285 0.51422476768493652 0.20806767046451569
0.74990153312683105 0.53932696580886841 0.29971200227737427
0.90344226360321045 0.5548473596572876 0.36342871189117432
0.0034608878195285797 0.6037943959236145 0.14223998785018921
0.0043157991021871567 0.60549366474151611 0.12981204688549042
0 0.60614794492721558 0.10333386808633804
0.041816111654043198 0.61302971839904785 0.079311594367027283
0.38369280099868774 0.65215909481048584 0.15628257393836975
0.72834670543670654 0.69529837369918823 0.29538744688034058
0.93047624826431274 0.71963691711425781 0.38047927618026733
0.0012023327872157097 0.77207493782043457 0.19634641706943512
0.019454358145594597 0.77671164274215698 0.18225570023059845
0.0010289958445355296 0.77780425548553467 0.14403104782104492
0 0.77055436372756958 0.061237215995788574
0.020832689478993416 0.78459626436233521 0.030850473791360855
0.36565855145454407 0.83287703990936279 0.16881625354290009
0.89918971061706543 0.89094191789627075 0.37259289622306824
0.070664316415786743 0.040411960333585739 0.12256371229887009
0.17284192144870758 0.055229306221008301 0.12876960635185242
0.28805592656135559 0.076862886548042297 0.14339776337146759
0.43708217144012451 0.097806282341480255 0.17202016711235046
0.58337736129760742 0.11872538924217224 0.22031992673873901
0.69931507110595703 0.13367773592472076 0.27346271276473999
0.79855096340179443 0.13496549427509308 0.31030437350273132
0.080748148262500763 0.10278476029634476 0.14105595648288727
0.15048085153102875 0.11075951159000397 0.14551025629043579
0.26666656136512756 0.1299547553062439 0.15388511121273041
0.42589205503463745 0.15442962944507599 0.17417198419570923
0.58525764942169189 0.17665521800518036 0.21476393938064575
0.70538914203643799 0.18924984335899353 0.27336922287940979
0.80591833591461182 0.1944449245929718 0.31932678818702698
0.10540793836116791 0.18783180415630341 0.16515825688838959
0.14550916850566864 0.19451810419559479 0.16486847400665283
0.24799142777919769 0.2091488391160965 0.17186443507671356
0.42067313194274902 0.23645426332950592 0.1893746554851532
0.59399813413619995 0.25834709405899048 0.22927959263324738
0.72472751140594482 0.27225473523139954 0.28128674626350403
0.8313978910446167 0.28359737992286682 0.3337034285068512
0.068041585385799408 0.3159935474395752 0.1917036771774292
0.089270696043968201 0.32216149568557739 0.18719153106212616
0.19020134210586548 0.33290752768516541 0.18981574475765228
0.40475025773048401 0.35971543192863464 0.20350034534931183
0.6051902174949646 0.38927948474884033 0.23483003675937653
0.75323927402496338 0.40439662337303162 0.29447665810585022
0.87032926082611084 0.41761112213134766 0.35009568929672241
0.014433408156037331 0.46313133835792542 0.21451786160469055
0.001647889381274581 0.46853858232498169 0.20472866296768188
0.039084535092115402 0.47948125004768372 0.1977694034576416
0.29545566439628601 0.5074886679649353 0.20432376861572266
0.58440780639648438 0.54320180416107178 0.24391841888427734
0.77207285165786743 0.56623262166976929 0.30424389243125916
0.91069251298904419 0.58031606674194336 0.36794540286064148
0.0055013918317854404 0.61888366937637329 0.25131794810295105
2.4204628061852418e-05 0.6204877495765686 0.23387175798416138
0 0.62341523170471191 0.20567008852958679
0.099087551236152649 0.63513898849487305 0.16728399693965912
0.43955785036087036 0.6750379204750061 0.20028240978717804
0.75869196653366089 0.71622580289840698 0.30598658323287964
0.94173902273178101 0.73933464288711548 0.39116469025611877
0.0039929859340190887 0.7863924503326416 0.31837603449821472
0.011576678603887558 0.78686058521270752 0.29859477281570435
0.0013722737785428762 0.7869795560836792 0.26116803288459778
0.0026787552051246166 0.78419101238250732 0.16324993968009949
0.044622041285037994 0.79824215173721313 0.084499046206474304
0.43592020869255066 0.8471943736076355 0.19624699652194977
0.91358739137649536 0.900157630443573 0.37659385800361633
0.11340814083814621 0.070479355752468109 0.22332528233528137
0.21584595739841461 0.084604509174823761 0.2298332005739212
0.33317562937736511 0.10623011738061905 0.2409542053937912
0.47576043009757996 0.12885065376758575 0.23986107110977173
0.61516052484512329 0.14722071588039398 0.23959295451641083
0.71964877843856812 0.15918990969657898 0.28228428959846497
0.81010884046554565 0.16094422340393066 0.31694850325584412
0.1254446804523468 0.14023087918758392 0.25300365686416626
0.19592444598674774 0.1509505957365036 0.26064512133598328
0.31430307030677795 0.1697019636631012 0.27008217573165894
0.46982684731483459 0.19355314970016479 0.26748627424240112
0.62004166841506958 0.21418763697147369 0.25772526860237122
0.73100882768630981 0.22418856620788574 0.28500297665596008
0.82367807626724243 0.22794350981712341 0.32748919725418091
0.13416761159896851 0.23228469491004944 0.2889503538608551
0.18381455540657043 0.23756588995456696 0.29536306858062744
0.30135953426361084 0.25776848196983337 0.30382740497589111
0.46727323532104492 0.28323432803153992 0.30749401450157166
0.63135397434234619 0.30604332685470581 0.28471872210502625
0.75534844398498535 0.3162483274936676 0.2946530282497406
0.85091680288314819 0.32059577107429504 0.34568631649017334
0.075940586626529694 0.36116340756416321 0.3199913501739502
0.11828365176916122 0.36754092574119568 0.32480236887931824
0.25122788548469543 0.38385388255119324 0.33675646781921387
0.44980108737945557 0.4108995795249939 0.34647843241691589
0.64025008678436279 0.43756914138793945 0.32459110021591187
0.7842482328414917 0.44961723685264587 0.3160114586353302
0.88740664720535278 0.45501124858856201 0.35795316100120544
0.0073191472329199314 0.49823549389839172 0.34189504384994507
0.0023897658102214336 0.50660699605941772 0.34478303790092468
0.080096706748008728 0.52037686109542847 0.35642734169960022
0.37913224101066589 0.54776686429977417 0.37142756581306458
0.62248021364212036 0.58072257041931152 0.35845348238945007
0.80255049467086792 0.60284441709518433 0.33062747120857239
0.92644387483596802 0.61060601472854614 0.37923645973205566
0.00074153224704787135 0.63779270648956299 0.37675029039382935
0 0.64390212297439575 0.37201341986656189
6.8215762439649552e-05 0.64770299196243286 0.35725924372673035
0.17365698516368866 0.66413521766662598 0.34985789656639099
0.50952839851379395 0.70433503389358521 0.36563938856124878
0.7849687933921814 0.7421453595161438 0.33640804886817932
0.96361613273620605 0.76505464315414429 0.38260680437088013
0.0030141493771225214 0.79576659202575684 0.43516388535499573
0 0.79713571071624756 0.42475405335426331
0 0.79454654455184937 0.39811521768569946
0.0077879363670945168 0.79553234577178955 0.3526310920715332
0.031391218304634094 0.80558937788009644 0.24805717170238495
0.47751736640930176 0.86552149057388306 0.26623210310935974
0.92768454551696777 0.91781508922576904 0.38729983568191528
0.16233226656913757 0.11403068155050278 0.34666717052459717
0.26872545480728149 0.13472183048725128 0.36456501483917236
0.38638699054718018 0.1542133092880249 0.37982675433158875
0.51509660482406616 0.17677810788154602 0.37852963805198669
0.64376306533813477 0.19288221001625061 0.33893778920173645
0.74751585721969604 0.20572446286678314 0.30521857738494873
0.82770234346389771 0.20202890038490295 0.31477448344230652
0.18244646489620209 0.19818904995918274 0.38244897127151489
0.25871312618255615 0.21036812663078308 0.39871281385421753
0.37460571527481079 0.22585465013980865 0.41895511746406555
0.51629829406738281 0.24752418696880341 0.42327207326889038
0.65316051244735718 0.26578456163406372 0.38642469048500061
0.76344817876815796 0.27892124652862549 0.32317021489143372
0.84660923480987549 0.27625939249992371 0.33244898915290833
0.18913429975509644 0.29340055584907532 0.42450061440467834
0.25015702843666077 0.30136534571647644 0.43671867251396179
0.36971142888069153 0.3174833357334137 0.45788794755935669
0.5219264030456543 0.3414495587348938 0.47362598776817322
0.66711413860321045 0.36104264855384827 0.44265705347061157
0.78617465496063232 0.37235945463180542 0.36255505681037903
0.87589859962463379 0.37277916073799133 0.34766983985900879
0.12173252552747726 0.41873043775558472 0.45690509676933289
0.19040307402610779 0.42665687203407288 0.46794694662094116
0.3358614444732666 0.44363012909889221 0.48904699087142944
0.51396477222442627 0.46924155950546265 0.51297169923782349
0.67639398574829102 0.49011731147766113 0.50107502937316895
0.81287968158721924 0.50481396913528442 0.40984845161437988
0.91037970781326294 0.5068206787109375 0.36395484209060669
0.011884637176990509 0.54679387807846069 0.47271242737770081
0.033379528671503067 0.55292791128158569 0.48340162634849548
0.18075859546661377 0.57027947902679443 0.5100104808807373
0.46262979507446289 0.59513348340988159 0.54196858406066895
0.66473627090454102 0.62168151140213013 0.54654031991958618
0.82428634166717529 0.64155346155166626 0.47197464108467102
0.94830453395843506 0.653331458568573 0.36984768509864807
0 0.66684961318969727 0.48598372936248779
0 0.67149168252944946 0.48664551973342896
0.010478210635483265 0.68005949258804321 0.49637880921363831
0.24807724356651306 0.70150125026702881 0.52841299772262573
0.5702136754989624 0.73862165212631226 0.56970596313476562
0.80600494146347046 0.7735411524772644 0.51685070991516113
0.97902023792266846 0.79604858160018921 0.37187692523002625
0.0004048964474350214 0.80772107839584351 0.53126740455627441
0.006327655166387558 0.80762743949890137 0.52655845880508423
2.231971848232206e-05 0.80610078573226929 0.5075688362121582
0 0.79997491836547852 0.4684358537197113
0.06612028181552887 0.82125318050384521 0.46745580434799194
0.52758496999740601 0.88525515794754028 0.49649441242218018
0.9490276575088501 0.93538457155227661 0.38735571503639221
0.25188496708869934 0.18861795961856842 0.47672268748283386
0.35319787263870239 0.19943647086620331 0.50257706642150879
0.45650586485862732 0.22352060675621033 0.52272993326187134
0.56540745496749878 0.24303238093852997 0.53308993577957153
0.6755867600440979 0.25539815425872803 0.5112491250038147
0.77573937177658081 0.26451131701469421 0.41800498962402344
0.849922776222229 0.25791072845458984 0.33429086208343506
0.27752691507339478 0.27619150280952454 0.51492232084274292
0.35303026437759399 0.28647592663764954 0.53543990850448608
0.45580318570137024 0.30143940448760986 0.56126928329467773
0.57263541221618652 0.31957381963729858 0.57940363883972168
0.68758535385131836 0.33416831493377686 0.56932669878005981
0.78984987735748291 0.34429311752319336 0.4954904317855835
0.8737296462059021 0.3442302942276001 0.36325892806053162
0.29989832639694214 0.37243959307670593 0.55616235733032227
0.35750436782836914 0.38159626722335815 0.57011204957962036
0.46005916595458984 0.39454665780067444 0.59638482332229614
0.58331716060638428 0.41639614105224609 0.62266820669174194
0.7015954852104187 0.43265724182128906 0.62305611371994019
0.80871450901031494 0.44131690263748169 0.56364792585372925
0.90169608592987061 0.44454973936080933 0.40888696908950806
0.2559354305267334 0.4922308623790741 0.58903414011001587
0.32550418376922607 0.49881595373153687 0.60031026601791382
0.44733905792236328 0.51599764823913574 0.62683415412902832
0.58695715665817261 0.53569155931472778 0.65885072946548462
0.71383529901504517 0.55461639165878296 0.6715894341468811
0.82836276292800903 0.56693553924560547 0.6340373158454895
0.93124961853027344 0.57631415128707886 0.46007302403450012
0.11671853065490723 0.60762423276901245 0.60980784893035889
0.18366457521915436 0.60973715782165527 0.62067645788192749
0.36775928735733032 0.62674319744110107 0.65135353803634644
0.55907917022705078 0.65069478750228882 0.68659752607345581
0.71399921178817749 0.67155933380126953 0.71214169263839722
0.83911252021789551 0.68878668546676636 0.69079703092575073
0.95588898658752441 0.70044314861297607 0.5299186110496521
0.0049516116268932819 0.70657610893249512 0.59146010875701904
0.0060121272690594196 0.7133554220199585 0.60241806507110596
0.1442074328660965 0.72713005542755127 0.63272571563720703
0.36286649107933044 0.7574840784072876 0.69156861305236816
0.6570892333984375 0.78732496500015259 0.73649686574935913
0.83649063110351562 0.81179791688919067 0.74444973468780518
0.97738373279571533 0.82867646217346191 0.57891929149627686
0.0017841713270172477 0.82009214162826538 0.61567431688308716
0.0068281735293567181 0.81781524419784546 0.61077785491943359
0.0025067946407943964 0.81561315059661865 0.59593743085861206
0.0018048156052827835 0.82798206806182861 0.60673719644546509
0.14815674722194672 0.85682189464569092 0.65355139970779419
0.62545537948608398 0.91368681192398071 0.7447999119758606
0.96669489145278931 0.95501875877380371 0.60036236047744751
0.37277328968048096 0.27972501516342163 0.61221927404403687
0.45226261019706726 0.2973705530166626 0.63236540555953979
0.5392957329750061 0.31744429469108582 0.65438687801361084
0.6301683783531189 0.32927379012107849 0.673470139503479
0.71838158369064331 0.34201672673225403 0.67766940593719482
0.79747277498245239 0.34836652874946594 0.636555016040802
0.87539047002792358 0.33853143453598022 0.46348893642425537
0.40218272805213928 0.37181761860847473 0.64998477697372437
0.46715015172958374 0.38494369387626648 0.66767948865890503
0.55147933959960938 0.39868628978729248 0.69197541475296021
0.64505892992019653 0.41106292605400085 0.71117639541625977
0.73592197895050049 0.42389640212059021 0.71789741516113281
0.81620961427688599 0.4338022768497467 0.69782418012619019
0.89494389295578003 0.43439838290214539 0.57011872529983521
0.4353213906288147 0.47197571396827698 0.69126993417739868
0.48540470004081726 0.48129743337631226 0.70483636856079102
0.56709569692611694 0.49178335070610046 0.72927361726760864
0.6630668044090271 0.50742089748382568 0.75292426347732544
0.75621277093887329 0.52305155992507935 0.76373183727264404
0.83911585807800293 0.53255122900009155 0.75482118129730225
0.91786462068557739 0.53448355197906494 0.65300637483596802
0.44557559490203857 0.58275842666625977 0.73104953765869141
0.48937049508094788 0.58935368061065674 0.74196118116378784
0.57318967580795288 0.60164940357208252 0.76602691411972046
0.67678683996200562 0.61674922704696655 0.79327869415283203
0.77348989248275757 0.63258081674575806 0.80865418910980225
0.8597787618637085 0.64457488059997559 0.80648660659790039
0.94147670269012451 0.64907217025756836 0.73753887414932251
0.3994629979133606 0.68965131044387817 0.76461869478225708
0.45227321982383728 0.69187664985656738 0.77354514598846436
0.55821949243545532 0.70850783586502075 0.80015414953231812
0.67473548650741577 0.72415608167648315 0.82999336719512939
0.78407889604568481 0.73932504653930664 0.85335874557495117
0.87736374139785767 0.75557392835617065 0.85762083530426025
0.96059232950210571 0.75905352830886841 0.81089180707931519
0.20673191547393799 0.77487164735794067 0.73800849914550781
0.22870698571205139 0.78401637077331543 0.76214045286178589
0.45122620463371277 0.80604010820388794 0.80892574787139893
0.62682217359542847 0.82795977592468262 0.85586565732955933
0.75780755281448364 0.84710299968719482 0.8907124400138855
0.88360112905502319 0.86527270078659058 0.91346007585525513
0.9802011251449585 0.87447559833526611 0.87600511312484741
0.026164185255765915 0.85329204797744751 0.68994957208633423
0.0044589173048734665 0.84502935409545898 0.6677318811416626
0.037954024970531464 0.84923923015594482 0.68359148502349854
0.14658050239086151 0.8752092719078064 0.743155837059021
0.40017911791801453 0.91190642118453979 0.82846492528915405
0.7588467001914978 0.95374011993408203 0.92860794067382812
0.97231066226959229 0.98008191585540771 0.94261687994003296
