assets/lut/films colorslide fuji sensia 100.cube
# Created by: G'MIC (https://gmic.eu)
TITLE "fuji_sensia_100"
# LUT size
LUT_3D_SIZE 5
# Data domain
DOMAIN_MIN 0.0 0.0 0.0
DOMAIN_MAX 1.0 1.0 1.0
# LUT data points
0.051279943436384201 0.049844134598970413 0.04775938019156456
0.24438045918941498 0.05033792182803154 0.024149412289261818
0.4653942883014679 0.041402719914913177 0.0070987925864756107
0.74673336744308472 0.042676635086536407 0.001058421446941793
0.91041094064712524 0.033158678561449051 0.024210207164287567
0.14918823540210724 0.31126669049263 0.15995343029499054
0.29900315403938293 0.30179217457771301 0.14796975255012512
0.54473423957824707 0.29698914289474487 0.11304423213005066
0.82478904724121094 0.2871992290019989 0.090634427964687347
0.98338997364044189 0.28738585114479065 0.12925754487514496
0.20146726071834564 0.62056028842926025 0.27135595679283142
0.3581550121307373 0.61810511350631714 0.26005500555038452
0.63405156135559082 0.61153590679168701 0.22089298069477081
0.9111865758895874 0.6043512225151062 0.19659106433391571
1 0.60368412733078003 0.25723457336425781
0.31284856796264648 0.85266703367233276 0.29856753349304199
0.46027514338493347 0.84896767139434814 0.28318649530410767
0.74165481328964233 0.84398543834686279 0.25378167629241943
0.99009591341018677 0.83231586217880249 0.24141265451908112
1 0.8354528546333313 0.3353155255317688
0.39067479968070984 0.97163599729537964 0.14379070699214935
0.5694350004196167 0.96516877412796021 0.050232622772455215
0.86704707145690918 0.95716744661331177 0.01873709075152874
1 0.95115131139755249 0.030160792171955109
0.99822759628295898 0.95774263143539429 0.16125833988189697
0.044394638389348984 0.033139772713184357 0.19621933996677399
0.21910165250301361 0.021651413291692734 0.17550718784332275
0.44776260852813721 0.024149531498551369 0.13099515438079834
0.70279192924499512 0.023614935576915741 0.10222199559211731
0.85681945085525513 0.016533795744180679 0.15086658298969269
0.1375824511051178 0.28550365567207336 0.29918158054351807
0.28005507588386536 0.28133592009544373 0.282949298620224
0.52473002672195435 0.27292191982269287 0.24374429881572723
0.78361701965332031 0.26118466258049011 0.22219906747341156
0.93435490131378174 0.26177218556404114 0.26308342814445496
0.16578961908817291 0.61157906055450439 0.40993028879165649
0.33242002129554749 0.61028909683227539 0.39616605639457703
0.61216932535171509 0.60529243946075439 0.36475262045860291
0.877177894115448 0.60045433044433594 0.345205157995224
0.99638396501541138 0.59349292516708374 0.39831939339637756
0.26536157727241516 0.85633915662765503 0.46154233813285828
0.42821165919303894 0.85535091161727905 0.46348369121551514
0.71187335252761841 0.84557193517684937 0.42704030871391296
0.95416617393493652 0.83873343467712402 0.42756804823875427
1 0.84122508764266968 0.50168067216873169
0.39399617910385132 0.97681069374084473 0.27422675490379333
0.53731268644332886 0.97591578960418701 0.26593175530433655
0.81553047895431519 0.96530210971832275 0.24252362549304962
0.99974578619003296 0.95749276876449585 0.25832456350326538
0.99996435642242432 0.96348553895950317 0.40652525424957275
0.04108651727437973 0.0035012636799365282 0.36296877264976501
0.19206975400447845 0.0032339657191187143 0.34377706050872803
0.42426308989524841 0.0098245656117796898 0.30641549825668335
0.65519624948501587 0.01439565047621727 0.27879253029823303
0.79250794649124146 0.00019854377023875713 0.30753108859062195
0.12597040832042694 0.23790068924427032 0.47812208533287048
0.25696256756782532 0.23516140878200531 0.46249401569366455
0.49346533417701721 0.2272050678730011 0.42833471298217773
0.71832609176635742 0.21181474626064301 0.40179911255836487
0.8595346212387085 0.1980404406785965 0.42331147193908691
0.15282633900642395 0.59004378318786621 0.6260949969291687
0.3186531662940979 0.58546549081802368 0.61259704828262329
0.58005958795547485 0.57956725358963013 0.58107024431228638
0.80929261445999146 0.57159590721130371 0.55970275402069092
0.95328634977340698 0.56959158182144165 0.57934534549713135
0.23867739737033844 0.86303406953811646 0.73070549964904785
0.39344212412834167 0.86034870147705078 0.71149939298629761
0.66182535886764526 0.85103386640548706 0.68559008836746216
0.87730729579925537 0.84703624248504639 0.67410516738891602
0.99785667657852173 0.84607672691345215 0.69650095701217651
0.2513483464717865 0.99231702089309692 0.67048949003219604
0.43699494004249573 0.99045443534851074 0.64898288249969482
0.72298437356948853 0.98214918375015259 0.61494684219360352
0.94955235719680786 0.97527003288269043 0.61116605997085571
1 0.97973215579986572 0.67340254783630371
0.053095858544111252 0 0.53194183111190796
0.19665193557739258 0 0.52198457717895508
0.4080510139465332 0 0.48353156447410583
0.60117065906524658 0 0.44389486312866211
0.73720979690551758 0 0.44485929608345032
0.15498405694961548 0.1392960399389267 0.6445770263671875
0.26756560802459717 0.13388505578041077 0.62100201845169067
0.46690458059310913 0.11999037861824036 0.57671952247619629
0.64487916231155396 0.1025104746222496 0.5352056622505188
0.78270381689071655 0.09977036714553833 0.53393095731735229
0.25729116797447205 0.52664339542388916 0.79315990209579468
0.37790569663047791 0.52606970071792603 0.77347677946090698
0.58722555637359619 0.51902568340301514 0.73611027002334595
0.76349484920501709 0.50541836023330688 0.70271652936935425
0.89699780941009521 0.50225234031677246 0.69280868768692017
0.36498072743415833 0.84999710321426392 0.90827834606170654
0.46848377585411072 0.84650617837905884 0.89315283298492432
0.66735303401947021 0.83936613798141479 0.86234545707702637
0.83617180585861206 0.83339422941207886 0.83427059650421143
0.97004920244216919 0.83322322368621826 0.82903987169265747
0.35635283589363098 0.99509000778198242 0.94213277101516724
0.48699843883514404 0.99538815021514893 0.91996103525161743
0.68837863206863403 0.99140697717666626 0.89667803049087524
0.87667948007583618 0.98993057012557983 0.86867457628250122
0.99849492311477661 0.98566657304763794 0.86540937423706055
0.14894646406173706 0 0.63556402921676636
0.29075917601585388 0.00015499639266636223 0.64714717864990234
0.45682311058044434 0 0.60911482572555542
0.59828466176986694 0 0.56725078821182251
0.7182309627532959 0 0.55825173854827881
0.24915403127670288 0.001270922482945025 0.68536806106567383
0.33280220627784729 0.0014873279724270105 0.66732776165008545
0.47119408845901489 5.1700368203455582e-05 0.62479478120803833
0.60921776294708252 0.00011471019388409331 0.5976594090461731
0.7289004921913147 0.0013008567038923502 0.59112221002578735
0.43900543451309204 0.3588222861289978 0.8166770339012146
0.49746426939964294 0.36313194036483765 0.80268627405166626
0.61948674917221069 0.35351580381393433 0.77345758676528931
0.72930729389190674 0.33169317245483398 0.74550920724868774
0.82850641012191772 0.31292065978050232 0.72099763154983521
0.59225934743881226 0.78645581007003784 0.9584498405456543
0.64134246110916138 0.78783023357391357 0.95351868867874146
0.73451334238052368 0.78387784957885742 0.93189138174057007
0.83489608764648438 0.77315360307693481 0.91159921884536743
0.93862468004226685 0.77035236358642578 0.89827638864517212
0.65068531036376953 0.99053108692169189 1
0.69371432065963745 0.98891347646713257 1
0.77799880504608154 0.98852461576461792 0.99977344274520874
0.88103026151657104 0.98423713445663452 0.99364215135574341
0.98597466945648193 0.98357462882995605 0.98487275838851929
