assets/lut/films colorslide fuji velvia 50.cube
# Created by: G'MIC (https://gmic.eu)
TITLE "fuji_velvia_50"
# LUT size
LUT_3D_SIZE 13
# Data domain
DOMAIN_MIN 0.0 0.0 0.0
DOMAIN_MAX 1.0 1.0 1.0
# LUT data points
0.005495019257068634 0.0050047482363879681 0.0033738827332854271
0.034381251782178879 0.0059744291938841343 0.0073032155632972717
0.093913644552230835 0.004532279446721077 0.010332563892006874
0.18478493392467499 0.00022116268519312143 0.0069374833256006241
0.28533053398132324 0 0.0029939538799226284
0.3831024169921875 0 0.0012540181633085012
0.47528213262557983 0 0.00047050925786606967
0.56318259239196777 0 7.1088004915509373e-05
0.64825832843780518 0 0
0.73196905851364136 0 0
0.81555187702178955 0 0
0.89974373579025269 0 0
0.98088979721069336 0 0
0.013060027733445168 0.041309133172035217 0.012278014793992043
0.036695308983325958 0.037537518888711929 0.013863597065210342
0.098461896181106567 0.030732816085219383 0.015239101834595203
0.1950967013835907 0.017864212393760681 0.013671964406967163
0.2954443097114563 0.0076566510833799839 0.011538351885974407
0.39089551568031311 0.0035892261657863855 0.0095743220299482346
0.48051506280899048 0.0024623197969049215 0.0076274196617305279
0.56652736663818359 0.00063403259264305234 0.0053083384409546852
0.65017414093017578 0 0.0029950309544801712
0.73231667280197144 0 0.00088505464373156428
0.8145136833190918 0 4.5417335059028119e-05
0.89785146713256836 0 0
0.97947865724563599 0.00021392223425209522 0
0.025297053158283234 0.11989850550889969 0.022214269265532494
0.047027334570884705 0.11244391649961472 0.020288579165935516
0.10715442895889282 0.10186976939439774 0.019748328253626823
0.20289395749568939 0.088043481111526489 0.02070903405547142
0.30175188183784485 0.073400624096393585 0.021723773330450058
0.39461812376976013 0.063758298754692078 0.022180385887622833
0.4825156033039093 0.059884030371904373 0.021385746076703072
0.56805050373077393 0.045615430921316147 0.019642967730760574
0.65125638246536255 0.025382457301020622 0.017282463610172272
0.73274517059326172 0.016263550147414207 0.011567702516913414
0.81347197294235229 0.017801053822040558 0.0043654050678014755
0.89616632461547852 0.022672496736049652 0.0013509413693100214
0.97779393196105957 0.030113594606518745 0.00024144789495039731
0.033933062106370926 0.23186127841472626 0.032787099480628967
0.060354914516210556 0.22324076294898987 0.029803391546010971
0.11736369132995605 0.21099677681922913 0.029562197625637054
0.20368722081184387 0.19894611835479736 0.03163503110408783
0.29912683367729187 0.18507058918476105 0.032663054764270782
0.39226296544075012 0.1733461320400238 0.033258356153964996
0.4807218611240387 0.16421617567539215 0.033605687320232391
0.56780833005905151 0.14371532201766968 0.032235149294137955
0.65191042423248291 0.11897429078817368 0.029705645516514778
0.73315697908401489 0.10300379991531372 0.02434610016644001
0.81321489810943604 0.098176650702953339 0.016683779656887054
0.89491701126098633 0.09648296982049942 0.011875391937792301
0.97686398029327393 0.097436420619487762 0.0071615329943597317
0.031463082879781723 0.33946123719215393 0.046264078468084335
0.063727825880050659 0.33390501141548157 0.043302692472934723
0.12096062302589417 0.32355505228042603 0.043273176997900009
0.20190554857254028 0.31252962350845337 0.044983267784118652
0.29443639516830444 0.29867410659790039 0.044558342546224594
0.38776615262031555 0.28488948941230774 0.043870486319065094
0.47816166281700134 0.2729194164276123 0.044408403337001801
0.56683862209320068 0.25544062256813049 0.043545052409172058
0.65215331315994263 0.23565444350242615 0.04036959633231163
0.73348212242126465 0.21724627912044525 0.034491952508687973
0.81327962875366211 0.2026088684797287 0.028802640736103058
0.89484113454818726 0.19048625230789185 0.026540061458945274
0.97684782743453979 0.18247561156749725 0.021904904395341873
0.021695544943213463 0.4344654381275177 0.062198847532272339
0.057586699724197388 0.43124169111251831 0.060222774744033813
0.11607271432876587 0.42311975359916687 0.059515379369258881
0.1958959698677063 0.41130343079566956 0.05872325599193573
0.28780859708786011 0.39718341827392578 0.056622076779603958
0.38236469030380249 0.38444679975509644 0.055084511637687683
0.47496882081031799 0.37487894296646118 0.055376164615154266
0.56469917297363281 0.3628254234790802 0.054904744029045105
0.65073692798614502 0.34829401969909668 0.052446790039539337
0.73294538259506226 0.33049771189689636 0.046522762626409531
0.81344842910766602 0.31215772032737732 0.040168043226003647
0.89597344398498535 0.29540625214576721 0.035433240234851837
0.97768872976303101 0.28261107206344604 0.028041061013936996
0.009961714968085289 0.52408307790756226 0.078850284218788147
0.046206217259168625 0.52114671468734741 0.077026337385177612
0.10492954403162003 0.51418572664260864 0.075189046561717987
0.18443681299686432 0.50396054983139038 0.07296251505613327
0.27736696600914001 0.49139496684074402 0.069986678659915924
0.37476712465286255 0.48048180341720581 0.067536942660808563
0.47031465172767639 0.47251617908477783 0.066719487309455872
0.56101709604263306 0.46305415034294128 0.066111817955970764
0.6473577618598938 0.45077839493751526 0.063443191349506378
0.73058217763900757 0.43551754951477051 0.058325119316577911
0.81301403045654297 0.41885215044021606 0.051214225590229034
0.89700049161911011 0.40296894311904907 0.041305363178253174
0.97932219505310059 0.38966077566146851 0.028480440378189087
0.0023230160586535931 0.61187154054641724 0.094519473612308502
0.032354511320590973 0.60887449979782104 0.092496581375598907
0.089307881891727448 0.60297304391860962 0.090044476091861725
0.16799129545688629 0.59448939561843872 0.08705303817987442
0.26276490092277527 0.58455824851989746 0.083529435098171234
0.36444899439811707 0.57524734735488892 0.080220840871334076
0.46405112743377686 0.56704986095428467 0.078383050858974457
0.55672848224639893 0.5586124062538147 0.07685234397649765
0.64345717430114746 0.54805314540863037 0.075216509401798248
0.72742748260498047 0.53499537706375122 0.071844078600406647
0.81177961826324463 0.52029228210449219 0.065731704235076904
0.8969883918762207 0.5061955451965332 0.054022993892431259
0.98013126850128174 0.49376851320266724 0.037003073841333389
8.6346793978009373e-05 0.69831031560897827 0.10878641158342361
0.016915684565901756 0.69561219215393066 0.10658673942089081
0.070026054978370667 0.69064104557037354 0.10401036590337753
0.14707519114017487 0.68378669023513794 0.10055778175592422
0.24259309470653534 0.67551553249359131 0.096716172993183136
0.34833815693855286 0.66682380437850952 0.092830628156661987
0.45384058356285095 0.65847295522689819 0.089924439787864685
0.54998552799224854 0.65044277906417847 0.089066945016384125
0.63822650909423828 0.64113324880599976 0.088800601661205292
0.72391098737716675 0.62936723232269287 0.088244356215000153
0.80971831083297729 0.6157151460647583 0.085184149444103241
0.89670974016189575 0.60206395387649536 0.076819762587547302
0.98023748397827148 0.58947044610977173 0.059715166687965393
0 0.78422403335571289 0.1217215433716774
0.005001487210392952 0.7818867564201355 0.11967472732067108
0.048790290951728821 0.77794331312179565 0.11676924675703049
0.12152224034070969 0.77215391397476196 0.11340223997831345
0.21509452164173126 0.765083909034729 0.10958161950111389
0.3223232626914978 0.75695472955703735 0.10563984513282776
0.43237957358360291 0.74872910976409912 0.10271622985601425
0.53418809175491333 0.74081957340240479 0.10205034911632538
0.62742936611175537 0.73197060823440552 0.10278663039207458
0.71694058179855347 0.72107505798339844 0.10331709682941437
0.8055458664894104 0.70808643102645874 0.10103577375411987
0.89444202184677124 0.69445240497589111 0.095265932381153107
0.97968727350234985 0.68212836980819702 0.078115202486515045
0 0.86978524923324585 0.13351128995418549
0.00039750640280544758 0.86830347776412964 0.13128504157066345
0.027349764481186867 0.8651348352432251 0.12859590351581573
0.093740276992321014 0.8604438304901123 0.1254262775182724
0.1820836067199707 0.85436832904815674 0.12191039323806763
0.28745567798614502 0.84713274240493774 0.1183781772851944
0.39952445030212402 0.83933597803115845 0.11553779989480972
0.50793874263763428 0.83159339427947998 0.11437775939702988
0.60916298627853394 0.82290118932723999 0.11317271739244461
0.70498305559158325 0.81264990568161011 0.11092779040336609
0.79786700010299683 0.80073952674865723 0.1049734503030777
0.88946235179901123 0.78839051723480225 0.093646213412284851
0.97751033306121826 0.77668303251266479 0.073610119521617889
0 0.95499449968338013 0.14360521733760834
0 0.95438194274902344 0.14167347550392151
0.01161403302103281 0.9521336555480957 0.13893008232116699
0.068799175322055817 0.94861102104187012 0.13583354651927948
0.15081988275051117 0.94372010231018066 0.13244578242301941
0.25271180272102356 0.9374348521232605 0.12886631488800049
0.36513268947601318 0.93033820390701294 0.12547235190868378
0.47808587551116943 0.92277491092681885 0.1224011704325676
0.58606481552124023 0.91446912288665771 0.1182963028550148
0.68842118978500366 0.90507251024246216 0.11100676655769348
0.78642094135284424 0.8945009708404541 0.097977146506309509
0.88163888454437256 0.88360869884490967 0.078637637197971344
0.97305452823638916 0.87298023700714111 0.054926224052906036
0 1 0.15238878130912781
0 1 0.1502719521522522
0.0045828577131032944 1 0.14750479161739349
0.052393745630979538 0.99995797872543335 0.14420744776725769
0.12967686355113983 0.99921500682830811 0.14049986004829407
0.22668509185314178 0.99817270040512085 0.13626286387443542
0.33687284588813782 0.9969211220741272 0.13155953586101532
0.45112800598144531 0.99452871084213257 0.12599524855613708
0.56278759241104126 0.99148082733154297 0.11811023950576782
0.66967999935150146 0.98738521337509155 0.10594040900468826
0.77240407466888428 0.98179513216018677 0.087115056812763214
0.87138921022415161 0.97539734840393066 0.061659466475248337
0.96696346998214722 0.96765154600143433 0.035695511847734451
0.0065782135352492332 0.0075891232118010521 0.027663735672831535
0.035311978310346603 0.006341597530990839 0.030559046193957329
0.094773478806018829 0.0036494685336947441 0.032499920576810837
0.18523183465003967 0.00030409867758862674 0.031122200191020966
0.28781828284263611 0 0.02762158028781414
0.38700824975967407 0 0.024677082896232605
0.47903138399124146 0 0.021757403388619423
0.56623315811157227 0 0.016755377873778343
0.65059453248977661 0 0.0099695995450019836
0.73332482576370239 0 0.0044976924546062946
0.8160092830657959 0 0.0012826209422200918
0.8990357518196106 0 0.00011831545270979404
0.98026233911514282 0 0
0.01482835691422224 0.0442061647772789 0.041166357696056366
0.039106838405132294 0.036938011646270752 0.040539909154176712
0.09805075079202652 0.03036029264330864 0.040692318230867386
0.19177860021591187 0.020544912666082382 0.041112951934337616
0.29574346542358398 0.012137184850871563 0.041101358830928802
0.39388829469680786 0.0081952409818768501 0.040998660027980804
0.48418515920639038 0.0060994615778326988 0.040150482207536697
0.56978398561477661 0.0027191760018467903 0.036498304456472397
0.65274864435195923 0.00040924971108324826 0.030079815536737442
0.73374462127685547 0 0.022228032350540161
0.81502068042755127 0 0.01366837415844202
0.89728635549545288 8.2771453890018165e-05 0.0069038989022374153
0.97848528623580933 0.0014854730106890202 0.0027372024487704039
0.027447525411844254 0.12141139060258865 0.052169635891914368
0.048714864999055862 0.11130423098802567 0.050128113478422165
0.10503151267766953 0.10221768915653229 0.050064567476511002
0.19845487177371979 0.090540975332260132 0.051853060722351074
0.30124032497406006 0.079965166747570038 0.053033627569675446
0.39748150110244751 0.072423405945301056 0.054835658520460129
0.48643478751182556 0.065574437379837036 0.055459160357713699
0.57178330421447754 0.053053643554449081 0.051914110779762268
0.65439856052398682 0.037256024777889252 0.046389918774366379
0.73363757133483887 0.026880167424678802 0.040628395974636078
0.81420433521270752 0.025207445025444031 0.033767145127058029
0.89537465572357178 0.028768891468644142 0.027179867029190063
0.97697919607162476 0.036114532500505447 0.019711602479219437
0.033592943102121353 0.23056386411190033 0.065530203282833099
0.057407289743423462 0.22338339686393738 0.063571915030479431
0.11357913911342621 0.21198080480098724 0.065254002809524536
0.20222966372966766 0.19948811829090118 0.067235015332698822
0.30146339535713196 0.18784236907958984 0.066326528787612915
0.39604490995407104 0.17697913944721222 0.067895077168941498
0.48504674434661865 0.16492314636707306 0.068992853164672852
0.57187539339065552 0.14734761416912079 0.064360842108726501
0.65528881549835205 0.12788774073123932 0.057394679635763168
0.73357844352722168 0.1142314076423645 0.052156887948513031
0.81299883127212524 0.10724023729562759 0.047825414687395096
0.89442402124404907 0.10285664349794388 0.046559009701013565
0.97623950242996216 0.10271210223436356 0.043267477303743362
0.026503140106797218 0.33691209554672241 0.086250379681587219
0.055599886924028397 0.33357232809066772 0.083641812205314636
0.11431096494197845 0.3236994743347168 0.085574179887771606
0.20053575932979584 0.31077209115028381 0.08761945366859436
0.29729506373405457 0.29745149612426758 0.085948675870895386
0.39147770404815674 0.28569766879081726 0.08524215966463089
0.48186376690864563 0.27333381772041321 0.085288837552070618
0.56991761922836304 0.25596216320991516 0.080833181738853455
0.65452784299850464 0.23778270184993744 0.07376563549041748
0.73357844352722168 0.22360873222351074 0.06599707156419754
0.81277596950531006 0.21144554018974304 0.061387244611978531
0.89450627565383911 0.19772495329380035 0.06254202127456665
0.97667586803436279 0.18880787491798401 0.060501396656036377
0.012646320275962353 0.43188947439193726 0.10988174378871918
0.044820088893175125 0.42922553420066833 0.10810717195272446
0.10539978742599487 0.42158892750740051 0.10806609690189362
0.19150079786777496 0.40934628248214722 0.10764842480421066
0.28906333446502686 0.39478477835655212 0.10575185716152191
0.38521096110343933 0.38390171527862549 0.10330553352832794
0.47763767838478088 0.37532371282577515 0.10309808701276779
0.5667121410369873 0.36207753419876099 0.099931709468364716
0.65190404653549194 0.34594044089317322 0.094268977642059326
0.73327058553695679 0.33195167779922485 0.086470119655132294
0.81354564428329468 0.31767430901527405 0.080085292458534241
0.89592534303665161 0.30153879523277283 0.075884468853473663
0.97748136520385742 0.28834497928619385 0.069513089954853058
0.0026923385448753834 0.52198535203933716 0.13151557743549347
0.03118477575480938 0.51888227462768555 0.13010424375534058
0.090451724827289581 0.51265436410903931 0.12949757277965546
0.17571468651294708 0.50269955396652222 0.12666670978069305
0.27506148815155029 0.49086722731590271 0.12410447001457214
0.37623268365859985 0.48108717799186707 0.12143430858850479
0.47217845916748047 0.47363349795341492 0.11953944712877274
0.56221431493759155 0.46333375573158264 0.11726643890142441
0.64776027202606201 0.4496518075466156 0.1125003919005394
0.7305065393447876 0.43656042218208313 0.1055121049284935
0.81290215253829956 0.42227819561958313 0.098036445677280426
0.89688754081726074 0.407257080078125 0.087232895195484161
0.97881436347961426 0.39342674612998962 0.074539631605148315
0.00013689527986571193 0.61096996068954468 0.15050673484802246
0.017565423622727394 0.60770511627197266 0.14916834235191345
0.072560884058475494 0.60218411684036255 0.14689308404922485
0.15557244420051575 0.59468799829483032 0.14435838162899017
0.25735461711883545 0.58572936058044434 0.14103607833385468
0.3648172914981842 0.57684624195098877 0.13777819275856018
0.46642458438873291 0.56914603710174561 0.13497015833854675
0.55828213691711426 0.56081867218017578 0.1325758695602417
0.64387470483779907 0.54996812343597412 0.12881839275360107
0.72708362340927124 0.53768420219421387 0.12352640181779861
0.81124073266983032 0.52326059341430664 0.11690440773963928
0.89687502384185791 0.50921249389648438 0.10383335500955582
0.98008579015731812 0.49622240662574768 0.086559444665908813
0 0.69850808382034302 0.16777980327606201
0.0058437571860849857 0.69538277387619019 0.16572996973991394
0.052525419741868973 0.69063383340835571 0.16338557004928589
0.13192629814147949 0.68449860811233521 0.16049471497535706
0.23488818109035492 0.67697232961654663 0.15718349814414978
0.3487512469291687 0.66848945617675781 0.15328660607337952
0.45833918452262878 0.66039365530014038 0.14996893703937531
0.55436450242996216 0.65289527177810669 0.14876917004585266
0.64085847139358521 0.64394968748092651 0.14720575511455536
0.72482180595397949 0.63232147693634033 0.14505749940872192
0.80968582630157471 0.61854302883148193 0.14052647352218628
0.89600545167922974 0.60451209545135498 0.12947572767734528
0.97997754812240601 0.59178620576858521 0.11182286590337753
0 0.7848283052444458 0.18296486139297485
0.00055096193682402372 0.78223299980163574 0.18106155097484589
0.029918491840362549 0.77828431129455566 0.17864967882633209
0.10406243056058884 0.77301937341690063 0.17585566639900208
0.20405092835426331 0.76631063222885132 0.17272396385669708
0.32001504302024841 0.75823384523391724 0.16935330629348755
0.43638196587562561 0.75003182888031006 0.1663941890001297
0.5398058295249939 0.74263858795166016 0.1659715473651886
0.63203662633895874 0.73433005809783936 0.1667972058057785
0.71978497505187988 0.72350764274597168 0.16581031680107117
0.80670034885406494 0.71039873361587524 0.16197313368320465
0.89435362815856934 0.69669318199157715 0.15209124982357025
0.97916948795318604 0.68426352739334106 0.13417316973209381
0 0.87073206901550293 0.19681882858276367
0 0.86893367767333984 0.19479133188724518
0.011358941905200481 0.86589294672012329 0.19262063503265381
0.07306525856256485 0.86158984899520874 0.19020022451877594
0.16519397497177124 0.8558574914932251 0.18740884959697723
0.27882075309753418 0.84852200746536255 0.18471542000770569
0.3986000120639801 0.84081614017486572 0.18270736932754517
0.51126432418823242 0.83331722021102905 0.1821511834859848
0.61355876922607422 0.82511842250823975 0.18207910656929016
0.70872998237609863 0.81485819816589355 0.18019764125347137
0.80022245645523071 0.80278170108795166 0.17323333024978638
0.8904845118522644 0.79012435674667358 0.15982228517532349
0.97753608226776123 0.77860254049301147 0.13940763473510742
0 0.95588648319244385 0.20892119407653809
0 0.95542436838150024 0.20707352459430695
0.0019220389658585191 0.95345878601074219 0.20497186481952667
0.044791694730520248 0.95029997825622559 0.20263315737247467
0.12754237651824951 0.94565367698669434 0.20015065371990204
0.23598672449588776 0.9394262433052063 0.19767601788043976
0.35789939761161804 0.9323241114616394 0.19554729759693146
0.47724354267120361 0.92492556571960449 0.19389931857585907
0.58865481615066528 0.91685587167739868 0.19162009656429291
0.69204634428024292 0.90744531154632568 0.18619133532047272
0.78934240341186523 0.89662152528762817 0.17372614145278931
0.88330399990081787 0.88532823324203491 0.15430927276611328
0.97338652610778809 0.87430614233016968 0.13102972507476807
0 1 0.21915242075920105
0 1 0.21747563779354095
0.00013762828893959522 1 0.21520967781543732
0.028573758900165558 1 0.21275907754898071
0.1044873520731926 0.99969339370727539 0.21002814173698425
0.20693053305149078 0.99862992763519287 0.20711086690425873
0.32559004426002502 0.99737656116485596 0.20393799245357513
0.44667428731918335 0.99553513526916504 0.20010530948638916
0.56262844800949097 0.99245315790176392 0.19445863366127014
0.671836256980896 0.9887658953666687 0.18442671000957489
0.77438747882843018 0.98328423500061035 0.16731357574462891
0.87259060144424438 0.97680461406707764 0.14389365911483765
0.96710073947906494 0.96850389242172241 0.11910335719585419
0.0096322605386376381 0.0089852577075362206 0.069346360862255096
0.038776278495788574 0.0069114086218178272 0.069828718900680542
0.098334431648254395 0.0036051732022315264 0.070646263659000397
0.18931829929351807 0.00060082232812419534 0.070919692516326904
0.29284724593162537 0 0.069586612284183502
0.39116400480270386 0 0.070301741361618042
0.48139107227325439 0 0.071013160049915314
0.56754136085510254 0 0.065627031028270721
0.65189999341964722 0 0.055506449192762375
0.73452907800674438 0 0.045114286243915558
0.81611043214797974 0 0.03392333909869194
0.89880573749542236 0 0.021648885682225227
0.97988343238830566 0 0.011864515952765942
0.018260566517710686 0.046181861311197281 0.088304437696933746
0.044078271836042404 0.038555234670639038 0.086771979928016663
0.10230866819620132 0.030077870935201645 0.086392343044281006
0.19432342052459717 0.021004201844334602 0.08771020919084549
0.29874584078788757 0.014251978136599064 0.088378652930259705
0.39680671691894531 0.011811304837465286 0.090331926941871643
0.48594659566879272 0.0090333679690957069 0.091595008969306946
0.57082229852676392 0.0052246991544961929 0.087064869701862335
0.65389609336853027 0.0016916461754590273 0.079151421785354614
0.73454946279525757 0.00011963189899688587 0.070782467722892761
0.81516450643539429 0 0.061915840953588486
0.89720249176025391 0.00034855862031690776 0.051366545259952545
0.97800594568252563 0.0038703768514096737 0.040469810366630554
0.030280154198408127 0.1211923211812973 0.10466120392084122
0.053868252784013748 0.1127060204744339 0.10322467237710953
0.11000960320234299 0.10172008723020554 0.1030970886349678
0.20071834325790405 0.090262211859226227 0.10556662827730179
0.30368658900260925 0.079321034252643585 0.10609497129917145
0.39953002333641052 0.073466628789901733 0.10760913789272308
0.48807051777839661 0.065991587936878204 0.10852053761482239
0.57289093732833862 0.053975421935319901 0.10393083095550537
0.65542048215866089 0.04141196608543396 0.096112765371799469
0.73469835519790649 0.031021686270833015 0.089741364121437073
0.81471949815750122 0.025894090533256531 0.084304362535476685
0.89582037925720215 0.029375996440649033 0.0781540647149086
0.97696077823638916 0.039184883236885071 0.070558048784732819
0.034262008965015411 0.22669516503810883 0.12065371125936508
0.058735117316246033 0.22218859195709229 0.12164116650819778
0.1151561364531517 0.21332678198814392 0.12463632971048355
0.20329901576042175 0.20115275681018829 0.12695087492465973
0.30334106087684631 0.18810777366161346 0.12457318603992462
0.39734223484992981 0.17788980901241302 0.12546701729297638
0.48632523417472839 0.16454063355922699 0.12541988492012024
0.57295149564743042 0.14622433483600616 0.11858293414115906
0.65610557794570923 0.12862537801265717 0.10901840776205063
0.73544305562973022 0.11547341197729111 0.10287436842918396
0.81451594829559326 0.10667861998081207 0.09940338134765625
0.89528697729110718 0.10224302858114243 0.098613545298576355
0.9768713116645813 0.1040339469909668 0.094357587397098541
0.02242196723818779 0.33181899785995483 0.14403827488422394
0.04990965873003006 0.33010768890380859 0.14404796063899994
0.10980824381113052 0.32239845395088196 0.14734195172786713
0.19972088932991028 0.30988860130310059 0.14989680051803589
0.29917994141578674 0.2983374297618866 0.14873193204402924
0.39240780472755432 0.2893623411655426 0.14772200584411621
0.48272415995597839 0.27552872896194458 0.14560042321681976
0.57086324691772461 0.25595995783805847 0.13877895474433899
0.65543627738952637 0.23684011399745941 0.12931609153747559
0.73545795679092407 0.22303998470306396 0.12089309841394424
0.81468909978866577 0.21121014654636383 0.11586365103721619
0.89633786678314209 0.19815503060817719 0.11582428961992264
0.97740161418914795 0.19055409729480743 0.11246487498283386
0.0053330813534557819 0.42680436372756958 0.16933903098106384
0.032370474189519882 0.42440998554229736 0.16910761594772339
0.094432041049003601 0.41851678490638733 0.17062939703464508
0.18682730197906494 0.40721338987350464 0.17200386524200439
0.28974261879920959 0.39589035511016846 0.17180813848972321
0.386553555727005 0.38821840286254883 0.16927149891853333
0.47847279906272888 0.3779863715171814 0.16680818796157837
