assets/lut/films print fuji 3513 cuspclip.cube
# Created by: G'MIC (https://gmic.eu)
TITLE "fuji_3513_cuspclip"
# LUT size
LUT_3D_SIZE 13
# Data domain
DOMAIN_MIN 0.0 0.0 0.0
DOMAIN_MAX 1.0 1.0 1.0
# LUT data points
0.0069656521081924438 0.01894034631550312 0.023030748590826988
0.023319857195019722 0.027913575991988182 0.026829393580555916
0.042808562517166138 0.034051902592182159 0.029046181589365005
0.074265815317630768 0.038062360137701035 0.02570667676627636
0.13402548432350159 0.043909799307584763 0.014424971304833889
0.22626258432865143 0.041366502642631531 0.0032404731027781963
0.31601658463478088 0.031063288450241089 0.0013845555949956179
0.39685660600662231 0.018500639125704765 6.3009822042658925e-05
0.48279106616973877 0.00525639858096838 0
0.54594069719314575 0.0062867407687008381 0
0.57608926296234131 0.0071016796864569187 0
0.59397441148757935 0.0097905173897743225 0
0.59843927621841431 0.034717828035354614 0
0.0043157688342034817 0.04695441946387291 0.033464618027210236
0.018489329144358635 0.052191205322742462 0.03494732454419136
0.040944177657365799 0.058714203536510468 0.036366436630487442
0.082395635545253754 0.065180100500583649 0.03218739852309227
0.15798133611679077 0.071465149521827698 0.019671989604830742
0.2670532763004303 0.076385006308555603 0.0073743783868849277
0.36444628238677979 0.072710074484348297 0.0037275725044310093
0.44437363743782043 0.065306447446346283 0.0026602351572364569
0.52336591482162476 0.053730443120002747 0
0.57588469982147217 0.055188871920108795 0
0.60615599155426025 0.059691857546567917 0
0.6224055290222168 0.076653212308883667 0
0.63197070360183716 0.1127023920416832 0
0.001441461849026382 0.077185899019241333 0.042967192828655243
0.011511499993503094 0.078523851931095123 0.042692985385656357
0.039147127419710159 0.085090607404708862 0.042504284530878067
0.088405340909957886 0.092575758695602417 0.036648858338594437
0.17951475083827972 0.10212616622447968 0.023141374811530113
0.29582729935646057 0.11608005315065384 0.010578005574643612
0.40234649181365967 0.12552072107791901 0.0051187104545533657
0.48707252740859985 0.12668021023273468 0.0038572722114622593
0.56795734167098999 0.13010813295841217 0.00069191126385703683
0.61921483278274536 0.13080291450023651 0
0.65033411979675293 0.135332390666008 0
0.66527217626571655 0.15403777360916138 0.00028164434479549527
0.67618221044540405 0.16843274235725403 0.0011539683910086751
1.3463637515087612e-05 0.1120714396238327 0.052680309861898422
0.0030109479557722807 0.10900089144706726 0.050006985664367676
0.030649522319436073 0.11399733275175095 0.046330217272043228
0.093978777527809143 0.12525741755962372 0.037008620798587799
0.19178169965744019 0.14606112241744995 0.019743047654628754
0.30605670809745789 0.17046208679676056 0.0084776189178228378
0.42176759243011475 0.18305708467960358 0.0057436474598944187
0.52164232730865479 0.1921466588973999 0.0039906818419694901
0.6046830415725708 0.19955679774284363 0.0030808392912149429
0.65022456645965576 0.1976933479309082 0.0010380464373156428
0.68126541376113892 0.19738538563251495 0.00051160325529053807
0.70328682661056519 0.20950718224048615 0.0028201683890074492
0.72165846824645996 0.22453023493289948 0.003942572046071291
0.00034071979462169111 0.16842132806777954 0.073754645884037018
0.00025239831302314997 0.16849729418754578 0.067024305462837219
0.013967731036245823 0.17416591942310333 0.045633234083652496
0.08125431090593338 0.18097041547298431 0.024218481034040451
0.19728460907936096 0.1992814689874649 0.0082493498921394348
0.32141631841659546 0.22978858649730682 0.004837963730096817
0.44309380650520325 0.24889780580997467 0.0040484261699020863
0.55606245994567871 0.26489660143852234 0.003955197986215353
0.64303106069564819 0.27426740527153015 0.0045220321044325829
0.68408375978469849 0.2777557373046875 0.0049150954000651836
0.71643394231796265 0.28071177005767822 0.0051096598617732525
0.73847758769989014 0.29420763254165649 0.0055580437183380127
0.75380730628967285 0.30626100301742554 0.0068413377739489079
0.0046362932771444321 0.25246515870094299 0.11124252527952194
0.0026907080318778753 0.24969035387039185 0.095602579414844513
0.0043687261641025543 0.2535979151725769 0.053268805146217346
0.048900216817855835 0.25825834274291992 0.0094044255092740059
0.20760925114154816 0.28186652064323425 0.0029636756516993046
0.35583853721618652 0.32367458939552307 0.0035869823768734932
0.48077115416526794 0.34767144918441772 0.0035383037757128477
0.5932697057723999 0.36597925424575806 0.0057881223037838936
0.68353426456451416 0.38124769926071167 0.0090059768408536911
0.72666078805923462 0.38938167691230774 0.011127486824989319
0.76196247339248657 0.39360582828521729 0.012284941039979458
0.78340846300125122 0.4045616090297699 0.010656499303877354
0.79381370544433594 0.41316428780555725 0.0099540706723928452
0.008057822473347187 0.35150769352912903 0.15514874458312988
0.0044733085669577122 0.34112066030502319 0.13610151410102844
0.0024158402811735868 0.33834636211395264 0.092035986483097076
0.045164745301008224 0.35068151354789734 0.01422412320971489
0.21825473010540009 0.37717989087104797 0.0024993747938424349
0.38651660084724426 0.42934474349021912 0.0019000184256583452
0.52963465452194214 0.4661828875541687 0.0033059513662010431
0.64011317491531372 0.48280638456344604 0.0055003445595502853
0.72813034057617188 0.49567469954490662 0.0091450409963726997
0.77403753995895386 0.50340324640274048 0.01356404647231102
0.80877888202667236 0.50665909051895142 0.016166014596819878
0.82845109701156616 0.51787382364273071 0.013057918287813663
0.83817273378372192 0.52541571855545044 0.0094158397987484932
0.0085052186623215675 0.44496577978134155 0.19695787131786346
0.0072486875578761101 0.4437258243560791 0.18485940992832184
0.017145030200481415 0.43733522295951843 0.14759750664234161
0.0384940505027771 0.43987244367599487 0.034661520272493362
0.20813189446926117 0.4717610776424408 0.0020148332696408033
0.40656894445419312 0.52993744611740112 9.0475645265541971e-05
0.56978219747543335 0.57253152132034302 0.0016567753627896309
0.68420147895812988 0.59231996536254883 0.0052119535394012928
0.7735520601272583 0.60681617259979248 0.0078810444101691246
0.82437604665756226 0.61552548408508301 0.013507978059351444
0.85790592432022095 0.62076830863952637 0.020056750625371933
0.87638634443283081 0.6302298903465271 0.016742991283535957
0.88014692068099976 0.63293617963790894 0.0096520818769931793
0.0098080951720476151 0.49805060029029846 0.21958966553211212
0.01083139143884182 0.50975847244262695 0.2153475284576416
0.026804126799106598 0.51346504688262939 0.18503619730472565
0.021348841488361359 0.51333779096603394 0.072771839797496796
0.17025826871395111 0.55302047729492188 0.0074602761305868626
0.4094211757183075 0.60794508457183838 0.00045124129974283278
0.59408611059188843 0.65356171131134033 0.0039794920012354851
0.71383726596832275 0.67780643701553345 0.016872286796569824
0.8014947772026062 0.6896967887878418 0.026026079431176186
0.85949850082397461 0.7024376392364502 0.028622660785913467
0.89563214778900146 0.712493896484375 0.032540787011384964
0.91277468204498291 0.71668028831481934 0.031855098903179169
0.91256195306777954 0.71409952640533447 0.027807377278804779
0.018554972484707832 0.53663355112075806 0.23621934652328491
0.019896848127245903 0.54388242959976196 0.22839465737342834
0.02199503593146801 0.55448180437088013 0.19883145391941071
0.020424980670213699 0.56586962938308716 0.092193514108657837
0.17749299108982086 0.60166084766387939 0.014704251661896706
0.41100722551345825 0.65300053358078003 0.0041519016958773136
0.60020118951797485 0.7002251148223877 0.0092578958719968796
0.7370905876159668 0.73445284366607666 0.023838087916374207
0.82578939199447632 0.75189495086669922 0.043426349759101868
0.880970299243927 0.76074039936065674 0.05142618715763092
0.91324770450592041 0.76419693231582642 0.054373349994421005
0.92919653654098511 0.7647479772567749 0.057467982172966003
0.93430310487747192 0.76405274868011475 0.060397516936063766
0.022455088794231415 0.56245094537734985 0.25024309754371643
0.029266387224197388 0.5693238377571106 0.23554159700870514
0.020775126293301582 0.57800805568695068 0.19399918615818024
0.030004179105162621 0.59506666660308838 0.080086588859558105
0.21291853487491608 0.6357458233833313 0.011544141918420792
0.43372491002082825 0.68723565340042114 0.0055490233935415745
0.61172711849212646 0.73297750949859619 0.013134346343576908
0.75751179456710815 0.7681853175163269 0.025802776217460632
0.84709644317626953 0.78388899564743042 0.051750872284173965
0.90313553810119629 0.79310423135757446 0.066531054675579071
0.93547135591506958 0.79797738790512085 0.072054602205753326
0.94699954986572266 0.79794681072235107 0.075819320976734161
0.95161765813827515 0.7974926233291626 0.080172024667263031
0.025787683203816414 0.58205854892730713 0.26231497526168823
0.022735999897122383 0.59383761882781982 0.22928595542907715
0.02339598722755909 0.60037064552307129 0.16665725409984589
0.042079295963048935 0.62001943588256836 0.037321276962757111
0.25301536917686462 0.6693958044052124 0.0058328066952526569
0.46238318085670471 0.71280974149703979 0.0070206737145781517
0.63633251190185547 0.75699228048324585 0.010479317046701908
0.77592927217483521 0.79123055934906006 0.024105176329612732
0.86677193641662598 0.8074803352355957 0.060421634465456009
0.92482995986938477 0.8151555061340332 0.077966697514057159
0.95451563596725464 0.81951522827148438 0.08428434282541275
0.96442621946334839 0.81928706169128418 0.085889436304569244
0.96916019916534424 0.81691652536392212 0.088242277503013611
0.023132847622036934 0.60787558555603027 0.28442734479904175
0.020088151097297668 0.61940890550613403 0.22987423837184906
0.018085973337292671 0.63078266382217407 0.13913038372993469
0.072470135986804962 0.65161043405532837 0.039234563708305359
0.31391638517379761 0.69805461168289185 0.006221771240234375
0.50189656019210815 0.73904609680175781 0.016873467713594437
0.65709233283996582 0.77842748165130615 0.016098650172352791
0.78015929460525513 0.80640476942062378 0.025859488174319267
0.88006424903869629 0.82417124509811401 0.042828399688005447
0.94045042991638184 0.83041602373123169 0.062169991433620453
0.96607863903045654 0.83266490697860718 0.06832345575094223
0.97934472560882568 0.83472800254821777 0.081318587064743042
0.98252713680267334 0.83438229560852051 0.1061001643538475
0.0084420749917626381 0.024101316928863525 0.03449394553899765
0.028067285194993019 0.031225033104419708 0.040962085127830505
0.05047810822725296 0.036695457994937897 0.044469330459833145
0.080840766429901123 0.040178634226322174 0.040057703852653503
0.14447151124477386 0.041923195123672485 0.029267225414514542
0.24702411890029907 0.02962392196059227 0.011372719891369343
0.34226703643798828 0.018520176410675049 0.001647455501370132
0.42201349139213562 0.011866296641528606 0.0018006119644269347
0.49948588013648987 0.0079799126833677292 0.00037588979466818273
0.56091243028640747 0.01666921004652977 0.0012034696992486715
0.60123312473297119 0.013214634731411934 0.001485667540691793
0.61889493465423584 0.011282169260084629 0.00025489658582955599
0.61883163452148438 0.025658372789621353 0
0.00711034145206213 0.0508742555975914 0.045920606702566147
0.025257619097828865 0.054520878940820694 0.049039173871278763
0.049236327409744263 0.058698184788227081 0.051571790128946304
0.087232358753681183 0.064270943403244019 0.047793354839086533
0.16815648972988129 0.069712303578853607 0.03542226180434227
0.27729946374893188 0.07155252993106842 0.012850024737417698
0.37715813517570496 0.061417911201715469 0.0030913110822439194
0.46177193522453308 0.042872902005910873 0.0037962968926876783
0.53569775819778442 0.047114219516515732 0.0012058631982654333
0.59276139736175537 0.059824567288160324 0.00086358760017901659
0.62847608327865601 0.067520618438720703 0.0011702892370522022
0.64574718475341797 0.06789010763168335 2.5341558284708299e-05
0.65275323390960693 0.090584777295589447 4.7062891098903492e-05
0.0031554277520626783 0.07909846305847168 0.055987939238548279
0.018113454803824425 0.082184761762619019 0.057634688913822174
0.04454943910241127 0.085891634225845337 0.058475568890571594
0.097248494625091553 0.09289105236530304 0.051961038261651993
0.19264179468154907 0.10419462621212006 0.035055693238973618
0.30195280909538269 0.11379072815179825 0.016274755820631981
0.41094887256622314 0.11510895192623138 0.0073153777047991753
0.50326997041702271 0.10654754936695099 0.0043874555267393589
0.58225315809249878 0.11165473610162735 0.0026338165625929832
0.63540852069854736 0.11915123462677002 0.0011813594028353691
0.66940581798553467 0.12844756245613098 0.00014127843314781785
0.68622738122940063 0.13363519310951233 0.0012065812479704618
0.69351339340209961 0.15280959010124207 0.0011831396259367466
0.00025908526731655002 0.11983705312013626 0.06713499128818512
0.0056042540818452835 0.11812956631183624 0.065660588443279266
0.026039287447929382 0.12023176252841949 0.062298193573951721
0.0960845947265625 0.13410624861717224 0.05350455641746521
0.19744148850440979 0.15332430601119995 0.027948686853051186
0.31376791000366211 0.16656896471977234 0.012338526546955109
0.4372992217540741 0.17402063310146332 0.0083111478015780449
0.54157042503356934 0.17651364207267761 0.0042155398987233639
0.62135899066925049 0.18382441997528076 0.0038393207360059023
0.67069339752197266 0.18970206379890442 0.0038496279157698154
0.70567452907562256 0.19121868908405304 0.0039901435375213623
0.72493559122085571 0.19907949864864349 0.0046934089623391628
0.7368696928024292 0.2153000682592392 0.0052650752477347851
0 0.17204307019710541 0.081763111054897308
0.00046301449765451252 0.17123843729496002 0.077474378049373627
0.0087093580514192581 0.17559540271759033 0.065128490328788757
0.083338916301727295 0.18882973492145538 0.046272397041320801
0.20217417180538177 0.20913739502429962 0.018272040411829948
0.33567601442337036 0.23437944054603577 0.0088460734114050865
0.46926555037498474 0.25317957997322083 0.0081278933212161064
0.57768231630325317 0.26669761538505554 0.0043297563679516315
0.65977829694747925 0.27218681573867798 0.0056746839545667171
0.70897793769836426 0.27421534061431885 0.0076084062457084656
0.74380087852478027 0.27683708071708679 0.0099028041586279869
0.76556867361068726 0.29553335905075073 0.0098385084420442581
0.77799957990646362 0.30621728301048279 0.009176560677587986
0.0082549154758453369 0.25659084320068359 0.12017488479614258
0.0039901882410049438 0.25416240096092224 0.10505641996860504
0.0042415093630552292 0.26079857349395752 0.077231399714946747
0.04882214218378067 0.2658214271068573 0.035911262035369873
0.21049660444259644 0.29265215992927551 0.010439390316605568
0.36971992254257202 0.33199197053909302 0.012327171862125397
0.50457882881164551 0.35626280307769775 0.0088146878406405449
0.6137116551399231 0.37284711003303528 0.007180830929428339
0.7008630633354187 0.38171523809432983 0.0097725214436650276
0.75111764669418335 0.3894951343536377 0.016728270798921585
0.78699678182601929 0.39514848589897156 0.021521355956792831
0.80802369117736816 0.40721607208251953 0.017203386873006821
0.82143586874008179 0.41325670480728149 0.011658612638711929
0.024501755833625793 0.36827477812767029 0.17607729136943817
0.012670988216996193 0.36063370108604431 0.15741159021854401
0.0076071945950388908 0.35865658521652222 0.11911399662494659
0.035008195787668228 0.35954725742340088 0.042825423181056976
0.21761292219161987 0.38823193311691284 0.0088544953614473343
0.39601030945777893 0.43921440839767456 0.01148693636059761
0.54920065402984619 0.47465905547142029 0.011839264072477818
0.66464674472808838 0.49266326427459717 0.0057320240885019302
0.75035244226455688 0.50318306684494019 0.009245733730494976
0.79812788963317871 0.51055300235748291 0.020400941371917725
0.83232855796813965 0.51395469903945923 0.028691340237855911
0.85285103321075439 0.52591556310653687 0.020924750715494156
0.8651047945022583 0.53404855728149414 0.017441947013139725
0.029237156733870506 0.46235188841819763 0.22200600802898407
0.014851588755846024 0.46223413944244385 0.20959262549877167
0.012117528356611729 0.45481345057487488 0.16817626357078552
0.021215222775936127 0.45437508821487427 0.067381873726844788
0.19296331703662872 0.48781523108482361 0.0059534856118261814
0.42244443297386169 0.54679828882217407 0.0037373262457549572
0.58381944894790649 0.58204054832458496 0.0040117749013006687
0.71135538816452026 0.60456973314285278 0.0044164173305034637
0.80152982473373413 0.6218571662902832 0.0076178754679858685
0.85336422920227051 0.63112527132034302 0.01292998343706131
0.88147634267807007 0.63431227207183838 0.020692130550742149
0.89950931072235107 0.64091366529464722 0.019840329885482788
0.90616732835769653 0.64878922700881958 0.02859821729362011
0.01862080954015255 0.51554113626480103 0.2474210262298584
0.013622837141156197 0.52589911222457886 0.24133144319057465
0.023611284792423248 0.52965074777603149 0.20926694571971893
0.01105575542896986 0.53845298290252686 0.10707590728998184
0.14362978935241699 0.57195168733596802 0.010302480310201645
0.4236513078212738 0.62732070684432983 0.0012313394108787179
0.61239475011825562 0.66756927967071533 0.0022658403031527996
0.74004417657852173 0.69227766990661621 0.012626603245735168
0.83033931255340576 0.71531778573989868 0.032121263444423676
0.88761031627655029 0.72268867492675781 0.02882804162800312
0.91559088230133057 0.72393500804901123 0.032885979861021042
0.93132466077804565 0.72571408748626709 0.037596460431814194
0.93626141548156738 0.73135727643966675 0.047206159681081772
0.016539808362722397 0.55392968654632568 0.26880833506584167
0.030280632898211479 0.56308847665786743 0.26263374090194702
0.032188773155212402 0.57891350984573364 0.23749645054340363
0.013292290270328522 0.59164899587631226 0.12525111436843872
0.14910140633583069 0.62014484405517578 0.015751797705888748
0.41887080669403076 0.6726691722869873 0.0046564736403524876
0.61828416585922241 0.72305285930633545 0.0048242309130728245
0.76458275318145752 0.75712603330612183 0.015529677271842957
0.85325479507446289 0.77156060934066772 0.051291655749082565
0.90676337480545044 0.77707648277282715 0.060896735638380051
0.93565475940704346 0.77675700187683105 0.05889047309756279
0.94936996698379517 0.77809929847717285 0.058808539062738419
0.95690739154815674 0.78205150365829468 0.07112528383731842
0.024035988375544548 0.58025920391082764 0.29062375426292419
0.032412957400083542 0.58895236253738403 0.27916428446769714
0.017465135082602501 0.60211312770843506 0.24209582805633545
0.010899891145527363 0.61857372522354126 0.13275724649429321
0.16956327855587006 0.65245729684829712 0.021380569785833359
0.43718212842941284 0.70361900329589844 0.0068981396034359932
0.624828040599823 0.75059086084365845 0.014978640712797642
0.7740246057510376 0.78366976976394653 0.019568543881177902
0.86779260635375977 0.79845750331878662 0.049486827105283737
0.92384904623031616 0.80675077438354492 0.072013720870018005
0.95251625776290894 0.80997675657272339 0.07425149530172348
0.96442109346389771 0.81076467037200928 0.074000373482704163
0.97218781709671021 0.81310534477233887 0.085786707699298859
0.021669454872608185 0.60447126626968384 0.32171595096588135
0.01797981932759285 0.61303186416625977 0.2967890202999115
0.022209078073501587 0.62455570697784424 0.25125670433044434
0.023455945774912834 0.64148914813995361 0.12368630617856979
0.197785884141922 0.67894291877746582 0.023505581542849541
0.45992043614387512 0.72927916049957275 0.024184687063097954
0.64198356866836548 0.77102959156036377 0.01882852241396904
0.78431087732315063 0.80096620321273804 0.016533302143216133
0.87832462787628174 0.81933081150054932 0.03816426545381546
0.94023215770721436 0.82748198509216309 0.066014260053634644
0.97113329172134399 0.83130794763565063 0.065411478281021118
0.98130971193313599 0.83261549472808838 0.080689482390880585
0.9846002459526062 0.83134979009628296 0.1008441224694252
0.032675947993993759 0.6370740532875061 0.36992764472961426
0.039967451244592667 0.65009456872940063 0.3352360725402832
0.025859113782644272 0.65856480598449707 0.27825620770454407
0.058369114995002747 0.67408531904220581 0.17643681168556213
0.24522198736667633 0.71079963445663452 0.097809568047523499
0.48880705237388611 0.75620085000991821 0.098887532949447632
0.65426725149154663 0.79282087087631226 0.080085113644599915
0.78007489442825317 0.81655466556549072 0.04494050145149231
0.88678312301635742 0.8370785117149353 0.026410391554236412
0.9604066014289856 0.84771668910980225 0.030690481886267662
0.98797756433486938 0.84989768266677856 0.045391816645860672
0.99276405572891235 0.85045051574707031 0.10983508080244064
0.99448251724243164 0.85066699981689453 0.1686425507068634
0.0092050144448876381 0.02850126288831234 0.061334423720836639
0.028559636324644089 0.031675510108470917 0.067771568894386292
0.052044004201889038 0.035961031913757324 0.071035616099834442
0.087919630110263824 0.038987521082162857 0.067370504140853882
0.15183942019939423 0.042349033057689667 0.062337793409824371
0.25602233409881592 0.033425319939851761 0.043929006904363632
0.3696601390838623 0.018886042758822441 0.018268778920173645
0.44761347770690918 0.011230394244194031 0.016420641914010048
0.51410067081451416 0.0070809759199619293 0.013476487249135971
0.56785178184509277 0.010260817594826221 0.019486326724290848
0.60830521583557129 0.0081790098920464516 0.027508515864610672
0.62783670425415039 0.0052390303462743759 0.017293009907007217
0.63531339168548584 0.0069966185837984085 0.012533060275018215
0.0088732698932290077 0.053375348448753357 0.069507420063018799
0.02884216234087944 0.055918406695127487 0.073402270674705505
0.052943553775548935 0.058647215366363525 0.075468994677066803
0.095086835324764252 0.062167521566152573 0.073554158210754395
0.17253924906253815 0.067250974476337433 0.068937830626964569
0.28318259119987488 0.066683903336524963 0.051971975713968277
0.39547562599182129 0.039025533944368362 0.022419963032007217
0.48298683762550354 0.014213352464139462 0.014525185339152813
0.55798745155334473 0.018036980181932449 0.015858490020036697
0.616138756275177 0.019723705947399139 0.016452595591545105
0.64614015817642212 0.029154758900403976 0.024715108796954155
0.66410166025161743 0.016836397349834442 0.015700681135058403
0.67570555210113525 0.017323797568678856 0.010882149450480938
0.0045336405746638775 0.081560440361499786 0.076758831739425659
0.022498635575175285 0.085486330091953278 0.081196986138820648
0.047791514545679092 0.086980484426021576 0.082044310867786407
0.10444504767656326 0.092527113854885101 0.079274944961071014
0.20640039443969727 0.10144810378551483 0.074208065867424011
0.31601572036743164 0.1064797043800354 0.063393115997314453
0.42569726705551147 0.093405768275260925 0.036066092550754547
0.52516359090805054 0.076117031276226044 0.016862787306308746
0.60359340906143188 0.066711187362670898 0.014125913381576538
0.65559405088424683 0.053566128015518188 0.013613263145089149
0.68692469596862793 0.049012515693902969 0.010562597773969173
0.70672321319580078 0.045140717178583145 0.0086663635447621346
0.71622049808502197 0.060459975153207779 0.013063453137874603
0.00030984316254034638 0.13191761076450348 0.098566703498363495
0.00665257778018713 0.12881116569042206 0.097034931182861328
0.026883592829108238 0.12752580642700195 0.093060299754142761
0.1017802357673645 0.1413862556219101 0.085433900356292725
0.21185669302940369 0.15390989184379578 0.073820553719997406
0.33671861886978149 0.16167302429676056 0.057853128761053085
0.4566749632358551 0.16445150971412659 0.023975657299160957
0.56556981801986694 0.16363853216171265 0.017251826822757721
0.64471268653869629 0.15986497700214386 0.01300175953656435
0.6924404501914978 0.15541316568851471 0.014451479539275169
0.73028397560119629 0.15659970045089722 0.011928962543606758
0.75173503160476685 0.16605366766452789 0.012902473099529743
0.76021552085876465 0.17453807592391968 0.016409272328019142
0.00039708754047751427 0.19270725548267365 0.12757572531700134
