assets/lut/films print fuji 3510 constlmap.cube
# Created by: G'MIC (https://gmic.eu)
TITLE "fuji_3510_constlmap"
# LUT size
LUT_3D_SIZE 13
# Data domain
DOMAIN_MIN 0.0 0.0 0.0
DOMAIN_MAX 1.0 1.0 1.0
# LUT data points
0.016899572685360909 0.014306625351309776 0.013158655725419521
0.027602206915616989 0.021715890616178513 0.016708210110664368
0.042451448738574982 0.027513496577739716 0.018678387627005577
0.083220824599266052 0.038239497691392899 0.022256558761000633
0.14745764434337616 0.049354106187820435 0.020963063463568687
0.23793444037437439 0.063957184553146362 0.013838435523211956
0.31950736045837402 0.077471338212490082 0.0066172732040286064
0.38402032852172852 0.084353439509868622 0.0036052330397069454
0.43948453664779663 0.089179858565330505 0.0068618776276707649
0.4825538694858551 0.092932052910327911 0.012286676093935966
0.51212644577026367 0.095354937016963959 0.013098384253680706
0.53574854135513306 0.099432222545146942 0.011741788126528263
0.55002009868621826 0.10141525417566299 0.012316236272454262
0.024334507063031197 0.036551278084516525 0.022979183122515678
0.031191462650895119 0.042716756463050842 0.025491930544376373
0.048292018473148346 0.052995897829532623 0.029860792681574821
0.091001294553279877 0.060184791684150696 0.031809967011213303
0.15805242955684662 0.070014849305152893 0.028218183666467667
0.25285869836807251 0.08322460949420929 0.01729329489171505
0.33546477556228638 0.095255248248577118 0.013238465413451195
0.40759333968162537 0.10737469047307968 0.0091843996196985245
0.46803939342498779 0.11592850089073181 0.010305247269570827
0.5148511528968811 0.11949764937162399 0.014047450385987759
0.54572504758834839 0.12207475304603577 0.014676217921078205
0.56683152914047241 0.12906432151794434 0.01485335361212492
0.5818401575088501 0.1346898078918457 0.016573453322052956
0.021286608651280403 0.072609394788742065 0.039922166615724564
0.023116841912269592 0.071445837616920471 0.037857472896575928
0.049728766083717346 0.080059006810188293 0.039895601570606232
0.099011138081550598 0.089185543358325958 0.041764397174119949
0.17409650981426239 0.10067141801118851 0.033775299787521362
0.27446019649505615 0.11821956187486649 0.019279779866337776
0.36784493923187256 0.13627529144287109 0.017125671729445457
0.4458930492401123 0.14779147505760193 0.01517664548009634
0.5056341290473938 0.15227477252483368 0.010004379786550999
0.55228197574615479 0.15603317320346832 0.010890062898397446
0.58340030908584595 0.16300864517688751 0.013921116478741169
0.60301810503005981 0.17089109122753143 0.016983255743980408
0.61645251512527466 0.17640088498592377 0.021256031468510628
0.013891571201384068 0.11633101850748062 0.06136736273765564
0.011590875685214996 0.11257097125053406 0.054582320153713226
0.033520568162202835 0.11822417378425598 0.051042519509792328
0.093080021440982819 0.13291043043136597 0.049631740897893906
0.19249279797077179 0.15027318894863129 0.031995661556720734
0.30874642729759216 0.16850574314594269 0.011703819967806339
0.40498098731040955 0.18954025208950043 0.013231539167463779
0.48657694458961487 0.20466241240501404 0.017283150926232338
0.55104994773864746 0.20721381902694702 0.010767708532512188
0.60027545690536499 0.20878568291664124 0.0071368496865034103
0.62865692377090454 0.21990063786506653 0.010852574370801449
0.64736670255661011 0.22737830877304077 0.011002843268215656
0.66260832548141479 0.23433098196983337 0.013195950537919998
0.0084448270499706268 0.16367414593696594 0.084804192185401917
0.0075727128423750401 0.16665206849575043 0.079015783965587616
0.016859764233231544 0.17215299606323242 0.071194790303707123
0.081115931272506714 0.19194744527339935 0.050121381878852844
0.20152148604393005 0.21637384593486786 0.027361193671822548
0.33654528856277466 0.24174703657627106 0.010763040743768215
0.43828535079956055 0.25888139009475708 0.013686744496226311
0.52272731065750122 0.26900580525398254 0.021121829748153687
0.59166556596755981 0.27782425284385681 0.017325965687632561
0.64255625009536743 0.28888389468193054 0.021360913291573524
0.67481625080108643 0.29517439007759094 0.019303474575281143
0.69490200281143188 0.30142444372177124 0.0069970372132956982
0.71135270595550537 0.31328728795051575 0.0075446185655891895
0.0099190510809421539 0.22139790654182434 0.11027394980192184
0.010360538028180599 0.23061619699001312 0.10746113210916519
0.012018061242997646 0.23928199708461761 0.095371410250663757
0.06644006073474884 0.25770246982574463 0.060588449239730835
0.20963397622108459 0.29372221231460571 0.025684267282485962
0.35630699992179871 0.32529577612876892 0.010612756945192814
0.46769583225250244 0.34671103954315186 0.013243267312645912
0.56189262866973877 0.35891690850257874 0.022001050412654877
0.63668566942214966 0.37059542536735535 0.022612642496824265
0.68735593557357788 0.38012951612472534 0.02540169470012188
0.71883726119995117 0.38505241274833679 0.028423966839909554
0.74322754144668579 0.39880573749542236 0.015340168960392475
0.76008737087249756 0.41021806001663208 0.0081699592992663383
0.016082897782325745 0.28875637054443359 0.1379038542509079
0.012645198032259941 0.29515901207923889 0.13399320840835571
0.0091379499062895775 0.30663123726844788 0.12265904992818832
0.04431769996881485 0.3303675651550293 0.077246017754077911
0.19885668158531189 0.37388300895690918 0.015554046258330345
0.36652281880378723 0.40848347544670105 0.0059621473774313927
0.49571508169174194 0.43658262491226196 0.0086100706830620766
0.59636741876602173 0.4519190788269043 0.0228602085262537
0.67585313320159912 0.46780839562416077 0.024589717388153076
0.73370188474655151 0.47623774409294128 0.028322780504822731
0.76143276691436768 0.47736924886703491 0.029922425746917725
0.78502386808395386 0.49440056085586548 0.019537219777703285
0.80100065469741821 0.50607168674468994 0.0092734843492507935
0.021763790398836136 0.35322916507720947 0.16447806358337402
0.013995720073580742 0.35557675361633301 0.15854762494564056
0.0080353831872344017 0.37076914310455322 0.14487521350383759
0.046186469495296478 0.40519797801971436 0.092081628739833832
0.1911003440618515 0.45365527272224426 0.019304627552628517
0.37735894322395325 0.49932017922401428 0.010396560654044151
0.52630805969238281 0.53323733806610107 0.0081224329769611359
0.63646107912063599 0.55064505338668823 0.024030871689319611
0.71880757808685303 0.56387186050415039 0.025251740589737892
0.77632659673690796 0.57435625791549683 0.022050071507692337
0.81021565198898315 0.58442658185958862 0.010253771208226681
0.82796436548233032 0.59454953670501709 0.0087920092046260834
0.83979421854019165 0.60257691144943237 0.011297921650111675
0.018527805805206299 0.40133297443389893 0.18284513056278229
0.012382746674120426 0.40742966532707214 0.17784231901168823
0.0089663788676261902 0.42795285582542419 0.16072356700897217
0.035265844315290451 0.46702834963798523 0.109805628657341
0.19720505177974701 0.52216130495071411 0.023629222065210342
0.40639612078666687 0.57548069953918457 0.011153306812047958
0.55592989921569824 0.61270886659622192 0.0072769313119351864
0.6764182448387146 0.64320594072341919 0.021624157205224037
0.75585800409317017 0.6530490517616272 0.028797119855880737
0.80936640501022339 0.66181856393814087 0.029594959691166878
0.84755390882492065 0.67275863885879517 0.024701915681362152
0.8698573112487793 0.68164002895355225 0.025498572736978531
0.88326197862625122 0.69290578365325928 0.030857386067509651
0.018216885626316071 0.43316355347633362 0.19407583773136139
0.018256258219480515 0.44644218683242798 0.18934996426105499
0.017056887969374657 0.47036641836166382 0.1700836718082428
0.044292047619819641 0.51148194074630737 0.11227327585220337
0.21227303147315979 0.56763100624084473 0.026595709845423698
0.42112883925437927 0.62232983112335205 0.0080916760489344597
0.57341575622558594 0.66334360837936401 0.0094799567013978958
0.69522017240524292 0.69861537218093872 0.014238275587558746
0.77967381477355957 0.71709120273590088 0.029353301972150803
0.8361627459526062 0.72838073968887329 0.045357901602983475
0.88326257467269897 0.74027931690216064 0.053039610385894775
0.90615171194076538 0.74507743120193481 0.056647326797246933
0.91698646545410156 0.75045603513717651 0.060833815485239029
0.023909850046038628 0.45140475034713745 0.20035561919212341
0.026307184249162674 0.46778079867362976 0.19537362456321716
0.018918594345450401 0.5009884238243103 0.17448854446411133
0.056383199989795685 0.5450480580329895 0.10903625190258026
0.23293571174144745 0.60052967071533203 0.020492345094680786
0.43184521794319153 0.65325498580932617 0.0075184539891779423
0.58553755283355713 0.69470155239105225 0.010105851106345654
0.70424944162368774 0.72809189558029175 0.018618101254105568
0.79411399364471436 0.74991351366043091 0.039503689855337143
0.856536865234375 0.76310253143310547 0.061408653855323792
0.89855867624282837 0.77094453573226929 0.071311667561531067
0.91784089803695679 0.77671283483505249 0.074548445641994476
0.92906415462493896 0.78047698736190796 0.075310587882995605
0.020197834819555283 0.47513869404792786 0.21725405752658844
0.029543602839112282 0.49512606859207153 0.20670881867408752
0.0330352783203125 0.53086769580841064 0.17720267176628113
0.08443266898393631 0.57875543832778931 0.099367909133434296
0.26993310451507568 0.63361221551895142 0.025755997747182846
0.45644405484199524 0.68186116218566895 0.011150838807225227
0.60484868288040161 0.72234058380126953 0.016594382002949715
0.72550374269485474 0.75814336538314819 0.026387307792901993
0.8164142370223999 0.77957272529602051 0.047563381493091583
0.87638258934020996 0.78945213556289673 0.069982267916202545
0.91488039493560791 0.79561179876327515 0.080771379172801971
0.9324069619178772 0.80135095119476318 0.085810087621212006
0.94522160291671753 0.80634558200836182 0.0902276411652565
0.0090521564707159996 0.50603657960891724 0.24120707809925079
0.022034289315342903 0.54130667448043823 0.22140930593013763
0.043525006622076035 0.57661586999893188 0.17911699414253235
0.13102371990680695 0.62447738647460938 0.091115109622478485
0.3322242796421051 0.67401343584060669 0.031789727509021759
0.50703573226928711 0.72085809707641602 0.019173910841345787
0.64144444465637207 0.76126140356063843 0.019651524722576141
0.75911235809326172 0.79335170984268188 0.038293682038784027
0.85316187143325806 0.8152318000793457 0.065078839659690857
0.90010488033294678 0.81245261430740356 0.080633513629436493
0.92557966709136963 0.8082546591758728 0.085270509123802185
0.94830769300460815 0.81626754999160767 0.094788827002048492
0.96918946504592896 0.82622480392456055 0.10755233466625214
0.019102388992905617 0.022689595818519592 0.034272797405719757
0.029864337295293808 0.029042726382613182 0.031994059681892395
0.045702002942562103 0.03274250403046608 0.030479580163955688
0.080772161483764648 0.038185987621545792 0.029291758313775063
0.15460139513015747 0.047305386513471603 0.024138238281011581
0.24684242904186249 0.057124704122543335 0.014153050258755684
0.33232212066650391 0.067046791315078735 0.014889705926179886
0.40890353918075562 0.079909369349479675 0.015925852581858635
0.46489831805229187 0.084602788090705872 0.01512044295668602
0.50724565982818604 0.080592691898345947 0.012973202392458916
0.53847420215606689 0.080639936029911041 0.0089873820543289185
0.56027019023895264 0.084985621273517609 0.0071584363467991352
0.58071011304855347 0.081989049911499023 0.014025834389030933
0.0238660778850317 0.042679641395807266 0.041923508048057556
0.032082293182611465 0.044537801295518875 0.037756871432065964
0.052288983017206192 0.051711812615394592 0.038516338914632797
0.094668366014957428 0.059501588344573975 0.040624774992465973
0.16788652539253235 0.068794772028923035 0.031346533447504044
0.26898711919784546 0.079337522387504578 0.011802059598267078
0.35612964630126953 0.09306856244802475 0.018051834776997566
0.43308541178703308 0.10612422227859497 0.02220236137509346
0.49561497569084167 0.11394050717353821 0.016123527660965919
0.54096406698226929 0.11139824241399765 0.012221167795360088
0.57451421022415161 0.10739445686340332 0.0095888320356607437
0.59270811080932617 0.11580000072717667 0.0087433755397796631
0.60654330253601074 0.12225370109081268 0.009573034942150116
0.021273519843816757 0.078204438090324402 0.058123227208852768
0.027322461828589439 0.076828926801681519 0.053959403187036514
0.053187862038612366 0.081239126622676849 0.050816092640161514
0.10686802864074707 0.091684959828853607 0.049479734152555466
0.19522441923618317 0.10658469051122665 0.034969929605722427
0.2951449453830719 0.11947766691446304 0.016926201060414314
0.38876676559448242 0.13436335325241089 0.028664024546742439
0.46913924813270569 0.14655216038227081 0.033372018486261368
0.53369808197021484 0.15300917625427246 0.01532007846981287
0.57868748903274536 0.15310017764568329 0.0097327735275030136
0.61086493730545044 0.1539788693189621 0.0068343519233167171
0.63012576103210449 0.16147325932979584 0.010097234509885311
0.64375060796737671 0.16869825124740601 0.011453471146523952
0.014932595193386078 0.12227118760347366 0.078877530992031097
0.014810419641435146 0.1179811954498291 0.070938616991043091
0.037782061845064163 0.12208070605993271 0.062333021312952042
0.10498465597629547 0.13848374783992767 0.055910520255565643
0.21166384220123291 0.15471856296062469 0.037338465452194214
0.31764611601829529 0.16751012206077576 0.018172753974795341
0.41738095879554749 0.18608267605304718 0.031377337872982025
0.50414109230041504 0.20081207156181335 0.036068364977836609
0.57405334711074829 0.20536047220230103 0.014491870068013668
0.62157338857650757 0.20669694244861603 0.012421537190675735
0.65078026056289673 0.21170163154602051 0.014883467927575111
0.67130553722381592 0.22040541470050812 0.01355139072984457
0.68646615743637085 0.22919271886348724 0.012313378974795341
0.011617532931268215 0.17203456163406372 0.10257475823163986
0.012685603462159634 0.1727069765329361 0.095100387930870056
0.024349108338356018 0.17784611880779266 0.082279235124588013
0.083208091557025909 0.19752858579158783 0.061105482280254364
0.21719402074813843 0.22230975329875946 0.041426129639148712
0.34337422251701355 0.2393239289522171 0.025031549856066704
0.45212149620056152 0.25860607624053955 0.034783486276865005
0.54513972997665405 0.27422553300857544 0.04255351796746254
0.61905401945114136 0.28510749340057373 0.021317111328244209
0.66849803924560547 0.29048892855644226 0.021975109353661537
0.69912576675415039 0.29760369658470154 0.025980018079280853
0.7220618724822998 0.30734467506408691 0.015383896417915821
0.73807168006896973 0.31726729869842529 0.010304933413863182
0.01299579069018364 0.22986409068107605 0.12614564597606659
0.018492471426725388 0.23705326020717621 0.1230323314666748
0.023690961301326752 0.24480415880680084 0.11003612726926804
0.067631632089614868 0.26437193155288696 0.079243645071983337
0.21978166699409485 0.3002830445766449 0.048466969281435013
0.36544466018676758 0.32962527871131897 0.037322010844945908
0.48197764158248901 0.35072576999664307 0.037168242037296295
0.58308082818984985 0.36305072903633118 0.038573980331420898
0.66178560256958008 0.37205520272254944 0.025607569143176079
0.71445810794830322 0.37973806262016296 0.017415903508663177
0.74948352575302124 0.39474713802337646 0.032280806452035904
0.77288329601287842 0.40684670209884644 0.022752903401851654
0.78794747591018677 0.41432559490203857 0.011455356143414974
0.017984652891755104 0.2946242094039917 0.15125457942485809
0.023773612454533577 0.30293399095535278 0.14868925511837006
0.027872646227478981 0.31334078311920166 0.13827340304851532
0.069152608513832092 0.34339138865470886 0.10047128796577454
0.21653403341770172 0.38626506924629211 0.05304240807890892
0.38248410820960999 0.42278903722763062 0.04820111021399498
0.51071035861968994 0.44890931248664856 0.045426581054925919
0.62104403972625732 0.46745002269744873 0.048035401850938797
0.70526015758514404 0.47958254814147949 0.027687670662999153
0.76088261604309082 0.48629593849182129 0.023912645876407623
0.79570877552032471 0.49380889534950256 0.034476380795240402
0.81793248653411865 0.5083925724029541 0.023840975016355515
0.83231019973754883 0.51849305629730225 0.015517051331698895
0.021342961117625237 0.36017137765884399 0.17941886186599731
0.026134505867958069 0.36480194330215454 0.17341606318950653
0.033596787601709366 0.38358506560325623 0.15913392603397369
0.077435992658138275 0.42137503623962402 0.11069038510322571
0.20804230868816376 0.46901604533195496 0.056641027331352234
0.3978421688079834 0.51540791988372803 0.05621662363409996
0.54256778955459595 0.54791909456253052 0.056453809142112732
0.65790116786956787 0.56903207302093506 0.057006355375051498
0.74555295705795288 0.58212363719940186 0.033626183867454529
0.80321544408798218 0.59251230955123901 0.026337133720517159
0.83945155143737793 0.60373079776763916 0.027353892102837563
0.86145055294036865 0.61494159698486328 0.013347132131457329
0.8739054799079895 0.62384486198425293 0.023541050031781197
0.016520630568265915 0.41132104396820068 0.20362907648086548
0.016356224194169044 0.41731980443000793 0.19604964554309845
0.022497229278087616 0.44173112511634827 0.17833250761032104
0.067788004875183105 0.48564016819000244 0.12879325449466705
0.21792973577976227 0.54269278049468994 0.061000719666481018
0.41721618175506592 0.5912022590637207 0.052627488970756531
0.5703350305557251 0.62732505798339844 0.05281607061624527
0.6892436146736145 0.65671974420547485 0.056788858026266098
0.77572637796401978 0.67382931709289551 0.059101104736328125
0.83500176668167114 0.68487691879272461 0.070166058838367462
0.87631219625473022 0.69417911767959595 0.057545531541109085
0.89846235513687134 0.70333433151245117 0.034676540642976761
0.91070634126663208 0.71290880441665649 0.045364171266555786
0.012990584596991539 0.44581028819084167 0.21939283609390259
0.010108962655067444 0.45649030804634094 0.21308574080467224
0.018609888851642609 0.48402208089828491 0.19229073822498322
0.048095956444740295 0.52925652265548706 0.1381453275680542
0.21155630052089691 0.58900701999664307 0.064625188708305359
0.43115389347076416 0.64360731840133667 0.022165305912494659
0.59048640727996826 0.68148291110992432 0.029983820393681526
0.71238976716995239 0.7143549919128418 0.048717334866523743
0.80240422487258911 0.73482823371887207 0.074447855353355408
0.86184918880462646 0.74747389554977417 0.097860075533390045
0.90368151664733887 0.75621658563613892 0.084775336086750031
0.92616623640060425 0.76235157251358032 0.066722020506858826
0.93771213293075562 0.76678639650344849 0.06899648904800415
0.014320104382932186 0.4634651243686676 0.22907134890556335
0.015756180509924889 0.48289716243743896 0.22568383812904358
0.01666475273668766 0.5102541446685791 0.20759740471839905
0.039080258458852768 0.55995041131973267 0.15199866890907288
0.22541148960590363 0.62477272748947144 0.046251691877841949
0.44206705689430237 0.67973947525024414 0.018494011834263802
0.60418856143951416 0.71883898973464966 0.017629930749535561
0.73017913103103638 0.75004667043685913 0.03356233611702919
0.82510280609130859 0.77205932140350342 0.07030709832906723
0.88563740253448486 0.78489840030670166 0.092673689126968384
0.92535358667373657 0.79145443439483643 0.095283955335617065
0.94638943672180176 0.79702186584472656 0.086091779172420502
0.95806801319122314 0.80014950037002563 0.083827182650566101
0.011975427158176899 0.49098306894302368 0.24977058172225952
0.016855098307132721 0.51411432027816772 0.24811522662639618
0.015590757131576538 0.54477608203887939 0.22956664860248566
0.04928525909781456 0.59548026323318481 0.16840900480747223
0.23434750735759735 0.65783822536468506 0.061369773000478745
0.45911848545074463 0.70880448818206787 0.039877694100141525
0.62023758888244629 0.7479933500289917 0.01904793456196785
0.74890220165252686 0.77964872121810913 0.026083493605256081
0.845966637134552 0.8001207709312439 0.058124437928199768
0.90843451023101807 0.81163990497589111 0.083300583064556122
0.94945681095123291 0.81861811876296997 0.092950098216533661
0.96665060520172119 0.82283717393875122 0.099601596593856812
0.97644317150115967 0.82655620574951172 0.10863780230283737
0.01137904729694128 0.53529912233352661 0.29423972964286804
0.029843363910913467 0.56577122211456299 0.29009091854095459
0.018019044771790504 0.60310530662536621 0.26626491546630859
0.085483670234680176 0.64892792701721191 0.21388310194015503
0.29443395137786865 0.70356327295303345 0.1290205717086792
0.48925036191940308 0.7427559494972229 0.088065005838871002
0.64223259687423706 0.77696079015731812 0.072340361773967743
0.77033907175064087 0.80624622106552124 0.049359608441591263
0.87148934602737427 0.82901370525360107 0.067423678934574127
0.93342775106430054 0.83634346723556519 0.094825387001037598
0.96332591772079468 0.83560997247695923 0.11313026398420334
0.97569954395294189 0.83850300312042236 0.14494320750236511
0.98554098606109619 0.84459125995635986 0.18653587996959686
0.01877746544778347 0.029778379946947098 0.061275586485862732
0.030121970921754837 0.034592989832162857 0.057713661342859268
0.048181213438510895 0.037384003400802612 0.057561598718166351
0.085729755461215973 0.041949626058340073 0.057793457061052322
0.15892277657985687 0.049749951809644699 0.053882941603660583
0.25892382860183716 0.05085836723446846 0.047171648591756821
0.3495672345161438 0.050872355699539185 0.044332809746265411
0.43309777975082397 0.065187536180019379 0.046026162803173065
0.49400332570075989 0.06599947065114975 0.04525921493768692
0.53605079650878906 0.053708020597696304 0.038872275501489639
0.5703161358833313 0.049209009855985641 0.035203326493501663
0.59369182586669922 0.046219918876886368 0.035765286535024643
0.61303567886352539 0.048940859735012054 0.03174939751625061
0.019170589745044708 0.050412271171808243 0.074028387665748596
0.02884826622903347 0.050924725830554962 0.066605947911739349
0.055043075233697891 0.054162222892045975 0.065258339047431946
0.10113093256950378 0.064291246235370636 0.072342082858085632
0.18041852116584778 0.073755167424678802 0.065016604959964752
0.28433084487915039 0.080910369753837585 0.05173061415553093
0.37661466002464294 0.089540295302867889 0.055271431803703308
0.4575495719909668 0.098642326891422272 0.058053575456142426
0.52184265851974487 0.097798213362693787 0.052150920033454895
0.56925052404403687 0.084284551441669464 0.039321795105934143
0.60844022035598755 0.07115510106086731 0.026507195085287094
0.62852340936660767 0.075418688356876373 0.029306134209036827
0.64282941818237305 0.075231738388538361 0.03368522971868515
0.017106300219893456 0.085955522954463959 0.089613683521747589
0.02669505774974823 0.084789440035820007 0.082421503961086273
0.056709140539169312 0.086723670363426208 0.079449504613876343
0.1137247160077095 0.095687597990036011 0.07904466986656189
0.20360422134399414 0.11141688376665115 0.071107544004917145
0.31003963947296143 0.1253289133310318 0.06126365065574646
0.40903171896934509 0.13630317151546478 0.067236430943012238
0.49251484870910645 0.14482443034648895 0.073584280908107758
0.55993151664733887 0.14388905465602875 0.060476683080196381
0.61019653081893921 0.12921850383281708 0.043833266943693161
0.64904725551605225 0.11953242868185043 0.034035027027130127
0.67075181007385254 0.12779544293880463 0.028322093188762665
0.6870155930519104 0.13285127282142639 0.028735486790537834
0.014897470362484455 0.12788578867912292 0.10309828072786331
0.020366623997688293 0.12221483886241913 0.09564933180809021
0.052199900150299072 0.1293414831161499 0.092203624546527863
0.11689534038305283 0.14416390657424927 0.089781910181045532
0.22212101519107819 0.16249148547649384 0.079295799136161804
0.33452615141868591 0.17695879936218262 0.068322353065013885
0.43820902705192566 0.19044102728366852 0.077729664742946625
0.52747106552124023 0.20010761916637421 0.080972455441951752
0.60534900426864624 0.20000256597995758 0.06075553223490715
0.66117805242538452 0.1898222416639328 0.04405728355050087
0.69394135475158691 0.18437907099723816 0.03749389573931694
0.71775096654891968 0.18955489993095398 0.028494471684098244
