assets/lut/films colorslide kodak kodachrome 64 generic.cube
# Created by: G'MIC (https://gmic.eu)
TITLE "kodak_kodachrome_64_generic"
# LUT size
LUT_3D_SIZE 13
# Data domain
DOMAIN_MIN 0.0 0.0 0.0
DOMAIN_MAX 1.0 1.0 1.0
# LUT data points
0.026062969118356705 0.01272475253790617 0.0073401657864451408
0.064007975161075592 0.014525784179568291 0.010038278996944427
0.11958033591508865 0.015431841835379601 0.015730090439319611
0.19418151676654816 0.018571965396404266 0.019977420568466187
0.29456028342247009 0.020444532856345177 0.022142162546515465
0.41593891382217407 0.022531112655997276 0.023293064907193184
0.54480266571044922 0.024650005623698235 0.023666456341743469
0.67439079284667969 0.027873978018760681 0.02420775406062603
0.79732877016067505 0.03165784478187561 0.024468844756484032
0.90424197912216187 0.035136774182319641 0.024955226108431816
0.98293524980545044 0.036689009517431259 0.024907190352678299
1 0.036249887198209763 0.025017846375703812
1 0.036287419497966766 0.027105532586574554
0.033167265355587006 0.05489083006978035 0.013285976834595203
0.062677435576915741 0.058113023638725281 0.015718827024102211
0.11505596339702606 0.058959316462278366 0.020825166255235672
0.19349201023578644 0.061296828091144562 0.023738067597150803
0.29770267009735107 0.064696907997131348 0.024689977988600731
0.42023730278015137 0.067858360707759857 0.02595602348446846
0.54794049263000488 0.072025611996650696 0.027813198044896126
0.67489194869995117 0.07712816447019577 0.02931620366871357
0.79566138982772827 0.081453539431095123 0.030288860201835632
0.90053141117095947 0.084292799234390259 0.031084936112165451
0.97818958759307861 0.085568100214004517 0.031413283199071884
1 0.086574152112007141 0.031699161976575851
1 0.089115291833877563 0.033806294202804565
0.046884872019290924 0.10810966044664383 0.024088945239782333
0.07010217010974884 0.11039101332426071 0.024408333003520966
0.11702974885702133 0.11260715872049332 0.026274826377630234
0.19454893469810486 0.11660609394311905 0.028811585158109665
0.30501067638397217 0.11943751573562622 0.030252838507294655
0.42847123742103577 0.12469250708818436 0.032653149217367172
0.55104106664657593 0.13176563382148743 0.035716097801923752
0.67276954650878906 0.13831563293933868 0.038066249340772629
0.79045045375823975 0.14271588623523712 0.03970540314912796
0.89505934715270996 0.14411793649196625 0.040908724069595337
0.97336852550506592 0.14428219199180603 0.041575010865926743
0.99995458126068115 0.14560167491436005 0.04195157065987587
1 0.14996476471424103 0.043281584978103638
0.048889562487602234 0.1856086403131485 0.036247417330741882
0.068539656698703766 0.18711824715137482 0.03621552512049675
0.11861994117498398 0.18804700672626495 0.037664704024791718
0.19891561567783356 0.19004595279693604 0.038697980344295502
0.31463029980659485 0.19284306466579437 0.039654601365327835
0.43420553207397461 0.20215752720832825 0.04339873418211937
0.549366295337677 0.21202583611011505 0.047735296189785004
0.66610348224639893 0.21837125718593597 0.050027824938297272
0.78169858455657959 0.22153139114379883 0.051198683679103851
0.88958251476287842 0.22074165940284729 0.05246460810303688
0.97248363494873047 0.21916291117668152 0.053154516965150833
0.99987363815307617 0.22035038471221924 0.053203072398900986
1 0.22532621026039124 0.054008781909942627
0.026743436232209206 0.29023757576942444 0.048864852637052536
0.035420704632997513 0.29028332233428955 0.04969647154211998
0.072301976382732391 0.29436829686164856 0.050762835890054703
0.17079083621501923 0.29423978924751282 0.051601096987724304
0.30863595008850098 0.29390829801559448 0.05315825343132019
0.43138605356216431 0.3027532696723938 0.056871078908443451
0.54263496398925781 0.31254169344902039 0.060906011611223221
0.65740954875946045 0.31598702073097229 0.062530741095542908
0.77137339115142822 0.31801959872245789 0.062701448798179626
0.88105112314224243 0.31616941094398499 0.063280306756496429
0.96801084280014038 0.31377658247947693 0.064345791935920715
0.99979448318481445 0.31485027074813843 0.063646160066127777
1 0.31940737366676331 0.063243165612220764
0.0044183018617331982 0.40036001801490784 0.060242701321840286
0.0061818738467991352 0.40028741955757141 0.062181182205677032
0.039852816611528397 0.40546023845672607 0.064070351421833038
0.14506451785564423 0.40644976496696472 0.065541736781597137
0.29252547025680542 0.40519517660140991 0.067426197230815887
0.42023199796676636 0.41051968932151794 0.069749452173709869
0.53641313314437866 0.41557568311691284 0.07278180867433548
0.65193980932235718 0.41793757677078247 0.074072815477848053
0.76310276985168457 0.42180725932121277 0.073230937123298645
0.86924529075622559 0.42238184809684753 0.073533423244953156
0.95582282543182373 0.421438068151474 0.074182458221912384
0.99826544523239136 0.42245525121688843 0.073425278067588806
1 0.42535215616226196 0.072440311312675476
0 0.50783365964889526 0.067455023527145386
0.00032650816137902439 0.50770246982574463 0.06954541802406311
0.029883934184908867 0.51091265678405762 0.073082000017166138
0.1240055188536644 0.51336866617202759 0.076935708522796631
0.25887483358383179 0.51405811309814453 0.079001739621162415
0.39553210139274597 0.5161474347114563 0.078634999692440033
0.52408778667449951 0.5180172324180603 0.079060226678848267
0.6432042121887207 0.52126586437225342 0.080965094268321991
0.75289374589920044 0.52696061134338379 0.081646323204040527
0.85421425104141235 0.53040921688079834 0.081758908927440643
0.93871027231216431 0.53119450807571411 0.081673502922058105
0.99253350496292114 0.53240120410919189 0.081539899110794067
1 0.53333336114883423 0.081001400947570801
0 0.61191469430923462 0.070700220763683319
4.2784446122823283e-05 0.61180645227432251 0.068764872848987579
0.020502068102359772 0.61293071508407593 0.072425395250320435
0.097918011248111725 0.61557638645172119 0.079985871911048889
0.21965903043746948 0.61640846729278564 0.083768419921398163
0.36537215113639832 0.6176915168762207 0.079449355602264404
0.50540179014205933 0.6195341944694519 0.077602282166481018
0.6291511058807373 0.62386941909790039 0.081231601536273956
0.73833560943603516 0.63009965419769287 0.08580334484577179
0.83607268333435059 0.63462650775909424 0.084781721234321594
0.91832935810089111 0.63645923137664795 0.082189418375492096
0.9806397557258606 0.63826233148574829 0.083046555519104004
1 0.63777446746826172 0.085331395268440247
0 0.70894801616668701 0.070242829620838165
0.00026429121498949826 0.70786738395690918 0.059202682226896286
0.018928198143839836 0.70740056037902832 0.058262858539819717
0.088312141597270966 0.70829492807388306 0.067053772509098053
0.20305497944355011 0.70904833078384399 0.07326209545135498
0.35059109330177307 0.70965576171875 0.068379931151866913
0.49425244331359863 0.71182781457901001 0.06673557311296463
0.61872810125350952 0.71659046411514282 0.072326570749282837
0.72607719898223877 0.72302550077438354 0.077705472707748413
0.81983500719070435 0.72731691598892212 0.074509426951408386
0.89947187900543213 0.73054152727127075 0.069694608449935913
0.96480315923690796 0.73391479253768921 0.073348596692085266
0.9993557333946228 0.7331923246383667 0.080618932843208313
0.00090664136223495007 0.79311490058898926 0.062145773321390152
0.0046552172861993313 0.79238837957382202 0.041100118309259415
0.035591185092926025 0.79018884897232056 0.032967660576105118
0.11096230149269104 0.78837984800338745 0.037953246384859085
0.22554370760917664 0.78797298669815063 0.043948423117399216
0.36346706748008728 0.78857547044754028 0.045734256505966187
0.49864950776100159 0.79092663526535034 0.048588518053293228
0.61770296096801758 0.79489505290985107 0.05388328805565834
0.72054266929626465 0.79952359199523926 0.056089919060468674
0.80992263555526733 0.80384922027587891 0.051743093878030777
0.88627082109451294 0.80900323390960693 0.046425942331552505
0.95126062631607056 0.81435000896453857 0.049906399101018906
0.99687963724136353 0.81479364633560181 0.062757425010204315
0.010480394586920738 0.86658817529678345 0.051642563194036484
0.02588125504553318 0.86565005779266357 0.025761593133211136
0.071422562003135681 0.86274123191833496 0.012083554640412331
0.15515366196632385 0.85949629545211792 0.012308517470955849
0.26988920569419861 0.85724973678588867 0.016167823225259781
0.39548495411872864 0.85708010196685791 0.022158753126859665
0.51585620641708374 0.85901248455047607 0.02998848631978035
0.62471824884414673 0.86182117462158203 0.035919684916734695
0.72058737277984619 0.86438471078872681 0.035965804010629654
0.80500376224517822 0.86774325370788574 0.030612196773290634
0.87763404846191406 0.87383037805557251 0.02735830657184124
0.94247716665267944 0.88059979677200317 0.03195171058177948
0.99426573514938354 0.88306611776351929 0.04662710428237915
0.033671792596578598 0.93324965238571167 0.049689676612615585
0.061591219156980515 0.93212485313415527 0.024221308529376984
0.1169997900724411 0.92923539876937866 0.0095206918194890022
0.20483316481113434 0.92512756586074829 0.0059512117877602577
0.31607630848884583 0.92147326469421387 0.0064871995709836483
0.42945393919944763 0.92082047462463379 0.011757958680391312
0.53564000129699707 0.92217427492141724 0.020184282213449478
0.63277661800384521 0.92413485050201416 0.026991989463567734
0.72018545866012573 0.9257742166519165 0.028146915137767792
0.79854810237884521 0.92818343639373779 0.026125440374016762
0.86822444200515747 0.93423336744308472 0.027883058413863182
0.93468713760375977 0.94124627113342285 0.03575877845287323
0.99206763505935669 0.94495666027069092 0.049530059099197388
0.060712102800607681 0.99122989177703857 0.056621089577674866
0.09937082976102829 0.99028569459915161 0.033682189881801605
0.16071797907352448 0.98862552642822266 0.017566502094268799
0.24629406630992889 0.98622614145278931 0.011209091171622276
0.34839251637458801 0.98407584428787231 0.010549313388764858
0.45192170143127441 0.98305869102478027 0.014731867238879204
0.54869085550308228 0.98357903957366943 0.02256794273853302
0.6368522047996521 0.98463970422744751 0.030135106295347214
0.71627825498580933 0.9857751727104187 0.035766482353210449
0.78749042749404907 0.98775118589401245 0.040421400219202042
0.8555564284324646 0.99103957414627075 0.046390965580940247
0.92563098669052124 0.99382668733596802 0.05291130393743515
0.98858195543289185 0.99533969163894653 0.063269548118114471
0.021086389198899269 0.014468638226389885 0.047496315091848373
0.063932038843631744 0.011698598973453045 0.05181395635008812
0.11967812478542328 0.01379813440144062 0.056890852749347687
0.1958693265914917 0.017878858372569084 0.060988705605268478
0.29747059941291809 0.020146986469626427 0.063621744513511658
0.4186132550239563 0.022940093651413918 0.064638279378414154
0.5478319525718689 0.023794705048203468 0.065765410661697388
0.67741072177886963 0.026180880144238472 0.066584661602973938
0.80017983913421631 0.029200341552495956 0.066820256412029266
0.90628206729888916 0.032040569931268692 0.066594861447811127
0.98266935348510742 0.033455118536949158 0.066307678818702698
1 0.03389408066868782 0.0682387575507164
1 0.034393429756164551 0.072919510304927826
0.027987267822027206 0.054419975727796555 0.054119739681482315
0.063459716737270355 0.053866308182477951 0.055516291409730911
0.11570625752210617 0.056559290736913681 0.059186223894357681
0.19288074970245361 0.0604209303855896 0.062133278697729111
0.29946258664131165 0.063465878367424011 0.063035406172275543
0.42288357019424438 0.065831907093524933 0.064049005508422852
0.55050456523895264 0.068981945514678955 0.066217996180057526
0.67698103189468384 0.072918623685836792 0.067844778299331665
0.79677021503448486 0.07662627100944519 0.06949741393327713
0.89963066577911377 0.079268574714660645 0.070944890379905701
0.97425591945648193 0.081244371831417084 0.071318924427032471
0.99988961219787598 0.082606673240661621 0.072612687945365906
1 0.085522040724754333 0.07669270783662796
0.041021011769771576 0.10944774746894836 0.062555037438869476
0.070938214659690857 0.10979413986206055 0.061782658100128174
0.11879446357488632 0.11240134388208389 0.064039237797260284
0.19523784518241882 0.11509167402982712 0.066011480987071991
0.30715572834014893 0.11683669686317444 0.067289836704730988
0.43106648325920105 0.1206875666975975 0.069145232439041138
0.55293095111846924 0.12495392560958862 0.072296440601348877
0.67362093925476074 0.13071815669536591 0.074471957981586456
0.78960233926773071 0.13526976108551025 0.076929502189159393
0.89111238718032837 0.13737276196479797 0.079002737998962402
0.96474361419677734 0.13884276151657104 0.079632431268692017
0.99780631065368652 0.14079786837100983 0.081247903406620026
1 0.14461198449134827 0.08491642028093338
0.045403484255075455 0.18943548202514648 0.073166206479072571
0.069720715284347534 0.18810348212718964 0.072219446301460266
0.11493182927370071 0.18824109435081482 0.073908530175685883
0.19460406899452209 0.18995128571987152 0.074847400188446045
0.31576940417289734 0.1920928955078125 0.076363839209079742
0.43662276864051819 0.19764728844165802 0.078639104962348938
0.55057054758071899 0.20279200375080109 0.082900211215019226
0.66617721319198608 0.20885844528675079 0.084889806807041168
0.78041058778762817 0.21303531527519226 0.086629964411258698
0.88432395458221436 0.21358796954154968 0.088782168924808502
0.96133667230606079 0.21482056379318237 0.089110143482685089
0.99524044990539551 0.21678178012371063 0.090396106243133545
0.99944514036178589 0.21962478756904602 0.093949489295482635
0.028253937140107155 0.29368692636489868 0.084480464458465576
0.040109448134899139 0.29066210985183716 0.083909489214420319
0.075048379600048065 0.29235714673995972 0.084524817764759064
0.16509081423282623 0.2941131591796875 0.084918946027755737
0.30471214652061462 0.29459419846534729 0.0862913578748703
0.42964920401573181 0.30137217044830322 0.08820178359746933
0.54143726825714111 0.30785050988197327 0.0915413498878479
0.65674018859863281 0.31032264232635498 0.093255423009395599
0.7717394232749939 0.31210684776306152 0.093933910131454468
0.8793567419052124 0.31146472692489624 0.0960264652967453
0.96219414472579956 0.31253477931022644 0.096887819468975067
0.99751472473144531 0.31423088908195496 0.097499042749404907
0.99988508224487305 0.31745025515556335 0.09932505339384079
0.0076706083491444588 0.40209740400314331 0.09377741813659668
0.0096015632152557373 0.39891573786735535 0.094854496419429779
0.0409889817237854 0.40271946787834167 0.095748633146286011
0.13690382242202759 0.40626251697540283 0.095335133373737335
0.28140610456466675 0.40710550546646118 0.09531962126493454
0.41593006253242493 0.4120955765247345 0.096130445599555969
0.53515815734863281 0.41656804084777832 0.097931206226348877
0.65151721239089966 0.41759020090103149 0.099105164408683777
0.76484924554824829 0.41983550786972046 0.099421493709087372
0.87219709157943726 0.42079198360443115 0.10173386335372925
0.95847201347351074 0.4217090904712677 0.10491696745157242
0.99838697910308838 0.42350542545318604 0.10573025792837143
1 0.42649528384208679 0.10596783459186554
0.00032185573945753276 0.50840932130813599 0.097765006124973297
0.00019404092745389789 0.50627851486206055 0.099767468869686127
0.024729650467634201 0.50926154851913452 0.10263220220804214
0.11645588278770447 0.51290357112884521 0.10385281592607498
0.25459852814674377 0.51528483629226685 0.10252337157726288
0.39762669801712036 0.51808327436447144 0.10008079558610916
0.52749723196029663 0.52002781629562378 0.10025377571582794
0.6456139087677002 0.5221179723739624 0.10215505212545395
0.75503081083297729 0.52635204792022705 0.1045726090669632
0.85762804746627808 0.53005146980285645 0.10737494379281998
0.94317525625228882 0.53149652481079102 0.11115670204162598
0.99375021457672119 0.5332832932472229 0.11309333890676498
1 0.53487884998321533 0.11434186995029449
0 0.61174190044403076 0.096400663256645203
0 0.61105144023895264 0.096273548901081085
0.011289125308394432 0.61186200380325317 0.10038767755031586
0.090971462428569794 0.61480802297592163 0.1044827327132225
0.22406201064586639 0.61711448431015015 0.10272374004125595
0.37600216269493103 0.61980408430099487 0.097412049770355225
0.51535838842391968 0.62111485004425049 0.097968131303787231
0.63519853353500366 0.62456101179122925 0.10347011685371399
0.74141174554824829 0.62968099117279053 0.10867876559495926
0.83790761232376099 0.63399767875671387 0.1101982444524765
0.92050236463546753 0.63644641637802124 0.11053311079740524
0.98090988397598267 0.63833993673324585 0.11197352409362793
1 0.63789463043212891 0.11620964854955673
0 0.70699596405029297 0.094636417925357819
0 0.70674210786819458 0.086177557706832886
0.0059342030435800552 0.70626139640808105 0.087086759507656097
0.076862528920173645 0.70738166570663452 0.093229971826076508
0.20726612210273743 0.709278404712677 0.093963474035263062
0.36306819319725037 0.71195441484451294 0.089446082711219788
0.50591886043548584 0.71409636735916138 0.092421092092990875
0.6255156397819519 0.71817547082901001 0.10112937539815903
0.72895395755767822 0.72309672832489014 0.1071433424949646
0.82066535949707031 0.72733312845230103 0.10552242398262024
0.89896249771118164 0.73074126243591309 0.099531017243862152
0.96330916881561279 0.73350876569747925 0.097813703119754791
0.99888354539871216 0.73223602771759033 0.10599224269390106
0 0.79009366035461426 0.092449799180030823
1.0621313776937313e-05 0.78977876901626587 0.071569405496120453
0.012560930103063583 0.78850829601287842 0.065618015825748444
0.090879209339618683 0.78808355331420898 0.073094941675662994
0.2192130833864212 0.78833508491516113 0.078756175935268402
0.36797016859054565 0.7903754711151123 0.08134334534406662
0.50655084848403931 0.79299581050872803 0.08733145147562027
0.62308257818222046 0.79704976081848145 0.095311738550662994
0.72273188829421997 0.80129724740982056 0.09880586713552475
0.80946886539459229 0.80506241321563721 0.094008758664131165
0.88397896289825439 0.80956929922103882 0.082716085016727448
0.94755136966705322 0.81420975923538208 0.07418765127658844
0.99550926685333252 0.81335592269897461 0.087815135717391968
0.00059124815743416548 0.86170798540115356 0.092690303921699524
0.0053921719081699848 0.86171054840087891 0.064843118190765381
0.042263556271791458 0.86035400629043579 0.052694868296384811
0.13140960037708282 0.85832333564758301 0.058150991797447205
0.25641903281211853 0.85716122388839722 0.066024944186210632
0.39309984445571899 0.8576655387878418 0.074379518628120422
0.51996111869812012 0.85993427038192749 0.083656176924705505
0.62886971235275269 0.86334848403930664 0.09106946736574173
0.72236347198486328 0.86616277694702148 0.092830464243888855
0.80356073379516602 0.86948597431182861 0.087714478373527527
0.87487256526947021 0.87454360723495483 0.078035958111286163
0.94002747535705566 0.87960779666900635 0.071460217237472534
0.99344086647033691 0.8804057240486145 0.085500188171863556
0.016077453270554543 0.92735981941223145 0.10219655930995941
0.037863068282604218 0.92701214551925659 0.0762619748711586
0.091005943715572357 0.92578941583633423 0.061104282736778259
0.18222111463546753 0.92308181524276733 0.059168092906475067
0.30064022541046143 0.92062270641326904 0.064126469194889069
0.42433616518974304 0.92008477449417114 0.073785834014415741
0.53791165351867676 0.92180722951889038 0.085088752210140228
0.63656377792358398 0.92358726263046265 0.093520432710647583
0.7218250036239624 0.92647969722747803 0.096867471933364868
0.79646217823028564 0.92933905124664307 0.09645526111125946
0.86532849073410034 0.93427300453186035 0.093561328947544098
0.93441569805145264 0.93871390819549561 0.093050308525562286
0.99282711744308472 0.94091391563415527 0.1033373698592186
0.043911159038543701 0.98742270469665527 0.11793982982635498
0.078349128365516663 0.98703587055206299 0.095175705850124359
0.13834500312805176 0.98617595434188843 0.080110900104045868
0.22695262730121613 0.98458170890808105 0.073877118527889252
0.33537524938583374 0.98228234052658081 0.075669802725315094
0.4467528760433197 0.98137694597244263 0.083612821996212006
0.54947495460510254 0.98199325799942017 0.094042070209980011
0.63937234878540039 0.98346489667892456 0.1032363623380661
0.71711134910583496 0.98523586988449097 0.11016936600208282
0.78523713350296021 0.98761892318725586 0.11591383814811707
0.85240638256072998 0.99048811197280884 0.11915673315525055
0.92553335428237915 0.99239730834960938 0.12027287483215332
0.98970818519592285 0.99359703063964844 0.12689764797687531
0.019809648394584656 0.016100849956274033 0.1030348539352417
0.065137051045894623 0.013603733852505684 0.10348479449748993
0.12239242345094681 0.015046227723360062 0.10896748304367065
0.19963262975215912 0.01845003105700016 0.11511086672544479
0.30227029323577881 0.021122472360730171 0.11863262951374054
0.42277568578720093 0.023284314200282097 0.12022534757852554
0.55045163631439209 0.0238991379737854 0.12147080898284912
0.67885297536849976 0.026084780693054199 0.12214721739292145
0.80110925436019897 0.028330350294709206 0.12218098342418671
0.90725541114807129 0.030849980190396309 0.12118688970804214
0.9826846718788147 0.032834146171808243 0.12017107009887695
1 0.03390299528837204 0.1227448582649231
1 0.03504803404211998 0.1295473575592041
0.026374861598014832 0.05443846806883812 0.106522336602211
0.064115516841411591 0.052818164229393005 0.10738249868154526
0.11693653464317322 0.0558943971991539 0.11082915961742401
0.19579283893108368 0.059645649045705795 0.11406013369560242
0.30392143130302429 0.063369423151016235 0.11606872826814651
0.42709863185882568 0.066471979022026062 0.11650377511978149
0.55289947986602783 0.068646989762783051 0.11883357912302017
0.67758190631866455 0.071786142885684967 0.12033072113990784
0.79635107517242432 0.074704609811306 0.12295147776603699
0.89817434549331665 0.077502921223640442 0.1246638149023056
0.970256507396698 0.080031797289848328 0.12430624663829803
0.99900323152542114 0.082735709846019745 0.12536363303661346
1 0.086478151381015778 0.1302981972694397
0.041340816766023636 0.10912315547466278 0.11284185945987701
0.072437107563018799 0.10966457426548004 0.11194122582674026
0.1190623864531517 0.11178889870643616 0.11443828791379929
0.19661952555179596 0.11266008019447327 0.11632126569747925
0.3112579882144928 0.11567447334527969 0.11735252290964127
0.43466797471046448 0.11973543465137482 0.11936037987470627
0.55438166856765747 0.12291300296783447 0.12282578647136688
0.67353576421737671 0.12844249606132507 0.12472333759069443
0.78823769092559814 0.1327807605266571 0.12889502942562103
0.88842207193374634 0.13554801046848297 0.13192662596702576
0.9585079550743103 0.13863435387611389 0.13239802420139313
0.99146848917007446 0.14158947765827179 0.13294169306755066
0.9987797737121582 0.14584824442863464 0.13684439659118652
0.050222612917423248 0.18913450837135315 0.12282092869281769
0.076602086424827576 0.18803584575653076 0.12137342244386673
0.12137829512357712 0.18631100654602051 0.12406418472528458
0.19556893408298492 0.18811231851577759 0.12338563799858093
0.31850355863571167 0.18967998027801514 0.12472020834684372
0.43910729885101318 0.19514273107051849 0.12754115462303162
0.55089914798736572 0.19939166307449341 0.13218538463115692
0.66614401340484619 0.20578746497631073 0.134511798620224
0.77964431047439575 0.21108262240886688 0.13718023896217346
0.88225740194320679 0.2133881151676178 0.13940234482288361
0.95658940076828003 0.21751932799816132 0.13911102712154388
0.98729395866394043 0.21929502487182617 0.14082376658916473
0.99337947368621826 0.22208815813064575 0.14531964063644409
0.037344615906476974 0.2929401695728302 0.1325928270816803
0.051701430231332779 0.29124802350997925 0.13105498254299164
0.08688073605298996 0.29080203175544739 0.13307593762874603
0.16910633444786072 0.29388746619224548 0.1316603422164917
0.30686703324317932 0.29414293169975281 0.13249233365058899
0.42997682094573975 0.30057716369628906 0.13380025327205658
0.5411684513092041 0.30583906173706055 0.13762278854846954
0.65656882524490356 0.30950942635536194 0.13987042009830475
0.77191388607025146 0.31297075748443604 0.14053142070770264
