assets/lut/films colorslide fuji velvia 50.cube
# Created by: G'MIC (https://gmic.eu)
TITLE "fuji_velvia_50"
# LUT size
LUT_3D_SIZE 7
# Data domain
DOMAIN_MIN 0.0 0.0 0.0
DOMAIN_MAX 1.0 1.0 1.0
# LUT data points
0.005495019257068634 0.0050047482363879681 0.0033738827332854271
0.093913644552230835 0.004532279446721077 0.010332563892006874
0.28533053398132324 0 0.0029939538799226284
0.47528213262557983 0 0.00047050925786606967
0.64825832843780518 0 0
0.81555187702178955 0 0
0.98088979721069336 0 0
0.025297053158283234 0.11989850550889969 0.022214269265532494
0.10715442895889282 0.10186976939439774 0.019748328253626823
0.30175188183784485 0.073400624096393585 0.021723773330450058
0.4825156033039093 0.059884030371904373 0.021385746076703072
0.65125638246536255 0.025382457301020622 0.017282463610172272
0.81347197294235229 0.017801053822040558 0.0043654050678014755
0.97779393196105957 0.030113594606518745 0.00024144789495039731
0.031463082879781723 0.33946123719215393 0.046264078468084335
0.12096062302589417 0.32355505228042603 0.043273176997900009
0.29443639516830444 0.29867410659790039 0.044558342546224594
0.47816166281700134 0.2729194164276123 0.044408403337001801
0.65215331315994263 0.23565444350242615 0.04036959633231163
0.81327962875366211 0.2026088684797287 0.028802640736103058
0.97684782743453979 0.18247561156749725 0.021904904395341873
0.009961714968085289 0.52408307790756226 0.078850284218788147
0.10492954403162003 0.51418572664260864 0.075189046561717987
0.27736696600914001 0.49139496684074402 0.069986678659915924
0.47031465172767639 0.47251617908477783 0.066719487309455872
0.6473577618598938 0.45077839493751526 0.063443191349506378
0.81301403045654297 0.41885215044021606 0.051214225590229034
0.97932219505310059 0.38966077566146851 0.028480440378189087
8.6346793978009373e-05 0.69831031560897827 0.10878641158342361
0.070026054978370667 0.69064104557037354 0.10401036590337753
0.24259309470653534 0.67551553249359131 0.096716172993183136
0.45384058356285095 0.65847295522689819 0.089924439787864685
0.63822650909423828 0.64113324880599976 0.088800601661205292
0.80971831083297729 0.6157151460647583 0.085184149444103241
0.98023748397827148 0.58947044610977173 0.059715166687965393
0 0.86978524923324585 0.13351128995418549
0.027349764481186867 0.8651348352432251 0.12859590351581573
0.1820836067199707 0.85436832904815674 0.12191039323806763
0.39952445030212402 0.83933597803115845 0.11553779989480972
0.60916298627853394 0.82290118932723999 0.11317271739244461
0.79786700010299683 0.80073952674865723 0.1049734503030777
0.97751033306121826 0.77668303251266479 0.073610119521617889
0 1 0.15238878130912781
0.0045828577131032944 1 0.14750479161739349
0.12967686355113983 0.99921500682830811 0.14049986004829407
0.33687284588813782 0.9969211220741272 0.13155953586101532
0.56278759241104126 0.99148082733154297 0.11811023950576782
0.77240407466888428 0.98179513216018677 0.087115056812763214
0.96696346998214722 0.96765154600143433 0.035695511847734451
0.0096322605386376381 0.0089852577075362206 0.069346360862255096
0.098334431648254395 0.0036051732022315264 0.070646263659000397
0.29284724593162537 0 0.069586612284183502
0.48139107227325439 0 0.071013160049915314
0.65189999341964722 0 0.055506449192762375
0.81611043214797974 0 0.03392333909869194
0.97988343238830566 0 0.011864515952765942
0.030280154198408127 0.1211923211812973 0.10466120392084122
0.11000960320234299 0.10172008723020554 0.1030970886349678
0.30368658900260925 0.079321034252643585 0.10609497129917145
0.48807051777839661 0.065991587936878204 0.10852053761482239
0.65542048215866089 0.04141196608543396 0.096112765371799469
0.81471949815750122 0.025894090533256531 0.084304362535476685
0.97696077823638916 0.039184883236885071 0.070558048784732819
0.02242196723818779 0.33181899785995483 0.14403827488422394
0.10980824381113052 0.32239845395088196 0.14734195172786713
0.29917994141578674 0.2983374297618866 0.14873193204402924
0.48272415995597839 0.27552872896194458 0.14560042321681976
0.65543627738952637 0.23684011399745941 0.12931609153747559
0.81468909978866577 0.21121014654636383 0.11586365103721619
0.97740161418914795 0.19055409729480743 0.11246487498283386
0.00010815788846230134 0.51882272958755493 0.1926121860742569
0.075228177011013031 0.51045376062393188 0.19171002507209778
0.2717859148979187 0.49338692426681519 0.18987077474594116
0.47321557998657227 0.47546571493148804 0.18546687066555023
0.64909499883651733 0.44750723242759705 0.17734715342521667
0.81508445739746094 0.42169654369354248 0.16351495683193207
0.9797976016998291 0.39250421524047852 0.13586266338825226
0 0.69868642091751099 0.23050063848495483
0.034016057848930359 0.69012182950973511 0.22733880579471588
0.22801992297172546 0.67932653427124023 0.22386670112609863
0.46147808432579041 0.6620488166809082 0.21933820843696594
0.64402168989181519 0.64442253112792969 0.21557880938053131
0.81093901395797729 0.61815232038497925 0.20665013790130615
0.97981810569763184 0.58978182077407837 0.17643885314464569
0 0.87087804079055786 0.26214706897735596
0.0038125431165099144 0.86608672142028809 0.2591249942779541
0.15511400997638702 0.8562663197517395 0.25646361708641052
0.40196558833122253 0.84164685010910034 0.25443044304847717
0.61915463209152222 0.82632166147232056 0.25465956330299377
0.80341815948486328 0.80350840091705322 0.24498119950294495
0.97803127765655518 0.77886116504669189 0.21029844880104065
0 1 0.28686797618865967
0 1 0.28420794010162354
0.088540516793727875 0.99991780519485474 0.28106433153152466
0.32085779309272766 0.99771708250045776 0.27767208218574524
0.5656316876411438 0.99329429864883423 0.27190539240837097
0.77796375751495361 0.98422658443450928 0.24916635453701019
0.96815168857574463 0.96992957592010498 0.20516593754291534
0.011082847602665424 0.00081846950342878699 0.20529064536094666
0.10242623835802078 0.0008443196420557797 0.21260841190814972
0.29110133647918701 0.0003820082638412714 0.2142920047044754
0.47572094202041626 0.00096887326799333096 0.21678717434406281
0.64956915378570557 0.00093620148254558444 0.20008714497089386
0.81637179851531982 0 0.17742867767810822
0.9799121618270874 0.003732090350240469 0.14788244664669037
0.027702182531356812 0.11458300054073334 0.25598174333572388
0.10674773901700974 0.10357265174388885 0.25917693972587585
0.3024832010269165 0.073348060250282288 0.2570624053478241
0.48446741700172424 0.047399349510669708 0.25984436273574829
0.65509706735610962 0.028042139485478401 0.25075221061706543
0.81702888011932373 0.011805634945631027 0.2389819473028183
0.97904914617538452 0.036022573709487915 0.21500062942504883
0.019080352038145065 0.33044695854187012 0.29120495915412903
0.1013646125793457 0.32043018937110901 0.29571238160133362
0.2973901629447937 0.29490804672241211 0.29778343439102173
0.48242020606994629 0.27031508088111877 0.2982710599899292
0.6588401198387146 0.23440803587436676 0.28942075371742249
0.82184791564941406 0.19914968311786652 0.27911674976348877
0.98126208782196045 0.1818968653678894 0.25943765044212341
9.2764465080108494e-05 0.52404803037643433 0.32913351058959961
0.046947389841079712 0.51019775867462158 0.3318517804145813
0.25920218229293823 0.49628919363021851 0.33242276310920715
0.47244161367416382 0.47263363003730774 0.33334773778915405
0.65356302261352539 0.44886505603790283 0.33205267786979675
0.81973296403884888 0.42068535089492798 0.32329490780830383
0.98251205682754517 0.38711202144622803 0.29479211568832397
3.2671759981894866e-05 0.70157957077026367 0.36478087306022644
0.011212712153792381 0.69162237644195557 0.36419975757598877
0.21087419986724854 0.68337893486022949 0.3656352162361145
0.46284109354019165 0.66212666034698486 0.36643090844154358
0.6501384973526001 0.64376026391983032 0.36643850803375244
0.81596273183822632 0.61832201480865479 0.35941439867019653
0.98227882385253906 0.5865321159362793 0.33411973714828491
0 0.87215191125869751 0.39790990948677063
0.00075979792745783925 0.86772364377975464 0.39719560742378235
0.14962679147720337 0.8582119345664978 0.39848035573959351
0.40891334414482117 0.84314584732055664 0.40094280242919922
0.62936115264892578 0.82837104797363281 0.40161234140396118
0.81125402450561523 0.80536741018295288 0.39362111687660217
0.98127645254135132 0.77925413846969604 0.36631816625595093
0 1 0.42490264773368835
0 1 0.42351540923118591
0.088041625916957855 1 0.42316320538520813
0.32543322443962097 0.99835938215255737 0.42400091886520386
0.57687884569168091 0.9948769211769104 0.42173054814338684
0.78541713953018188 0.98632121086120605 0.40646931529045105
0.9712943434715271 0.97166228294372559 0.37411582469940186
0.013533408753573895 0 0.34853309392929077
0.10691772401332855 0 0.35600435733795166
0.28995326161384583 0 0.35856950283050537
0.47762763500213623 0 0.35827314853668213
0.6514439582824707 0.0012242485536262393 0.35428357124328613
0.81811690330505371 0.0038201576098799706 0.3460327684879303
0.98041838407516479 0.00061813055071979761 0.33155724406242371
0.022824844345450401 0.10791796445846558 0.39207452535629272
0.10380450636148453 0.090822465717792511 0.39101645350456238
0.29837003350257874 0.068636707961559296 0.3943818211555481
0.48390239477157593 0.035313162952661514 0.39520540833473206
0.66050523519515991 0.043362382799386978 0.39764004945755005
0.82278203964233398 0.032860070466995239 0.39641886949539185
0.98161685466766357 0.024460587650537491 0.38088518381118774
0.018134068697690964 0.33459684252738953 0.42806372046470642
0.10399108380079269 0.3173549473285675 0.42964768409729004
0.29948100447654724 0.29288190603256226 0.43315467238426208
0.48218432068824768 0.26131904125213623 0.43455851078033447
0.66170674562454224 0.23498886823654175 0.43518054485321045
0.82622534036636353 0.19980873167514801 0.43355238437652588
0.98486638069152832 0.16845101118087769 0.41819250583648682
0.0013120165094733238 0.52448505163192749 0.4674203097820282
0.047498561441898346 0.51449966430664062 0.46796676516532898
0.25231876969337463 0.49207744002342224 0.4705493152141571
0.47079280018806458 0.4719395637512207 0.47258567810058594
0.65178358554840088 0.4511922299861908 0.47413676977157593
0.81962829828262329 0.42346161603927612 0.46967101097106934
0.98582690954208374 0.38453772664070129 0.45409545302391052
0.00075183942681178451 0.701751708984375 0.50211024284362793
0.0065256007947027683 0.69645720720291138 0.50312161445617676
0.18004551529884338 0.68163526058197021 0.50525468587875366
0.44176521897315979 0.66275656223297119 0.50648766756057739
0.64471673965454102 0.64462608098983765 0.50949060916900635
0.81698119640350342 0.6210026741027832 0.50722181797027588
0.98623067140579224 0.58701449632644653 0.4943045973777771
0.00014060524699743837 0.87791699171066284 0.53466403484344482
2.8423233743524179e-05 0.8731880784034729 0.53536999225616455
0.11964533478021622 0.86258053779602051 0.53662049770355225
0.38757386803627014 0.84778165817260742 0.53926748037338257
0.62750649452209473 0.83106750249862671 0.54138284921646118
0.81404405832290649 0.80847626924514771 0.53834778070449829
0.98438555002212524 0.7816804051399231 0.52395498752593994
0 1 0.56257909536361694
0 1 0.56157487630844116
0.067525021731853485 1 0.56078529357910156
0.31380331516265869 0.99939018487930298 0.56288105249404907
0.5782625675201416 0.99656230211257935 0.56344389915466309
0.78700363636016846 0.98885947465896606 0.55485522747039795
0.97253817319869995 0.97508054971694946 0.5356566309928894
0.01233285665512085 0 0.4819054901599884
0.10196292400360107 0 0.48634153604507446
0.28221142292022705 0 0.48755037784576416
0.47493705153465271 0 0.48908361792564392
0.65067559480667114 0 0.49282297492027283
0.81898647546768188 0 0.49325817823410034
0.98197239637374878 0 0.48240932822227478
0.015844052657485008 0.10156244039535522 0.52360707521438599
0.097473278641700745 0.085056647658348083 0.52646410465240479
0.29710188508033752 0.054636426270008087 0.52945750951766968
0.48523369431495667 0.031087165698409081 0.52880692481994629
0.65892064571380615 0.029486337676644325 0.53354477882385254
0.82432073354721069 0.011254508979618549 0.53671306371688843
0.98289436101913452 5.9838388551725075e-05 0.52801990509033203
0.011343024671077728 0.32196980714797974 0.56101971864700317
0.092305310070514679 0.31010586023330688 0.56490588188171387
0.29109808802604675 0.28610917925834656 0.56873238086700439
0.4814659059047699 0.25338304042816162 0.56900537014007568
0.6572425365447998 0.21988354623317719 0.57053327560424805
0.82810097932815552 0.18063221871852875 0.57111698389053345
0.98786157369613647 0.13266468048095703 0.5630602240562439
1.7951517293113284e-05 0.51822614669799805 0.5979732871055603
0.03630930557847023 0.51175308227539062 0.59944170713424683
0.2432439774274826 0.49029558897018433 0.60315573215484619
0.4741705060005188 0.47126540541648865 0.60605877637863159
0.65175879001617432 0.44462573528289795 0.60846388339996338
0.82393842935562134 0.41737386584281921 0.60568642616271973
0.9901348352432251 0.37989795207977295 0.59799551963806152
0.00022170122247189283 0.70470774173736572 0.63149875402450562
0.00051137886475771666 0.69840544462203979 0.63463586568832397
0.15518185496330261 0.68182075023651123 0.63713520765304565
0.44334962964057922 0.6616131067276001 0.63818526268005371
0.64234942197799683 0.6409720778465271 0.64199471473693848
0.81796509027481079 0.61769050359725952 0.64156585931777954
0.98853415250778198 0.58710241317749023 0.63597911596298218
0.0033860001713037491 0.88041830062866211 0.66696107387542725
0 0.87441420555114746 0.66860079765319824
0.096726872026920319 0.86449152231216431 0.66912376880645752
0.39438927173614502 0.84807974100112915 0.67118549346923828
0.62763786315917969 0.8307831883430481 0.67280614376068115
0.8107636570930481 0.80773276090621948 0.67244136333465576
0.98470395803451538 0.78423076868057251 0.66772937774658203
0 1 0.69833409786224365
0 1 0.69708442687988281
0.034968044608831406 1 0.6948731541633606
0.29861918091773987 0.99994939565658569 0.69775807857513428
0.56943076848983765 0.99742788076400757 0.6992332935333252
0.78142422437667847 0.99056625366210938 0.69729578495025635
0.97310888767242432 0.97779613733291626 0.68862706422805786
0.0081311240792274475 0 0.61040800809860229
0.081998385488986969 0 0.61466336250305176
0.24977724254131317 0 0.61678558588027954
0.45370262861251831 0 0.61914283037185669
0.64146590232849121 0 0.62260943651199341
0.81698036193847656 0 0.62340110540390015
0.98346209526062012 0 0.61517667770385742
0.015506340190768242 0.072667337954044342 0.64993935823440552
0.071801595389842987 0.065373048186302185 0.65256285667419434
0.26243913173675537 0.045515067875385284 0.65591621398925781
0.47386959195137024 0.0091430218890309334 0.65830564498901367
0.6546015739440918 0.0028293684590607882 0.66212624311447144
0.82493990659713745 1.4959597137931269e-05 0.66498655080795288
0.98583000898361206 0 0.65996044874191284
0.010460902005434036 0.30641090869903564 0.68382221460342407
0.073789007961750031 0.29522773623466492 0.68694901466369629
0.27470588684082031 0.27079638838768005 0.69154304265975952
0.48229110240936279 0.23040471971035004 0.69505536556243896
0.6585623025894165 0.19252036511898041 0.69694042205810547
0.83068758249282837 0.15181247889995575 0.69901418685913086
0.9899667501449585 0.10733835399150848 0.6965448260307312
3.5005457903025672e-05 0.51742875576019287 0.71959793567657471
0.026528406888246536 0.50809550285339355 0.72218149900436401
0.22315254807472229 0.48658284544944763 0.72564256191253662
0.4717424213886261 0.46403923630714417 0.7285994291305542
0.65431129932403564 0.43958166241645813 0.7314339280128479
0.82684963941574097 0.40334552526473999 0.73390734195709229
0.99083173274993896 0.35736852884292603 0.73259192705154419
0.0044049280695617199 0.70348948240280151 0.75753951072692871
3.1115963793126866e-05 0.69741570949554443 0.76046961545944214
0.13195416331291199 0.67991387844085693 0.76286667585372925
0.43418136239051819 0.65802901983261108 0.76424086093902588
0.63704103231430054 0.63750088214874268 0.76788240671157837
0.81654089689254761 0.61268579959869385 0.77216404676437378
0.98983711004257202 0.57913404703140259 0.77144581079483032
0.012205146253108978 0.87945413589477539 0.79746991395950317
0 0.87333542108535767 0.79910600185394287
0.079424135386943817 0.86500489711761475 0.80050605535507202
0.39453518390655518 0.84829199314117432 0.80259543657302856
0.62446355819702148 0.8289482593536377 0.80561178922653198
0.80933564901351929 0.80638587474822998 0.80944204330444336
0.98798686265945435 0.78197240829467773 0.80900663137435913
0.00070205389056354761 0.9999043345451355 0.83355188369750977
0 1 0.83212542533874512
0.017112491652369499 1 0.8317941427230835
0.28220775723457336 1 0.83461040258407593
0.56536662578582764 0.99788260459899902 0.83798623085021973
0.78428846597671509 0.99040937423706055 0.84220713376998901
0.97974586486816406 0.97626233100891113 0.84009015560150146
0.011362322606146336 0 0.73534876108169556
0.080301947891712189 0 0.73909658193588257
0.23359325528144836 0 0.74258899688720703
0.43473732471466064 0 0.74587100744247437
0.63074344396591187 0 0.74868547916412354
0.81474214792251587 0 0.74906867742538452
0.98582512140274048 0 0.74245262145996094
0.012188451364636421 0.040242407470941544 0.77324903011322021
0.062635995447635651 0.035781741142272949 0.77499079704284668
0.23597240447998047 0.024401197209954262 0.77881383895874023
0.45289385318756104 0.0042386972345411777 0.78400123119354248
0.64616596698760986 0 0.78825336694717407
0.82447594404220581 0 0.79025733470916748
0.98903036117553711 0 0.78746622800827026
0.0062968083657324314 0.28308194875717163 0.80903095006942749
0.054533220827579498 0.26701834797859192 0.81230688095092773
0.2524198591709137 0.24099373817443848 0.81527602672576904
0.47344601154327393 0.20155172049999237 0.82061183452606201
0.65660578012466431 0.15492884814739227 0.82459372282028198
0.83139842748641968 0.12420804053544998 0.82788151502609253
0.99155175685882568 0.099965460598468781 0.82733500003814697
0.00014935662329662591 0.50594526529312134 0.8480527400970459
0.0097753787413239479 0.49445053935050964 0.85043621063232422
0.19549809396266937 0.47291749715805054 0.85359269380569458
0.4586080014705658 0.44613867998123169 0.85810738801956177
0.65125942230224609 0.42040222883224487 0.86277121305465698
0.82852435111999512 0.37900251150131226 0.86678361892700195
0.99175596237182617 0.33629640936851501 0.8670419454574585
0.0014021630631759763 0.6924668550491333 0.88928157091140747
0 0.69015491008758545 0.89158076047897339
0.093309454619884491 0.67306935787200928 0.89463335275650024
0.41054728627204895 0.65194785594940186 0.89747172594070435
0.63418388366699219 0.63043004274368286 0.90316319465637207
0.81757563352584839 0.60090261697769165 0.90837222337722778
0.99061936140060425 0.56443750858306885 0.9080776572227478
0.002489680889993906 0.88685148954391479 0.92870277166366577
4.4280408474151045e-05 0.88247168064117432 0.93026256561279297
0.032721035182476044 0.8661423921585083 0.93378859758377075
0.36699137091636658 0.8481752872467041 0.93664634227752686
0.60601675510406494 0.82807785272598267 0.94229614734649658
0.80470943450927734 0.80346781015396118 0.94713389873504639
0.98886644840240479 0.77650982141494751 0.9486202597618103
0.00056551763555034995 0.99990648031234741 0.96819251775741577
0 1 0.96605390310287476
0 1 0.96809005737304688
0.21793787181377411 1 0.97134923934936523
0.53357362747192383 0.9981723427772522 0.97534221410751343
0.7736736536026001 0.99141710996627808 0.98027622699737549
0.97823458909988403 0.97785848379135132 0.9813232421875
