assets/lut/films colorslide kodak elite chrome 400.cube
# Created by: G'MIC (https://gmic.eu)
TITLE "kodak_elite_chrome_400"
# LUT size
LUT_3D_SIZE 7
# Data domain
DOMAIN_MIN 0.0 0.0 0.0
DOMAIN_MAX 1.0 1.0 1.0
# LUT data points
0.023666247725486755 0.02435506135225296 0.022937161847949028
0.11112508177757263 0.018716102465987206 0.012833524495363235
0.24134239554405212 0.020404022186994553 0.0064582973718643188
0.41771304607391357 0.028242342174053192 0.0049165613017976284
0.59418702125549316 0.034839227795600891 0.00090928917052224278
0.74798166751861572 0.047790348529815674 0.00085105147445574403
0.90077710151672363 0.077193960547447205 0.0025543961673974991
0.097475253045558929 0.14455129206180573 0.065408118069171906
0.15664307773113251 0.13896162807941437 0.058245223015546799
0.28215143084526062 0.12826947867870331 0.042499855160713196
0.45114985108375549 0.11797048896551132 0.025403281673789024
0.61376625299453735 0.093476377427577972 0.0075645595788955688
0.75812685489654541 0.058086425065994263 0.0018896065885201097
0.90857058763504028 0.053283572196960449 0.0016355925472453237
0.15239021182060242 0.32064759731292725 0.11795302480459213
0.20870654284954071 0.31831568479537964 0.11307814717292786
0.34360185265541077 0.30897852778434753 0.091618992388248444
0.50738674402236938 0.28930503129959106 0.063780196011066437
0.65421026945114136 0.25319057703018188 0.03467915952205658
0.79220706224441528 0.17429575324058533 0.010248729959130287
0.93532794713973999 0.09937768429517746 0
0.23679882287979126 0.52350282669067383 0.18567138910293579
0.30926075577735901 0.51914918422698975 0.17949505150318146
0.4330882728099823 0.5213591456413269 0.15893864631652832
0.57198888063430786 0.51891601085662842 0.12589770555496216
0.70020651817321777 0.49687457084655762 0.082025609910488129
0.84291750192642212 0.43727532029151917 0.032745361328125
0.97701501846313477 0.32056665420532227 0.001145531190559268
0.3878217339515686 0.68777793645858765 0.29198774695396423
0.441089928150177 0.68774509429931641 0.28072232007980347
0.52618944644927979 0.69261997938156128 0.26295351982116699
0.62839359045028687 0.69654941558837891 0.22449296712875366
0.74449843168258667 0.68734157085418701 0.15832465887069702
0.88339459896087646 0.68545210361480713 0.083002544939517975
0.99400478601455688 0.63035708665847778 0.0071020685136318207
0.53841948509216309 0.83603733777999878 0.41998165845870972
0.56242138147354126 0.8377525806427002 0.41477936506271362
0.61264097690582275 0.8410332202911377 0.40440860390663147
0.69282984733581543 0.84382659196853638 0.36987483501434326
0.79025322198867798 0.84582680463790894 0.32139119505882263
0.91235804557800293 0.85285431146621704 0.20390695333480835
0.99983412027359009 0.83493489027023315 0.025922393426299095
0.6891016960144043 0.97860699892044067 0.55494415760040283
0.70036649703979492 0.98144710063934326 0.54909670352935791
0.73332524299621582 0.98392665386199951 0.54290521144866943
0.78626006841659546 0.98596584796905518 0.53015470504760742
0.85986542701721191 0.98726016283035278 0.51489013433456421
0.94577270746231079 0.9897887110710144 0.44816696643829346
0.99781918525695801 0.98884487152099609 0.27020299434661865
0.017182160168886185 0.02243875153362751 0.10509523749351501
0.098855875432491302 0.018143897876143456 0.092827200889587402
0.22128523886203766 0.014786798506975174 0.074749469757080078
0.40355765819549561 0.02135041169822216 0.047510229051113129
0.58950954675674438 0.025543332099914551 0.011068845167756081
0.74823993444442749 0.046149101108312607 1.7951517293113284e-05
0.90884101390838623 0.087325289845466614 0
0.082235746085643768 0.14528834819793701 0.14946898818016052
0.14308130741119385 0.13898448646068573 0.14185900986194611
0.27145105600357056 0.12781530618667603 0.12080592662096024
0.44761484861373901 0.11699612438678741 0.08741365373134613
0.60977637767791748 0.081338323652744293 0.040290262550115585
0.75743627548217773 0.05894157662987709 0.010325068607926369
0.9158322811126709 0.074610888957977295 0.00066446041455492377
0.13303856551647186 0.32124617695808411 0.20644071698188782
0.19884470105171204 0.31804680824279785 0.19859200716018677
0.33448132872581482 0.31087455153465271 0.17533271014690399
0.50596034526824951 0.28824612498283386 0.14133130013942719
0.65204495191574097 0.25196465849876404 0.09619903564453125
0.79076105356216431 0.18429629504680634 0.041233330965042114
0.93804031610488892 0.10966017842292786 1.4361213288793806e-05
0.22518105804920197 0.51691210269927979 0.28008145093917847
0.29534205794334412 0.51844161748886108 0.26850226521492004
0.41850000619888306 0.5254325270652771 0.24740958213806152
0.56173563003540039 0.51512926816940308 0.21642680466175079
0.69359970092773438 0.49931871891021729 0.1645144522190094
0.8336479663848877 0.44689264893531799 0.089649826288223267
0.97341609001159668 0.3334994912147522 0.0073023177683353424
0.39263367652893066 0.68182516098022461 0.37328127026557922
0.43269720673561096 0.683948814868927 0.36220034956932068
0.51362830400466919 0.6884533166885376 0.34973657131195068
0.61746382713317871 0.69074410200119019 0.32094579935073853
0.7340317964553833 0.68811357021331787 0.26564377546310425
0.87105381488800049 0.67660194635391235 0.17850258946418762
0.99325740337371826 0.62301182746887207 0.040653452277183533
0.53028923273086548 0.83255958557128906 0.47621986269950867
0.55505621433258057 0.83470994234085083 0.47111654281616211
0.60996067523956299 0.83702236413955688 0.46454134583473206
0.68688416481018066 0.83856409788131714 0.4402204155921936
0.7823718786239624 0.83988195657730103 0.39920341968536377
0.89791989326477051 0.84127724170684814 0.30938759446144104
0.99445551633834839 0.83261346817016602 0.10532160848379135
0.67363762855529785 0.97781699895858765 0.59341943264007568
0.69317823648452759 0.97930991649627686 0.5879024863243103
0.73604267835617065 0.98167687654495239 0.5826728343963623
0.78503239154815674 0.9833606481552124 0.57221817970275879
0.85544073581695557 0.98588615655899048 0.55023062229156494
0.94475090503692627 0.98851895332336426 0.51546895503997803
1 0.98690789937973022 0.38016027212142944
0.007292384747415781 0.021179886534810066 0.21443988382816315
0.072039902210235596 0.020820543169975281 0.19868439435958862
0.20056788623332977 0.013011678121984005 0.18597705662250519
0.38894873857498169 0.01532434206455946 0.14697834849357605
0.57839137315750122 0.016920305788516998 0.09280657023191452
0.7433784008026123 0.03770650178194046 0.032545622438192368
0.90882247686386108 0.074744388461112976 0
0.060721751302480698 0.14605395495891571 0.27346968650817871
0.12303207814693451 0.13965502381324768 0.26275604963302612
0.25014632940292358 0.12726981937885284 0.24588252604007721
0.43178072571754456 0.11162267625331879 0.20859824120998383
0.59753739833831787 0.074937440454959869 0.15709789097309113
0.74807107448577881 0.050814982503652573 0.086174517869949341
0.90895718336105347 0.052228786051273346 0.0069304523058235645
0.095422156155109406 0.32356399297714233 0.33348602056503296
0.16866287589073181 0.31864473223686218 0.32600593566894531
0.30760619044303894 0.30987918376922607 0.31066039204597473
0.48660337924957275 0.28998100757598877 0.27902904152870178
0.63628709316253662 0.25232425332069397 0.23143720626831055
0.77737289667129517 0.18046087026596069 0.14915668964385986
0.92726826667785645 0.099953822791576385 0.03508242592215538
0.18773049116134644 0.5133594274520874 0.40628397464752197
0.26291969418525696 0.51427865028381348 0.39887723326683044
0.38991960883140564 0.51668882369995117 0.38620182871818542
0.53918987512588501 0.51288503408432007 0.36017259955406189
0.67303478717803955 0.49669885635375977 0.31306636333465576
0.81365430355072021 0.44160452485084534 0.23319503664970398
0.95974868535995483 0.32557493448257446 0.1134379655122757
0.37021708488464355 0.67565113306045532 0.4844200611114502
0.41006943583488464 0.67912566661834717 0.47720268368721008
0.48748132586479187 0.67997622489929199 0.47128912806510925
0.59710794687271118 0.67662376165390015 0.45282623171806335
0.71389579772949219 0.67293703556060791 0.41186311841011047
0.84878456592559814 0.66029530763626099 0.34580507874488831
0.98556715250015259 0.61708277463912964 0.20014053583145142
0.51909947395324707 0.82877010107040405 0.56073552370071411
0.54023212194442749 0.83035111427307129 0.55707180500030518
0.59198522567749023 0.83082526922225952 0.55301249027252197
0.67126917839050293 0.83044379949569702 0.5361478328704834
0.7671511173248291 0.8310617208480835 0.50913858413696289
0.88311481475830078 0.83165955543518066 0.46677964925765991
0.99513643980026245 0.81417346000671387 0.3437400758266449
0.66866505146026611 0.97550231218338013 0.65629380941390991
0.68225938081741333 0.97615474462509155 0.65093934535980225
0.7205355167388916 0.97752630710601807 0.64736270904541016
0.77390873432159424 0.97896116971969604 0.63682305812835693
0.84550756216049194 0.98316448926925659 0.62076073884963989
0.93608766794204712 0.98627448081970215 0.59537589550018311
1 0.98139333724975586 0.50440704822540283
0.0051614800468087196 0.017303541302680969 0.35635998845100403
0.053408034145832062 0.013898528181016445 0.34905973076820374
0.17335173487663269 0.010148007422685623 0.33987399935722351
0.36157774925231934 0.01004924438893795 0.30723577737808228
0.55425912141799927 0.011499935761094093 0.24943216145038605
0.72459143400192261 0.027306994423270226 0.16856756806373596
0.89731669425964355 0.058926943689584732 0.053650457412004471
0.050566010177135468 0.1461402028799057 0.42147502303123474
0.10315278172492981 0.13841423392295837 0.41592484712600708
0.22085848450660706 0.1302691251039505 0.40503010153770447
0.40748810768127441 0.11542971432209015 0.37543684244155884
0.57625359296798706 0.078561298549175262 0.33265683054924011
0.72241157293319702 0.037496320903301239 0.26025012135505676
0.88660281896591187 0.023706832900643349 0.14184790849685669
0.060612905770540237 0.32447731494903564 0.47660687565803528
0.1304706484079361 0.32159915566444397 0.47474059462547302
0.27383825182914734 0.31558778882026672 0.46688657999038696
0.45775499939918518 0.29450058937072754 0.44847884774208069
0.61144739389419556 0.25537070631980896 0.41077753901481628
0.75110369920730591 0.17701049149036407 0.34294715523719788
0.90235739946365356 0.083307690918445587 0.22667007148265839
0.13820728659629822 0.5121954083442688 0.5333181619644165
0.2120620459318161 0.51388561725616455 0.5322030782699585
0.35524266958236694 0.51729846000671387 0.5248711109161377
0.51012468338012695 0.511710524559021 0.5096784234046936
0.6468738317489624 0.48696920275688171 0.48348972201347351
0.78972399234771729 0.44005435705184937 0.43212366104125977
0.93670123815536499 0.32093194127082825 0.33322778344154358
0.34013134241104126 0.67344075441360474 0.59316039085388184
0.38490858674049377 0.67448222637176514 0.59106230735778809
0.46442121267318726 0.67990195751190186 0.58229976892471313
0.57349014282226562 0.67684078216552734 0.57222539186477661
0.69082748889923096 0.66824996471405029 0.54991775751113892
0.82446128129959106 0.65404784679412842 0.52106815576553345
0.9675908088684082 0.60565316677093506 0.43339931964874268
0.49922028183937073 0.82590174674987793 0.65721601247787476
0.52065587043762207 0.82636773586273193 0.65411174297332764
0.57346886396408081 0.8288809061050415 0.6476815938949585
0.65489786863327026 0.82979041337966919 0.6374051570892334
0.75105369091033936 0.830394446849823 0.62064588069915771
0.86330968141555786 0.82986724376678467 0.591136634349823
0.98903894424438477 0.80457192659378052 0.5230567455291748
0.66300380229949951 0.9719700813293457 0.73695820569992065
0.66788727045059204 0.97198331356048584 0.73230314254760742
0.70305615663528442 0.97345811128616333 0.72858786582946777
0.76287746429443359 0.97613179683685303 0.72126609086990356
0.83681434392929077 0.98144710063934326 0.71028923988342285
0.92555016279220581 0.98407912254333496 0.68719589710235596
0.99990308284759521 0.97609126567840576 0.62940675020217896
0.002417141804471612 0.018030637875199318 0.5002211332321167
0.040074232965707779 0.011747891083359718 0.50006788969039917
0.14830352365970612 0.0090839462354779243 0.49667268991470337
0.32822409272193909 0.0075067407451570034 0.48162361979484558
0.51929819583892822 0.0036981471348553896 0.44693529605865479
0.68762606382369995 0.0072250813245773315 0.39827904105186462
0.86807161569595337 0.028882209211587906 0.2729722261428833
0.020161962136626244 0.15905196964740753 0.55750542879104614
0.065190300345420837 0.14850775897502899 0.55454522371292114
0.19014216959476471 0.13912197947502136 0.54870188236236572
0.37631332874298096 0.12340520322322845 0.53608697652816772
0.54773116111755371 0.08359953761100769 0.51580041646957397
0.69074541330337524 0.031909987330436707 0.4767586886882782
0.85355871915817261 0.0038472344167530537 0.37988212704658508
0.0041826884262263775 0.33912688493728638 0.60062539577484131
0.055167987942695618 0.33657163381576538 0.59546715021133423
0.23035608232021332 0.32871535420417786 0.59155446290969849
0.43028822541236877 0.31424644589424133 0.58131617307662964
0.58866196870803833 0.27079832553863525 0.56758010387420654
0.72452908754348755 0.19265496730804443 0.53533190488815308
0.870918869972229 0.08527635782957077 0.46348553895950317
0.078111611306667328 0.51502996683120728 0.64464163780212402
0.14725743234157562 0.51364856958389282 0.6439049243927002
0.31834745407104492 0.51535922288894653 0.64025211334228516
0.48516187071800232 0.51274460554122925 0.6291385293006897
0.62611240148544312 0.49476718902587891 0.61529546976089478
0.76670229434967041 0.45592495799064636 0.59017491340637207
0.90813571214675903 0.32754048705101013 0.53642499446868896
0.29177775979042053 0.67516940832138062 0.6956445574760437
0.34301257133483887 0.67253762483596802 0.69670027494430542
0.43780860304832458 0.6772199273109436 0.69136828184127808
0.54998403787612915 0.67627370357513428 0.6831931471824646
0.66929054260253906 0.67101889848709106 0.66789323091506958
0.80344748497009277 0.65563285350799561 0.64682483673095703
0.94383740425109863 0.60432058572769165 0.59583735466003418
0.46662622690200806 0.82342284917831421 0.75259876251220703
0.49573555588722229 0.82450264692306519 0.75119471549987793
0.55241584777832031 0.82771682739257812 0.74667185544967651
0.63585835695266724 0.82971501350402832 0.73958718776702881
0.73485338687896729 0.83038139343261719 0.72954267263412476
0.84777188301086426 0.82454949617385864 0.71152544021606445
0.97395592927932739 0.80053502321243286 0.66513949632644653
0.64323592185974121 0.96614676713943481 0.81884932518005371
0.6519286036491394 0.96683746576309204 0.816334068775177
0.68766802549362183 0.96961784362792969 0.81471735239028931
0.75052672624588013 0.97325700521469116 0.81074106693267822
0.82628661394119263 0.97776991128921509 0.8034214973449707
0.91314095258712769 0.98100572824478149 0.7863624095916748
0.99845105409622192 0.97233021259307861 0.74821573495864868
0.00020823758677579463 0.029187640175223351 0.62774050235748291
0.02303181029856205 0.020784355700016022 0.62821310758590698
0.11481170356273651 0.01555817574262619 0.6266171932220459
0.29558500647544861 0.01213518064469099 0.61718058586120605
0.49596148729324341 0.0041257222183048725 0.60063165426254272
0.65932679176330566 0 0.57936722040176392
0.82974350452423096 0.00046576705062761903 0.50642770528793335
0.00020701090397778898 0.18429332971572876 0.67318332195281982
0.025748008862137794 0.17215210199356079 0.6720588207244873
0.14266392588615417 0.16027030348777771 0.66816473007202148
0.34184759855270386 0.14086528122425079 0.6622549295425415
0.52911174297332764 0.095657512545585632 0.64948517084121704
0.6676221489906311 0.032267730683088303 0.62952005863189697
0.82548314332962036 0.00029620001441799104 0.57925307750701904
0 0.35810154676437378 0.71293318271636963
0.019736509770154953 0.35194173455238342 0.71042829751968384
0.17320030927658081 0.34623470902442932 0.70673543214797974
0.3938586413860321 0.33174630999565125 0.70111054182052612
0.5717242956161499 0.29109674692153931 0.69212484359741211
0.70662349462509155 0.21280767023563385 0.67520159482955933
0.84989047050476074 0.10176937282085419 0.63756906986236572
0.040982533246278763 0.52133488655090332 0.75432658195495605
0.099687837064266205 0.51815426349639893 0.75352257490158081
0.26430392265319824 0.51866275072097778 0.75100553035736084
0.45298165082931519 0.51565331220626831 0.74586278200149536
0.60567915439605713 0.50488024950027466 0.73699212074279785
0.74843400716781616 0.47139263153076172 0.71834659576416016
0.89056855440139771 0.36157357692718506 0.68706351518630981
0.21852719783782959 0.67598658800125122 0.80024260282516479
0.27762627601623535 0.67593729496002197 0.79974019527435303
0.3840935230255127 0.67726534605026245 0.79675090312957764
0.51406633853912354 0.67902570962905884 0.79266297817230225
0.64449113607406616 0.67516624927520752 0.78584384918212891
0.78118294477462769 0.65862923860549927 0.77145254611968994
0.9242408275604248 0.60810732841491699 0.73870110511779785
0.44205453991889954 0.82005947828292847 0.84607332944869995
0.46321645379066467 0.82292813062667847 0.84494209289550781
0.5171007513999939 0.82599395513534546 0.84318143129348755
0.60435229539871216 0.8284112811088562 0.84034568071365356
0.71067291498184204 0.82861697673797607 0.83635926246643066
0.82537758350372314 0.82410264015197754 0.8252413272857666
0.95086085796356201 0.80124551057815552 0.7958827018737793
0.63780152797698975 0.95963054895401001 0.89944887161254883
0.64153003692626953 0.96228939294815063 0.89904630184173584
0.6682620644569397 0.9657098650932312 0.90049707889556885
0.72499209642410278 0.96841341257095337 0.89952284097671509
0.80338579416275024 0.97249311208724976 0.89555639028549194
0.89293581247329712 0.97805464267730713 0.88636022806167603
0.99119776487350464 0.97282606363296509 0.86422669887542725
0 0.0504886694252491 0.74700897932052612
0.0012708028079941869 0.043117165565490723 0.74749696254730225
0.063565239310264587 0.035547114908695221 0.74526834487915039
0.2444453239440918 0.031231001019477844 0.73631232976913452
0.46089524030685425 0.01998463086783886 0.72291749715805054
0.63387691974639893 0.0028748307377099991 0.7100529670715332
0.80305588245391846 0 0.67586213350296021
0 0.21163129806518555 0.78784239292144775
2.6927275030175224e-05 0.20315048098564148 0.78786766529083252
0.065034531056880951 0.19570297002792358 0.78520923852920532
0.27291759848594666 0.17468094825744629 0.77818000316619873
0.48560896515846252 0.12870603799819946 0.76584583520889282
0.64258277416229248 0.057278547435998917 0.7527281641960144
0.80373668670654297 0.0027197892777621746 0.7289884090423584
0 0.38025429844856262 0.82310229539871216
6.7617380409501493e-05 0.37457054853439331 0.82362794876098633
0.078388452529907227 0.37819769978523254 0.82254904508590698
0.32167229056358337 0.36417195200920105 0.81891006231307983
0.52748364210128784 0.32582983374595642 0.81029564142227173
0.67834973335266113 0.23969469964504242 0.79992377758026123
0.82772570848464966 0.10614052414894104 0.77878272533416748
0.0015790901379659772 0.53110617399215698 0.86268383264541626
0.034624569118022919 0.52831524610519409 0.86231833696365356
0.18015956878662109 0.5343814492225647 0.86101114749908447
0.40787690877914429 0.53599613904953003 0.8611864447593689
0.56826835870742798 0.52831780910491943 0.85567063093185425
0.71831339597702026 0.50038319826126099 0.84627467393875122
0.86811846494674683 0.39186692237854004 0.82533961534500122
0.096282973885536194 0.67994064092636108 0.89965397119522095
0.17467731237411499 0.67909187078475952 0.899036705493927
0.30386412143707275 0.68306881189346313 0.89832466840744019
0.4691411554813385 0.6870495080947876 0.90018165111541748
0.61193209886550903 0.68481683731079102 0.89816802740097046
0.75083887577056885 0.66920119524002075 0.89073807001113892
0.89907068014144897 0.62082725763320923 0.87149149179458618
0.35204580426216125 0.81972754001617432 0.93751007318496704
0.3888852596282959 0.82211852073669434 0.93758362531661987
0.4620203971862793 0.82593464851379395 0.93952262401580811
0.5650976300239563 0.82902878522872925 0.94074386358261108
0.6785963773727417 0.83056795597076416 0.93993812799453735
0.79550051689147949 0.83044528961181641 0.93544238805770874
0.92797237634658813 0.80743980407714844 0.92053472995758057
0.60598641633987427 0.95783776044845581 0.98306429386138916
0.60708475112915039 0.96121013164520264 0.98504638671875
0.63570767641067505 0.96526485681533813 0.98819059133529663
0.69566476345062256 0.96760177612304688 0.98892402648925781
0.77847373485565186 0.9705929160118103 0.98734742403030396
0.87227761745452881 0.97782802581787109 0.98547154664993286
0.97905468940734863 0.97718209028244019 0.97866559028625488
