assets/lut/films colorslide kodak elite chrome 200.cube
# Created by: G'MIC (https://gmic.eu)
TITLE "kodak_elite_chrome_200"
# LUT size
LUT_3D_SIZE 13
# Data domain
DOMAIN_MIN 0.0 0.0 0.0
DOMAIN_MAX 1.0 1.0 1.0
# LUT data points
0.025812067091464996 0.024270674213767052 0.022653810679912567
0.062425889074802399 0.019072005525231361 0.015689341351389885
0.11675439029932022 0.014545290730893612 0.0087575875222682953
0.18257144093513489 0.010272545740008354 0.0035937291104346514
0.25405409932136536 0.0055178920738399029 0.0012908187927678227
0.33134782314300537 0.0022575827315449715 0.00033425723086111248
0.41415128111839294 0.0010726031614467502 0
0.49796411395072937 0.00010842715710168704 0
0.58062458038330078 0 0
0.6621362566947937 0 0
0.74271994829177856 0 0
0.82169461250305176 0 0
0.89668989181518555 0 0
0.06425456702709198 0.090179547667503357 0.047058630734682083
0.092951633036136627 0.084268711507320404 0.040509168058633804
0.14347663521766663 0.077756412327289581 0.032524827867746353
0.20952621102333069 0.068747349083423615 0.024153482168912888
0.28140762448310852 0.057349499315023422 0.016572974622249603
0.35853612422943115 0.046671204268932343 0.0081865647807717323
0.43979990482330322 0.037127010524272919 0.0016284269513562322
0.52040457725524902 0.025483822450041771 0.00013596778444480151
0.59901195764541626 0.01278107613325119 0
0.67661154270172119 0.005188631359487772 0
0.75289922952651978 0.0011310802074149251 0
0.82767951488494873 0 0
0.8990776538848877 0 0
0.10721588134765625 0.16944636404514313 0.075624965131282806
0.12956687808036804 0.1650606095790863 0.069836482405662537
0.17547926306724548 0.15863776206970215 0.06186327338218689
0.24139994382858276 0.14802169799804688 0.052462678402662277
0.31526291370391846 0.13567496836185455 0.040750749409198761
0.39337146282196045 0.12365243583917618 0.026091886684298515
0.47284379601478577 0.10929429531097412 0.012991512194275856
0.54959726333618164 0.08904748409986496 0.0069802678190171719
0.62419396638870239 0.065874435007572174 0.0035162982530891895
0.69785505533218384 0.04670574888586998 0.00049031578237190843
0.76986128091812134 0.028601402416825294 0
0.83904194831848145 0.010396336205303669 0
0.90562158823013306 0.0013331843074411154 0
0.13824206590652466 0.25942745804786682 0.11027476191520691
0.16445134580135345 0.25562697649002075 0.10461676865816116
0.21173900365829468 0.24927604198455811 0.096252068877220154
0.2779618501663208 0.23922194540500641 0.085428185760974884
0.35260602831840515 0.22829313576221466 0.070734910666942596
0.4311816394329071 0.21730834245681763 0.053111191838979721
0.51026457548141479 0.20191703736782074 0.037924792617559433
0.58547502756118774 0.18006265163421631 0.029719572514295578
0.6582484245300293 0.1536252349615097 0.021675888448953629
0.72934770584106445 0.1269335001707077 0.010946446098387241
0.79693865776062012 0.096484467387199402 0.0028327791951596737
0.8603358268737793 0.06068776547908783 0.00036297965561971068
0.92009550333023071 0.033401008695363998 0.00010340073640691116
0.16752980649471283 0.35433486104011536 0.14714714884757996
0.19905546307563782 0.35189291834831238 0.14151346683502197
0.2499832957983017 0.34643664956092834 0.13217991590499878
0.31634825468063354 0.33834636211395264 0.12050127238035202
0.39122548699378967 0.32929658889770508 0.10593650490045547
0.46968516707420349 0.31987097859382629 0.090348713099956512
0.54876971244812012 0.30710595846176147 0.075872249901294708
0.62461942434310913 0.28897309303283691 0.063020817935466766
0.69844514131546021 0.26792189478874207 0.048967532813549042
0.76889622211456299 0.24006783962249756 0.035469472408294678
0.8333086371421814 0.20215696096420288 0.023840855807065964
0.89030539989471436 0.15646515786647797 0.015228256583213806
0.94138103723526001 0.11710939556360245 0.011243917047977448
0.21087537705898285 0.45055148005485535 0.18078984320163727
0.2440759539604187 0.44936522841453552 0.17605522274971008
0.29441347718238831 0.44535923004150391 0.16721543669700623
0.3586432933807373 0.4395146369934082 0.15569436550140381
0.43200024962425232 0.43200689554214478 0.14286544919013977
0.50969672203063965 0.42408549785614014 0.13000914454460144
0.58808636665344238 0.41498363018035889 0.11754234135150909
0.66452431678771973 0.40318876504898071 0.10196834057569504
0.73927319049835205 0.38813984394073486 0.084473900496959686
0.81092309951782227 0.36469480395317078 0.069551773369312286
0.8744882345199585 0.3307342529296875 0.057535327970981598
0.92462289333343506 0.28948166966438293 0.047668561339378357
0.96508920192718506 0.25081384181976318 0.041735973209142685
0.27041620016098022 0.54331696033477783 0.21147137880325317
0.30223706364631653 0.54288172721862793 0.20815445482730865
0.34809976816177368 0.54082518815994263 0.20084431767463684
0.40732315182685852 0.53648823499679565 0.19047757983207703
0.47683843970298767 0.5301513671875 0.1787828654050827
0.55137592554092407 0.52385765314102173 0.16694217920303345
0.62712216377258301 0.51720398664474487 0.15480607748031616
0.7022017240524292 0.50929546356201172 0.14047929644584656
0.77648437023162842 0.4981960654258728 0.1247020959854126
0.84990733861923218 0.4814268946647644 0.11008165776729584
0.91604840755462646 0.45742547512054443 0.096859276294708252
0.95952987670898438 0.42805969715118408 0.085739016532897949
0.98613065481185913 0.39632612466812134 0.078400000929832458
0.33930808305740356 0.63114476203918457 0.24122162163257599
0.3683808445930481 0.63119769096374512 0.2397402822971344
0.40877863764762878 0.62930786609649658 0.23425298929214478
0.46206572651863098 0.62556535005569458 0.22491161525249481
0.52537369728088379 0.62064254283905029 0.21334315836429596
0.5949103832244873 0.61544424295425415 0.20130807161331177
0.66635924577713013 0.61035752296447754 0.18935294449329376
0.73812299966812134 0.60449445247650146 0.17654155194759369
0.81011009216308594 0.59652233123779297 0.16342855989933014
0.88285285234451294 0.58457165956497192 0.15041784942150116
0.95134818553924561 0.56775236129760742 0.13680301606655121
0.9896126389503479 0.54803341627120972 0.1251167356967926
0.9988548755645752 0.52451252937316895 0.11671959608793259
0.41082042455673218 0.71296852827072144 0.27138644456863403
0.43656814098358154 0.71273016929626465 0.27172210812568665
0.47198712825775146 0.71089720726013184 0.26743459701538086
0.5191349983215332 0.70724517107009888 0.25813862681388855
0.57618588209152222 0.70306956768035889 0.24661414325237274
0.63953489065170288 0.69874876737594604 0.23463660478591919
0.70612716674804688 0.69452261924743652 0.2227935791015625
0.77401566505432129 0.69003170728683472 0.21093128621578217
0.84244883060455322 0.68383187055587769 0.1986670196056366
0.91096866130828857 0.67509722709655762 0.18685099482536316
0.97263479232788086 0.66325503587722778 0.17545193433761597
0.99947696924209595 0.64848780632019043 0.16429537534713745
1 0.62868708372116089 0.15502816438674927
0.48027762770652771 0.78856605291366577 0.30095279216766357
0.5032888650894165 0.78803879022598267 0.30256569385528564
0.53529387712478638 0.78589856624603271 0.29776030778884888
0.57769888639450073 0.78243976831436157 0.28825899958610535
0.62846916913986206 0.778778076171875 0.27739536762237549
0.68586188554763794 0.77510446310043335 0.26622307300567627
0.74727022647857666 0.77156561613082886 0.25517967343330383
0.81093484163284302 0.76777380704879761 0.2440422922372818
0.87537193298339844 0.76275306940078735 0.23280933499336243
0.93809753656387329 0.7564653754234314 0.22250795364379883
0.98951250314712524 0.747580885887146 0.21328276395797729
1 0.73558610677719116 0.20329205691814423
1 0.71918624639511108 0.19421502947807312
0.54846072196960449 0.85875552892684937 0.3266863226890564
0.57074844837188721 0.85798066854476929 0.32627531886100769
0.60007637739181519 0.85547095537185669 0.32118058204650879
0.63785690069198608 0.8525083065032959 0.31309792399406433
0.68308985233306885 0.84940630197525024 0.30421009659767151
0.73469805717468262 0.84638702869415283 0.29521334171295166
0.79102879762649536 0.84310495853424072 0.28586247563362122
0.85015171766281128 0.83978235721588135 0.27625206112861633
0.91040194034576416 0.83578890562057495 0.26663663983345032
0.96813499927520752 0.83126449584960938 0.2580203115940094
0.99912071228027344 0.82478690147399902 0.25018519163131714
1 0.81526696681976318 0.24133135378360748
1 0.80204057693481445 0.23299513757228851
0.61683946847915649 0.92677098512649536 0.34912857413291931
0.63927704095840454 0.92479681968688965 0.34484425187110901
0.66667330265045166 0.92225706577301025 0.33955276012420654
0.70029765367507935 0.91943138837814331 0.33339324593544006
0.74032402038574219 0.91710186004638672 0.3276081383228302
0.78656023740768433 0.91457957029342651 0.3216090202331543
0.83768868446350098 0.91161781549453735 0.31481948494911194
0.89212119579315186 0.90847915410995483 0.30725494027137756
0.94799000024795532 0.90533983707427979 0.29913312196731567
0.9934544563293457 0.90232831239700317 0.29132205247879028
1 0.89779603481292725 0.28421488404273987
1 0.89073455333709717 0.2770683765411377
1 0.88056063652038574 0.27003917098045349
0.6851649284362793 0.98815757036209106 0.36968827247619629
0.70764410495758057 0.98674964904785156 0.36352545022964478
0.73340904712677002 0.98502343893051147 0.35801327228546143
0.76383703947067261 0.9835277795791626 0.35314929485321045
0.7998734712600708 0.98188602924346924 0.35013982653617859
0.84141063690185547 0.98030382394790649 0.34674704074859619
0.8876500129699707 0.97821599245071411 0.3424232006072998
0.9373137354850769 0.97577542066574097 0.33705151081085205
0.98519116640090942 0.97367352247238159 0.33051818609237671
0.999980628490448 0.97211736440658569 0.32333534955978394
1 0.96936166286468506 0.31702971458435059
1 0.96449381113052368 0.31100144982337952
1 0.95708960294723511 0.30535140633583069
0.018576918169856071 0.022426081821322441 0.057454574853181839
0.052365802228450775 0.016610598191618919 0.050394035875797272
0.10848357528448105 0.011715324595570564 0.041000619530677795
0.17571121454238892 0.0089587792754173279 0.028349528089165688
0.24676759541034698 0.0064424253068864346 0.017098654061555862
0.3235727846622467 0.0033812727779150009 0.011023113504052162
0.40591144561767578 0.0017015045741572976 0.0045783547684550285
0.48903059959411621 0.00053064682288095355 0.00088545854669064283
0.57018589973449707 0 4.1468003473710269e-05
0.6494709849357605 0 0
0.727386474609375 0 0
0.80457764863967896 0 0
0.8781743049621582 0 0
0.049957964569330215 0.084919318556785583 0.084952063858509064
0.079026944935321808 0.079002782702445984 0.0777573361992836
0.13480196893215179 0.072240807116031647 0.067989259958267212
0.20305278897285461 0.064062468707561493 0.056495264172554016
0.27382287383079529 0.05517139658331871 0.044971674680709839
0.34993189573287964 0.045827813446521759 0.033897757530212402
0.43046873807907104 0.037417035549879074 0.021236613392829895
0.51041513681411743 0.027052247896790504 0.010746301151812077
0.58760172128677368 0.014271530322730541 0.0041939830407500267
0.66236168146133423 0.0049614850431680679 0.0005473117926158011
0.73575788736343384 0.0004902858636341989 0
0.80812180042266846 0 0
0.87934678792953491 0 0
0.092062272131443024 0.16339875757694244 0.11577191948890686
0.11641066521406174 0.15925531089305878 0.10887472331523895
0.16544066369533539 0.15396100282669067 0.098534360527992249
0.23224188387393951 0.14349566400051117 0.087393544614315033
0.30564033985137939 0.13112109899520874 0.074301913380622864
0.38311004638671875 0.11967691034078598 0.057957220822572708
0.46201387047767639 0.10678722709417343 0.042196191847324371
0.53865748643875122 0.088457398116588593 0.031491000205278397
0.61213511228561401 0.066507451236248016 0.021548103541135788
0.68301284313201904 0.045670870691537857 0.0095667820423841476
0.7516515851020813 0.025527041405439377 0.0012553345877677202
0.81885290145874023 0.0079719098284840584 1.8101112800650299e-05
0.88589441776275635 0.00071659462992101908 2.1392223061411642e-05
0.12306615710258484 0.25511264801025391 0.15048372745513916
0.15085552632808685 0.25150313973426819 0.14401246607303619
0.19953106343746185 0.24573609232902527 0.13452546298503876
0.26625701785087585 0.2357708215713501 0.12273113429546356
0.34104722738265991 0.22446408867835999 0.10711061209440231
0.41983747482299805 0.21359802782535553 0.087905034422874451
0.49869391322135925 0.19941984117031097 0.071036443114280701
0.573752760887146 0.17852510511875153 0.059723589569330215
0.64574730396270752 0.15343388915061951 0.048099160194396973
0.71476513147354126 0.1265183687210083 0.033282022923231125
0.78040534257888794 0.095744788646697998 0.017887355759739876
0.84263449907302856 0.06224079430103302 0.0082569494843482971
0.90297961235046387 0.035441305488348007 0.0066840974614024162
0.15002967417240143 0.35335010290145874 0.18646650016307831
0.18315625190734863 0.34990784525871277 0.18074287474155426
0.23537339270114899 0.34445464611053467 0.17171038687229156
0.30287599563598633 0.33620017766952515 0.15983131527900696
0.37883910536766052 0.32718172669410706 0.14421680569648743
0.45800217986106873 0.31794330477714539 0.12699143588542938
0.53715735673904419 0.30572432279586792 0.11088038235902786
0.61298561096191406 0.28838425874710083 0.096711128950119019
0.68606889247894287 0.26680615544319153 0.082135774195194244
0.75576519966125488 0.24013669788837433 0.066393591463565826
0.8201143741607666 0.20572248101234436 0.051311060786247253
0.87784492969512939 0.16462434828281403 0.039682876318693161
0.93028384447097778 0.12746380269527435 0.033971510827541351
0.1909928023815155 0.45055148005485535 0.22047072649002075
0.22581668198108673 0.44921252131462097 0.21592216193675995
0.27799832820892334 0.44485759735107422 0.20785687863826752
0.34404107928276062 0.43875232338905334 0.19648882746696472
0.41919279098510742 0.43169763684272766 0.18263772130012512
0.49800601601600647 0.42423877120018005 0.16794081032276154
0.57634592056274414 0.41564261913299561 0.15345939993858337
0.65309220552444458 0.4035351574420929 0.13839025795459747
0.72781586647033691 0.38815641403198242 0.12207277864217758
0.79980868101119995 0.3675844669342041 0.10640854388475418
0.86474549770355225 0.33947491645812988 0.092019021511077881
0.91782653331756592 0.3012993335723877 0.079642876982688904
0.96050882339477539 0.26023215055465698 0.071227066218852997
0.25064024329185486 0.5448877215385437 0.25160792469978333
0.2837224006652832 0.54394161701202393 0.248753622174263
0.33101505041122437 0.54121065139770508 0.24230603873729706
0.39266446232795715 0.53674179315567017 0.2321765273809433
0.46394443511962891 0.53101205825805664 0.21918077766895294
0.53992867469787598 0.52523618936538696 0.20573373138904572
0.61614906787872314 0.51916790008544922 0.19281545281410217
0.69156700372695923 0.51165390014648438 0.179029181599617
0.76675862073898315 0.50130742788314819 0.16417890787124634
0.84086728096008301 0.48751711845397949 0.14952027797698975
0.90692722797393799 0.46757644414901733 0.13533495366573334
0.95371252298355103 0.4383389949798584 0.12225946038961411
0.98456108570098877 0.40225949883460999 0.11190945655107498
0.32294777035713196 0.63305181264877319 0.28058141469955444
0.35222029685974121 0.63268029689788818 0.27999100089073181
0.39296445250511169 0.63058048486709595 0.2756744921207428
0.44689485430717468 0.62667036056518555 0.26691350340843201
0.51214003562927246 0.62203532457351685 0.2546410858631134
0.58290809392929077 0.6174166202545166 0.24143286049365997
0.65522557497024536 0.61293166875839233 0.22935213148593903
0.72777360677719116 0.60796570777893066 0.21704339981079102
0.80111789703369141 0.60098415613174438 0.20402799546718597
0.87477719783782959 0.59063166379928589 0.19057567417621613
0.9400324821472168 0.5757412314414978 0.1775774359703064
0.97935932874679565 0.55480217933654785 0.16444848477840424
0.99654728174209595 0.52727806568145752 0.15290844440460205
0.39950111508369446 0.71515095233917236 0.30910354852676392
0.42348554730415344 0.71505534648895264 0.31061539053916931
0.45766147971153259 0.7117917537689209 0.30812376737594604
0.50428479909896851 0.70869630575180054 0.30039837956428528
0.56174290180206299 0.70495837926864624 0.2892787754535675
0.62603563070297241 0.70113849639892578 0.27694055438041687
0.69359475374221802 0.69767558574676514 0.26498919725418091
0.76236271858215332 0.69375801086425781 0.25308838486671448
0.83229666948318481 0.68829262256622314 0.24035951495170593
0.90188580751419067 0.68019783496856689 0.22822107374668121
0.96279478073120117 0.66872924566268921 0.21783947944641113
0.99522769451141357 0.6526675820350647 0.20598359405994415
0.99990695714950562 0.63127070665359497 0.19433562457561493
0.47044011950492859 0.7896420955657959 0.33867678046226501
0.49228337407112122 0.78902387619018555 0.3400399386882782
0.52197843790054321 0.78667771816253662 0.33764809370040894
0.56243020296096802 0.78368067741394043 0.33085530996322632
0.61266583204269409 0.78067517280578613 0.32150310277938843
0.67051327228546143 0.77762669324874878 0.3106381893157959
0.73299771547317505 0.77462184429168701 0.2993527352809906
0.79804444313049316 0.77128058671951294 0.2876352071762085
0.86383992433547974 0.76680785417556763 0.27569064497947693
0.92857110500335693 0.76041316986083984 0.26506197452545166
0.98388755321502686 0.7514040470123291 0.25699546933174133
0.99996447563171387 0.73878633975982666 0.24732400476932526
1 0.72161412239074707 0.2366989403963089
0.53818303346633911 0.85833835601806641 0.36584299802780151
0.55959713459014893 0.85778331756591797 0.36517375707626343
0.58665060997009277 0.85556954145431519 0.36167025566101074
0.62220233678817749 0.85326838493347168 0.35603782534599304
0.66612350940704346 0.85077828168869019 0.34915223717689514
0.7180856466293335 0.84849041700363159 0.34096655249595642
0.77534431219100952 0.84594100713729858 0.33129778504371643
0.8363882303237915 0.84302127361297607 0.32068240642547607
0.89873778820037842 0.83949822187423706 0.31028479337692261
0.9587218165397644 0.83465862274169922 0.30154070258140564
0.99764382839202881 0.82776725292205811 0.2945379912853241
1 0.81801879405975342 0.28621727228164673
1 0.80445963144302368 0.2775992751121521
0.60611039400100708 0.92553198337554932 0.38943395018577576
0.62758642435073853 0.92346823215484619 0.38538765907287598
0.65276980400085449 0.92114686965942383 0.38024085760116577
0.68401604890823364 0.91931378841400146 0.37615498900413513
0.72285240888595581 0.91798990964889526 0.37268742918968201
0.76896959543228149 0.9161992073059082 0.36752769351005554
0.82154327630996704 0.9142296314239502 0.36030659079551697
0.87815910577774048 0.91150301694869995 0.35154011845588684
0.93670380115509033 0.90865898132324219 0.34241056442260742
0.98796051740646362 0.90522557497024536 0.33455875515937805
1 0.90027451515197754 0.32849860191345215
1 0.89322543144226074 0.32212111353874207
1 0.8829534649848938 0.3151143491268158
0.67410176992416382 0.98710954189300537 0.41186133027076721
0.69540977478027344 0.9854661226272583 0.40519404411315918
0.71943187713623047 0.98390239477157593 0.39860096573829651
0.74790650606155396 0.98273128271102905 0.39569365978240967
0.78258085250854492 0.98175102472305298 0.39475882053375244
0.82360184192657471 0.98124974966049194 0.39261546730995178
0.8711739182472229 0.97982501983642578 0.38792157173156738
0.92287683486938477 0.97797548770904541 0.38121482729911804
0.97563391923904419 0.97617131471633911 0.37324896454811096
0.99959826469421387 0.97417533397674561 0.36636322736740112
1 0.97152692079544067 0.36119389533996582
1 0.96668547391891479 0.35611459612846375
1 0.95928460359573364 0.35062921047210693
0.013516145758330822 0.02222931757569313 0.10168839991092682
0.042577914893627167 0.016169155016541481 0.095694072544574738
0.09602278470993042 0.0093561206012964249 0.087546572089195251
0.16281591355800629 0.0064013763330876827 0.073090314865112305
0.23434649407863617 0.0053141424432396889 0.057611741125583649
0.31213930249214172 0.0032881791703402996 0.046857990324497223
0.39574334025382996 0.003115425817668438 0.03357531875371933
0.47900667786598206 0.0019011553376913071 0.020953308790922165
0.5583532452583313 0.00014271456166170537 0.011973167769610882
0.63511449098587036 0 0.0050154291093349457
0.71109366416931152 0 0.00088134466204792261
0.78669053316116333 0 0
0.85923689603805542 0 0
0.03646412119269371 0.081430815160274506 0.13267412781715393
0.066176682710647583 0.075617969036102295 0.12542736530303955
0.12254774570465088 0.066007442772388458 0.11638759821653366
0.19074970483779907 0.057214610278606415 0.10361366719007492
0.2605661153793335 0.0494576096534729 0.089707635343074799
0.33683168888092041 0.041893858462572098 0.076029516756534576
0.41792833805084229 0.036795865744352341 0.059607978910207748
0.49800175428390503 0.027902401983737946 0.044072199612855911
0.57371169328689575 0.015183093957602978 0.030683869495987892
0.64635246992111206 0.0044425218366086483 0.016858074814081192
0.71719801425933838 0.00023909924493636936 0.004770615603774786
0.78788226842880249 0 0.0004898220649920404
0.85861325263977051 0 0.00034704769495874643
0.075315795838832855 0.15817147493362427 0.1658889502286911
0.10272565484046936 0.15322133898735046 0.15846981108188629
0.15249603986740112 0.14775523543357849 0.14681960642337799
0.21841304004192352 0.13704055547714233 0.13508489727973938
0.29040083289146423 0.12430247664451599 0.12164860218763351
0.36733430624008179 0.11304342001676559 0.1053551584482193
0.44693085551261902 0.10145320743322372 0.08769148588180542
0.52366900444030762 0.085199303925037384 0.071829237043857574
0.59647178649902344 0.064582109451293945 0.056712310761213303
0.66538327932357788 0.0430271215736866 0.038962002843618393
0.73128557205200195 0.021825812757015228 0.019295396283268929
0.79661840200424194 0.0056628058664500713 0.0072055291384458542
0.8639829158782959 0.00027211508131586015 0.0069251717068254948
0.10339668393135071 0.25186502933502197 0.19880986213684082
0.13375130295753479 0.24744834005832672 0.1921326071023941
0.18407173454761505 0.24146753549575806 0.18221913278102875
0.24992240965366364 0.23135846853256226 0.17044451832771301
0.32411131262779236 0.21917605400085449 0.15600103139877319
0.40335029363632202 0.20758892595767975 0.13867421448230743
0.48109278082847595 0.19336329400539398 0.12061124294996262
0.55722993612289429 0.1735776960849762 0.10531935095787048
0.6286623477935791 0.14919020235538483 0.089832291007041931
0.69633549451828003 0.12225230783224106 0.071146748960018158
0.76024866104125977 0.09214802086353302 0.051224052906036377
0.82163935899734497 0.059693548828363419 0.035710353404283524
0.88285797834396362 0.033208541572093964 0.031850390136241913
0.1248687282204628 0.35213276743888855 0.23307448625564575
0.16136890649795532 0.34825000166893005 0.22779557108879089
0.216042160987854 0.34218659996986389 0.21977353096008301
0.28474670648574829 0.333545982837677 0.2084626704454422
0.36128696799278259 0.32412010431289673 0.19373181462287903
0.44160124659538269 0.31464442610740662 0.17730829119682312
0.51960784196853638 0.30212166905403137 0.16035887598991394
0.59614676237106323 0.28400471806526184 0.14495560526847839
0.66824913024902344 0.26188048720359802 0.12900601327419281
0.73722738027572632 0.2358955591917038 0.11125374585390091
0.80172485113143921 0.20378802716732025 0.093208849430084229
0.86085093021392822 0.16502733528614044 0.07768789678812027
0.91532045602798462 0.12850441038608551 0.069000810384750366
0.16321499645709991 0.45055148005485535 0.26732802391052246
0.20126497745513916 0.44843438267707825 0.26356536149978638
0.25641772150993347 0.44375017285346985 0.25688087940216064
0.32521966099739075 0.4373742938041687 0.246310755610466
0.40213188529014587 0.43047016859054565 0.23252750933170319
0.48178660869598389 0.42339494824409485 0.2172493040561676
0.56089740991592407 0.41392862796783447 0.20229613780975342
0.63610196113586426 0.400858074426651 0.18753069639205933
0.7106248140335083 0.38442644476890564 0.17211572825908661
0.78198039531707764 0.36459222435951233 0.15597103536128998
