assets/lut/films print fuji 3510 cuspclip.cube
# Created by: G'MIC (https://gmic.eu)
TITLE "fuji_3510_cuspclip"
# LUT size
LUT_3D_SIZE 13
# Data domain
DOMAIN_MIN 0.0 0.0 0.0
DOMAIN_MAX 1.0 1.0 1.0
# LUT data points
0.016034742817282677 0.016715001314878464 0.015014722943305969
0.032101709395647049 0.024944528937339783 0.019544010981917381
0.046922869980335236 0.030752459540963173 0.020957661792635918
0.07576809823513031 0.038219064474105835 0.021211257204413414
0.13904838263988495 0.048568561673164368 0.023691199719905853
0.22756481170654297 0.046485930681228638 0.017055302858352661
0.32915559411048889 0.033375907689332962 0.0089784804731607437
0.42419683933258057 0.018508343026041985 0.0027931511867791414
0.49423569440841675 0.013421496376395226 0
0.53991937637329102 0.016475588083267212 0
0.57565110921859741 0.020729050040245056 0
0.59487700462341309 0.011810452677309513 0
0.60858708620071411 0.024108348414301872 0
0.016888877376914024 0.042130310088396072 0.027277044951915741
0.035067390650510788 0.045627161860466003 0.030384333804249763
0.055502213537693024 0.05267435684800148 0.031997233629226685
0.093732081353664398 0.065569467842578888 0.031944319605827332
0.16130560636520386 0.074776716530323029 0.02879842184484005
0.25772783160209656 0.075702250003814697 0.015055532567203045
0.35759103298187256 0.064893491566181183 0.0051915035583078861
0.44800630211830139 0.053862761706113815 0.0011049158638343215
0.52081185579299927 0.054521821439266205 0
0.56811237335205078 0.066259928047657013 0
0.60493260622024536 0.079953469336032867 0
0.62757217884063721 0.075079865753650665 2.7645335649140179e-05
0.64869707822799683 0.087291374802589417 0.00018705480033531785
0.012894259765744209 0.07204081118106842 0.039922244846820831
0.031484879553318024 0.075105123221874237 0.042803160846233368
0.057774323970079422 0.080245360732078552 0.044908709824085236
0.10120580345392227 0.096804417669773102 0.043571755290031433
0.18007136881351471 0.10916357487440109 0.029812965542078018
0.28527042269706726 0.11371736973524094 0.0099879391491413116
0.38739615678787231 0.11687935888767242 0.0021154815331101418
0.48088759183883667 0.12283740937709808 0.00071907794335857034
0.56101870536804199 0.12628114223480225 0
0.60988909006118774 0.13398699462413788 0
0.64151030778884888 0.1432034820318222 3.5903033221984515e-06
0.66559886932373047 0.14896905422210693 0.00049525243230164051
0.68561482429504395 0.15490636229515076 0.0017938202945515513
0.0039755729958415031 0.11086446791887283 0.055176857858896255
0.011890665628015995 0.11322248727083206 0.055549096316099167
0.031517013907432556 0.11860881000757217 0.055082958191633224
0.094669520854949951 0.13895510137081146 0.048862695693969727
0.19100646674633026 0.158778116106987 0.029355501756072044
0.29903623461723328 0.17321339249610901 0.011148026213049889
0.41112527251243591 0.18414841592311859 0.0034308789763599634
0.51135450601577759 0.19139392673969269 0.00055144069483503699
0.59435957670211792 0.19796660542488098 0
0.65203744173049927 0.20183883607387543 1.1848001122416463e-05
0.67771285772323608 0.20101416110992432 0.00048117543337866664
0.69966238737106323 0.20558129251003265 0.0015347799053415656
0.71999508142471313 0.21915270388126373 0.0025728861801326275
0.0032733841799199581 0.1789185106754303 0.081245124340057373
0.0039215688593685627 0.17532703280448914 0.076657794415950775
0.009623388759791851 0.1751590222120285 0.063039205968379974
0.079902395606040955 0.19278791546821594 0.046252187341451645
0.19474996626377106 0.22159649431705475 0.026308352127671242
0.308187335729599 0.24385987222194672 0.012050658464431763
0.42924845218658447 0.25321820378303528 0.0046606622636318207
0.54475456476211548 0.25888752937316895 0.00024436501553282142
0.62565803527832031 0.27218064665794373 0.00012709673319477588
0.69010907411575317 0.27476656436920166 0.00081459496868774295
0.71853220462799072 0.27814275026321411 0.0033787447027862072
0.73539990186691284 0.2861044704914093 0.0055281994864344597
0.75332522392272949 0.3032526969909668 0.0052052666433155537
0.0039215688593685627 0.25896310806274414 0.11269596964120865
0.0040804543532431126 0.25910565257072449 0.10238825529813766
0.0071524078957736492 0.25920560956001282 0.072548888623714447
0.042867965996265411 0.26486432552337646 0.03840942308306694
0.18219576776027679 0.29676130414009094 0.016604583710432053
0.3181743323802948 0.32078433036804199 0.0056800991296768188
0.45297396183013916 0.34074068069458008 0.0038851420395076275
0.57689231634140015 0.36016073822975159 0.0028035182040184736
0.66291165351867676 0.37649768590927124 0.0046931994147598743
0.72882652282714844 0.3811667263507843 0.0085270898416638374
0.75889873504638672 0.38226014375686646 0.013419581577181816
0.77439767122268677 0.38954031467437744 0.016765115782618523
0.79048126935958862 0.40701258182525635 0.018924504518508911
0.0072933570481836796 0.34792947769165039 0.14880985021591187
0.00404332485049963 0.34900704026222229 0.1346709281206131
0.0039135953411459923 0.35105022788047791 0.098291032016277313
0.027877703309059143 0.35556486248970032 0.046167995780706406
0.16190744936466217 0.37619024515151978 0.0080466177314519882
0.33595091104507446 0.40770646929740906 0.0012184741208329797
0.48826220631599426 0.44238972663879395 0.0010763130849227309
0.62056249380111694 0.47232255339622498 0.0024941687006503344
0.70674800872802734 0.48842397332191467 0.0095873512327671051
0.7700616717338562 0.49480363726615906 0.019372858107089996
0.7967684268951416 0.48933118581771851 0.025308107957243919
0.81137430667877197 0.49164822697639465 0.029242003336548805
0.83261531591415405 0.51361954212188721 0.030776198953390121
0.011366810649633408 0.43457686901092529 0.18918725848197937
0.0057020150125026703 0.43890219926834106 0.1832253634929657
0.0041452446021139622 0.445963054895401 0.15823706984519958
0.011898639611899853 0.44963952898979187 0.075355485081672668
0.12152470648288727 0.46263259649276733 0.0042046941816806793
0.34270036220550537 0.49617147445678711 0
0.51113373041152954 0.53832614421844482 0
0.6632799506187439 0.5810045599937439 0.0007540385122410953
0.75938618183135986 0.60149389505386353 0.011166516691446304
0.81372642517089844 0.60077142715454102 0.02450244314968586
0.83875316381454468 0.59364748001098633 0.018975621089339256
0.85286664962768555 0.60252666473388672 0.021928152069449425
0.8724096417427063 0.62303483486175537 0.022663788869976997
0.010905681177973747 0.50755548477172852 0.22340883314609528
0.013246693648397923 0.51149576902389526 0.21723492443561554
0.0026977090165019035 0.52162712812423706 0.19807012379169464
0.001628935569897294 0.52691388130187988 0.10527605563402176
0.11952249705791473 0.54375964403152466 0.0067662708461284637
0.36268240213394165 0.58537733554840088 0
0.54018795490264893 0.63102430105209351 8.5987761849537492e-05
0.69576811790466309 0.67281228303909302 0.0055366219021379948
0.79851680994033813 0.69509398937225342 0.025803001597523689
0.84746348857879639 0.68477636575698853 0.033670626580715179
0.87106382846832275 0.67314356565475464 0.024809414520859718
0.88821804523468018 0.68946683406829834 0.024775337427854538
0.90584921836853027 0.70674455165863037 0.033534839749336243
0.020098548382520676 0.55202925205230713 0.2430223673582077
0.015366214327514172 0.55384367704391479 0.23345094919204712
0.0033217635937035084 0.56434339284896851 0.20786763727664948
0.0020778132602572441 0.57493668794631958 0.1263987272977829
0.12825842201709747 0.59883642196655273 0.0095282308757305145
0.38617584109306335 0.64836430549621582 0
0.57811909914016724 0.69972831010818481 0.00076593138510361314
0.72568631172180176 0.73805826902389526 0.011625896207988262
0.81159454584121704 0.74893569946289062 0.033733878284692764
0.8686903715133667 0.74382710456848145 0.050155907869338989
0.894753098487854 0.73686683177947998 0.052400071173906326
0.91403979063034058 0.74731522798538208 0.054979689419269562
0.93303334712982178 0.76231992244720459 0.063799761235713959
0.017670426517724991 0.57184380292892456 0.25595399737358093
0.019790425896644592 0.57833421230316162 0.24648980796337128
0.014473141171038151 0.58920007944107056 0.21483965218067169
0.0075623607262969017 0.59988248348236084 0.10869442671537399
0.13849197328090668 0.62850522994995117 0.0069155073724687099
0.41384679079055786 0.68356180191040039 9.3138449301477522e-05
0.61426001787185669 0.73885107040405273 0.0039328183047473431
0.75328868627548218 0.7751615047454834 0.02268536202609539
0.83338922262191772 0.78553104400634766 0.041993353515863419
0.88683736324310303 0.78678435087203979 0.062647663056850433
0.9160347580909729 0.78899520635604858 0.071695543825626373
0.93600583076477051 0.79380625486373901 0.075686708092689514
0.95078128576278687 0.80081433057785034 0.08031502366065979
0.020821560174226761 0.59386909008026123 0.27311041951179504
0.025561733171343803 0.6015326976776123 0.24998021125793457
0.012470141053199768 0.60970973968505859 0.20417326688766479
0.02245178259909153 0.62074315547943115 0.076903805136680603
0.19715704023838043 0.66005200147628784 0.010474305599927902
0.44585853815078735 0.71321702003479004 0.0063879275694489479
0.6320035457611084 0.76095455884933472 0.0089733647182583809
0.76128417253494263 0.7945171594619751 0.030970703810453415
0.85488718748092651 0.81033724546432495 0.054570712149143219
0.90798455476760864 0.81261610984802246 0.071425013244152069
0.93774855136871338 0.81581002473831177 0.070280827581882477
0.95558828115463257 0.81779199838638306 0.074156790971755981
0.96692663431167603 0.82197874784469604 0.082055859267711639
0.022739440202713013 0.62125015258789062 0.29387474060058594
0.023835590109229088 0.62697488069534302 0.25322011113166809
0.0083286063745617867 0.63466501235961914 0.16018246114253998
0.064453423023223877 0.65454310178756714 0.063217893242835999
0.29819414019584656 0.69778889417648315 0.017625382170081139
0.49715989828109741 0.74153852462768555 0.015195285901427269
0.65326809883117676 0.78091490268707275 0.010923662222921848
0.76512426137924194 0.80541521310806274 0.024792017415165901
0.86190736293792725 0.82153606414794922 0.038745895028114319
0.92375040054321289 0.82889461517333984 0.061978239566087723
0.95762139558792114 0.83427298069000244 0.060841459780931473
0.97402423620223999 0.83412253856658936 0.06773318350315094
0.98249465227127075 0.83706653118133545 0.075214728713035583
0.024622134864330292 0.022904938086867332 0.025078926235437393
0.034855443984270096 0.026732277125120163 0.026504725217819214
0.052466358989477158 0.033636294305324554 0.031731877475976944
0.088177129626274109 0.040831606835126877 0.03440525010228157
0.15583866834640503 0.049614567309617996 0.036260299384593964
0.24847479164600372 0.042598139494657516 0.026243889704346657
0.35149335861206055 0.025393586605787277 0.0099759120494127274
0.44360664486885071 0.01242828369140625 0.0024615717120468616
0.51015442609786987 0.0086624147370457649 4.2126226617256179e-05
0.55793952941894531 0.0099029988050460815 0.0016296686371788383
0.59538263082504272 0.014032057486474514 0.0025322260335087776
0.62650114297866821 0.0099507346749305725 0.0016315834363922477
0.64075690507888794 0.015909276902675629 0.0014120812993496656
0.021579308435320854 0.044716645032167435 0.036167997866868973
0.036523196846246719 0.048255950212478638 0.037813987582921982
0.065773636102676392 0.058139905333518982 0.044504143297672272
0.10883060842752457 0.067017093300819397 0.044596504420042038
0.1696460098028183 0.072695083916187286 0.039277978241443634
0.2697429358959198 0.06794961541891098 0.021215252578258514
0.37626689672470093 0.057038072496652603 0.0059285629540681839
0.47037681937217712 0.040829438716173172 0.0023847543634474277
0.54284155368804932 0.035619281232357025 6.582222908946278e-07
0.58903968334197998 0.040230978280305862 3.8341448089340702e-05
0.62287807464599609 0.050948213785886765 1.3059728189546149e-05
0.64958250522613525 0.053371712565422058 0.00056678924011066556
0.67223185300827026 0.066332317888736725 0.0046370262280106544
0.014341182075440884 0.081603735685348511 0.056878451257944107
0.027629179880023003 0.08420109748840332 0.055846389383077621
0.061610758304595947 0.088959068059921265 0.061525590717792511
0.1110302209854126 0.10017423331737518 0.059809472411870956
0.18819315731525421 0.10844017565250397 0.040486756712198257
0.29687920212745667 0.113650843501091 0.011629276908934116
0.40663188695907593 0.11778747290372849 0.0052438024431467056
0.5050693154335022 0.11591926962137222 0.0026836618781089783
0.58528941869735718 0.11394874751567841 0
0.6332365870475769 0.11603634059429169 0.00030676150345243514
0.66037112474441528 0.11810748279094696 0.0018801969708874822
0.68446320295333862 0.12421391904354095 0.0039294674061238766
0.70853126049041748 0.12800717353820801 0.0094903679564595222
0.0064727333374321461 0.12287087738513947 0.074756905436515808
0.011629740707576275 0.12264511734247208 0.070677496492862701
0.035288449376821518 0.12626826763153076 0.071114078164100647
0.10122894495725632 0.14318306744098663 0.068089008331298828
0.1984536200761795 0.16007542610168457 0.041861694306135178
0.31368929147720337 0.17473402619361877 0.019751619547605515
0.43082910776138306 0.1826401948928833 0.0084142647683620453
0.53619730472564697 0.19011731445789337 0.0029716941062361002
0.62212675809860229 0.19422484934329987 0.00027594473795033991
0.67524939775466919 0.19447597861289978 0.0014691670658066869
0.70110499858856201 0.1911747008562088 0.0042506051249802113
0.72267717123031616 0.19499035179615021 0.0060518602840602398
0.74347060918807983 0.20503215491771698 0.01057040598243475
0.0031930662225931883 0.18048836290836334 0.093630783259868622
0.0040468550287187099 0.18053139746189117 0.089095517992973328
0.011271847411990166 0.1833488792181015 0.07784765213727951
0.081198014318943024 0.20219326019287109 0.067680388689041138
0.20299117267131805 0.22794193029403687 0.040280018001794815
0.33397683501243591 0.24438352882862091 0.019199026748538017
0.4564259946346283 0.2526913583278656 0.0069217309355735779
0.56860685348510742 0.25994762778282166 0.0028094423469156027
0.65538656711578369 0.27388885617256165 0.0022027706727385521
0.7156481146812439 0.28009152412414551 0.002858778927475214
0.74313318729400635 0.2803836464881897 0.0061956071294844151
0.76177823543548584 0.28887784481048584 0.010690681636333466
0.77749663591384888 0.30078995227813721 0.015758723020553589
0.004574241116642952 0.26044699549674988 0.1246611624956131
0.0048661474138498306 0.26560977101325989 0.11643563210964203
0.0063475961796939373 0.26827400922775269 0.088427722454071045
0.049351021647453308 0.27392297983169556 0.052896298468112946
0.21151821315288544 0.30267137289047241 0.015739860013127327
0.35397243499755859 0.32918268442153931 0.0098404828459024429
0.48908093571662903 0.34769359230995178 0.0068071852438151836
0.60674083232879639 0.36525338888168335 0.0035962273832410574
0.69254088401794434 0.37983289361000061 0.004285221453756094
0.75396090745925903 0.38907900452613831 0.0077882055193185806
0.78647619485855103 0.39190393686294556 0.013315193355083466
0.80369585752487183 0.39990603923797607 0.018511738628149033
0.81642645597457886 0.41170859336853027 0.026969850063323975
0.013876477256417274 0.35627797245979309 0.16690905392169952
0.0053027286194264889 0.35672342777252197 0.15507546067237854
0.0063319634646177292 0.3608558177947998 0.11848250776529312
0.032815057784318924 0.36390769481658936 0.056314341723918915
0.20114070177078247 0.38848644495010376 0.0092519121244549751
0.36491596698760986 0.42567461729049683 0.0040766098536550999
0.52573055028915405 0.4610455334186554 0.0042909658513963223
0.65028125047683716 0.48348355293273926 0.0034964019432663918
0.73639130592346191 0.49365156888961792 0.0056021297350525856
0.79332882165908813 0.50297087430953979 0.016222560778260231
0.8284105658531189 0.50938469171524048 0.026228182017803192
0.84438902139663696 0.5144156813621521 0.02859477698802948
0.85711967945098877 0.52349394559860229 0.029138766229152679
0.030154822394251823 0.45634335279464722 0.21441106498241425
0.0090957190841436386 0.45603200793266296 0.2052176296710968
0.006063378881663084 0.46022704243659973 0.16769017279148102
0.011685510165989399 0.4578188955783844 0.082608558237552643
0.14818209409713745 0.47614124417304993 0.0052879182621836662
0.37505629658699036 0.52288413047790527 0.0012701894156634808
0.55656862258911133 0.57107377052307129 0.00040208405698649585
0.69784402847290039 0.6010887622833252 0.0015403148718178272
0.78255921602249146 0.60596150159835815 0.0062883864156901836
0.83880805969238281 0.60735690593719482 0.012893856503069401
0.86773824691772461 0.61440432071685791 0.030760357156395912
0.88318121433258057 0.62439119815826416 0.033608157187700272
0.89708799123764038 0.6331714391708374 0.027982480823993683
0.021658670157194138 0.52783685922622681 0.24892058968544006
0.010809430852532387 0.53466624021530151 0.2431461364030838
0.017479795962572098 0.54135328531265259 0.21809764206409454
0.0045353309251368046 0.54150879383087158 0.12783180177211761
0.1178857833147049 0.56279414892196655 0.012984600849449635
0.38926702737808228 0.61621975898742676 0.0007006327505223453
0.58075928688049316 0.66168844699859619 0.00080482632620260119
0.73209965229034424 0.69654417037963867 0.01337859220802784
0.82129073143005371 0.70447438955307007 0.029968485236167908
0.87309199571609497 0.69672888517379761 0.034627638757228851
0.89686757326126099 0.69443047046661377 0.035577483475208282
0.91408509016036987 0.70912277698516846 0.044535275548696518
0.92738837003707886 0.72268325090408325 0.047322127968072891
0.02647055871784687 0.56776416301727295 0.27524721622467041
0.020529503002762794 0.57685965299606323 0.26904350519180298
0.015804067254066467 0.58614480495452881 0.2449498176574707
0.0028575223404914141 0.59310948848724365 0.1540299654006958
0.12253441661596298 0.61688613891601562 0.013122768141329288
0.40533193945884705 0.67052626609802246 0.0010191674809902906
0.60447955131530762 0.72072821855545044 0.0020200840663164854
0.75237685441970825 0.75628936290740967 0.012314171530306339
0.84064000844955444 0.76524871587753296 0.029513414949178696
0.89538443088531494 0.76024007797241211 0.055420625954866409
0.92082798480987549 0.75753146409988403 0.05927836149930954
0.93853873014450073 0.76526105403900146 0.064051531255245209
0.95059609413146973 0.77670609951019287 0.072407037019729614
0.030371870845556259 0.59011858701705933 0.2985202968120575
0.021208057180047035 0.60034722089767456 0.28865280747413635
0.021722652018070221 0.61042135953903198 0.25946110486984253
0.0067299935035407543 0.62063980102539062 0.16142681241035461
0.13648061454296112 0.6482509970664978 0.017550015822052956
0.43023580312728882 0.70207458734512329 0.0024869730696082115
0.62461793422698975 0.75143778324127197 0.0051523246802389622
0.76218652725219727 0.78640341758728027 0.012853240594267845
0.85456901788711548 0.80167090892791748 0.027173509821295738
0.91504299640655518 0.80465841293334961 0.065855704247951508
0.94322824478149414 0.80346333980560303 0.074254445731639862
0.96076303720474243 0.80836492776870728 0.07412826269865036
0.97044581174850464 0.81349146366119385 0.082730911672115326
0.022398091852664948 0.61054086685180664 0.32099297642707825
0.019120743498206139 0.62367743253707886 0.30408766865730286
0.023416437208652496 0.63267379999160767 0.26528850197792053
0.015336832962930202 0.64501690864562988 0.15342974662780762
0.15884944796562195 0.67337393760681152 0.036743432283401489
0.44527983665466309 0.72584480047225952 0.012408312410116196
0.63387715816497803 0.77163112163543701 0.012632811442017555
0.76390808820724487 0.80261814594268799 0.022045359015464783
0.86695259809494019 0.8204837441444397 0.043604578822851181
0.93096095323562622 0.82672494649887085 0.054209422320127487
0.96266436576843262 0.8295595645904541 0.063226364552974701
0.97765243053436279 0.83438760042190552 0.066072516143321991
0.98479849100112915 0.83583033084869385 0.092118039727210999
0.024451266974210739 0.63941317796707153 0.35314390063285828
0.038734182715415955 0.65399229526519775 0.33610555529594421
0.01692250557243824 0.66296088695526123 0.28338944911956787
0.040467251092195511 0.67748385667800903 0.19402369856834412
0.24287071824073792 0.71249175071716309 0.1129208579659462
0.47776180505752563 0.75604408979415894 0.084679201245307922
0.64489090442657471 0.79103904962539673 0.062833629548549652
0.7669910192489624 0.81561130285263062 0.035193949937820435
0.87821298837661743 0.83630716800689697 0.031583808362483978
0.95054912567138672 0.84716004133224487 0.032197974622249603
0.98142534494400024 0.85153424739837646 0.040287449955940247
0.99094694852828979 0.85189861059188843 0.090529046952724457
0.99471586942672729 0.85241556167602539 0.13147218525409698
0.025560341775417328 0.028536254540085793 0.058718275278806686
0.033868242055177689 0.0308061633259058 0.054834432899951935
0.054353661835193634 0.037737410515546799 0.05670502781867981
0.10077182203531265 0.047000661492347717 0.060292098671197891
0.16592840850353241 0.053617902100086212 0.060591153800487518
0.26602107286453247 0.040616396814584732 0.048404842615127563
0.37190386652946472 0.017640072852373123 0.026069626212120056
0.45910167694091797 0.0043845381587743759 0.012746579013764858
0.52443104982376099 0.0038712145760655403 0.01331628579646349
0.57409000396728516 0.0044283247552812099 0.016517683863639832
0.61257350444793701 0.0036936143878847361 0.016615504398941994
0.6409912109375 0.0019021127372980118 0.022491589188575745
0.65759932994842529 0.0012701445957645774 0.017129471525549889
0.021263003349304199 0.050679031759500504 0.067799463868141174
0.034271240234375 0.054100379347801208 0.066652439534664154
0.063458718359470367 0.064624860882759094 0.070104204118251801
0.10983747243881226 0.072961606085300446 0.072837918996810913
0.18184836208820343 0.077959738671779633 0.075014494359493256
0.28884798288345337 0.070427656173706055 0.056115634739398956
0.39507430791854858 0.052466746419668198 0.029037190601229668
0.49054166674613953 0.024682646617293358 0.013494903221726418
0.56237709522247314 0.014655738137662411 0.012402388267219067
0.61028152704238892 0.016759715974330902 0.013339921832084656
0.64564698934555054 0.01126652117818594 0.012264431454241276
0.66998672485351562 0.011123851872980595 0.014461053535342216
0.69471138715744019 0.010954957455396652 0.020263386890292168
0.014577453956007957 0.090618237853050232 0.086290039122104645
0.024629689753055573 0.091074787080287933 0.082697011530399323
0.061177287250757217 0.096690095961093903 0.085563302040100098
0.11134225875139236 0.10424402356147766 0.086836211383342743
0.19757044315338135 0.11118650436401367 0.079748846590518951
0.30820173025131226 0.1172262579202652 0.063884377479553223
0.4262140691280365 0.11566316336393356 0.035184986889362335
0.52991712093353271 0.10287218540906906 0.014035931788384914
0.60983341932296753 0.089360393583774567 0.011127891018986702
0.65788805484771729 0.077274233102798462 0.013135917484760284
0.68433654308319092 0.072109043598175049 0.013873141258955002
0.70809060335159302 0.073101341724395752 0.016165399923920631
0.73393923044204712 0.084320709109306335 0.023580843582749367
0.0085768159478902817 0.13684570789337158 0.10165200382471085
0.010289585217833519 0.13317212462425232 0.09584788978099823
0.034274231642484665 0.13351026177406311 0.093686617910861969
0.1049584299325943 0.14554879069328308 0.094577223062515259
0.20488633215427399 0.1612360030412674 0.085509344935417175
0.32616108655929565 0.17393653094768524 0.071200847625732422
0.45333585143089294 0.17870208621025085 0.033493805676698685
0.56550377607345581 0.18772794306278229 0.019860526546835899
0.65141016244888306 0.18399155139923096 0.014489776454865932
0.70000845193862915 0.16983689367771149 0.0123646454885602
0.72618979215621948 0.16637025773525238 0.014388199895620346
0.74835652112960815 0.17856273055076599 0.018023546785116196
0.76994794607162476 0.1890549510717392 0.022967709228396416
0.0032488654833287001 0.19089606404304504 0.11868026107549667
0.0045027639716863632 0.19333119690418243 0.11766408383846283
