assets/lut/films print kodak 2383 constlclip.cube
# Created by: G'MIC (https://gmic.eu)
TITLE "kodak_2383_constlclip"
# LUT size
LUT_3D_SIZE 5
# Data domain
DOMAIN_MIN 0.0 0.0 0.0
DOMAIN_MAX 1.0 1.0 1.0
# LUT data points
0.0090910522267222404 0.01698647253215313 0.015975803136825562
0.086559146642684937 0.044987339526414871 0.016294995322823524
0.33939686417579651 0.091449171304702759 0.011789210140705109
0.52768975496292114 0.12676700949668884 0.017905620858073235
0.60111546516418457 0.14267119765281677 0.020257972180843353
0.011016381904482841 0.087187238037586212 0.055935818701982498
0.11033681035041809 0.11644729971885681 0.042522653937339783
0.43734633922576904 0.1838148832321167 0.010997772216796875
0.63334321975708008 0.21047185361385345 0.0096310330554842949
0.69728797674179077 0.24031896889209747 0.01786511018872261
0.0078431377187371254 0.25994700193405151 0.13572409749031067
0.034326247870922089 0.3357851505279541 0.077386133372783661
0.56307119131088257 0.47171205282211304 0.0027753792237490416
0.7916218638420105 0.50982773303985596 0.014210495166480541
0.86002695560455322 0.55843889713287354 0.012490455992519855
0.011137823574244976 0.40877965092658997 0.19440239667892456
0.039476208388805389 0.52673989534378052 0.11770942807197571
0.65089559555053711 0.71661323308944702 0.015816513448953629
0.90306347608566284 0.77767336368560791 0.069492235779762268
0.95647710561752319 0.79764145612716675 0.085579663515090942
0.016389435157179832 0.47761821746826172 0.22242943942546844
0.1012876033782959 0.626930832862854 0.054769597947597504
0.6926581859588623 0.77347582578659058 0.018966570496559143
0.94474565982818604 0.84107369184494019 0.078143730759620667
0.98791790008544922 0.85130846500396729 0.10966192185878754
0.019397048279643059 0.033864609897136688 0.089468397200107574
0.094542242586612701 0.047891039401292801 0.10099087655544281
0.36975547671318054 0.03005484864115715 0.094236664474010468
0.59754085540771484 0.0046749338507652283 0.08612041175365448
0.65360969305038452 0.014521041885018349 0.087890088558197021
0.0041852314025163651 0.10788599401712418 0.12160807847976685
0.10084083676338196 0.13768063485622406 0.13804161548614502
0.46160146594047546 0.15245850384235382 0.11690221726894379
0.71686607599258423 0.098171353340148926 0.039490777999162674
0.78191828727722168 0.12828300893306732 0.049995303153991699
0.010332204401493073 0.27632325887680054 0.20164746046066284
0.02521565742790699 0.37176689505577087 0.18351781368255615
0.60145342350006104 0.49737668037414551 0.057391297072172165
0.87296843528747559 0.53187096118927002 0.045009300112724304
0.93553632497787476 0.57218664884567261 0.048267394304275513
0.010502878576517105 0.43699333071708679 0.27845937013626099
0.021118927747011185 0.56096392869949341 0.25621256232261658
0.65782648324966431 0.76469641923904419 0.047909621149301529
0.96159422397613525 0.82260745763778687 0.03039601631462574
0.9968225359916687 0.83435845375061035 0.086391761898994446
0.015185621567070484 0.53337615728378296 0.37183338403701782
0.023955356329679489 0.65659904479980469 0.35969257354736328
0.67054831981658936 0.8288692831993103 0.25294175744056702
0.98334741592407227 0.88966047763824463 0.20065037906169891
1 0.89461761713027954 0.40013444423675537
0.0039344937540590763 0.10459735244512558 0.24776598811149597
0.087447866797447205 0.013436486013233662 0.32947394251823425
0.38742789626121521 0.0063828262500464916 0.37165489792823792
0.61859846115112305 0.012130796909332275 0.38071990013122559
0.67736935615539551 0.013301430270075798 0.3979591429233551
0.0018271052977070212 0.17044401168823242 0.29105153679847717
0.028596198186278343 0.14258311688899994 0.39375874400138855
0.47638770937919617 0.15655460953712463 0.4541134238243103
0.7384827733039856 0.090851634740829468 0.46083071827888489
0.80312079191207886 0.13651815056800842 0.48588669300079346
0.0040213791653513908 0.35602349042892456 0.40684160590171814
0.015071733854711056 0.43121150135993958 0.48415279388427734
0.56487584114074707 0.56596893072128296 0.56557327508926392
0.87523460388183594 0.59232592582702637 0.56032788753509521
0.94053226709365845 0.61273437738418579 0.58060038089752197
0.0090580955147743225 0.51774889230728149 0.50646072626113892
0.0083801867440342903 0.64038658142089844 0.57923907041549683
0.56479865312576294 0.83344405889511108 0.62157416343688965
0.95120924711227417 0.89138388633728027 0.59979665279388428
0.99958103895187378 0.90681356191635132 0.64946293830871582
0.0051601636223495007 0.61359626054763794 0.60669225454330444
0.0075648138299584389 0.73233330249786377 0.66567683219909668
0.61084800958633423 0.89643949270248413 0.71286749839782715
0.95400059223175049 0.95097190141677856 0.70524412393569946
0.9995880126953125 0.95441681146621704 0.7485622763633728
0.0047885221429169178 0.16886419057846069 0.35201549530029297
0.058436062186956406 0.053067121654748917 0.47565796971321106
0.38473719358444214 0.0072558983229100704 0.5411221981048584
0.62397235631942749 0.035194844007492065 0.57016086578369141
0.69278204441070557 0.021567070856690407 0.59504079818725586
0.0023352978751063347 0.24521392583847046 0.43142127990722656
0.024609599262475967 0.2047516405582428 0.52789545059204102
0.47954976558685303 0.13568109273910522 0.68609714508056641
0.74574494361877441 0.048950403928756714 0.699992835521698
0.81240391731262207 0.092912353575229645 0.72829663753509521
0.013897346332669258 0.42783898115158081 0.56569021940231323
0.023994326591491699 0.48445266485214233 0.65810948610305786
0.52419275045394897 0.58615446090698242 0.83232790231704712
0.87247687578201294 0.61605548858642578 0.8436654806137085
0.93598198890686035 0.65544867515563965 0.86401671171188354
0.0096304202452301979 0.58673173189163208 0.67097049951553345
0.0099277272820472717 0.68211805820465088 0.75720351934432983
0.50888746976852417 0.87977504730224609 0.90166699886322021
0.92869997024536133 0.9226452112197876 0.90927308797836304
0.99170738458633423 0.93962275981903076 0.91852724552154541
0.018288346007466316 0.64554136991500854 0.72112101316452026
0.02553875558078289 0.7626720666885376 0.82485097646713257
0.55871081352233887 0.92440187931060791 0.9321368932723999
0.93108797073364258 0.97998368740081787 0.94357919692993164
0.99307411909103394 0.98384582996368408 0.94038230180740356
0.00093249150086194277 0.19644074141979218 0.39146411418914795
0.031754914671182632 0.11537689715623856 0.51310151815414429
0.43241405487060547 0.004262079019099474 0.65389055013656616
0.66151028871536255 0.034829653799533844 0.65961718559265137
0.72423070669174194 0.034540332853794098 0.67622178792953491
0 0.27874800562858582 0.47843047976493835
0.012755509465932846 0.25302785634994507 0.57538938522338867
0.48428601026535034 0.19587591290473938 0.7703624963760376
0.76533067226409912 0.14938287436962128 0.7927091121673584
0.83158040046691895 0.18888960778713226 0.81066983938217163
0.0024111729580909014 0.45384392142295837 0.61784267425537109
0.017996948212385178 0.50346636772155762 0.70043677091598511
0.52047383785247803 0.60534894466400146 0.90103524923324585
0.86384707689285278 0.61175554990768433 0.91764110326766968
0.93250727653503418 0.66223937273025513 0.93115746974945068
0.02320932038128376 0.59449613094329834 0.7023090124130249
0.024193348363041878 0.68894898891448975 0.79213976860046387
0.47370496392250061 0.87935006618499756 0.9618149995803833
0.92248058319091797 0.9343222975730896 0.98375332355499268
0.98739141225814819 0.95005673170089722 0.98818349838256836
0.0085636517032980919 0.67258000373840332 0.76623660326004028
0.023356689140200615 0.76637107133865356 0.85128748416900635
0.52768236398696899 0.92679345607757568 0.97352498769760132
0.91045659780502319 0.97891461849212646 0.98771160840988159
0.99151158332824707 0.9923895001411438 0.99296629428863525
