assets/lut/films colorslide kodak kodachrome 200.cube
# Created by: G'MIC (https://gmic.eu)
TITLE "kodak_kodachrome_200"
# LUT size
LUT_3D_SIZE 5
# Data domain
DOMAIN_MIN 0.0 0.0 0.0
DOMAIN_MAX 1.0 1.0 1.0
# LUT data points
0.019736509770154953 0.0096767647191882133 0.0047102686949074268
0.20537205040454865 0.017832512035965919 0.021803073585033417
0.50141388177871704 0.016153223812580109 0.024749740958213806
0.74727195501327515 0.0033437840174883604 0.0084263673052191734
0.9286574125289917 0 0
0.078729994595050812 0.24685297906398773 0.1222488135099411
0.26866742968559265 0.24345205724239349 0.12441933155059814
0.55725270509719849 0.23815368115901947 0.13182482123374939
0.77339798212051392 0.22392281889915466 0.11683409661054611
0.93934381008148193 0.19065821170806885 0.081671908497810364
0.15365561842918396 0.54221886396408081 0.28673848509788513
0.35823908448219299 0.54004901647567749 0.28398898243904114
0.58537131547927856 0.53831601142883301 0.27996450662612915
0.78283560276031494 0.53275799751281738 0.25370997190475464
0.94177502393722534 0.52415865659713745 0.20330736041069031
0.42678964138031006 0.73775726556777954 0.47523263096809387
0.4960634708404541 0.73645836114883423 0.47539684176445007
0.63414639234542847 0.73752433061599731 0.46782591938972473
0.79474890232086182 0.73658686876296997 0.44915997982025146
0.95966809988021851 0.73116004467010498 0.39296096563339233
0.57157242298126221 0.93945378065109253 0.63945299386978149
0.61503857374191284 0.93448227643966675 0.64771836996078491
0.7003854513168335 0.93244016170501709 0.64939761161804199
0.82111924886703491 0.93733322620391846 0.65204828977584839
0.98833143711090088 0.93391704559326172 0.60683542490005493
0.017029676586389542 0.019183050841093063 0.1190391406416893
0.19116947054862976 0.015346317552030087 0.12431342899799347
0.51174509525299072 0.015908200293779373 0.12550491094589233
0.75180649757385254 0.0094520570710301399 0.11488445848226547
0.92683207988739014 0.0020546857267618179 0.06850326806306839
0.060883704572916031 0.24000094830989838 0.24746520817279816
0.25415542721748352 0.23682153224945068 0.25178217887878418
0.54734444618225098 0.24007080495357513 0.25738322734832764
0.76871001720428467 0.22080060839653015 0.23252132534980774
0.9359813928604126 0.18413364887237549 0.17475321888923645
0.12999594211578369 0.5422787070274353 0.40612566471099854
0.3394891619682312 0.54004788398742676 0.41079497337341309
0.57810908555984497 0.54022622108459473 0.41480228304862976
0.77351635694503784 0.53303110599517822 0.39020031690597534
0.94722062349319458 0.52088207006454468 0.34332332015037537
0.41474777460098267 0.73954987525939941 0.55629903078079224
0.49249571561813354 0.73947423696517944 0.55727273225784302
0.62763851881027222 0.73645836114883423 0.55338853597640991
0.78317117691040039 0.73602199554443359 0.54584038257598877
0.94915503263473511 0.7324225902557373 0.51475149393081665
0.57144665718078613 0.93666458129882812 0.69888299703598022
0.61168277263641357 0.93630790710449219 0.70160543918609619
0.69469159841537476 0.93071353435516357 0.6986958384513855
0.81884938478469849 0.93869191408157349 0.69889020919799805
0.98672986030578613 0.93493896722793579 0.67960995435714722
0.011424584314227104 0.019083479419350624 0.29964044690132141
0.1738290935754776 0.01384627353399992 0.30418688058853149
0.49807444214820862 0.014015587046742439 0.31631508469581604
0.73623132705688477 0.007627435028553009 0.31384211778640747
0.92096281051635742 0.011426095850765705 0.26268705725669861
0.060703486204147339 0.23398527503013611 0.41364914178848267
0.22792434692382812 0.23065316677093506 0.4208490252494812
0.53223508596420288 0.22650864720344543 0.43067920207977295
0.75188720226287842 0.20349644124507904 0.42595136165618896
0.92435431480407715 0.17266888916492462 0.38931971788406372
0.12612329423427582 0.53811454772949219 0.54261571168899536
0.3169063925743103 0.53996890783309937 0.55201095342636108
0.56171214580535889 0.53674954175949097 0.55631369352340698
0.75900018215179443 0.53413534164428711 0.55731415748596191
0.93334084749221802 0.51659619808197021 0.53485572338104248
0.39172005653381348 0.7403799295425415 0.65393483638763428
0.47197920083999634 0.74069863557815552 0.65539467334747314
0.61487114429473877 0.73745632171630859 0.65818792581558228
0.77179861068725586 0.73752510547637939 0.66001474857330322
0.94296443462371826 0.73495173454284668 0.65160501003265381
0.56482857465744019 0.93902832269668579 0.76687180995941162
0.60575729608535767 0.94307887554168701 0.7690354585647583
0.68704789876937866 0.93797045946121216 0.77107334136962891
0.81579130887985229 0.94188445806503296 0.77185666561126709
0.98779118061065674 0.94009572267532349 0.764598548412323
0.014247146435081959 0.0084841260686516762 0.44596618413925171
0.15943777561187744 0.0049092909321188927 0.45084330439567566
0.47138074040412903 0.0085226017981767654 0.46875616908073425
0.72490847110748291 0.00038106582360342145 0.47781223058700562
0.89579635858535767 0.00094833376351743937 0.46597033739089966
0.023672664538025856 0.20247234404087067 0.53149795532226562
0.19778580963611603 0.20225350558757782 0.54481792449951172
0.51178514957427979 0.20053485035896301 0.55808764696121216
0.74231094121932983 0.17448040843009949 0.5648689866065979
0.91783183813095093 0.14696706831455231 0.55034375190734863
0.053160201758146286 0.53205412626266479 0.64534074068069458
0.27660456299781799 0.53585910797119141 0.65643155574798584
0.54810410737991333 0.53141582012176514 0.66321688890457153
0.75206762552261353 0.52857410907745361 0.67320835590362549
0.92720383405685425 0.50560504198074341 0.66673046350479126
0.34788060188293457 0.74105244874954224 0.74593079090118408
0.4500211775302887 0.73982363939285278 0.74853241443634033
0.60095059871673584 0.73831599950790405 0.75216186046600342
0.76730996370315552 0.73982077836990356 0.75955301523208618
0.93577855825424194 0.73352688550949097 0.75910818576812744
0.54737657308578491 0.95336830615997314 0.85333013534545898
0.59227395057678223 0.95538485050201416 0.85327756404876709
0.67329847812652588 0.95035183429718018 0.85821181535720825
0.80461978912353516 0.95251131057739258 0.85987710952758789
0.99219429492950439 0.9548686146736145 0.86116182804107666
0 0 0.5348932147026062
0.11228139698505402 0.0018920599250122905 0.54375165700912476
0.45523309707641602 0.0095430109649896622 0.56002020835876465
0.70913267135620117 0 0.56861984729766846
0.87816458940505981 0 0.55954587459564209
0.027918526902794838 0.16455157101154327 0.61684697866439819
0.17384693026542664 0.16538470983505249 0.62825256586074829
0.49616348743438721 0.15005262196063995 0.6326180100440979
0.72577869892120361 0.13921830058097839 0.64805144071578979
0.89782154560089111 0.10466582328081131 0.64151573181152344
0.011543288826942444 0.51729518175125122 0.72611182928085327
0.22592377662658691 0.5105472207069397 0.73737746477127075
0.52952855825424194 0.51174002885818481 0.74185597896575928
0.74003219604492188 0.50664573907852173 0.75679224729537964
0.91859924793243408 0.48014777898788452 0.75080829858779907
0.2763308584690094 0.73471665382385254 0.83830016851425171
0.40229541063308716 0.73173713684082031 0.82927322387695312
0.57882285118103027 0.73357748985290527 0.8407663106918335
0.75138264894485474 0.73017793893814087 0.84793055057525635
0.931171715259552 0.72616028785705566 0.85034435987472534
0.49078652262687683 0.95623362064361572 0.94960099458694458
0.55571705102920532 0.95276105403900146 0.9436722993850708
0.64908283948898315 0.95832693576812744 0.94981199502944946
0.78691494464874268 0.95914578437805176 0.9636235237121582
0.9837040901184082 0.96258997917175293 0.97652983665466309
