assets/lut/films colorslide fuji provia 100 generic.cube
# Created by: G'MIC (https://gmic.eu)
TITLE "fuji_provia_100_generic"
# LUT size
LUT_3D_SIZE 7
# Data domain
DOMAIN_MIN 0.0 0.0 0.0
DOMAIN_MAX 1.0 1.0 1.0
# LUT data points
0.034214302897453308 0.031004901975393295 0.030745681375265121
0.16850394010543823 0.02660045213997364 0.024005815386772156
0.37432429194450378 0.023035356774926186 0.021320672705769539
0.60105562210083008 0.022514551877975464 0.024471836164593697
0.81338906288146973 0.026016324758529663 0.029789434745907784
0.98590809106826782 0.036885444074869156 0.03110058419406414
1 0.039135653525590897 0.031378667801618576
0.068258337676525116 0.15786802768707275 0.037366319447755814
0.15738110244274139 0.15856258571147919 0.034011345356702805
0.36534464359283447 0.15924428403377533 0.0353725366294384
0.58952027559280396 0.16284668445587158 0.033953707665205002
0.79255616664886475 0.16322657465934753 0.034106578677892685
0.97104579210281372 0.17478170990943909 0.035963576287031174
1 0.18730342388153076 0.035946249961853027
0.0083017535507678986 0.34661954641342163 0.030788002535700798
0.075392551720142365 0.35528233647346497 0.047176390886306763
0.34372687339782715 0.35566076636314392 0.046589691191911697
0.56738138198852539 0.35647594928741455 0.045139431953430176
0.76642757654190063 0.35203629732131958 0.042253501713275909
0.94680464267730713 0.35299527645111084 0.046226561069488525
1 0.36203953623771667 0.043230257928371429
0 0.54223394393920898 0.013720239512622356
0.035837329924106598 0.55137991905212402 0.043997358530759811
0.29956933856010437 0.55174845457077026 0.055840808898210526
0.53813308477401733 0.55429446697235107 0.053985700011253357
0.73359709978103638 0.54855072498321533 0.04859619215130806
0.90301066637039185 0.54867249727249146 0.056362539529800415
0.99993216991424561 0.55012905597686768 0.049330975860357285
0 0.70813041925430298 0.00059868308017030358
0.039099015295505524 0.71716874837875366 0.012585269287228584
0.2660834789276123 0.72039145231246948 0.037438634783029556
0.50881427526473999 0.72542548179626465 0.042276419699192047
0.70345377922058105 0.72554665803909302 0.049772389233112335
0.86317771673202515 0.72630757093429565 0.052333444356918335
0.99111098051071167 0.72137564420700073 0.02315254881978035
0 0.85005629062652588 0
0.06923985481262207 0.8563721776008606 0
0.27646413445472717 0.8565630316734314 0
0.50292491912841797 0.85734027624130249 9.1552734375e-05
0.68633788824081421 0.86091631650924683 0.00071901804767549038
0.83671009540557861 0.86102312803268433 0.00022080366034060717
0.97304469347000122 0.86206710338592529 0
0.0009544821223244071 0.97662317752838135 0
0.11641371250152588 0.97971570491790771 0
0.30448010563850403 0.97793722152709961 0
0.50674676895141602 0.97640162706375122 0
0.67588192224502563 0.97774499654769897 0
0.81924152374267578 0.97976487874984741 0
0.95577985048294067 0.98318177461624146 0
0.035951890051364899 0.030958227813243866 0.15839928388595581
0.17405132949352264 0.031004901975393295 0.16166558861732483
0.37841352820396423 0.030433310195803642 0.15748117864131927
0.60752058029174805 0.02563679963350296 0.16475208103656769
0.82086843252182007 0.026816155761480331 0.16927017271518707
0.98479986190795898 0.033592313528060913 0.16632258892059326
1 0.034454658627510071 0.17391405999660492
0.065323837101459503 0.15822434425354004 0.15859566628932953
0.16206048429012299 0.15879110991954803 0.16237744688987732
0.37024736404418945 0.15958027541637421 0.15937606990337372
0.59583252668380737 0.15991152822971344 0.16304610669612885
0.79885047674179077 0.16251872479915619 0.16383402049541473
0.96635836362838745 0.17129611968994141 0.16174164414405823
1 0.18023024499416351 0.17061483860015869
0.028360210359096527 0.3523467481136322 0.1535385400056839
0.11030744761228561 0.35100510716438293 0.16192843019962311
0.34658282995223999 0.35338276624679565 0.15581761300563812
0.57408648729324341 0.35587233304977417 0.15621678531169891
0.7716062068939209 0.35461068153381348 0.15317660570144653
0.94820189476013184 0.35800948739051819 0.15749883651733398
1 0.36126825213432312 0.1634707897901535
0 0.54920691251754761 0.14544117450714111
0.047585193067789078 0.55039459466934204 0.15554268658161163
0.30751281976699829 0.55255043506622314 0.14379628002643585
0.54741752147674561 0.55524724721908569 0.14787904918193817
0.73811942338943481 0.55329656600952148 0.1474708765745163
0.90151691436767578 0.55702793598175049 0.1517779529094696
0.99461269378662109 0.55694639682769775 0.14797499775886536
0 0.71386551856994629 0.12777990102767944
0.031771238893270493 0.71896803379058838 0.13645625114440918
0.27391818165779114 0.71953219175338745 0.13442432880401611
0.52066516876220703 0.72270113229751587 0.14359109103679657
0.71131962537765503 0.72303920984268188 0.15254808962345123
0.86737853288650513 0.72548866271972656 0.14868482947349548
0.98604422807693481 0.72634756565093994 0.13402724266052246
0 0.85283005237579346 0.10451702028512955
0.060011021792888641 0.85651665925979614 0.10916429758071899
0.2749793529510498 0.85641109943389893 0.11976607143878937
0.51254379749298096 0.85573464632034302 0.11154016107320786
0.6933014988899231 0.85853785276412964 0.11970213055610657
0.83956623077392578 0.86029088497161865 0.10846833139657974
0.97181802988052368 0.86470228433609009 0.10142273455858231
0.0034042359329760075 0.97523796558380127 0.11249513924121857
0.11850198358297348 0.97593516111373901 0.11485382914543152
0.31025615334510803 0.97671771049499512 0.11083650588989258
0.51869267225265503 0.97651410102844238 0.10116089135408401
0.68233627080917358 0.97912132740020752 0.10532850027084351
0.81829875707626343 0.97986471652984619 0.097817167639732361
0.95425474643707275 0.98332834243774414 0.10062369704246521
0.065776735544204712 0.019497815519571304 0.34526002407073975
0.18557773530483246 0.023898929357528687 0.35221713781356812
0.38184133172035217 0.030558282509446144 0.35441583395004272
0.61107337474822998 0.030936805531382561 0.35745719075202942
0.82871329784393311 0.031564075499773026 0.35837492346763611
0.98759454488754272 0.03575298935174942 0.35468789935112
1 0.030975909903645515 0.35746327042579651
0.079912163317203522 0.15447519719600677 0.35399720072746277
0.16622339189052582 0.15581126511096954 0.35620054602622986
0.37376978993415833 0.16045607626438141 0.35395315289497375
0.59775912761688232 0.16415973007678986 0.35724422335624695
0.80399984121322632 0.16610512137413025 0.35783949494361877
0.96185696125030518 0.17266902327537537 0.35431066155433655
1 0.173646479845047 0.35935759544372559
0.029059899970889091 0.34864693880081177 0.35049179196357727
0.097931221127510071 0.35319504141807556 0.35483992099761963
0.35614114999771118 0.35314437747001648 0.35336035490036011
0.57694441080093384 0.35650113224983215 0.35498961806297302
0.78243303298950195 0.35469737648963928 0.35228917002677917
0.95679092407226562 0.35642555356025696 0.35032084584236145
1 0.35489389300346375 0.35175594687461853
0 0.54542070627212524 0.34747496247291565
0.039394274353981018 0.54560214281082153 0.35178321599960327
0.31808063387870789 0.54550474882125854 0.35175684094429016
0.55032551288604736 0.55260366201400757 0.35017862915992737
0.74600917100906372 0.55037921667098999 0.34909692406654358
0.91956460475921631 0.55219161510467529 0.34782487154006958
0.99985605478286743 0.55035436153411865 0.34376704692840576
0 0.71516633033752441 0.3413928747177124
0.02022024430334568 0.71603143215179443 0.34801480174064636
0.27207052707672119 0.71498686075210571 0.34762692451477051
0.52143007516860962 0.7191619873046875 0.34386333823204041
0.7131233811378479 0.7221032977104187 0.34644511342048645
0.87654197216033936 0.72303277254104614 0.34421297907829285
0.99171727895736694 0.72140794992446899 0.33510801196098328
2.8722427032334963e-06 0.85270047187805176 0.34461256861686707
0.059384964406490326 0.85561364889144897 0.35488319396972656
0.27205446362495422 0.85671621561050415 0.35151445865631104
0.51290309429168701 0.85796964168548584 0.34440949559211731
0.6947253942489624 0.86121684312820435 0.34774488210678101
0.8440818190574646 0.86167627573013306 0.34020081162452698
0.97879523038864136 0.8593292236328125 0.3298724889755249
0.01974252425134182 0.9713936448097229 0.35285505652427673
0.13450664281845093 0.97048592567443848 0.36060437560081482
0.32170906662940979 0.97418534755706787 0.35288804769515991
0.52541309595108032 0.9792712926864624 0.35633987188339233
0.68473559617996216 0.98288428783416748 0.36249107122421265
0.81482791900634766 0.98308533430099487 0.35736387968063354
0.95834642648696899 0.98162335157394409 0.33912321925163269
0.10317316651344299 0.01056403387337923 0.5435451865196228
0.21534763276576996 0.014964533969759941 0.55426537990570068
0.39508926868438721 0.027199434116482735 0.56173336505889893
0.61825370788574219 0.030759235844016075 0.56207281351089478
0.83348244428634644 0.033847779035568237 0.56269025802612305
0.98876428604125977 0.036831919103860855 0.56188535690307617
1 0.032014690339565277 0.55404746532440186
0.091591872274875641 0.15371367335319519 0.55773621797561646
0.18387752771377563 0.15516158938407898 0.56209331750869751
0.38421687483787537 0.15950162708759308 0.5599215030670166
0.60752964019775391 0.1651679128408432 0.56011205911636353
0.81269484758377075 0.17242170870304108 0.56274509429931641
0.96140217781066895 0.18014547228813171 0.56255817413330078
1 0.17836302518844604 0.55948835611343384
0.030608158558607101 0.35223859548568726 0.55209231376647949
0.12084748595952988 0.35462856292724609 0.55576831102371216
0.35977894067764282 0.35364019870758057 0.55556076765060425
0.58219802379608154 0.35594308376312256 0.55782109498977661
0.79025602340698242 0.35754218697547913 0.55888265371322632
0.96026670932769775 0.36475911736488342 0.55566012859344482
1 0.36070665717124939 0.55332624912261963
2.2170122974785045e-05 0.54715466499328613 0.55174875259399414
0.058387141674757004 0.54903268814086914 0.54944241046905518
0.33592620491981506 0.5453982949256897 0.54976367950439453
0.54960042238235474 0.55321884155273438 0.55325329303741455
0.75185257196426392 0.55113190412521362 0.55595248937606812
0.92319416999816895 0.55376428365707397 0.55490195751190186
0.9989006519317627 0.55114495754241943 0.54834520816802979
0 0.72176200151443481 0.54563254117965698
0.012749002315104008 0.72230929136276245 0.54575246572494507
0.27844324707984924 0.71857064962387085 0.54770702123641968
0.52425527572631836 0.72204339504241943 0.54734706878662109
0.71907168626785278 0.72274792194366455 0.54904288053512573
0.87668955326080322 0.72659039497375488 0.55096518993377686
0.98828816413879395 0.7207222580909729 0.54562556743621826
0.005617867223918438 0.85713815689086914 0.55179405212402344
0.077483952045440674 0.85710781812667847 0.55653280019760132
0.29405444860458374 0.85710781812667847 0.55322456359863281
0.5305488109588623 0.85466378927230835 0.54721403121948242
0.70883280038833618 0.85608583688735962 0.54772621393203735
0.85167831182479858 0.85949134826660156 0.54868102073669434
0.98202508687973022 0.85613018274307251 0.54934704303741455
0.05172589048743248 0.97291666269302368 0.55627745389938354
0.16777646541595459 0.97286510467529297 0.56012791395187378
0.3516918420791626 0.97291666269302368 0.55498600006103516
0.54720216989517212 0.97249531745910645 0.55186218023300171
0.69801473617553711 0.9768977165222168 0.55787336826324463
0.82418215274810791 0.98113459348678589 0.56078422069549561
0.96386200189590454 0.97949004173278809 0.5525093674659729
0.12455369532108307 0.0075367647223174572 0.71520256996154785
0.24097517132759094 0.0098577011376619339 0.72651076316833496
0.41572552919387817 0.016401911154389381 0.73241007328033447
0.62521487474441528 0.023538941517472267 0.73526114225387573
0.83357596397399902 0.032058775424957275 0.74120712280273438
0.99286937713623047 0.038025427609682083 0.74341899156570435
1 0.036214835941791534 0.72945904731750488
0.092497102916240692 0.15945851802825928 0.72667080163955688
0.20276723802089691 0.1568620502948761 0.73265773057937622
0.39584878087043762 0.15770338475704193 0.73311340808868408
0.61222940683364868 0.16142161190509796 0.73563826084136963
0.81628274917602539 0.16965770721435547 0.74191570281982422
0.97652310132980347 0.18443375825881958 0.7413213849067688
1 0.18972951173782349 0.73160684108734131
0.032851006835699081 0.35609117150306702 0.72702515125274658
0.13842204213142395 0.3509652316570282 0.72970837354660034
0.36107960343360901 0.34927299618721008 0.72785210609436035
0.58537465333938599 0.35411262512207031 0.73071199655532837
0.79318392276763916 0.35629990696907043 0.73497313261032104
0.96006208658218384 0.36645162105560303 0.73401808738708496
1 0.36939254403114319 0.72705477476119995
0 0.54623383283615112 0.72812145948410034
0.067259453237056732 0.54495406150817871 0.72607457637786865
0.32769939303398132 0.54508191347122192 0.72312319278717041
0.55791306495666504 0.55261385440826416 0.72648406028747559
0.75886881351470947 0.55196487903594971 0.72992134094238281
0.9267309308052063 0.55655431747436523 0.73087519407272339
0.99999135732650757 0.55502676963806152 0.72562068700790405
0 0.71731269359588623 0.72091704607009888
0.025808505713939667 0.71793735027313232 0.71874666213989258
0.28922826051712036 0.71856206655502319 0.71876031160354614
0.53449839353561401 0.72230392694473267 0.72215676307678223
0.7256513237953186 0.72370779514312744 0.72407889366149902
0.88260364532470703 0.72696077823638916 0.72762811183929443
0.99361926317214966 0.72241121530532837 0.72361868619918823
0.0070763980038464069 0.85556763410568237 0.72023159265518188
0.090471468865871429 0.85374724864959717 0.72026091814041138
0.3235008716583252 0.85454118251800537 0.72166228294372559
0.54483264684677124 0.85346996784210205 0.71916311979293823
0.71541059017181396 0.85492902994155884 0.72247278690338135
0.85451114177703857 0.86144262552261353 0.7228817343711853
0.98267370462417603 0.85860687494277954 0.72192716598510742
0.063117250800132751 0.97421455383300781 0.71986860036849976
0.18719753623008728 0.97248005867004395 0.72103261947631836
0.37843838334083557 0.97325074672698975 0.71890115737915039
0.56003314256668091 0.9738471508026123 0.71731775999069214
0.70589143037796021 0.97538518905639648 0.71993160247802734
0.82923471927642822 0.98141229152679443 0.72176492214202881
0.96679353713989258 0.98005175590515137 0.71850985288619995
0.13721464574337006 0.0049578198231756687 0.86068391799926758
0.25237402319908142 0.0061290967278182507 0.86989176273345947
0.42447885870933533 0.011621736921370029 0.87451434135437012
0.62699896097183228 0.02222423255443573 0.87697136402130127
0.83337873220443726 0.034131322056055069 0.88101398944854736
0.99628728628158569 0.038210730999708176 0.88412308692932129
1 0.035948015749454498 0.87317240238189697
0.094603188335895538 0.15826509892940521 0.86901026964187622
0.20260398089885712 0.15472392737865448 0.87475031614303589
0.3940238356590271 0.1594461053609848 0.8770098090171814
0.60921680927276611 0.16720432043075562 0.87928479909896851
0.81803727149963379 0.17239762842655182 0.88316816091537476
0.9867585301399231 0.18325711786746979 0.8822513222694397
1 0.19065588712692261 0.87380707263946533
0.035259906202554703 0.35446524620056152 0.87167847156524658
0.13761124014854431 0.34978610277175903 0.87313038110733032
0.36231321096420288 0.35135290026664734 0.87350928783416748
0.58956599235534668 0.35820990800857544 0.87446945905685425
0.7968859076499939 0.35412716865539551 0.87672221660614014
0.96825289726257324 0.36185768246650696 0.87512439489364624
1 0.36902207136154175 0.86937260627746582
1.6156365745700896e-05 0.54831647872924805 0.87091648578643799
0.082373887300491333 0.54568564891815186 0.87030971050262451
0.34845420718193054 0.54448217153549194 0.87005460262298584
0.56992465257644653 0.55254000425338745 0.86975193023681641
0.76405006647109985 0.54740417003631592 0.86964404582977295
0.92995625734329224 0.55357033014297485 0.8699144721031189
1 0.55673128366470337 0.8661380410194397
0 0.71701717376708984 0.86239707469940186
0.047035664319992065 0.71734696626663208 0.86008971929550171
0.31011158227920532 0.71767598390579224 0.86084771156311035
0.53667020797729492 0.72293585538864136 0.86244219541549683
0.72648757696151733 0.72261029481887817 0.86242032051086426
0.88494575023651123 0.72671616077423096 0.86487334966659546
0.99535125494003296 0.72637510299682617 0.86167061328887939
3.940357782994397e-05 0.85379248857498169 0.86102145910263062
0.068429462611675262 0.85365694761276245 0.85715597867965698
0.33051338791847229 0.85451573133468628 0.85842740535736084
0.54356223344802856 0.85740011930465698 0.85709047317504883
0.71876424551010132 0.85706245899200439 0.85971516370773315
0.86174124479293823 0.86094474792480469 0.86102938652038574
0.98631447553634644 0.85896056890487671 0.86076509952545166
0.053131628781557083 0.97696799039840698 0.8599705696105957
0.18043714761734009 0.97591471672058105 0.85922837257385254
0.38126498460769653 0.97858071327209473 0.85480868816375732
0.5591883659362793 0.97976976633071899 0.85227614641189575
0.70648539066314697 0.97958487272262573 0.85368293523788452
0.83376306295394897 0.9816405177116394 0.85573911666870117
0.97045242786407471 0.97970461845397949 0.85654139518737793
0.15330268442630768 0.0026704675983637571 0.98650532960891724
0.26212158799171448 0.0039827385917305946 0.99064475297927856
0.43142324686050415 0.0099691050127148628 0.99297589063644409
0.63499432802200317 0.021076980978250504 0.99319851398468018
0.84203064441680908 0.032473035156726837 0.9924280047416687
0.99814802408218384 0.034316148608922958 0.99288249015808105
1 0.02972697839140892 0.99010896682739258
0.10974013060331345 0.1527152806520462 0.98892921209335327
0.19607718288898468 0.1525944322347641 0.99096637964248657
0.38711956143379211 0.16393926739692688 0.99319851398468018
0.60958170890808105 0.17492179572582245 0.99319851398468018
0.82169109582901001 0.17771546542644501 0.99319851398468018
0.9913063645362854 0.17757166922092438 0.99316191673278809
1 0.18357998132705688 0.99054825305938721
0.057411402463912964 0.34866347908973694 0.98854166269302368
0.1389145702123642 0.35166579484939575 0.98871785402297974
0.36003980040550232 0.35519468784332275 0.99088221788406372
0.59266400337219238 0.35809099674224854 0.99241703748703003
0.79797059297561646 0.35347852110862732 0.99176585674285889
0.97104406356811523 0.35046172142028809 0.99042052030563354
1 0.35821235179901123 0.98831045627593994
0.017450654879212379 0.54613924026489258 0.98607081174850464
0.11012642085552216 0.55044084787368774 0.98473918437957764
0.35433834791183472 0.54965436458587646 0.98780840635299683
0.57505178451538086 0.54997760057449341 0.98996353149414062
0.76349872350692749 0.54446119070053101 0.9885636568069458
0.92478412389755249 0.54429203271865845 0.98673975467681885
1 0.54690086841583252 0.98463922739028931
0.013311842456459999 0.7181771993637085 0.9805561900138855
0.10352253913879395 0.72031354904174805 0.97908204793930054
0.32632589340209961 0.72083401679992676 0.9810677170753479
0.54138952493667603 0.72209328413009644 0.98574525117874146
0.72871690988540649 0.71871119737625122 0.98300474882125854
0.88150632381439209 0.71921712160110474 0.9807928204536438
0.99437808990478516 0.7201882004737854 0.97979289293289185
0.019608082249760628 0.85571777820587158 0.98231679201126099
0.13090834021568298 0.85320192575454712 0.98052418231964111
0.34395685791969299 0.85469257831573486 0.97875761985778809
0.54540407657623291 0.85536402463912964 0.97999173402786255
0.71917498111724854 0.85562992095947266 0.97849082946777344
0.86106479167938232 0.85735172033309937 0.97809219360351562
0.98464363813400269 0.85460478067398071 0.98113769292831421
0.071634329855442047 0.97967368364334106 0.98349547386169434
0.21045978367328644 0.97630035877227783 0.98384904861450195
0.39202228188514709 0.97821033000946045 0.97965097427368164
0.56444931030273438 0.9767155647277832 0.97964870929718018
0.71221798658370972 0.97858816385269165 0.97795200347900391
0.84256786108016968 0.97830820083618164 0.98052781820297241
0.97428172826766968 0.97616827487945557 0.98149919509887695
