assets/lut/films colorslide kodak e-100 gx ektachrome 100.cube
# Created by: G'MIC (https://gmic.eu)
TITLE "kodak_e-100_gx_ektachrome_100"
# LUT size
LUT_3D_SIZE 13
# Data domain
DOMAIN_MIN 0.0 0.0 0.0
DOMAIN_MAX 1.0 1.0 1.0
# LUT data points
0.028569689020514488 0.029592057690024376 0.028447559103369713
0.071024335920810699 0.020459193736314774 0.021284919232130051
0.12595906853675842 0.013674029149115086 0.015735790133476257
0.18999165296554565 0.010735710151493549 0.011231261305510998
0.25965067744255066 0.0084491055458784103 0.0075389486737549305
0.33276465535163879 0.0044133802875876427 0.0047285193577408791
0.40675845742225647 0.00075297633884474635 0.0020167331676930189
0.48031347990036011 0 0.00029260970768518746
0.55268549919128418 0 0
0.62286734580993652 0 0
0.69017738103866577 0 0
0.75440222024917603 0 0
0.8153347373008728 0 0
0.069060593843460083 0.095936164259910583 0.052106205374002457
0.10373461991548538 0.086427249014377594 0.045684456825256348
0.15357705950737 0.07570938766002655 0.041025664657354355
0.21514461934566498 0.068988069891929626 0.036595303565263748
0.28362450003623962 0.061753261834383011 0.032712690532207489
0.35612130165100098 0.048721462488174438 0.029110748320817947
0.42858222126960754 0.032254192978143692 0.020923135802149773
0.49950739741325378 0.016576699912548065 0.0098053431138396263
0.56920105218887329 0.0049514919519424438 0.0025523765943944454
0.63671201467514038 0.00023235246771946549 0.00015133128908928484
0.70148324966430664 0 0
0.7636336088180542 0 0
0.82314753532409668 0 0
0.11382526904344559 0.16842660307884216 0.080231264233589172
0.14102770388126373 0.1615484207868576 0.075106494128704071
0.18349160254001617 0.15310291945934296 0.07046382874250412
0.2411254495382309 0.14619588851928711 0.065010577440261841
0.30826342105865479 0.13597333431243896 0.060467738658189774
0.38013100624084473 0.11877138912677765 0.056423172354698181
0.45163583755493164 0.097771696746349335 0.04854990541934967
0.52091407775878906 0.074511736631393433 0.035758223384618759
0.58799630403518677 0.048950720578432083 0.020731279626488686
0.65257275104522705 0.023218521848320961 0.0083541572093963623
0.71517479419708252 0.0054449792951345444 0.0020140854176133871
0.77482038736343384 0.00017368092085234821 0.00015492158127017319
0.83202743530273438 0 0
0.14918424189090729 0.24936647713184357 0.11349879205226898
0.17494665086269379 0.24575871229171753 0.1097608208656311
0.21466083824634552 0.24103499948978424 0.10494079440832138
0.27021089196205139 0.23417112231254578 0.097513355314731598
0.33652523159980774 0.22246682643890381 0.090853564441204071
0.40744832158088684 0.20493040978908539 0.085309408605098724
0.47778233885765076 0.18299044668674469 0.078004412353038788
0.54572099447250366 0.15658797323703766 0.067311227321624756
0.6109006404876709 0.1236974373459816 0.053462639451026917
0.67360121011734009 0.087405472993850708 0.037757948040962219
0.73395168781280518 0.051161926239728928 0.022916456684470177
0.79062736034393311 0.019102912396192551 0.011093453504145145
0.84503746032714844 0.0028820859733968973 0.0040725409053266048
0.179317906498909 0.33743715286254883 0.14874765276908875
0.20734250545501709 0.33606091141700745 0.14645156264305115
0.24814838171005249 0.33317309617996216 0.14199064671993256
0.30392774939537048 0.32633852958679199 0.13369707763195038
0.36978891491889954 0.31557127833366394 0.12511678040027618
0.43880322575569153 0.30140182375907898 0.11920002847909927
0.50718009471893311 0.28315496444702148 0.1130022257566452
0.57381522655487061 0.25817105174064636 0.10355138033628464
0.63839977979660034 0.22482657432556152 0.09119001030921936
0.70060926675796509 0.1837937980890274 0.077215977013111115
0.75926125049591064 0.13484616577625275 0.063020341098308563
0.81285679340362549 0.081438355147838593 0.04799315333366394
0.86386042833328247 0.043068680912256241 0.033923998475074768
0.22178244590759277 0.42808184027671814 0.18343895673751831
0.24955199658870697 0.42815575003623962 0.18149749934673309
0.28988927602767944 0.42601791024208069 0.1779010146856308
0.34400090575218201 0.41997221112251282 0.17009823024272919
0.40743079781532288 0.41114932298660278 0.16166940331459045
0.47332489490509033 0.40137162804603577 0.15684989094734192
0.53899365663528442 0.38898384571075439 0.15284958481788635
0.60406255722045898 0.36917349696159363 0.14427118003368378
0.6685519814491272 0.34176379442214966 0.13242180645465851
0.73163712024688721 0.30629494786262512 0.12073896825313568
0.79065948724746704 0.25722694396972656 0.1084035262465477
0.84204006195068359 0.18999634683132172 0.093741565942764282
0.88913404941558838 0.13597516715526581 0.078607462346553802
0.28187686204910278 0.51932907104492188 0.21796593070030212
0.30543392896652222 0.51951128244400024 0.21612972021102905
0.34049490094184875 0.51737368106842041 0.2142912894487381
0.38843575119972229 0.5127187967300415 0.20907826721668243
0.44635805487632751 0.50617796182632446 0.20276463031768799
0.50862580537796021 0.49928098917007446 0.19829225540161133
0.57161122560501099 0.49070799350738525 0.19413849711418152
0.63523322343826294 0.47720485925674438 0.18632802367210388
0.69885420799255371 0.45877006649971008 0.17646102607250214
0.76237905025482178 0.43526265025138855 0.16687504947185516
0.82325267791748047 0.40132936835289001 0.15687365829944611
0.87550908327102661 0.34473314881324768 0.14267843961715698
0.92055612802505493 0.286661297082901 0.1261657178401947
0.35059687495231628 0.60724610090255737 0.25444534420967102
0.36830174922943115 0.60741376876831055 0.25421059131622314
0.39617791771888733 0.60581856966018677 0.25395843386650085
0.43570905923843384 0.60264259576797485 0.25212275981903076
0.48638683557510376 0.59789150953292847 0.24835215508937836
0.54440200328826904 0.59221863746643066 0.24361163377761841
0.60555475950241089 0.58549004793167114 0.2381511926651001
0.66673147678375244 0.57649350166320801 0.23091727495193481
0.72786968946456909 0.56464707851409912 0.22299192845821381
0.78920996189117432 0.54907971620559692 0.21427649259567261
0.84982740879058838 0.5266534686088562 0.20439866185188293
0.90478509664535522 0.49049609899520874 0.19090211391448975
0.95075690746307373 0.44511091709136963 0.17526602745056152
0.41954129934310913 0.68908852338790894 0.29784822463989258
0.43336722254753113 0.69002646207809448 0.29624268412590027
0.45482146739959717 0.6890941858291626 0.29669880867004395
0.48681181669235229 0.6870540976524353 0.29715892672538757
0.53069818019866943 0.68337351083755493 0.29541662335395813
0.58387452363967896 0.67850387096405029 0.29104778170585632
0.64095103740692139 0.6730802059173584 0.28505271673202515
0.69902229309082031 0.66673409938812256 0.27824252843856812
0.75586730241775513 0.65864408016204834 0.27152052521705627
0.81367671489715576 0.64692246913909912 0.26398944854736328
0.87298375368118286 0.62937414646148682 0.25401049852371216
0.92973577976226807 0.60553443431854248 0.24147453904151917
0.9766460657119751 0.57313930988311768 0.22818441689014435
0.48718166351318359 0.76465845108032227 0.34660130739212036
0.49884495139122009 0.76633507013320923 0.34325501322746277
0.5163082480430603 0.76621812582015991 0.34216207265853882
0.54340064525604248 0.76473671197891235 0.34281918406486511
0.58120226860046387 0.76177722215652466 0.34276241064071655
0.62790268659591675 0.75805556774139404 0.34028643369674683
0.67943155765533447 0.75411230325698853 0.33467766642570496
0.73193049430847168 0.74998623132705688 0.32811412215232849
0.78391695022583008 0.74493098258972168 0.32253029942512512
0.83746224641799927 0.73682111501693726 0.31675714254379272
0.89557689428329468 0.72348201274871826 0.30835127830505371
0.95228338241577148 0.70467865467071533 0.29726138710975647
0.99332088232040405 0.67956501245498657 0.28580382466316223
0.55705690383911133 0.83585584163665771 0.3993188738822937
0.56610262393951416 0.83780717849731445 0.39374926686286926
0.58037835359573364 0.83829653263092041 0.39068281650543213
0.60333728790283203 0.83697038888931274 0.39175376296043396
0.6360173225402832 0.83446478843688965 0.39362943172454834
0.67620420455932617 0.83202695846557617 0.39242404699325562
0.72084277868270874 0.8299332857131958 0.38737261295318604
0.76732915639877319 0.82755535840988159 0.38055619597434998
0.81462991237640381 0.82526201009750366 0.37489122152328491
0.86416935920715332 0.82016456127166748 0.37118294835090637
0.91781044006347656 0.81039577722549438 0.36612275242805481
0.96845561265945435 0.79557502269744873 0.3576359748840332
0.99867862462997437 0.77651560306549072 0.34790521860122681
0.62891930341720581 0.90406131744384766 0.45517954230308533
0.63592356443405151 0.90614116191864014 0.44851404428482056
0.64734524488449097 0.90682107210159302 0.44465786218643188
0.66663169860839844 0.90540486574172974 0.44570931792259216
0.69435566663742065 0.90339004993438721 0.44924375414848328
0.72829174995422363 0.90213215351104736 0.44838395714759827
0.7667548656463623 0.90167295932769775 0.44272136688232422
0.8077315092086792 0.90153646469116211 0.4351448118686676
0.85085171461105347 0.90020769834518433 0.42874881625175476
0.89699643850326538 0.89707905054092407 0.42592981457710266
0.94283682107925415 0.89085173606872559 0.42523223161697388
0.97820055484771729 0.88201820850372314 0.42091944813728333
0.9982791543006897 0.86941230297088623 0.41277453303337097
0.70177853107452393 0.97087174654006958 0.51196765899658203
0.70751088857650757 0.97271811962127686 0.50599020719528198
0.71702361106872559 0.97306913137435913 0.50266468524932861
0.73297607898712158 0.9721946120262146 0.50406891107559204
0.75597834587097168 0.97047883272171021 0.50752389430999756
0.78449177742004395 0.97038006782531738 0.5058286190032959
0.81708747148513794 0.97161829471588135 0.49939903616905212
0.85270333290100098 0.97266054153442383 0.49167591333389282
0.89136999845504761 0.9725414514541626 0.48550978302955627
0.93231439590454102 0.97120004892349243 0.48347729444503784
0.97050565481185913 0.96807873249053955 0.48504003882408142
0.99205315113067627 0.96399223804473877 0.48302468657493591
0.99918657541275024 0.95705282688140869 0.47521871328353882
0.023071946576237679 0.029170241206884384 0.075214847922325134
0.06455499678850174 0.020649973303079605 0.069218866527080536
0.11943558603525162 0.015163032338023186 0.063231974840164185
0.18370723724365234 0.013690724037587643 0.056226886808872223
0.25281217694282532 0.014126422815024853 0.047600317746400833
0.32520315051078796 0.010908777825534344 0.038933549076318741
0.4004991352558136 0.0033155253622680902 0.031189713627099991
0.47682985663414001 0.0001188390378956683 0.021898172795772552
0.55242210626602173 0 0.01167481392621994
0.62479639053344727 0 0.0043855556286871433
0.69336980581283569 0 0.00096906773978844285
0.75851583480834961 0 4.7392004489665851e-05
0.81990879774093628 0 0
0.058793161064386368 0.098238162696361542 0.098780736327171326
0.095208518207073212 0.088714540004730225 0.093988873064517975
0.14607982337474823 0.079502448439598083 0.09026278555393219
0.20909363031387329 0.072920314967632294 0.085263393819332123
0.27700823545455933 0.067652970552444458 0.078506976366043091
0.34866151213645935 0.056091085076332092 0.072029411792755127
0.42182019352912903 0.038028717041015625 0.064066402614116669
0.49494743347167969 0.020855652168393135 0.052210759371519089
0.56711810827255249 0.0085443984717130661 0.037403315305709839
0.63639992475509644 0.0014930276665836573 0.022411361336708069
0.70252621173858643 1.8101112800650299e-05 0.01079895906150341
0.76536023616790771 0 0.0038795620203018188
0.82502132654190063 0 0.00092578964540734887
0.10070100426673889 0.17295894026756287 0.12756846845149994
0.13162180781364441 0.16673821210861206 0.12333107739686966
0.1746574342250824 0.15911856293678284 0.11868599057197571
0.2340371161699295 0.15042005479335785 0.1130785197019577
0.30200561881065369 0.13977105915546417 0.10712238401174545
0.37376809120178223 0.12301960587501526 0.10128799080848694
0.44565308094024658 0.10111196339130402 0.093680709600448608
0.5163993239402771 0.07736504077911377 0.081686891615390778
0.5847586989402771 0.051953528076410294 0.066981658339500427
0.65033036470413208 0.027254275977611542 0.051182150840759277
0.71355366706848145 0.010434872470796108 0.035803310573101044
0.77391743659973145 0.0026522916741669178 0.02169017493724823
0.83111780881881714 0.00032945521525107324 0.011629306711256504
0.13589198887348175 0.25461861491203308 0.16045267879962921
0.1650206595659256 0.25100672245025635 0.15680009126663208
0.20613163709640503 0.24615846574306488 0.15111510455608368
0.26281240582466125 0.23830872774124146 0.14367294311523438
0.33061644434928894 0.22602291405200958 0.13670620322227478
0.40210404992103577 0.20867933332920074 0.13042622804641724
0.4731176495552063 0.18680445849895477 0.12286430597305298
0.5419127345085144 0.15997940301895142 0.11199255287647247
0.60747766494750977 0.12605656683444977 0.098411604762077332
0.67027431726455688 0.088454827666282654 0.084031663835048676
0.73086470365524292 0.056374672800302505 0.069700874388217926
0.78805595636367798 0.030486851930618286 0.05490276962518692
0.84247702360153198 0.011970176361501217 0.041693098843097687
0.16783297061920166 0.34224572777748108 0.19401530921459198
0.19656407833099365 0.34069132804870605 0.19074800610542297
0.23948457837104797 0.33726862072944641 0.18534566462039948
0.2972404956817627 0.33009302616119385 0.17720293998718262
0.36452659964561462 0.31916102766990662 0.16878509521484375
0.43466839194297791 0.30494430661201477 0.16246671974658966
0.50358885526657104 0.28687414526939392 0.15557777881622314
0.57074427604675293 0.26243564486503601 0.14601609110832214
0.63543665409088135 0.22898228466510773 0.13379622995853424
0.69769203662872314 0.18757046759128571 0.12140799313783646
0.75643253326416016 0.14182035624980927 0.10811938345432281
0.81036365032196045 0.095139928162097931 0.094141922891139984
0.86109495162963867 0.059099547564983368 0.081280745565891266
0.21205645799636841 0.43247491121292114 0.22703440487384796
0.23929674923419952 0.43213391304016113 0.22411414980888367
0.28140521049499512 0.42941492795944214 0.21957756578922272
0.33772352337837219 0.42317241430282593 0.21174290776252747
0.40307042002677917 0.4141247570514679 0.20274226367473602
0.4700566828250885 0.40406295657157898 0.19732891023159027
0.53586328029632568 0.39162051677703857 0.19235016405582428
0.60115933418273926 0.37318712472915649 0.18363896012306213
0.66578966379165649 0.34693154692649841 0.17275883257389069
0.72931927442550659 0.31282180547714233 0.16193340718746185
0.78855931758880615 0.2665523886680603 0.15001821517944336
0.84019219875335693 0.20664587616920471 0.13697296380996704
0.8869364857673645 0.1545543372631073 0.12423998117446899
0.27216503024101257 0.5225294828414917 0.26041591167449951
0.2955634593963623 0.52258569002151489 0.25776061415672302
0.3324088454246521 0.52030211687088013 0.25457465648651123
0.38262218236923218 0.5154106616973877 0.24889293313026428
0.44256690144538879 0.5086396336555481 0.24178031086921692
0.50553393363952637 0.50153094530105591 0.23700939118862152
0.56882250308990479 0.49321258068084717 0.23256239295005798
0.63226300477981567 0.48085212707519531 0.22481968998908997
0.69628071784973145 0.46363931894302368 0.21534501016139984
0.76042479276657104 0.44091680645942688 0.20636120438575745
0.82105261087417603 0.40685299038887024 0.19534336030483246
0.87272483110427856 0.3517707884311676 0.18277533352375031
0.91748034954071045 0.29491612315177917 0.16986675560474396
0.34016656875610352 0.60943204164505005 0.29612717032432556
0.35899031162261963 0.60988104343414307 0.2939612865447998
0.38864758610725403 0.60814464092254639 0.29263615608215332
0.4305320680141449 0.60470795631408691 0.28959056735038757
0.48282572627067566 0.59984475374221802 0.28547969460487366
0.54144954681396484 0.59431582689285278 0.28094357252120972
0.60235428810119629 0.5878913402557373 0.27579039335250854
0.66388309001922607 0.57929080724716187 0.2692168653011322
0.72554820775985718 0.56776881217956543 0.26194074749946594
0.78746360540390015 0.55152547359466553 0.25350660085678101
0.84773212671279907 0.52685213088989258 0.24301299452781677
0.90166705846786499 0.48975735902786255 0.23032715916633606
0.94730091094970703 0.44492384791374207 0.21774581074714661
0.40907353162765503 0.69149494171142578 0.33706030249595642
0.42428302764892578 0.69166535139083862 0.33396062254905701
0.4475436806678772 0.6911625862121582 0.33277016878128052
0.4818892776966095 0.68870377540588379 0.33185136318206787
0.5272219181060791 0.68490839004516602 0.33003205060958862
0.58044499158859253 0.68038856983184814 0.32636737823486328
0.63787633180618286 0.67507433891296387 0.32112583518028259
0.69600003957748413 0.66865336894989014 0.31479531526565552
0.75348609685897827 0.66063731908798218 0.30884388089179993
0.81171530485153198 0.64769142866134644 0.30168643593788147
0.87056934833526611 0.62869739532470703 0.29179728031158447
0.92638552188873291 0.6057402491569519 0.27991434931755066
0.97322297096252441 0.57470691204071045 0.26841431856155396
0.47791483998298645 0.76661640405654907 0.38264593482017517
0.49014708399772644 0.76833522319793701 0.37765070796012878
0.50884145498275757 0.76845318078994751 0.37507086992263794
0.53728890419006348 0.76629692316055298 0.37506306171417236
0.57624000310897827 0.76349425315856934 0.37520334124565125
0.62338060140609741 0.75976616144180298 0.37309011816978455
0.67512869834899902 0.7558014988899231 0.3680213987827301
0.72841566801071167 0.7515149712562561 0.36164838075637817
0.78109747171401978 0.74614804983139038 0.35614347457885742
0.8357243537902832 0.73719584941864014 0.35035166144371033
0.89292752742767334 0.72420138120651245 0.34292694926261902
0.94800198078155518 0.70674848556518555 0.33318635821342468
0.99081635475158691 0.68424659967422485 0.32366704940795898
0.54857492446899414 0.83761543035507202 0.43227532505989075
0.55772042274475098 0.83982372283935547 0.42474296689033508
0.57228320837020874 0.84028095006942749 0.41975489258766174
0.59623795747756958 0.83907884359359741 0.42023056745529175
0.62972819805145264 0.83635538816452026 0.42301481962203979
0.67056119441986084 0.83359766006469727 0.42243802547454834
0.71561592817306519 0.83131009340286255 0.41791293025016785
0.7626076340675354 0.82918459177017212 0.41073739528656006
0.81065124273300171 0.82604503631591797 0.40421143174171448
0.86168712377548218 0.8206406831741333 0.39994564652442932
0.91522186994552612 0.81182968616485596 0.39608126878738403
0.96459358930587769 0.79907858371734619 0.39014101028442383
0.99740874767303467 0.78102463483810425 0.38303282856941223
0.62136250734329224 0.90567183494567871 0.48521411418914795
0.6282692551612854 0.9078366756439209 0.47653159499168396
0.63948804140090942 0.9082074761390686 0.47003984451293945
0.65934544801712036 0.9074932336807251 0.4711453914642334
0.68787258863449097 0.90514290332794189 0.47538673877716064
0.72244524955749512 0.90372109413146973 0.47555020451545715
0.76089000701904297 0.90290278196334839 0.4704691469669342
0.80185502767562866 0.90214228630065918 0.46252602338790894
0.84506714344024658 0.90091007947921753 0.45431986451148987
0.89174109697341919 0.89797157049179077 0.45116612315177917
0.9389459490776062 0.89274835586547852 0.45125618577003479
0.97802448272705078 0.884116530418396 0.44953033328056335
0.99928730726242065 0.87147557735443115 0.44425362348556519
0.69537901878356934 0.97218930721282959 0.53991425037384033
0.70126175880432129 0.97387617826461792 0.5327950119972229
0.71061497926712036 0.97447031736373901 0.5279802680015564
0.72662532329559326 0.97360968589782715 0.52867966890335083
0.74986565113067627 0.9722779393196106 0.53174042701721191
0.7786402702331543 0.97216510772705078 0.53122156858444214
0.81126648187637329 0.97256952524185181 0.52583932876586914
0.84673237800598145 0.97315043210983276 0.51763886213302612
0.88504946231842041 0.97297239303588867 0.51017284393310547
0.92625921964645386 0.97213596105575562 0.50795859098434448
0.96542692184448242 0.96951156854629517 0.50920939445495605
0.99278134107589722 0.96499443054199219 0.50886315107345581
0.99996984004974365 0.95697116851806641 0.5042804479598999
0.022210199385881424 0.030867572873830795 0.12768739461898804
0.060796640813350677 0.023268053308129311 0.12255421280860901
0.11404493451118469 0.018760127946734428 0.11726922541856766
0.17765991389751434 0.017398744821548462 0.10990358144044876
0.24629493057727814 0.017311993986368179 0.10033898800611496
0.3185482919216156 0.013994927518069744 0.090844862163066864
0.39451196789741516 0.0046887118369340897 0.083734385669231415
0.47323453426361084 0.00062237906968221068 0.075346745550632477
0.55191659927368164 0.00065629248274490237 0.063760153949260712
0.62611734867095947 0.00037413951940834522 0.050774965435266495
0.69568777084350586 4.1288487409474328e-05 0.037751201540231705
0.76188594102859497 0 0.025654422119259834
0.8236926794052124 0 0.016167763620615005
0.056320473551750183 0.10028010606765747 0.15283679962158203
0.091122180223464966 0.092141106724739075 0.14882566034793854
0.14089281857013702 0.084159880876541138 0.14514230191707611
0.20324374735355377 0.077551774680614471 0.13963280618190765
0.27073919773101807 0.071353301405906677 0.13193078339099884
0.34174007177352905 0.059358708560466766 0.12404092401266098
0.41500928997993469 0.03950481116771698 0.11640741676092148
0.49006757140159607 0.02365386113524437 0.10656039416790009
0.5647692084312439 0.015496467240154743 0.093425840139389038
0.63569170236587524 0.0074562071822583675 0.079274721443653107
0.70274883508682251 0.002155244117602706 0.064997218549251556
0.76626777648925781 0.00035279217991046607 0.050980884581804276
0.8268858790397644 0 0.038615550845861435
0.094334639608860016 0.17618994414806366 0.18228857219219208
0.12851563096046448 0.17041885852813721 0.17938044667243958
0.17050960659980774 0.16392944753170013 0.17402006685733795
0.22834250330924988 0.15479212999343872 0.16799226403236389
0.29630911350250244 0.14307785034179688 0.1617901474237442
0.36759793758392334 0.1258506178855896 0.15494908392429352
0.43981024622917175 0.10391091555356979 0.14674858748912811
0.51165103912353516 0.081026561558246613 0.13590060174465179
0.58150190114974976 0.05808156356215477 0.1227521076798439
0.64822840690612793 0.035174455493688583 0.10867208987474442
0.71181184053421021 0.018219681456685066 0.09428444504737854
0.77229839563369751 0.008599359542131424 0.07969927042722702
0.82955068349838257 0.0021858664695173502 0.066641852259635925
0.12355849146842957 0.2589571475982666 0.21444632112979889
0.15606291592121124 0.25532466173171997 0.2115895003080368
0.19916142523288727 0.2507651150226593 0.20547997951507568
0.25644290447235107 0.24238975346088409 0.19834417104721069
0.32475292682647705 0.22965627908706665 0.19199012219905853
0.39662596583366394 0.21238479018211365 0.18516272306442261
0.4680132269859314 0.19110086560249329 0.17679663002490997
0.53756582736968994 0.1657077968120575 0.16586393117904663
0.6040961742401123 0.1325547993183136 0.15371035039424896
0.66714072227478027 0.094507433474063873 0.14075936377048492
0.72746199369430542 0.061512548476457596 0.12733517587184906
0.7845766544342041 0.03768259659409523 0.11291961371898651
0.83896529674530029 0.019721640273928642 0.099728904664516449
0.15137597918510437 0.3465707004070282 0.24637883901596069
0.1817430853843689 0.34485071897506714 0.24311237037181854
0.22903284430503845 0.34109598398208618 0.23799480497837067
0.28964018821716309 0.33401909470558167 0.23096951842308044
0.35837548971176147 0.32322362065315247 0.22377198934555054
0.42907851934432983 0.30908888578414917 0.21669057011604309
0.49877795577049255 0.29139482975006104 0.20895537734031677
0.5665053129196167 0.26821848750114441 0.19884809851646423
0.63163846731185913 0.23475855588912964 0.18761000037193298
0.69368499517440796 0.19196629524230957 0.17654220759868622
0.75194215774536133 0.14537942409515381 0.16421522200107574
0.8058275580406189 0.10258365422487259 0.15041151642799377
0.8563382625579834 0.067775368690490723 0.13765361905097961
