assets/lut/films negative color kodak portra 160 nc.cube
# Created by: G'MIC (https://gmic.eu)
TITLE "kodak_portra_160_nc"
# LUT size
LUT_3D_SIZE 13
# Data domain
DOMAIN_MIN 0.0 0.0 0.0
DOMAIN_MAX 1.0 1.0 1.0
# LUT data points
0.022088712081313133 0.028114857152104378 0.029729386791586876
0.056219257414340973 0.035959519445896149 0.026398228481411934
0.11386207491159439 0.044703390449285507 0.029030982404947281
0.19280406832695007 0.057151045650243759 0.029904788359999657
0.29133632779121399 0.065085873007774353 0.02500203438103199
0.40242889523506165 0.06867566704750061 0.01782938651740551
0.51349401473999023 0.074244074523448944 0.010784583166241646
0.61969453096389771 0.076793581247329712 0.0047118095681071281
0.71594828367233276 0.085819408297538757 0.0016791848465800285
0.79787659645080566 0.11265888810157776 0.0013707778416574001
0.87027382850646973 0.14457704126834869 0.0011576933320611715
0.93560183048248291 0.17895066738128662 0.002843071473762393
0.99014180898666382 0.22061486542224884 0.015370821580290794
0.018037699162960052 0.069543980062007904 0.040114831179380417
0.04966340959072113 0.076902590692043304 0.032235808670520782
0.11755391955375671 0.088587440550327301 0.028771314769983292
0.21035453677177429 0.10214164853096008 0.027933547273278236
0.3139398992061615 0.11215788871049881 0.024513423442840576
0.42437669634819031 0.11880882084369659 0.014285068958997726
0.53261226415634155 0.12458401918411255 0.005355161614716053
0.63383662700653076 0.12999464571475983 0.0023901546373963356
0.72623699903488159 0.13950848579406738 0.0016414866549894214
0.80683892965316772 0.15814577043056488 0.0005792954470962286
0.87719357013702393 0.18325249850749969 3.4825941838789731e-05
0.94069874286651611 0.21291607618331909 0.00076841464033350348
0.99252736568450928 0.24866466224193573 0.0091797774657607079
0.0057781892828643322 0.13569140434265137 0.061414562165737152
0.021772168576717377 0.1408955454826355 0.049832962453365326
0.096518546342849731 0.15971881151199341 0.032194625586271286
0.22190330922603607 0.18309840559959412 0.019455675035715103
0.34810921549797058 0.19202786684036255 0.013981703668832779
0.45659294724464417 0.18821157515048981 0.0055178175680339336
0.55979001522064209 0.18970140814781189 0.0010463340440765023
0.65308904647827148 0.194283127784729 0.00072129192994907498
0.73963254690170288 0.2041688859462738 0.00047625374281778932
0.81613081693649292 0.21658521890640259 2.8901940822834149e-05
0.88305467367172241 0.23587214946746826 0
0.94342732429504395 0.26032719016075134 0.00012601964408531785
0.99319851398468018 0.29030439257621765 0.006274922750890255
0.0018599566537886858 0.22432494163513184 0.087243996560573578
0.001150662312284112 0.22349627315998077 0.077206537127494812
0.03774610161781311 0.24065525829792023 0.054423447698354721
0.18082299828529358 0.27677851915359497 0.02395559661090374
0.35439294576644897 0.30240514874458313 0.0027795231435447931
0.48557320237159729 0.30058768391609192 0.0002391590824117884
0.58724641799926758 0.28617742657661438 0.00027286304975859821
0.67223864793777466 0.27778750658035278 0.00027645335649140179
0.75275427103042603 0.28247392177581787 0.00014293895219452679
0.82492673397064209 0.28753966093063354 0
0.88902086019515991 0.29893505573272705 0
0.94691950082778931 0.3178551197052002 2.1362304323702119e-05
0.99378269910812378 0.34183570742607117 0.0050645414739847183
0.0023406981490552425 0.32950562238693237 0.11178268492221832
0 0.32674363255500793 0.1072050929069519
0.0027813632041215897 0.3338102400302887 0.094236068427562714
0.09442475438117981 0.36111944913864136 0.06148039922118187
0.29122632741928101 0.3988705575466156 0.019306423142552376
0.48045617341995239 0.42498871684074402 0.0017478793160989881
0.6075286865234375 0.41329559683799744 0.0004305222537368536
0.68917751312255859 0.38843736052513123 0.0023377512115985155
0.76351237297058105 0.3738592267036438 0.00036775178159587085
0.83297967910766602 0.36702486872673035 0
0.89466267824172974 0.37038704752922058 0
0.94952481985092163 0.38228532671928406 7.7191525633679703e-06
0.99393379688262939 0.40059259533882141 0.0033212997950613499
0.0001497455668868497 0.4257151186466217 0.14884392917156219
0 0.42420098185539246 0.15026399493217468
0 0.42668750882148743 0.14884141087532043
0.025710625573992729 0.44232174754142761 0.13307520747184753
0.18987847864627838 0.47040531039237976 0.087473668158054352
0.40195286273956299 0.50230103731155396 0.031032832339406013
0.5756039023399353 0.52096319198608398 0.0094226915389299393
0.68611717224121094 0.51064282655715942 0.00060281192418187857
0.77023613452911377 0.48793086409568787 0
0.84174829721450806 0.46686449646949768 0
0.90147179365158081 0.45433241128921509 0
0.95229154825210571 0.45482164621353149 0
0.99378854036331177 0.46474435925483704 0.0016328101046383381
0 0.50847154855728149 0.19830383360385895
0 0.50958645343780518 0.20242859423160553
0 0.510883629322052 0.20771345496177673
0.0075281630270183086 0.51799440383911133 0.20359370112419128
0.12832872569561005 0.53381741046905518 0.16823750734329224
0.3158683180809021 0.55630558729171753 0.11272963136434555
0.49275627732276917 0.58330506086349487 0.07033209502696991
0.64517790079116821 0.60198360681533813 0.016395000740885735
0.76488423347473145 0.60130900144577026 3.6621095205191523e-05
0.84884941577911377 0.58077913522720337 0
0.90968936681747437 0.55582493543624878 0
0.9564892053604126 0.5393749475479126 0.00031129425042308867
0.99326622486114502 0.53387588262557983 0.0067671979777514935
0 0.58633339405059814 0.2544894814491272
0 0.58804166316986084 0.25833404064178467
8.9757586465566419e-06 0.58821588754653931 0.26530778408050537
0.018008437007665634 0.59054017066955566 0.26676481962203979
0.12713316082954407 0.59858798980712891 0.25045481324195862
0.27307179570198059 0.61351090669631958 0.21926559507846832
0.42104712128639221 0.63331454992294312 0.17975965142250061
0.57573020458221436 0.65956658124923706 0.11036925762891769
0.72367739677429199 0.68178224563598633 0.034390810877084732
0.83228760957717896 0.68005096912384033 0.0040658987127244473
0.90831196308135986 0.66183793544769287 1.2566061741381418e-05
0.95797270536422729 0.63643878698348999 0.003625338664278388
0.99346244335174561 0.61671334505081177 0.033486384898424149
0.00077269313624128699 0.66120332479476929 0.3182920515537262
0.0019222932169213891 0.66215139627456665 0.3205035924911499
0.015502226538956165 0.66123378276824951 0.32665884494781494
0.071710474789142609 0.66034483909606934 0.33248493075370789
0.16507400572299957 0.66318804025650024 0.32819625735282898
0.27388641238212585 0.67233848571777344 0.30970841646194458
0.39121717214584351 0.68699491024017334 0.28172224760055542
0.519511878490448 0.70589441061019897 0.23954570293426514
0.65304708480834961 0.72653424739837646 0.17941707372665405
0.7761273980140686 0.74200743436813354 0.10110488533973694
0.88278371095657349 0.74830394983291626 0.027866572141647339
0.95058196783065796 0.73286104202270508 0.036252923309803009
0.99256646633148193 0.71281534433364868 0.095670871436595917
0.07242477685213089 0.73068952560424805 0.39549508690834045
0.080665841698646545 0.73172962665557861 0.39464452862739563
0.11406224220991135 0.7306399941444397 0.39821800589561462
0.16892178356647491 0.7281343936920166 0.40446376800537109
0.23842836916446686 0.72788959741592407 0.40427640080451965
0.31668660044670105 0.73308342695236206 0.39174109697341919
0.40366455912590027 0.74301779270172119 0.37246274948120117
0.50138330459594727 0.75558865070343018 0.35183548927307129
0.60551822185516357 0.7692188024520874 0.32325959205627441
0.71614831686019897 0.78552955389022827 0.26447761058807373
0.83248579502105713 0.80423778295516968 0.17590166628360748
0.92818975448608398 0.80882292985916138 0.14839346706867218
0.98940098285675049 0.80080163478851318 0.18043279647827148
0.2299947589635849 0.79483926296234131 0.4883570671081543
0.2361249178647995 0.79618543386459351 0.48651894927024841
0.26055079698562622 0.79511135816574097 0.4878728985786438
0.29904496669769287 0.79254037141799927 0.49183559417724609
0.34563276171684265 0.79106235504150391 0.49235817790031433
0.3977971076965332 0.79371607303619385 0.48435309529304504
0.45811495184898376 0.80063968896865845 0.47132155299186707
0.52854448556900024 0.81018263101577759 0.45876047015190125
0.60393279790878296 0.82029557228088379 0.4420619010925293
0.68733984231948853 0.83216601610183716 0.40828809142112732
0.78313136100769043 0.84581142663955688 0.35965725779533386
0.88544565439224243 0.86032611131668091 0.31420698761940002
0.9702029824256897 0.86805391311645508 0.30069872736930847
0.40847125649452209 0.85595613718032837 0.59363836050033569
0.41317588090896606 0.85618871450424194 0.5927472710609436
0.4285869300365448 0.85610485076904297 0.59324824810028076
0.45067036151885986 0.85402637720108032 0.59522312879562378
0.47637194395065308 0.85237014293670654 0.59647989273071289
0.50779682397842407 0.8534780740737915 0.59505122900009155
0.54775577783584595 0.8585246205329895 0.59019094705581665
0.59467571973800659 0.8663671612739563 0.58201313018798828
0.64454388618469238 0.87555146217346191 0.56982851028442383
0.70045435428619385 0.88347142934799194 0.55245512723922729
0.76550436019897461 0.89128172397613525 0.53051382303237915
0.84399622678756714 0.90283298492431641 0.49736931920051575
0.92575901746749878 0.91588658094406128 0.46993300318717957
0.5803600549697876 0.91437137126922607 0.70229893922805786
0.58371162414550781 0.91468203067779541 0.70281177759170532
0.59204661846160889 0.91413611173629761 0.70383960008621216
0.60235452651977539 0.91409313678741455 0.70555573701858521
0.61198490858078003 0.9135514497756958 0.70830345153808594
0.62755239009857178 0.913970947265625 0.71156775951385498
0.65160119533538818 0.91804301738739014 0.71320813894271851
0.68017065525054932 0.9251168966293335 0.70934927463531494
0.71136713027954102 0.93348872661590576 0.69991803169250488
0.74790483713150024 0.94087034463882446 0.68871170282363892
0.78970801830291748 0.94687020778656006 0.675556480884552
0.83897632360458374 0.95291042327880859 0.6578296422958374
0.89985918998718262 0.96231549978256226 0.63764572143554688
0.022968905046582222 0.034554053097963333 0.066669866442680359
0.057519260793924332 0.037142451852560043 0.066382437944412231
0.11631601303815842 0.040607482194900513 0.067797191441059113
0.19431754946708679 0.046799708157777786 0.069221556186676025
0.2964169979095459 0.043168459087610245 0.06785852462053299
0.40795192122459412 0.054391015321016312 0.071325875818729401
0.51638138294219971 0.073837265372276306 0.073105379939079285
0.61917823553085327 0.086089879274368286 0.066246211528778076
0.71292918920516968 0.099976666271686554 0.058702193200588226
0.79441797733306885 0.12937968969345093 0.057037517428398132
0.86745566129684448 0.15966428816318512 0.053789012134075165
0.93465417623519897 0.18397703766822815 0.055270221084356308
0.98985034227371216 0.22139176726341248 0.075764551758766174
0.016976779326796532 0.079324580729007721 0.07640654593706131
0.055738981813192368 0.082077369093894958 0.076633065938949585
0.12546057999134064 0.090169794857501984 0.07822919636964798
0.21136066317558289 0.098648190498352051 0.078591063618659973
0.31265556812286377 0.10551527142524719 0.076852656900882721
0.4242003858089447 0.11928093433380127 0.07404201477766037
0.53252345323562622 0.12852084636688232 0.065647244453430176
0.63109070062637329 0.13896651566028595 0.060887895524501801
0.72214460372924805 0.1493234783411026 0.057086870074272156
0.80351161956787109 0.16637170314788818 0.051318883895874023
0.87457096576690674 0.19151903688907623 0.04666677862405777
0.93903535604476929 0.21580936014652252 0.05015876516699791
0.99148410558700562 0.24934950470924377 0.070508815348148346
0.0063613145612180233 0.14732372760772705 0.10137426108121872
0.039579473435878754 0.1489538848400116 0.098380669951438904
0.11925089359283447 0.16495896875858307 0.085050605237483978
0.23257620632648468 0.18011981248855591 0.074058473110198975
0.35256648063659668 0.18910776078701019 0.069045186042785645
0.45780470967292786 0.1903349906206131 0.062933109700679779
0.55775851011276245 0.19313307106494904 0.054489780217409134
0.65086442232131958 0.19843202829360962 0.050110850483179092
0.73669534921646118 0.20488397777080536 0.043937265872955322
0.81365358829498291 0.21653571724891663 0.039213620126247406
0.88112080097198486 0.2376444935798645 0.036521371454000473
0.94216597080230713 0.26259544491767883 0.043834012001752853
0.99267375469207764 0.29293319582939148 0.068222165107727051
0.004473458044230938 0.23873287439346313 0.1309419721364975
0.014272741973400116 0.23846429586410522 0.12756529450416565
0.068886548280715942 0.25173854827880859 0.11375311762094498
0.20289856195449829 0.27961641550064087 0.082431420683860779
0.36994275450706482 0.3030606210231781 0.04873180016875267
0.4871869683265686 0.29605436325073242 0.037880871444940567
0.58402764797210693 0.28406569361686707 0.041627187281847
0.67149198055267334 0.27901777625083923 0.036081276834011078
0.75075680017471313 0.28189483284950256 0.027365410700440407
0.82258123159408569 0.2878490686416626 0.028138672932982445
0.88789492845535278 0.30085694789886475 0.032004907727241516
0.9461827278137207 0.32108327746391296 0.042053237557411194
0.99334055185317993 0.3468024730682373 0.067503944039344788
0.011543094180524349 0.34417843818664551 0.15753775835037231
0.0035368376411497593 0.34314963221549988 0.15811008214950562
0.01316356286406517 0.34559640288352966 0.15142844617366791
0.12057601660490036 0.36588329076766968 0.12181003391742706
0.31064310669898987 0.40025928616523743 0.068514116108417511
0.48423504829406738 0.42081740498542786 0.032126720994710922
0.60325795412063599 0.40604996681213379 0.032430313527584076
0.69036471843719482 0.38570928573608398 0.029204888269305229
0.76187694072723389 0.37247315049171448 0.02507488802075386
0.83052903413772583 0.36730226874351501 0.027007458731532097
0.89409458637237549 0.37335732579231262 0.027650617063045502
0.94945043325424194 0.38740795850753784 0.035068541765213013
0.99392592906951904 0.4065186083316803 0.060992911458015442
0.0078768115490674973 0.43735179305076599 0.19614654779434204
0.00062115240143612027 0.43796679377555847 0.19855305552482605
0.0011701247422024608 0.43680790066719055 0.19687214493751526
0.064201682806015015 0.44498667120933533 0.18545304238796234
0.22558769583702087 0.46775668859481812 0.15293747186660767
0.40963104367256165 0.49728551506996155 0.098962582647800446
0.5766758918762207 0.51664012670516968 0.04665769636631012
0.69522547721862793 0.51262587308883667 0.013219855725765228
0.76842600107192993 0.48700937628746033 0.01333885919302702
0.83831393718719482 0.46428629755973816 0.02031993493437767
0.90086269378662109 0.45659515261650085 0.024652114138007164
0.95223021507263184 0.4595278799533844 0.031233619898557663
0.99369227886199951 0.47016394138336182 0.051387786865234375
0.0029007557313889265 0.5172000527381897 0.2415199875831604
1.9088445696979761e-05 0.51984554529190063 0.24451474845409393
0.0011456059291958809 0.5187947154045105 0.24702522158622742
0.047213699668645859 0.52159970998764038 0.24460425972938538
0.17834049463272095 0.53518790006637573 0.2241750955581665
0.33914238214492798 0.55715018510818481 0.18583160638809204
0.50169050693511963 0.58355653285980225 0.12601999938488007
0.66213977336883545 0.60874670743942261 0.036671314388513565
0.76977938413619995 0.60333383083343506 0.0098903728649020195
0.84633529186248779 0.57847744226455688 0.015765111893415451
0.90827035903930664 0.55531740188598633 0.028068916872143745
0.95525157451629639 0.53985267877578735 0.045391757041215897
0.99317789077758789 0.53590428829193115 0.065639466047286987
0.0027856265660375357 0.5934147834777832 0.29094895720481873
0.0011626598425209522 0.59533041715621948 0.29332384467124939
0.0081616267561912537 0.59439468383789062 0.29667651653289795
0.062036044895648956 0.59477585554122925 0.29756131768226624
0.17115825414657593 0.60187751054763794 0.28917345404624939
0.2998511791229248 0.61573517322540283 0.26946026086807251
0.43432891368865967 0.63421553373336792 0.22987504303455353
0.58559858798980713 0.65890687704086304 0.15364594757556915
0.72271031141281128 0.67694079875946045 0.087096177041530609
0.83036577701568604 0.67789381742477417 0.047980602830648422
0.90343761444091797 0.6596914529800415 0.042350724339485168
0.95172727108001709 0.63343065977096558 0.068825557827949524
0.99257874488830566 0.61601871252059937 0.10398145020008087
0.018022963777184486 0.66699379682540894 0.34682679176330566
0.025331608951091766 0.66734772920608521 0.34866663813591003
0.055659454315900803 0.66558969020843506 0.35189259052276611
0.1176433190703392 0.66372042894363403 0.35548603534698486
0.20150548219680786 0.66542971134185791 0.35382059216499329
0.29848217964172363 0.67421162128448486 0.3405153751373291
0.40674471855163574 0.688545823097229 0.31348970532417297
0.52520418167114258 0.70480722188949585 0.27632427215576172
0.65243053436279297 0.72373223304748535 0.22423088550567627
0.77738755941390991 0.74218738079071045 0.15450544655323029
0.87547409534454346 0.74474489688873291 0.10964097827672958
0.94225394725799561 0.72923356294631958 0.12177518755197525
0.99156302213668823 0.71232491731643677 0.15911386907100677
0.1081741601228714 0.73451286554336548 0.41588571667671204
0.12137379497289658 0.73461419343948364 0.41590085625648499
0.1559278815984726 0.73263663053512573 0.41867765784263611
0.20639617741107941 0.72923862934112549 0.42266446352005005
0.26771998405456543 0.72779721021652222 0.42326295375823975
0.3377532958984375 0.73281627893447876 0.41395953297615051
0.41742122173309326 0.74350571632385254 0.39518305659294128
0.50794750452041626 0.75571060180664062 0.37281480431556702
0.60878938436508179 0.7689516544342041 0.34279265999794006
0.72116303443908691 0.78714954853057861 0.29128009080886841
0.83383017778396606 0.80378633737564087 0.23434008657932281
0.92837435007095337 0.80863696336746216 0.21450813114643097
0.99035727977752686 0.80254125595092773 0.23148863017559052
0.25581520795822144 0.79730254411697388 0.50126111507415771
0.26514828205108643 0.79765862226486206 0.50086283683776855
0.28978151082992554 0.79555565118789673 0.50205445289611816
0.32471761107444763 0.79252868890762329 0.50439745187759399
0.36604821681976318 0.7900359034538269 0.505790114402771
0.41371279954910278 0.79191774129867554 0.5009734034538269
0.46946704387664795 0.79945105314254761 0.48868778347969055
0.53526145219802856 0.80978357791900635 0.47168123722076416
0.60867708921432495 0.81984555721282959 0.45454224944114685
0.69318282604217529 0.83260965347290039 0.42656448483467102
0.78983330726623535 0.84759354591369629 0.38559797406196594
0.88968724012374878 0.86283236742019653 0.34970659017562866
0.97118121385574341 0.8710402250289917 0.33783450722694397
0.42289534211158752 0.85618871450424194 0.60145145654678345
0.42958444356918335 0.85618871450424194 0.60148686170578003
0.4436795711517334 0.85608339309692383 0.6013801097869873
0.46341648697853088 0.85344010591506958 0.60185325145721436
0.4874911904335022 0.85155868530273438 0.60414582490921021
0.51773405075073242 0.85161960124969482 0.60561835765838623
0.55523788928985596 0.85614174604415894 0.60177189111709595
0.59948313236236572 0.86562681198120117 0.59124630689620972
0.64856010675430298 0.87512707710266113 0.57879668474197388
0.70394229888916016 0.88301765918731689 0.56324297189712524
0.76810276508331299 0.89110308885574341 0.541046142578125
0.8465874195098877 0.90393471717834473 0.51109069585800171
0.92833524942398071 0.91845047473907471 0.48749276995658875
0.58494341373443604 0.91429263353347778 0.70683795213699341
0.59061336517333984 0.91409587860107422 0.70832955837249756
0.5967133641242981 0.91409313678741455 0.7075846791267395
0.60479903221130371 0.91399133205413818 0.70784890651702881
0.61545372009277344 0.91210478544235229 0.71126604080200195
0.63205850124359131 0.91204291582107544 0.71639549732208252
0.65521699190139771 0.91591393947601318 0.71850281953811646
0.68279427289962769 0.92407864332199097 0.71348977088928223
0.7136651873588562 0.93313193321228027 0.70477044582366943
0.74740123748779297 0.93973845243453979 0.69524836540222168
0.78718119859695435 0.94459205865859985 0.68292683362960815
0.83778125047683716 0.95210236310958862 0.6648707389831543
0.90092992782592773 0.96258127689361572 0.6450047492980957
0.02437947504222393 0.042997848242521286 0.13363435864448547
0.070434540510177612 0.043883126229047775 0.13557940721511841
0.12675812840461731 0.049462411552667618 0.13511747121810913
0.19852389395236969 0.047897383570671082 0.1319873183965683
0.30354723334312439 0.031807065010070801 0.12929242849349976
0.41833338141441345 0.033382147550582886 0.13474918901920319
0.52877134084701538 0.045773599296808243 0.1394428014755249
0.6264757513999939 0.065162703394889832 0.14211361110210419
0.711883544921875 0.095829874277114868 0.14532920718193054
0.78966808319091797 0.14082098007202148 0.15038783848285675
0.86166352033615112 0.18510507047176361 0.15127870440483093
0.92938411235809326 0.20917531847953796 0.14934065937995911
0.98714601993560791 0.24000367522239685 0.16214743256568909
0.0082836076617240906 0.09175485372543335 0.14399141073226929
0.059555772691965103 0.094329535961151123 0.1471487432718277
0.13365751504898071 0.098853088915348053 0.14970053732395172
0.21363642811775208 0.10256552696228027 0.14831861853599548
0.31511524319648743 0.10471133142709732 0.14624162018299103
0.43144789338111877 0.10733211785554886 0.1481991708278656
0.54139697551727295 0.11045340448617935 0.14742428064346313
0.63319748640060425 0.13061867654323578 0.15180595219135284
0.71723419427871704 0.15795347094535828 0.15276029706001282
0.79642826318740845 0.18497620522975922 0.15137851238250732
0.86796408891677856 0.21267977356910706 0.14978384971618652
0.93395811319351196 0.2341570109128952 0.14957399666309357
0.98878419399261475 0.26610958576202393 0.16302597522735596
0.0045571420341730118 0.16142584383487701 0.15911276638507843
0.05148455873131752 0.1650250107049942 0.16299188137054443
0.13412946462631226 0.17181454598903656 0.16321146488189697
0.23673586547374725 0.18024447560310364 0.15969032049179077
0.35188266634941101 0.18945492804050446 0.159475177526474
0.45717516541481018 0.19476239383220673 0.16143585741519928
0.55694198608398438 0.20075488090515137 0.15858034789562225
0.64627021551132202 0.21272732317447662 0.15723249316215515
0.72955405712127686 0.22062203288078308 0.1501806229352951
0.80634790658950806 0.23336458206176758 0.14684475958347321
0.87555378675460815 0.25181156396865845 0.14813691377639771
0.93799102306365967 0.27481767535209656 0.15159599483013153
0.98976033926010132 0.30793470144271851 0.16696776449680328
0.012497591786086559 0.25296476483345032 0.18362045288085938
0.052053999155759811 0.25647982954978943 0.19032891094684601
0.12857002019882202 0.26431125402450562 0.19185741245746613
0.23365937173366547 0.28224948048591614 0.17849768698215485
0.37588486075401306 0.29621109366416931 0.16130246222019196
0.48927834630012512 0.29104474186897278 0.15529376268386841
0.58149546384811401 0.28885900974273682 0.15414172410964966
0.6664852499961853 0.28795766830444336 0.14892555773258209
0.74413681030273438 0.29030007123947144 0.14083705842494965
0.81555426120758057 0.29883012175559998 0.14148283004760742
0.88280820846557617 0.31129679083824158 0.14664798974990845
0.94259530305862427 0.33061185479164124 0.15319110453128815
0.99113655090332031 0.35950550436973572 0.17158788442611694
0.037503950297832489 0.35654303431510925 0.21971443295478821
0.063129305839538574 0.35989037156105042 0.22782546281814575
0.09013492614030838 0.36324167251586914 0.22526907920837402
0.18181374669075012 0.37713661789894104 0.21523779630661011
0.33349823951721191 0.40024241805076599 0.1823514997959137
0.491018146276474 0.41109493374824524 0.15070991218090057
0.60529893636703491 0.40031629800796509 0.14324600994586945
0.68850362300872803 0.38140317797660828 0.13972729444503784
0.75855737924575806 0.37158656120300293 0.13770388066768646
