assets/lut/films colorslide agfa precisa 100.cube
# Created by: G'MIC (https://gmic.eu)
TITLE "agfa_precisa_100"
# LUT size
LUT_3D_SIZE 13
# Data domain
DOMAIN_MIN 0.0 0.0 0.0
DOMAIN_MAX 1.0 1.0 1.0
# LUT data points
0.030774643644690514 0.03008563444018364 0.024502085521817207
0.077664650976657867 0.031977094709873199 0.026424827054142952
0.13484655320644379 0.034724157303571701 0.026418663561344147
0.19779688119888306 0.041425369679927826 0.023811116814613342
0.26895669102668762 0.047389611601829529 0.027735034003853798
0.34867796301841736 0.051580093801021576 0.038495816290378571
0.43488618731498718 0.050848629325628281 0.062433745712041855
0.52786147594451904 0.053838364779949188 0.093573912978172302
0.6254919171333313 0.066588036715984344 0.12137943506240845
0.72084754705429077 0.082095548510551453 0.14868585765361786
0.80999851226806641 0.090766116976737976 0.17359144985675812
0.89349168539047241 0.096882730722427368 0.19334438443183899
0.97182685136795044 0.10463635623455048 0.20633867383003235
0.060581579804420471 0.088396467268466949 0.043549377471208572
0.097436867654323578 0.0904526486992836 0.044790096580982208
0.14734484255313873 0.091068059206008911 0.046885054558515549
0.20878112316131592 0.095831088721752167 0.046491134911775589
0.28081533312797546 0.10176464915275574 0.04910978302359581
0.36034241318702698 0.10718370229005814 0.053353030234575272
0.4481692910194397 0.11081019043922424 0.061251845210790634
0.54202282428741455 0.11144489794969559 0.080357916653156281
0.63661545515060425 0.10862628370523453 0.11005630344152451
0.72821688652038574 0.10386680066585541 0.14344409108161926
0.81542259454727173 0.10109870880842209 0.17386597394943237
0.89867281913757324 0.1070658341050148 0.19659353792667389
0.97514843940734863 0.11608748883008957 0.21204710006713867
0.095591649413108826 0.14976736903190613 0.067768245935440063
0.12300118803977966 0.15129663050174713 0.068294554948806763
0.16487422585487366 0.15284280478954315 0.071275196969509125
0.22417367994785309 0.15663015842437744 0.074107751250267029
0.29693832993507385 0.16306537389755249 0.076015278697013855
0.37584850192070007 0.16930145025253296 0.075434409081935883
0.46389526128768921 0.17618067562580109 0.070280753076076508
0.55731678009033203 0.17676703631877899 0.075358383357524872
0.65012073516845703 0.16653096675872803 0.097500696778297424
0.73917496204376221 0.15069276094436646 0.12720443308353424
0.82450258731842041 0.13685314357280731 0.15982615947723389
0.90569531917572021 0.13323260843753815 0.18918383121490479
0.97866082191467285 0.13490071892738342 0.21201719343662262
0.12105616927146912 0.22026179730892181 0.094635114073753357
0.14401775598526001 0.22113955020904541 0.094808198511600494
0.18250000476837158 0.22425730526447296 0.096651367843151093
0.24099768698215485 0.22956596314907074 0.098345153033733368
0.31379592418670654 0.23637169599533081 0.098459146916866302
0.39379030466079712 0.24295946955680847 0.095030166208744049
0.48168465495109558 0.24800539016723633 0.089032985270023346
0.57447892427444458 0.24809829890727997 0.086912952363491058
0.66603869199752808 0.24130086600780487 0.092380061745643616
0.75412416458129883 0.22699467837810516 0.10677742958068848
0.83809185028076172 0.20651634037494659 0.13514801859855652
0.91578090190887451 0.18567349016666412 0.17353647947311401
0.98310279846191406 0.17145201563835144 0.20654541254043579
0.13124395906925201 0.30238008499145508 0.12417581677436829
0.1549752801656723 0.30238533020019531 0.12394322454929352
0.19498078525066376 0.30602118372917175 0.12425321340560913
0.25505158305168152 0.31312906742095947 0.12323544174432755
0.32911112904548645 0.32081639766693115 0.12091278284788132
0.41160044074058533 0.32742118835449219 0.11640506982803345
0.50062388181686401 0.3313719630241394 0.11109617352485657
0.59272080659866333 0.33241534233093262 0.10425778478384018
0.68262898921966553 0.3313039243221283 0.093936249613761902
0.77005541324615479 0.32355305552482605 0.09012865275144577
0.85357397794723511 0.30179688334465027 0.10890053957700729
0.92827260494232178 0.26682054996490479 0.15123137831687927
0.98800283670425415 0.23593680560588837 0.19303750991821289
0.13949790596961975 0.39566212892532349 0.15624256432056427
0.16567280888557434 0.39574095606803894 0.15485146641731262
0.20890666544437408 0.39902547001838684 0.15395718812942505
0.27132740616798401 0.40668407082557678 0.15134233236312866
0.34666681289672852 0.41482433676719666 0.14743654429912567
0.43005162477493286 0.42147380113601685 0.14187318086624146
0.51871484518051147 0.42620784044265747 0.13443852961063385
0.60929173231124878 0.43007779121398926 0.12206283211708069
0.69820749759674072 0.43409439921379089 0.10209210216999054
0.78588402271270752 0.43351224064826965 0.082729995250701904
0.8701784610748291 0.41801226139068604 0.084529265761375427
0.94134289026260376 0.38049831986427307 0.12013238668441772
0.99210292100906372 0.33976724743843079 0.16208486258983612
0.15627191960811615 0.49553078413009644 0.19242753088474274
0.18597260117530823 0.49691367149353027 0.18988052010536194
0.23217280209064484 0.50050169229507446 0.18827025592327118
0.29475158452987671 0.50732725858688354 0.18497493863105774
0.36893022060394287 0.51514250040054321 0.1802767813205719
0.45072111487388611 0.52205824851989746 0.17350098490715027
0.53685146570205688 0.52791869640350342 0.16312412917613983
0.62509393692016602 0.53433829545974731 0.14553909003734589
0.71386528015136719 0.54235208034515381 0.11866872757673264
0.80294221639633179 0.54921150207519531 0.086363159120082855
0.88770502805709839 0.546164870262146 0.066759012639522552
0.95393389463424683 0.51872462034225464 0.079641439020633698
0.99504995346069336 0.48022454977035522 0.10674729943275452
0.18644809722900391 0.59731197357177734 0.23555818200111389
0.2185223251581192 0.59935659170150757 0.23256815969944
0.26587274670600891 0.60294723510742188 0.23095108568668365
0.32648980617523193 0.60889482498168945 0.22778724133968353
0.39730867743492126 0.61610287427902222 0.22265729308128357
0.47475844621658325 0.62273150682449341 0.21506370604038239
0.55659180879592896 0.62968778610229492 0.20275662839412689
0.64133542776107788 0.63784694671630859 0.18154464662075043
0.72885018587112427 0.64855223894119263 0.14774955809116364
0.81799554824829102 0.66084921360015869 0.10275720059871674
0.90153217315673828 0.66764110326766968 0.058672633022069931
0.96477174758911133 0.65618449449539185 0.034988179802894592
0.9981725811958313 0.630806565284729 0.030224625021219254
0.23392406105995178 0.69469368457794189 0.28926259279251099
0.26604476571083069 0.6968422532081604 0.28674158453941345
0.31153547763824463 0.70018249750137329 0.28527125716209412
0.36798581480979919 0.70519512891769409 0.28257104754447937
0.43286359310150146 0.71167153120040894 0.27764743566513062
0.50389558076858521 0.71858137845993042 0.26982846856117249
0.57920795679092407 0.72604292631149292 0.25679343938827515
0.658408522605896 0.73526257276535034 0.23438626527786255
0.74166768789291382 0.7471320629119873 0.19705350697040558
0.82781708240509033 0.76151973009109497 0.13966959714889526
0.90947329998016357 0.77346944808959961 0.066880963742733002
0.97165876626968384 0.77680712938308716 0.0076507716439664364
0.99953544139862061 0.77054941654205322 0
0.30197176337242126 0.78216159343719482 0.35801038146018982
0.33115184307098389 0.78528541326522827 0.35477730631828308
0.37129846215248108 0.78821617364883423 0.35343122482299805
0.4204595685005188 0.79267168045043945 0.3507181704044342
0.47708398103713989 0.79869371652603149 0.34629341959953308
0.53957372903823853 0.805744469165802 0.33896800875663757
0.60682713985443115 0.81405961513519287 0.32675272226333618
0.67811918258666992 0.82450926303863525 0.30601370334625244
0.75385057926177979 0.83739489316940308 0.27076703310012817
0.83391278982162476 0.85273593664169312 0.20978879928588867
0.91282087564468384 0.86724931001663208 0.11577474325895309
0.97359353303909302 0.88018196821212769 0.017855295911431313
0.99919342994689941 0.89062118530273438 0
0.38870096206665039 0.85824376344680786 0.44159725308418274
0.41207820177078247 0.86227655410766602 0.43786841630935669
0.44398689270019531 0.86568248271942139 0.43509277701377869
0.48393967747688293 0.87005430459976196 0.43212920427322388
0.531097412109375 0.87585282325744629 0.42803841829299927
0.58416271209716797 0.88275575637817383 0.42186608910560608
0.64188730716705322 0.89163237810134888 0.41208508610725403
0.70366525650024414 0.90255582332611084 0.39616140723228455
0.76942980289459229 0.91634064912796021 0.36932966113090515
0.83896279335021973 0.93219178915023804 0.32101207971572876
0.90968513488769531 0.94704067707061768 0.23362806439399719
0.96632444858551025 0.96263259649276733 0.10662589222192764
0.9959145188331604 0.97862064838409424 0.013523057103157043
0.4854794442653656 0.9247891902923584 0.53626006841659546
0.50273007154464722 0.92922812700271606 0.53185665607452393
0.52636420726776123 0.93306326866149902 0.52826529741287231
0.55693584680557251 0.93726587295532227 0.5249330997467041
0.59462124109268188 0.94244158267974854 0.52165359258651733
0.63822567462921143 0.94858986139297485 0.51790815591812134
0.68671470880508423 0.95615279674530029 0.51201087236404419
0.73921835422515869 0.96551221609115601 0.50288558006286621
0.79525750875473022 0.97627228498458862 0.48858970403671265
0.85398882627487183 0.98696935176849365 0.46160045266151428
0.91520786285400391 0.99368149042129517 0.40111878514289856
0.96911567449569702 0.99795818328857422 0.28415220975875854
0.99788188934326172 1 0.14684927463531494
0.5848461389541626 0.98283910751342773 0.6362413763999939
0.59709054231643677 0.98617565631866455 0.63209497928619385
0.61435836553573608 0.9885326623916626 0.62866652011871338
0.63723278045654297 0.99086457490921021 0.62627714872360229
0.66672313213348389 0.99336391687393188 0.62481510639190674
0.70219248533248901 0.99535846710205078 0.62398874759674072
0.74228078126907349 0.99758052825927734 0.62297749519348145
0.78719931840896606 0.99915069341659546 0.62156909704208374
0.83625799417495728 1 0.61889630556106567
0.8891834020614624 1 0.60915672779083252
0.94478809833526611 1 0.57478892803192139
0.99049937725067139 1 0.49055114388465881
1 1 0.36358565092086792
0.024354897439479828 0.026586255058646202 0.063743263483047485
0.070768631994724274 0.027323897927999496 0.066533811390399933
0.1285891979932785 0.029695712029933929 0.066724143922328949
0.19118130207061768 0.03632315993309021 0.06323898583650589
0.26255527138710022 0.043770074844360352 0.062994532287120819
0.34389370679855347 0.05205269530415535 0.065478064119815826
0.43478158116340637 0.059451397508382797 0.074338115751743317
0.53190094232559204 0.065281391143798828 0.092635974287986755
0.6289861798286438 0.067650735378265381 0.12207142263650894
0.72264558076858521 0.074478760361671448 0.15111416578292847
0.81162899732589722 0.083694353699684143 0.17727334797382355
0.89601653814315796 0.095874667167663574 0.19793440401554108
0.97430616617202759 0.10923156887292862 0.21195566654205322
0.052953563630580902 0.083606421947479248 0.082561850547790527
0.089710637927055359 0.08535824716091156 0.084643542766571045
0.14158865809440613 0.086989320814609528 0.084989242255687714
0.2035997211933136 0.091389492154121399 0.084473356604576111
0.27516317367553711 0.097567133605480194 0.086041048169136047
0.35523799061775208 0.10533411055803299 0.086359970271587372
0.44691145420074463 0.11490798741579056 0.082638517022132874
0.54507148265838623 0.12017678469419479 0.088412731885910034
0.64026331901550293 0.1130514070391655 0.11363247036933899
0.7308235764503479 0.1040252223610878 0.14489980041980743
0.81760972738265991 0.099959366023540497 0.17555332183837891
0.90107333660125732 0.10798256099224091 0.19900771975517273
0.97750687599182129 0.12105726450681686 0.21483628451824188
0.086006045341491699 0.14453582465648651 0.10502801090478897
0.11512871831655502 0.14716017246246338 0.10504622757434845
0.15893766283988953 0.14992433786392212 0.10558927804231644
0.21963697671890259 0.1541379988193512 0.10775130242109299
0.29208660125732422 0.1592700332403183 0.11159555613994598
0.37010651826858521 0.16535687446594238 0.11127014458179474
0.46040859818458557 0.17368516325950623 0.10262249410152435
0.55761641263961792 0.1772921234369278 0.099082767963409424
0.6521880030632019 0.17076176404953003 0.10847866535186768
0.74196887016296387 0.15711991488933563 0.12888346612453461
0.82721412181854248 0.14308325946331024 0.15793044865131378
0.90805447101593018 0.13727326691150665 0.18876074254512787
0.98029494285583496 0.13805118203163147 0.21388871967792511
0.10981131345033646 0.21552170813083649 0.12966801226139069
0.13573864102363586 0.21781383454799652 0.1295023113489151
0.17624509334564209 0.22148999571800232 0.13012586534023285
0.23561030626296997 0.22686737775802612 0.1313868910074234
0.30847576260566711 0.23316609859466553 0.13212287425994873
0.38775342702865601 0.23930984735488892 0.12894585728645325
0.47660651803016663 0.24401898682117462 0.12234614044427872
0.57181882858276367 0.24578720331192017 0.11620918661355972
0.66613650321960449 0.24418778717517853 0.10957667231559753
0.75629782676696777 0.23501455783843994 0.11110365390777588
0.84110039472579956 0.21577848494052887 0.13296012580394745
0.91807621717453003 0.19207228720188141 0.17148362100124359
0.98379403352737427 0.17435070872306824 0.20763741433620453
0.12041682749986649 0.29938578605651855 0.15692178905010223
0.14693914353847504 0.30060335993766785 0.15629889070987701
0.18865698575973511 0.30452454090118408 0.1564132422208786
0.24876663088798523 0.31079903244972229 0.15599890053272247
0.3227841854095459 0.317911297082901 0.15378774702548981
0.40520486235618591 0.32417017221450806 0.14862456917762756
0.49465674161911011 0.32812932133674622 0.14217452704906464
0.58853656053543091 0.33053731918334961 0.13311837613582611
0.68100059032440186 0.33264723420143127 0.11649329960346222
0.77129995822906494 0.3297671377658844 0.10152828693389893
0.85641628503799438 0.31022727489471436 0.11077071726322174
0.92999249696731567 0.27485775947570801 0.15026971697807312
0.98752683401107788 0.24120137095451355 0.19362971186637878
0.1278315931558609 0.39347493648529053 0.18704688549041748
0.1565791517496109 0.39485791325569153 0.18578514456748962
0.2015148252248764 0.39832034707069397 0.1850896030664444
0.26413533091545105 0.40506404638290405 0.18329818546772003
0.33990395069122314 0.412322998046875 0.17977076768875122
0.42389580607414246 0.41847291588783264 0.17453585565090179
0.51336288452148438 0.42272058129310608 0.16728389263153076
0.60479485988616943 0.42688676714897156 0.15459178388118744
0.6950756311416626 0.43160340189933777 0.13354972004890442
0.78500765562057495 0.43322527408599854 0.10798989236354828
0.87211614847183228 0.42303180694580078 0.093956619501113892
0.94286066293716431 0.38881999254226685 0.12034547328948975
0.99116116762161255 0.34654015302658081 0.16392947733402252
0.14250028133392334 0.49462297558784485 0.22141647338867188
0.17409218847751617 0.4962460994720459 0.21973423659801483
0.22210447490215302 0.50000345706939697 0.21841205656528473
0.2859434187412262 0.50632327795028687 0.21596476435661316
0.36157041788101196 0.51360845565795898 0.21198485791683197
0.44450786709785461 0.5196530818939209 0.20645059645175934
0.53150910139083862 0.52484792470932007 0.19760876893997192
0.62019747495651245 0.53086984157562256 0.18211598694324493
0.70924001932144165 0.53819000720977783 0.15640778839588165
0.79985713958740234 0.54614168405532837 0.11959271878004074
0.8882749080657959 0.54855704307556152 0.082074917852878571
0.95550090074539185 0.52527350187301636 0.083846196532249451
0.99442183971405029 0.48573261499404907 0.1128116101026535
0.17225076258182526 0.59673237800598145 0.26301485300064087
0.20539470016956329 0.5990784764289856 0.26061317324638367
0.25413453578948975 0.60251879692077637 0.25949737429618835
0.3166157603263855 0.60833030939102173 0.25697305798530579
0.3893733024597168 0.61563986539840698 0.25274404883384705
0.46805736422538757 0.62168210744857788 0.24706155061721802
0.55056166648864746 0.62724733352661133 0.23762467503547668
0.63570863008499146 0.63448476791381836 0.22002643346786499
0.72294241189956665 0.64429724216461182 0.18945991992950439
0.81302404403686523 0.65723466873168945 0.14255146682262421
0.89853841066360474 0.66732168197631836 0.088082484900951385
0.96377360820770264 0.66041094064712524 0.052417844533920288
0.9979853630065918 0.63713979721069336 0.038975734263658524
0.2222454696893692 0.69412386417388916 0.31460368633270264
0.2542136013507843 0.6966974139213562 0.31243813037872314
0.30004984140396118 0.6999698281288147 0.31130465865135193
0.35762208700180054 0.70486432313919067 0.30941560864448547
0.42389431595802307 0.71131241321563721 0.30558499693870544
0.49613767862319946 0.71748918294906616 0.29994404315948486
0.57234495878219604 0.72404676675796509 0.29023784399032593
0.65185648202896118 0.73176592588424683 0.27296394109725952
0.73486453294754028 0.74171006679534912 0.24203401803970337
0.82166153192520142 0.75633323192596436 0.18868716061115265
0.90438634157180786 0.77232652902603149 0.1137600913643837
0.96815603971481323 0.7798730731010437 0.035613968968391418
0.9992218017578125 0.77555233240127563 0.00095817714463919401
0.29337003827095032 0.78218847513198853 0.37958002090454102
0.32109439373016357 0.78543382883071899 0.37742653489112854
0.36086669564247131 0.78824895620346069 0.37614113092422485
0.41011765599250793 0.79260265827178955 0.37438952922821045
0.46760427951812744 0.79833334684371948 0.37086096405982971
0.53121685981750488 0.80489528179168701 0.36546105146408081
0.59915822744369507 0.81224268674850464 0.35635197162628174
0.67112457752227783 0.82102304697036743 0.34058785438537598
0.74734073877334595 0.8318779468536377 0.31353479623794556
0.82853251695632935 0.8471604585647583 0.26280933618545532
0.90698462724685669 0.86559116840362549 0.17630039155483246
0.96698606014251709 0.88202387094497681 0.060571856796741486
0.99814552068710327 0.89026612043380737 0.00079870782792568207
0.38159731030464172 0.85931700468063354 0.45844197273254395
0.40369608998298645 0.86280542612075806 0.45606252551078796
0.43477740883827209 0.86579585075378418 0.45430663228034973
0.47419074177742004 0.87007147073745728 0.45200452208518982
0.52152806520462036 0.87555992603302002 0.44859230518341064
0.57533895969390869 0.882068932056427 0.44382598996162415
0.63389015197753906 0.89015406370162964 0.43570071458816528
0.6967613697052002 0.90024495124816895 0.42259550094604492
0.76429212093353271 0.91272854804992676 0.40196231007575989
0.83706527948379517 0.92762249708175659 0.3657686710357666
0.90879082679748535 0.94418489933013916 0.2921174168586731
0.96325254440307617 0.96015608310699463 0.15384316444396973
0.99527758359909058 0.96956264972686768 0.019323296844959259
0.47936969995498657 0.92605412006378174 0.5491328239440918
0.49605605006217957 0.92954730987548828 0.54692298173904419
0.51882624626159668 0.93276911973953247 0.54415017366409302
0.54847413301467896 0.93699544668197632 0.54162603616714478
0.585712730884552 0.94205725193023682 0.53883832693099976
0.62960338592529297 0.94781619310379028 0.53496360778808594
0.67884266376495361 0.95526272058486938 0.52922230958938599
0.73237347602844238 0.96458697319030762 0.51968055963516235
0.79059648513793945 0.97494179010391235 0.50698482990264893
0.85438823699951172 0.98375868797302246 0.4889424741268158
0.91804790496826172 0.99056994915008545 0.43815702199935913
0.96713811159133911 0.99559128284454346 0.31084099411964417
0.99619400501251221 0.99877911806106567 0.14371870458126068
0.57996916770935059 0.98344975709915161 0.64675885438919067
0.59220767021179199 0.98613119125366211 0.64484965801239014
0.60851848125457764 0.98807805776596069 0.64273732900619507
0.63041806221008301 0.99020183086395264 0.64074301719665527
0.65904676914215088 0.99277764558792114 0.63906359672546387
0.6942247748374939 0.99505257606506348 0.63805592060089111
0.73479002714157104 0.99726653099060059 0.63642805814743042
0.78041356801986694 0.99904531240463257 0.63300806283950806
0.8312302827835083 0.99998420476913452 0.62990248203277588
0.88724720478057861 1 0.62366622686386108
0.94377356767654419 1 0.59227567911148071
0.9861566424369812 0.99994868040084839 0.50768184661865234
0.99978458881378174 1 0.37906387448310852
0.019237697124481201 0.024956407025456429 0.10523840039968491
0.061640765517950058 0.027580754831433296 0.10699314624071121
0.1180194616317749 0.029369862750172615 0.10729672014713287
0.18234442174434662 0.033437378704547882 0.10581754893064499
0.25506481528282166 0.038968943059444427 0.10667300969362259
0.33725073933601379 0.045939456671476364 0.10865449905395508
0.43055889010429382 0.056197252124547958 0.10806956887245178
0.53212875127792358 0.067543700337409973 0.10772531479597092
0.63162755966186523 0.072004176676273346 0.12145335227251053
0.72486633062362671 0.074229508638381958 0.14673134684562683
0.81318408250808716 0.080538414418697357 0.17496991157531738
0.89797639846801758 0.0953812375664711 0.19854329526424408
0.9761509895324707 0.11130118370056152 0.21577049791812897
0.048634786158800125 0.079919390380382538 0.12543436884880066
0.083519265055656433 0.083928786218166351 0.12589371204376221
0.13427136838436127 0.085355199873447418 0.12594525516033173
0.1963929682970047 0.088848233222961426 0.12643712759017944
0.26815488934516907 0.093160532414913177 0.1289171576499939
0.34975463151931763 0.099629312753677368 0.12886305153369904
0.44328159093856812 0.10949748754501343 0.12241502851247787
0.54407566785812378 0.11819992214441299 0.11686479300260544
0.6417536735534668 0.11619805544614792 0.12434875220060349
0.73269641399383545 0.10768231004476547 0.14464063942432404
0.81859022378921509 0.099548563361167908 0.17450742423534393
0.90257233381271362 0.10711300373077393 0.19851645827293396
0.97882908582687378 0.11967990547418594 0.21716627478599548
0.081241711974143982 0.13968488574028015 0.14758449792861938
0.11027727276086807 0.14408107101917267 0.1475534588098526
0.15377141535282135 0.14809660613536835 0.14671513438224792
0.21295316517353058 0.15186886489391327 0.14806903898715973
0.28427731990814209 0.15592116117477417 0.15156422555446625
0.36488980054855347 0.16160702705383301 0.15072733163833618
0.45682725310325623 0.1685585081577301 0.14409942924976349
0.55574166774749756 0.1739194393157959 0.13571158051490784
0.65235239267349243 0.17412327229976654 0.12981016933917999
0.74302226305007935 0.16568808257579803 0.13420771062374115
0.82882118225097656 0.15050579607486725 0.15574464201927185
0.90998464822769165 0.14138157665729523 0.185251384973526
0.98149418830871582 0.13835105299949646 0.21236295998096466
0.10283920913934708 0.21175825595855713 0.17114396393299103
0.13015392422676086 0.21502949297428131 0.17092433571815491
0.170803502202034 0.21963191032409668 0.17087545990943909
0.22879824042320251 0.22453272342681885 0.17161133885383606
0.30042180418968201 0.22975446283817291 0.17209479212760925
0.3811948299407959 0.23551380634307861 0.1686694324016571
0.47147566080093384 0.23983140289783478 0.16280815005302429
0.56874573230743408 0.24272042512893677 0.15500243008136749
0.66468286514282227 0.24637055397033691 0.13916574418544769
0.7562180757522583 0.24219830334186554 0.12729857861995697
0.84235960245132446 0.22517335414886475 0.13691863417625427
0.92008882761001587 0.19993367791175842 0.16853317618370056
0.98484891653060913 0.17827583849430084 0.20398910343647003
0.11235939711332321 0.29672828316688538 0.19667808711528778
0.1406543105840683 0.29877787828445435 0.19629517197608948
0.18295435607433319 0.30284741520881653 0.19655303657054901
0.24253697693347931 0.30812090635299683 0.19635856151580811
0.31612986326217651 0.31395140290260315 0.19448082149028778
0.3990052342414856 0.31983128190040588 0.18897673487663269
0.48927339911460876 0.3239055871963501 0.18220813572406769
0.58420288562774658 0.32705602049827576 0.17264710366725922
0.67809903621673584 0.33181634545326233 0.15260817110538483
0.76986181735992432 0.33231848478317261 0.12905201315879822
