assets/lut/films print kodak 2393 constlclip.cube
# Created by: G'MIC (https://gmic.eu)
TITLE "kodak_2393_constlclip"
# LUT size
LUT_3D_SIZE 5
# Data domain
DOMAIN_MIN 0.0 0.0 0.0
DOMAIN_MAX 1.0 1.0 1.0
# LUT data points
0.012323028407990932 0.025246579200029373 0.026682790368795395
0.073717691004276276 0.038163308054208755 0.013235593214631081
0.29911753535270691 0.086157031357288361 0.009652530774474144
0.47394734621047974 0.11023982614278793 0.015196452848613262
0.53710454702377319 0.11834170669317245 0.016510054469108582
0.0086971204727888107 0.07373269647359848 0.046249449253082275
0.087466761469841003 0.11134130507707596 0.019362401217222214
0.38622099161148071 0.17816819250583649 0.0023889129515737295
0.59586983919143677 0.20757830142974854 0.014496493153274059
0.64097893238067627 0.22470121085643768 0.015131093561649323
0.0098118055611848831 0.21114547550678253 0.1097346767783165
0.046190701425075531 0.31317144632339478 0.049382198601961136
0.5447198748588562 0.45673966407775879 0.0083921393379569054
0.76557815074920654 0.50034481287002563 0.0075058434158563614
0.82656091451644897 0.53615987300872803 0.0079357968643307686
0.0046335854567587376 0.34068286418914795 0.16268984973430634
0.058543156832456589 0.49039456248283386 0.086945883929729462
0.64471089839935303 0.68401151895523071 0.006883030291646719
0.89525479078292847 0.7584453821182251 0.061637789011001587
0.93711662292480469 0.76475763320922852 0.073160506784915924
0.0077188527211546898 0.45102024078369141 0.20101262629032135
0.17121045291423798 0.60156607627868652 0.025694679468870163
0.6833418607711792 0.74429535865783691 0.011588302440941334
0.92088496685028076 0.8134426474571228 0.0786285400390625
0.97718507051467896 0.83090734481811523 0.10076015442609787
0.0027595818974077702 0.039174292236566544 0.066294543445110321
0.081080913543701172 0.028092507272958755 0.089782923460006714
0.32711970806121826 0.0059447344392538071 0.079102717339992523
0.52608233690261841 0.038938619196414948 0.092370130121707916
0.58362460136413574 0.02674458734691143 0.095036178827285767
0.020450292155146599 0.090650357306003571 0.097869038581848145
0.05696125328540802 0.12016845494508743 0.12348813563585281
0.44992172718048096 0.14427772164344788 0.091648370027542114
0.68667685985565186 0.059783335775136948 0.045597735792398453
0.74789321422576904 0.10315400362014771 0.050077565014362335
0.014696427620947361 0.25171694159507751 0.19339914619922638
0.01077823992818594 0.34961733222007751 0.16438122093677521
0.58424896001815796 0.48884677886962891 0.060910873115062714
0.84643959999084473 0.51971232891082764 0.051020245999097824
0.91051489114761353 0.56110119819641113 0.059138160198926926
0.023061146959662437 0.38406080007553101 0.25617393851280212
0.020394569262862206 0.52987539768218994 0.24443890154361725
0.64730918407440186 0.74385136365890503 0.058905627578496933
0.95456808805465698 0.80516380071640015 0.026916263625025749
0.99176621437072754 0.81807541847229004 0.066286362707614899
0.0085595818236470222 0.51522862911224365 0.38032901287078857
0.010200829245150089 0.65440124273300171 0.36950153112411499
0.66311240196228027 0.81649875640869141 0.30531817674636841
0.9743877649307251 0.87432777881622314 0.25585693120956421
0.99969482421875 0.88352179527282715 0.35869911313056946
0.006591796875 0.096372373402118683 0.18141789734363556
0.055171366780996323 0.014480201527476311 0.27819615602493286
0.35691535472869873 0.006845526397228241 0.34246939420700073
0.54973125457763672 0.029677117243409157 0.35849010944366455
0.62037193775177002 0.018095413222908974 0.37926295399665833
0.0009666592231951654 0.16892556846141815 0.26313477754592896
0.026448687538504601 0.15079228579998016 0.37065598368644714
0.45764687657356262 0.1424873024225235 0.45225411653518677
0.70836895704269409 0.064771406352519989 0.46235030889511108
0.76451921463012695 0.11996559053659439 0.46775057911872864
0.016176261007785797 0.34055289626121521 0.38534387946128845
0.0063028670847415924 0.435188889503479 0.47934204339981079
0.54515606164932251 0.55733257532119751 0.56434613466262817
0.86889469623565674 0.59130489826202393 0.56720316410064697
0.93015635013580322 0.61774265766143799 0.57293665409088135
0.011682637967169285 0.49157178401947021 0.48615005612373352
0.0068224291317164898 0.6234358549118042 0.57464206218719482
0.57823485136032104 0.82274752855300903 0.61884504556655884
0.93670469522476196 0.8768610954284668 0.61254912614822388
0.99717104434967041 0.89047181606292725 0.62795752286911011
0.0016217101365327835 0.59875744581222534 0.59645825624465942
0.013412789441645145 0.72633522748947144 0.67683702707290649
0.60433810949325562 0.88313376903533936 0.72096496820449829
0.9434552788734436 0.9386410117149353 0.71888858079910278
0.99942445755004883 0.94876128435134888 0.74445867538452148
0.000949859619140625 0.14615415036678314 0.28328821063041687
0.027249548584222794 0.076024509966373444 0.39777946472167969
0.35297700762748718 0.01995697058737278 0.49321049451828003
0.57243978977203369 0.040291924029588699 0.52106773853302002
0.64732146263122559 0.028971578925848007 0.55444258451461792
0.00035895552719011903 0.22403931617736816 0.37591290473937988
0.018704941496253014 0.1984400600194931 0.5033726692199707
0.45191475749015808 0.11811641603708267 0.65877342224121094
0.72352182865142822 0.052508335560560226 0.69300782680511475
0.78487193584442139 0.091071978211402893 0.71540379524230957
0.012484696693718433 0.40447792410850525 0.52813142538070679
0.014333927072584629 0.48491215705871582 0.65533089637756348
0.51498818397521973 0.59960454702377319 0.82273644208908081
0.86305713653564453 0.62288004159927368 0.83906453847885132
0.92677497863769531 0.6609613299369812 0.83798551559448242
0.029054319486021996 0.5548744797706604 0.63741451501846313
0.03708648681640625 0.67583364248275757 0.74576181173324585
0.5144270658493042 0.871509850025177 0.89300787448883057
0.9257127046585083 0.92959541082382202 0.9085506796836853
0.98995459079742432 0.93328112363815308 0.89938235282897949
0.023965245112776756 0.63574123382568359 0.71021294593811035
0.013183294795453548 0.75874245166778564 0.81825631856918335
0.5505526065826416 0.91798311471939087 0.92205524444580078
0.92430061101913452 0.9740527868270874 0.93349176645278931
0.99089741706848145 0.9835619330406189 0.93423432111740112
0 0.17772726714611053 0.33900123834609985
0.028475608676671982 0.13574738800525665 0.4364534318447113
0.38545751571655273 0.018446844071149826 0.58391439914703369
0.62196493148803711 0.033097703009843826 0.62161874771118164
0.68007743358612061 0.049535997211933136 0.63947540521621704
0 0.26425379514694214 0.43261286616325378
0.0057834549807012081 0.26376757025718689 0.54423916339874268
0.47808316349983215 0.17629370093345642 0.75530821084976196
0.74354648590087891 0.139771968126297 0.77909553050994873
0.80035477876663208 0.17655885219573975 0.79445928335189819
0.0091179190203547478 0.42614051699638367 0.57170933485031128
0.028208654373884201 0.50400334596633911 0.68867504596710205
0.50519478321075439 0.61106985807418823 0.89349919557571411
0.85830199718475342 0.64515227079391479 0.91490161418914795
0.92771846055984497 0.67595666646957397 0.92601686716079712
0.026417301967740059 0.56391525268554688 0.66797941923141479
0.01877938024699688 0.68445509672164917 0.78603827953338623
0.47318342328071594 0.88202768564224243 0.95859479904174805
0.91646307706832886 0.93507874011993408 0.97951781749725342
0.9863814115524292 0.95115900039672852 0.98301553726196289
0.021021584048867226 0.65095239877700806 0.74081164598464966
0.033422328531742096 0.76285821199417114 0.84494584798812866
0.5259699821472168 0.92476701736450195 0.97017163038253784
0.91151267290115356 0.97848278284072876 0.98325812816619873
0.98766237497329712 0.99268823862075806 0.99101763963699341
