assets/lut/films negative color kodak elite color 400.cube
# Created by: G'MIC (https://gmic.eu)
TITLE "kodak_elite_color_400"
# LUT size
LUT_3D_SIZE 5
# Data domain
DOMAIN_MIN 0.0 0.0 0.0
DOMAIN_MAX 1.0 1.0 1.0
# LUT data points
0.031476728618144989 0.02277030237019062 0.017591439187526703
0.18302741646766663 0.0054017608053982258 0.022680634632706642
0.39169061183929443 0.0066987280733883381 0.024249566718935966
0.65576171875 0.011351282708346844 0.022300077602267265
0.9156067967414856 0.0066070258617401123 0.011811140924692154
0.13078621029853821 0.20253583788871765 0.065475001931190491
0.24847953021526337 0.17684100568294525 0.065379902720451355
0.45268961787223816 0.12465578317642212 0.065247692167758942
0.69819915294647217 0.063364274799823761 0.056847576051950455
0.93457621335983276 0 0.022093245759606361
0.23697017133235931 0.44152680039405823 0.10704009234905243
0.3407738208770752 0.43442556262016296 0.11331328004598618
0.53466856479644775 0.39998587965965271 0.10734742134809494
0.75883114337921143 0.32293424010276794 0.086772546172142029
0.97112417221069336 0.12527933716773987 0.051313541829586029
0.42928627133369446 0.71547216176986694 0.11679709702730179
0.50340938568115234 0.71132373809814453 0.10019878298044205
0.64186489582061768 0.6970517635345459 0.10903206467628479
0.8195120096206665 0.65958446264266968 0.09646790474653244
0.99427735805511475 0.56882429122924805 0.058363940566778183
0.69518822431564331 0.95603054761886597 0.036492306739091873
0.72458267211914062 0.95395725965499878 0.030561350286006927
0.79467684030532837 0.95042818784713745 0.0033328037243336439
0.90966600179672241 0.94172072410583496 0.00048020307440310717
1 0.90808582305908203 0
0.0095179835334420204 0.046665549278259277 0.17166440188884735
0.15283450484275818 0.017459584400057793 0.17315095663070679
0.37997192144393921 0.0033133861143141985 0.16891421377658844
0.65597784519195557 0.0019182391697540879 0.15034385025501251
0.91873759031295776 0.0002107059262925759 0.095911361277103424
0.10397470742464066 0.23049619793891907 0.20445646345615387
0.20914356410503387 0.21043786406517029 0.21000145375728607
0.43226587772369385 0.15757037699222565 0.20702366530895233
0.69065827131271362 0.07224496454000473 0.19940610229969025
0.93253731727600098 0.00057262345217168331 0.14819794893264771
0.19553016126155853 0.46810662746429443 0.23913048207759857
0.30020034313201904 0.45729297399520874 0.24650143086910248
0.51392269134521484 0.42347526550292969 0.24421338737010956
0.74945926666259766 0.34241065382957458 0.23282496631145477
0.96931260824203491 0.15119324624538422 0.19798558950424194
0.38975340127944946 0.72194617986679077 0.27477076649665833
0.47218090295791626 0.71866828203201294 0.27359411120414734
0.62124049663543701 0.70597714185714722 0.27204242348670959
0.80668658018112183 0.67201340198516846 0.25720298290252686
0.98890894651412964 0.58234143257141113 0.21208567917346954
0.67497682571411133 0.95494711399078369 0.27875387668609619
0.70728880167007446 0.95165365934371948 0.27793538570404053
0.77524161338806152 0.95275264978408813 0.26272749900817871
0.88879561424255371 0.94886964559555054 0.23173122107982635
0.99621915817260742 0.9234471321105957 0.10113202035427094
0.0026964524295181036 0.080533631145954132 0.34295821189880371
0.097293555736541748 0.053433977067470551 0.34896466135978699
0.34731835126876831 0.016034010797739029 0.35905119776725769
0.63945925235748291 0 0.35501322150230408
0.90817320346832275 0 0.32617983222007751
0.037393800914287567 0.27007922530174255 0.39617881178855896
0.1336185485124588 0.25173324346542358 0.4011131227016449
0.3912220299243927 0.20248779654502869 0.40777695178985596
0.67010676860809326 0.093290634453296661 0.40745046734809875
0.92606866359710693 0.00023130529734771699 0.38763540983200073
0.07959437370300293 0.49974095821380615 0.45051327347755432
0.19041429460048676 0.49204215407371521 0.45571017265319824
0.46305549144744873 0.46208581328392029 0.46078106760978699
0.72104930877685547 0.38833919167518616 0.4617578387260437
0.95799034833908081 0.20929263532161713 0.4449087381362915
0.29635560512542725 0.73986780643463135 0.50190365314483643
0.40186944603919983 0.7370908260345459 0.51032370328903198
0.58014696836471558 0.72397720813751221 0.51429849863052368
0.77926230430603027 0.70004123449325562 0.51009953022003174
0.98449647426605225 0.61120414733886719 0.48455309867858887
0.65061354637145996 0.96650964021682739 0.53098201751708984
0.68563520908355713 0.96729385852813721 0.53797751665115356
0.75539892911911011 0.95950263738632202 0.5402647852897644
0.87335973978042603 0.96122723817825317 0.53319066762924194
0.99938464164733887 0.93004107475280762 0.47919031977653503
9.9960030638612807e-05 0.15676648914813995 0.55239754915237427
0.033278074115514755 0.12336859852075577 0.55969434976577759
0.27602773904800415 0.071249403059482574 0.57487446069717407
0.60526961088180542 0.017215773463249207 0.58283323049545288
0.89306193590164185 0 0.57353520393371582
0 0.33432221412658691 0.61080038547515869
0.040383297950029373 0.31929972767829895 0.61915582418441772
0.29391482472419739 0.28023442625999451 0.62787586450576782
0.62660896778106689 0.18328139185905457 0.6378369927406311
0.90775197744369507 0.0089480532333254814 0.63698077201843262
0.001248722430318594 0.54604673385620117 0.66292893886566162
0.015827927738428116 0.54221349954605103 0.66724961996078491
0.35628297924995422 0.51669788360595703 0.6785815954208374
0.67305034399032593 0.46382254362106323 0.68642634153366089
0.93439209461212158 0.29245468974113464 0.68309915065765381
0.16024531424045563 0.76582592725753784 0.71320319175720215
0.23817671835422516 0.76397126913070679 0.71941697597503662
0.48683136701583862 0.7528502345085144 0.72556346654891968
0.73443704843521118 0.73423874378204346 0.73272705078125
0.96203702688217163 0.65125340223312378 0.72309160232543945
0.6085776686668396 0.97567164897918701 0.76021945476531982
0.65337836742401123 0.97593730688095093 0.75953823328018188
0.72299766540527344 0.97296535968780518 0.76297557353973389
0.84440481662750244 0.97213131189346313 0.76832640171051025
0.99186128377914429 0.95110368728637695 0.75040346384048462
0.0014661302557215095 0.26064687967300415 0.74472939968109131
0 0.23076608777046204 0.75171858072280884
0.13743329048156738 0.18419855833053589 0.76461833715438843
0.53519624471664429 0.087367050349712372 0.78045064210891724
0.87036663293838501 0.0083374623209238052 0.78869843482971191
3.7339155824156478e-05 0.4265778660774231 0.79176455736160278
0 0.4159182608127594 0.79778593778610229
0.11044272780418396 0.38443377614021301 0.80924105644226074
0.53933268785476685 0.30732044577598572 0.82539749145507812
0.87489044666290283 0.095749109983444214 0.84007418155670166
0.0027798223309218884 0.61269080638885498 0.83813250064849854
0 0.61091417074203491 0.84229958057403564
0.065144076943397522 0.59685146808624268 0.85216087102890015
0.56226241588592529 0.55915552377700806 0.86794674396514893
0.88663005828857422 0.42345187067985535 0.8792845606803894
0.0075619565322995186 0.80613511800765991 0.89012783765792847
0.020253155380487442 0.80540263652801514 0.89372724294662476
0.30353015661239624 0.79744499921798706 0.90134131908416748
0.62660408020019531 0.78330278396606445 0.91367411613464355
0.90492266416549683 0.71845871210098267 0.92348706722259521
0.40886035561561584 0.98329633474349976 0.95140361785888672
0.49531617760658264 0.98358279466629028 0.9531787633895874
0.63125455379486084 0.98860388994216919 0.95797759294509888
0.78547567129135132 0.99051874876022339 0.9688829779624939
0.97792285680770874 0.97591942548751831 0.97742635011672974
