assets/lut/films print kodak 2393 constlmap.cube
# Created by: G'MIC (https://gmic.eu)
TITLE "kodak_2393_constlmap"
# LUT size
LUT_3D_SIZE 5
# Data domain
DOMAIN_MIN 0.0 0.0 0.0
DOMAIN_MAX 1.0 1.0 1.0
# LUT data points
0.010492436587810516 0.021156026050448418 0.020513482391834259
0.066302850842475891 0.04000956192612648 0.026305373758077621
0.29357686638832092 0.083391033113002777 0.0091607039794325829
0.47623404860496521 0.10904277861118317 0.012257549911737442
0.53866267204284668 0.1166219636797905 0.0095961475744843483
0.028798870742321014 0.065464437007904053 0.046129651367664337
0.091492459177970886 0.10351421684026718 0.028103502467274666
0.40418875217437744 0.18124639987945557 0.0082489466294646263
0.59427934885025024 0.20538961887359619 0.0050701363943517208
0.65898275375366211 0.24306283891201019 0.016852973029017448
0.010880997404456139 0.22026883065700531 0.11340080946683884
0.062081102281808853 0.31485608220100403 0.05418689176440239
0.5516391396522522 0.46162086725234985 0.024327058345079422
0.77493810653686523 0.51307445764541626 0.018379854038357735
0.83373022079467773 0.55329513549804688 0.0064052804373204708
0.0099660838022828102 0.33999300003051758 0.16362956166267395
0.084304258227348328 0.48704025149345398 0.091362744569778442
0.64945334196090698 0.68999409675598145 0.017184119671583176
0.89093303680419922 0.75583964586257935 0.07775413990020752
0.93760585784912109 0.77002787590026855 0.072321809828281403
0.012840330600738525 0.45220321416854858 0.19828861951828003
0.19432507455348969 0.59888678789138794 0.020528187975287437
0.68171811103820801 0.74323201179504395 0.025886161252856255
0.92771303653717041 0.8154367208480835 0.086607992649078369
0.97226840257644653 0.8268895149230957 0.10139156877994537
0.024431176483631134 0.044312048703432083 0.066657483577728271
0.080233603715896606 0.037577923387289047 0.089267358183860779
0.33145028352737427 0.039580728858709335 0.094683974981307983
0.51758605241775513 0.049322914332151413 0.095505699515342712
0.5823671817779541 0.035493500530719757 0.105190709233284
0.037596054375171661 0.085708975791931152 0.093426726758480072
0.098752208054065704 0.11352184414863586 0.11507715284824371
0.42436069250106812 0.18125312030315399 0.14191582798957825
0.66726213693618774 0.14402809739112854 0.099898196756839752
0.74070394039154053 0.13489282131195068 0.060935404151678085
0.038515292108058929 0.25070816278457642 0.18467620015144348
0.15836967527866364 0.35294917225837708 0.20695982873439789
0.56646418571472168 0.4942266047000885 0.21620039641857147
0.83872842788696289 0.53986012935638428 0.16370297968387604
0.904518723487854 0.5706220269203186 0.05107567086815834
0.041038691997528076 0.38148495554924011 0.2622414231300354
0.10107669979333878 0.53570884466171265 0.24354837834835052
0.65045166015625 0.73822307586669922 0.19851641356945038
0.92176598310470581 0.79892915487289429 0.25319686532020569
0.98895072937011719 0.81792366504669189 0.15837737917900085
0.028434110805392265 0.51523792743682861 0.38480645418167114
0.03051484003663063 0.65437406301498413 0.38057103753089905
0.67697131633758545 0.81880509853363037 0.30576136708259583
0.97698193788528442 0.87647706270217896 0.28380361199378967
0.99901026487350464 0.88110744953155518 0.38624781370162964
0.016802933067083359 0.10078458487987518 0.18088540434837341
0.05551847442984581 0.038965530693531036 0.27060064673423767
0.35537576675415039 0.057562556117773056 0.33512449264526367
0.54595571756362915 0.025731762871146202 0.35522401332855225
0.60903078317642212 0.032238829880952835 0.37330809235572815
0.0050101634114980698 0.16540385782718658 0.25970429182052612
0.099915444850921631 0.1808440238237381 0.32039999961853027
0.45200642943382263 0.20375114679336548 0.44138950109481812
0.69540202617645264 0.15402078628540039 0.46570506691932678
0.76730203628540039 0.1346089094877243 0.48804742097854614
0.060497794300317764 0.35385328531265259 0.3998393714427948
0.21487906575202942 0.43242326378822327 0.46862334012985229
0.581126868724823 0.5712120532989502 0.57416623830795288
0.87544369697570801 0.60123682022094727 0.57828056812286377
0.93515169620513916 0.63444864749908447 0.58867502212524414
0.021609945222735405 0.48350796103477478 0.49249264597892761
0.12557971477508545 0.62470549345016479 0.57998096942901611
0.59789955615997314 0.82905274629592896 0.6345522403717041
0.94397401809692383 0.88392144441604614 0.64580810070037842
0.99610430002212524 0.8964468240737915 0.65366500616073608
0.020267022773623466 0.58736860752105713 0.59709274768829346
0.013042570091784 0.72126513719558716 0.68215703964233398
0.61187732219696045 0.88551163673400879 0.72930502891540527
0.94634521007537842 0.94080168008804321 0.72961020469665527
0.99985873699188232 0.9506605863571167 0.76043963432312012
6.8260640546213835e-05 0.14776836335659027 0.28424099087715149
0.034818042069673538 0.091343581676483154 0.39163807034492493
0.36818614602088928 0.048171039670705795 0.48950332403182983
0.57264232635498047 0.058437570929527283 0.52066695690155029
0.64290165901184082 0.034606471657752991 0.55089598894119263
0.00011430628364905715 0.22384758293628693 0.37540724873542786
0.041586678475141525 0.22095030546188354 0.48289164900779724
0.46775183081626892 0.16631396114826202 0.66416549682617188
0.71190601587295532 0.17367060482501984 0.68082153797149658
0.7832568883895874 0.10923253744840622 0.71672391891479492
0.014053300023078918 0.41095533967018127 0.53371083736419678
0.15448497235774994 0.49822849035263062 0.64213013648986816
0.53983765840530396 0.60031259059906006 0.82668685913085938
0.86219972372055054 0.63031649589538574 0.84426593780517578
0.9284089207649231 0.66555690765380859 0.85992342233657837
0.014282465912401676 0.55302506685256958 0.63554280996322632
0.15650942921638489 0.67730104923248291 0.74513036012649536
0.54522514343261719 0.87260979413986206 0.89391785860061646
0.92784255743026733 0.92904841899871826 0.90858566761016846
0.99273508787155151 0.94179666042327881 0.91378015279769897
0.028492646291851997 0.64147758483886719 0.7148977518081665
0.041578568518161774 0.77183276414871216 0.82818984985351562
0.55658286809921265 0.91984361410140991 0.92638826370239258
0.92772293090820312 0.97768515348434448 0.93913674354553223
0.99625051021575928 0.98888349533081055 0.94859164953231812
0 0.17740422487258911 0.33246225118637085
0.029602291062474251 0.14142055809497833 0.4347502589225769
0.39845675230026245 0.025729011744260788 0.59492653608322144
0.61223185062408447 0.065664000809192657 0.60422611236572266
0.68990659713745117 0.068731583654880524 0.65076255798339844
0 0.25988602638244629 0.42802003026008606
0.0084378113970160484 0.24883450567722321 0.54062801599502563
0.47688910365104675 0.17619390785694122 0.75373846292495728
0.73955076932907104 0.16564881801605225 0.77636414766311646
0.80320626497268677 0.18831400573253632 0.79715830087661743
0.0054378733038902283 0.43380773067474365 0.57539099454879761
0.0065336786210536957 0.50959044694900513 0.69906908273696899
0.51737493276596069 0.61718922853469849 0.8968740701675415
0.86054998636245728 0.65097010135650635 0.92163503170013428
0.93080925941467285 0.68116611242294312 0.93372100591659546
0.0088174855336546898 0.57498788833618164 0.6761360764503479
0.036920942366123199 0.68880939483642578 0.78464996814727783
0.48598507046699524 0.88176268339157104 0.95741754770278931
0.92158716917037964 0.93736672401428223 0.97954314947128296
0.98689430952072144 0.94647061824798584 0.98364001512527466
0.0020048252772539854 0.65019685029983521 0.73986667394638062
0.0047739064320921898 0.76840764284133911 0.85011225938796997
0.53297150135040283 0.92460507154464722 0.96894079446792603
0.91102087497711182 0.98373192548751831 0.98911035060882568
0.99645799398422241 0.99552744626998901 0.99330019950866699
