assets/lut/films colorslide kodak ektachrome 100 vs generic.cube
# Created by: G'MIC (https://gmic.eu)
TITLE "kodak_ektachrome_100_vs_generic"
# LUT size
LUT_3D_SIZE 5
# Data domain
DOMAIN_MIN 0.0 0.0 0.0
DOMAIN_MAX 1.0 1.0 1.0
# LUT data points
0.028517585247755051 0.022298716008663177 0.022355098277330399
0.25817772746086121 0.012839792296290398 0.013468469493091106
0.618602454662323 0.0045073865912854671 0.010213037021458149
0.98792874813079834 0.011002963408827782 0.010329242795705795
0.99937808513641357 0.0150349335744977 0.012337389402091503
0.061006058007478714 0.20987424254417419 0.048469856381416321
0.22315613925457001 0.20282778143882751 0.045407913625240326
0.60024529695510864 0.18192277848720551 0.033958137035369873
0.96183061599731445 0.16844433546066284 0.027061581611633301
1 0.17861437797546387 0.027196263894438744
0.00097626331262290478 0.52589237689971924 0.096018396317958832
0.11333342641592026 0.51287961006164551 0.090817935764789581
0.56273633241653442 0.50678515434265137 0.086173206567764282
0.90431672334671021 0.49276155233383179 0.075217239558696747
0.99922382831573486 0.48274868726730347 0.06897454708814621
0 0.81346076726913452 0.055174481123685837
0.008905971422791481 0.81013977527618408 0.078305095434188843
0.48472267389297485 0.79855215549468994 0.055947709828615189
0.84527444839477539 0.78533416986465454 0.05946209654211998
1 0.77890628576278687 0.073393531143665314
0.00060170493088662624 0.99435508251190186 0.11167416721582413
0.10822755098342896 0.99849206209182739 0.078434288501739502
0.47864091396331787 0.99745911359786987 0.062209770083427429
0.78465056419372559 0.9976610541343689 0.082107365131378174
0.99984323978424072 0.9892238974571228 0.077988132834434509
0.027684275060892105 0.023931121453642845 0.18213559687137604
0.25471124053001404 0.017676319926977158 0.17843669652938843
0.60978984832763672 0.0063332952558994293 0.16856136918067932
0.97597378492355347 0.0066055147908627987 0.15596605837345123
0.99692827463150024 0.011139290407299995 0.14926928281784058
0.06127331405878067 0.21201629936695099 0.20731404423713684
0.22354532778263092 0.20179998874664307 0.20273353159427643
0.59456717967987061 0.18606607615947723 0.19314868748188019
0.96763688325881958 0.1665249764919281 0.18176062405109406
0.99653595685958862 0.16093380749225616 0.1731264740228653
0.00054355693282559514 0.5228501558303833 0.23794351518154144
0.11088098585605621 0.51589173078536987 0.23424455523490906
0.56508374214172363 0.5030595064163208 0.22075472772121429
0.9159887433052063 0.49043408036231995 0.21318463981151581
1 0.47889086604118347 0.21114057302474976
0 0.81231093406677246 0.24760289490222931
0.025310875847935677 0.80770295858383179 0.25952255725860596
0.48076352477073669 0.79655510187149048 0.24060505628585815
0.84517639875411987 0.78730565309524536 0.2295352965593338
1 0.77696013450622559 0.23128004372119904
0 0.99860483407974243 0.29289194941520691
0.09619489312171936 0.99891626834869385 0.28092220425605774
0.47363600134849548 0.99607878923416138 0.28130170702934265
0.78568762540817261 0.99764007329940796 0.27520844340324402
1 0.98701983690261841 0.26476237177848816
0.028206320479512215 0.023263204842805862 0.46583238244056702
0.25289726257324219 0.019030312076210976 0.45680364966392517
0.61153262853622437 0.0051975622773170471 0.44722312688827515
0.97934246063232422 0.0092715099453926086 0.43267488479614258
0.99672114849090576 0.010161126963794231 0.42952123284339905
0.051673874258995056 0.20865254104137421 0.48501259088516235
0.22744639217853546 0.20278848707675934 0.47734835743904114
0.60089671611785889 0.18426313996315002 0.47230762243270874
0.96815365552902222 0.16600289940834045 0.45724776387214661
0.99454355239868164 0.17005534470081329 0.45494019985198975
0.0040248497389256954 0.52128368616104126 0.51088166236877441
0.098530367016792297 0.51357126235961914 0.50924861431121826
0.55791312456130981 0.50320702791213989 0.50146722793579102
0.91733849048614502 0.48868158459663391 0.49365806579589844
1 0.47820204496383667 0.48770424723625183
0 0.81160265207290649 0.53612911701202393
0.015540388412773609 0.80451887845993042 0.54324162006378174
0.46157023310661316 0.79577517509460449 0.53283381462097168
0.84291535615921021 0.78779155015945435 0.52358400821685791
1 0.77574080228805542 0.52038109302520752
0.00014935662329662591 0.99911534786224365 0.55706018209457397
0.089380852878093719 0.99852943420410156 0.56341052055358887
0.47823140025138855 0.99802464246749878 0.56237936019897461
0.80147850513458252 0.99477505683898926 0.55701512098312378
1 0.98853385448455811 0.54786604642868042
0.031943377107381821 0.017702318727970123 0.72441142797470093
0.25405511260032654 0.010860338807106018 0.71579182147979736
0.61057579517364502 0.0044388715177774429 0.70838487148284912
0.95912516117095947 0.0061230231076478958 0.69606542587280273
0.99965792894363403 0.013572243973612785 0.69341695308685303
0.04191957414150238 0.20858055353164673 0.74439549446105957
0.22647324204444885 0.19882822036743164 0.74175888299942017
0.59094071388244629 0.19199112057685852 0.7362096905708313
0.95210981369018555 0.17311301827430725 0.72181046009063721
1 0.17743754386901855 0.71289128065109253
8.2262828072998673e-05 0.52002632617950439 0.77357828617095947
0.093489944934844971 0.51759696006774902 0.76974636316299438
0.55929571390151978 0.50314319133758545 0.76336348056793213
0.9178435206413269 0.48696109652519226 0.752358078956604
1 0.48085618019104004 0.74123686552047729
0 0.81393754482269287 0.79416012763977051
0.027961986139416695 0.80267179012298584 0.79492896795272827
0.48883050680160522 0.79537874460220337 0.78827720880508423
0.84152340888977051 0.7852357029914856 0.78166592121124268
0.99987304210662842 0.7778734564781189 0.77246862649917603
0.0012428881600499153 0.99853014945983887 0.80233180522918701
0.053311336785554886 0.99809873104095459 0.81016731262207031
0.4830147922039032 0.99176293611526489 0.81125152111053467
0.78185367584228516 0.99663931131362915 0.80724090337753296
0.99983429908752441 0.99505507946014404 0.80089378356933594
0.030542051419615746 0.02225048653781414 0.92003101110458374
0.2556091845035553 0.01300913468003273 0.91215771436691284
0.60938119888305664 0.004818351473659277 0.91312849521636963
0.98470377922058105 0.010204404592514038 0.89754146337509155
0.99889522790908813 0.013530881144106388 0.88985329866409302
0.049764163792133331 0.20872081816196442 0.93763381242752075
0.22292609512805939 0.19960767030715942 0.93436735868453979
0.59433263540267944 0.18984851241111755 0.93144124746322632
0.95433348417282104 0.16873911023139954 0.91634023189544678
0.99878060817718506 0.16320021450519562 0.9102853536605835
0.0065002143383026123 0.52186822891235352 0.969962477684021
0.118447445333004 0.5129428505897522 0.97045272588729858
0.53873258829116821 0.50239467620849609 0.95747065544128418
0.91753756999969482 0.48997059464454651 0.94844114780426025
1 0.48021653294563293 0.94281572103500366
0 0.81126725673675537 0.98612290620803833
0.033458828926086426 0.80538570880889893 0.98771166801452637
0.48649603128433228 0.79735320806503296 0.98517477512359619
0.8350340723991394 0.78439080715179443 0.97508454322814941
0.995158851146698 0.77822303771972656 0.97562515735626221
0.0027613472193479538 0.99449038505554199 0.99051988124847412
0.057951278984546661 0.99922269582748413 0.99460256099700928
0.47781488299369812 0.99780702590942383 0.99401366710662842
0.78364032506942749 0.99649608135223389 0.99391698837280273
0.99938279390335083 0.99078571796417236 0.99054086208343506
