assets/lut/films colorslide fuji provia 100 generic.cube
# Created by: G'MIC (https://gmic.eu)
TITLE "fuji_provia_100_generic"
# LUT size
LUT_3D_SIZE 5
# Data domain
DOMAIN_MIN 0.0 0.0 0.0
DOMAIN_MAX 1.0 1.0 1.0
# LUT data points
0.034214302897453308 0.031004901975393295 0.030745681375265121
0.26476332545280457 0.023968296125531197 0.022175388410687447
0.60105562210083008 0.022514551877975464 0.024471836164593697
0.90886777639389038 0.031734287738800049 0.031004901975393295
1 0.039135653525590897 0.031378667801618576
0.051001694053411484 0.24572357535362244 0.036959897726774216
0.23551107943058014 0.25103467702865601 0.042437415570020676
0.58087050914764404 0.25426924228668213 0.039651773869991302
0.87754422426223755 0.25426110625267029 0.039702381938695908
1 0.27110710740089417 0.039966851472854614
0 0.54223394393920898 0.013720239512622356
0.15531106293201447 0.55233073234558105 0.054345566779375076
0.53813308477401733 0.55429446697235107 0.053985700011253357
0.82382440567016602 0.54694736003875732 0.050841882824897766
0.99993216991424561 0.55012905597686768 0.049330975860357285
0 0.78166568279266357 0
0.14999181032180786 0.79126352071762085 0.0042095109820365906
0.50203865766525269 0.79642993211746216 0.01351515855640173
0.77325427532196045 0.7981148362159729 0.021722307428717613
0.98228627443313599 0.79554688930511475 0.0034868428483605385
0.0009544821223244071 0.97662317752838135 0
0.20536057651042938 0.97937071323394775 0
0.50674676895141602 0.97640162706375122 0
0.74915438890457153 0.97867721319198608 0
0.95577985048294067 0.98318177461624146 0
0.046070456504821777 0.026408415287733078 0.24615029990673065
0.27051523327827454 0.030620051547884941 0.25058820843696594
0.60924208164215088 0.027972247451543808 0.25622880458831787
0.91743457317352295 0.032795041799545288 0.25625473260879517
1 0.032320555299520493 0.26095137000083923
0.065006569027900696 0.24638089537620544 0.25059637427330017
0.24490277469158173 0.2466886043548584 0.24868805706501007
0.58776998519897461 0.2532336413860321 0.25218123197555542
0.88698214292526245 0.2557070255279541 0.25003069639205933
1 0.26190376281738281 0.25725248456001282
0 0.54768592119216919 0.24048742651939392
0.16308498382568359 0.54657578468322754 0.24409651756286621
0.55019700527191162 0.55346798896789551 0.24059712886810303
0.83259457349777222 0.55422079563140869 0.23939889669418335
0.99684673547744751 0.55446022748947144 0.23533107340335846
0 0.78676038980484009 0.22469009459018707
0.13487444818019867 0.79122054576873779 0.23694473505020142
0.51201832294464111 0.79277622699737549 0.23195633292198181
0.78109157085418701 0.79647797346115112 0.234712153673172
0.98192667961120605 0.79733407497406006 0.21470895409584045
0.008415895514190197 0.97295403480529785 0.23276211321353912
0.2118552029132843 0.97327291965484619 0.23776809871196747
0.52004772424697876 0.97926062345504761 0.23307575285434723
0.74979883432388306 0.98209106922149658 0.23239576816558838
0.95504683256149292 0.98304623365402222 0.21758463978767395
0.10317316651344299 0.01056403387337923 0.5435451865196228
0.29720160365104675 0.020430007949471474 0.55827480554580688
0.61825370788574219 0.030759235844016075 0.56207281351089478
0.92373490333557129 0.036332119256258011 0.56281161308288574
1 0.032014690339565277 0.55404746532440186
0.065181225538253784 0.24863651394844055 0.55699664354324341
0.25684365630149841 0.2508537769317627 0.55938947200775146
0.59751182794570923 0.25422888994216919 0.5586969256401062
0.89248138666152954 0.26463103294372559 0.56038987636566162
0.99995797872543335 0.26505613327026367 0.55804717540740967
2.2170122974785045e-05 0.54715466499328613 0.55174875259399414
0.18584059178829193 0.5464511513710022 0.54896610975265503
0.54960042238235474 0.55321884155273438 0.55325329303741455
0.8458830714225769 0.55143940448760986 0.55497139692306519
0.9989006519317627 0.55114495754241943 0.54834520816802979
6.731818757543806e-06 0.7957121729850769 0.54592418670654297
0.13421651721000671 0.79418253898620605 0.5505557656288147
0.52354198694229126 0.79269975423812866 0.54677349328994751
0.79140943288803101 0.79548996686935425 0.54688876867294312
0.98468804359436035 0.79233074188232422 0.54568469524383545
0.05172589048743248 0.97291666269302368 0.55627745389938354
0.25374254584312439 0.9728807806968689 0.55811816453933716
0.54720216989517212 0.97249531745910645 0.55186218023300171
0.76136606931686401 0.97906947135925293 0.55968743562698364
0.96386200189590454 0.97949004173278809 0.5525093674659729
0.13122135400772095 0.0062506580725312233 0.79041785001754761
0.32887411117553711 0.0099728303030133247 0.80426239967346191
0.62597918510437012 0.022252758964896202 0.80963408946990967
0.92840290069580078 0.036737643182277679 0.81923365592956543
1 0.036677882075309753 0.8051719069480896
0.064479008316993713 0.25560560822486877 0.80270993709564209
0.27222296595573425 0.24853222072124481 0.80681127309799194
0.60051536560058594 0.25350615382194519 0.80930113792419434
0.89883977174758911 0.26327046751976013 0.81390523910522461
1 0.27855828404426575 0.80408883094787598
0 0.54695886373519897 0.80491167306900024
0.19620184600353241 0.54210197925567627 0.8018801212310791
0.56408095359802246 0.55174660682678223 0.80169260501861572
0.85218292474746704 0.55099964141845703 0.80386608839035034
1 0.55649304389953613 0.80059134960174561
0 0.78865653276443481 0.79433238506317139
0.16459916532039642 0.78869009017944336 0.79251974821090698
0.53445953130722046 0.79280257225036621 0.79391300678253174
0.79819810390472412 0.79803621768951416 0.79883420467376709
0.98987060785293579 0.79545485973358154 0.79582399129867554
0.058584805577993393 0.97534793615341187 0.79260313510894775
0.28060391545295715 0.97417724132537842 0.79182761907577515
0.56067746877670288 0.97649705410003662 0.78840243816375732
0.77097409963607788 0.97866898775100708 0.79145771265029907
0.97076618671417236 0.97931557893753052 0.79061496257781982
0.15330268442630768 0.0026704675983637571 0.98650532960891724
0.34011989831924438 0.0064571453258395195 0.99194085597991943
0.63499432802200317 0.021076980978250504 0.99319851398468018
0.93823480606079102 0.035092193633317947 0.99221354722976685
1 0.02972697839140892 0.99010896682739258
0.086661919951438904 0.24811080098152161 0.98865681886672974
0.25782561302185059 0.25197765231132507 0.99100935459136963
0.60010921955108643 0.26353985071182251 0.99319851398468018
0.90570265054702759 0.25894078612327576 0.99272614717483521
1 0.26757794618606567 0.98945480585098267
0.017450654879212379 0.54613924026489258 0.98607081174850464
0.22235623002052307 0.55011141300201416 0.98593908548355103
0.57505178451538086 0.54997760057449341 0.98996353149414062
0.84870725870132446 0.54304242134094238 0.98764169216156006
1 0.54690086841583252 0.98463922739028931
0.01201216783374548 0.79054224491119385 0.98038488626480103
0.21050122380256653 0.79055935144424438 0.97833931446075439
0.537250816822052 0.79372340440750122 0.98185032606124878
0.79967892169952393 0.7918742299079895 0.97828859090805054
0.98820841312408447 0.79155057668685913 0.97978818416595459
0.071634329855442047 0.97967368364334106 0.98349547386169434
0.3018932044506073 0.97619837522506714 0.98232835531234741
0.56444931030273438 0.9767155647277832 0.97964870929718018
0.77789407968521118 0.97940796613693237 0.97812527418136597
0.97428172826766968 0.97616827487945557 0.98149919509887695
