assets/lut/films colorslide polaroid 669.cube
# Created by: G'MIC (https://gmic.eu)
TITLE "polaroid_669"
# LUT size
LUT_3D_SIZE 7
# Data domain
DOMAIN_MIN 0.0 0.0 0.0
DOMAIN_MAX 1.0 1.0 1.0
# LUT data points
0.016914516687393188 0.15287463366985321 0.11792336404323578
0.10670796036720276 0.15394634008407593 0.12178091704845428
0.23300507664680481 0.16394986212253571 0.12899579107761383
0.40705052018165588 0.16307412087917328 0.1404542475938797
0.5894244909286499 0.15383060276508331 0.15183550119400024
0.76375329494476318 0.14565461874008179 0.16347664594650269
0.92733508348464966 0.17327362298965454 0.19155010581016541
0.020643331110477448 0.20668043196201324 0.13448427617549896
0.1224101334810257 0.20657600462436676 0.12992207705974579
0.27028095722198486 0.21456310153007507 0.13917478919029236
0.45921134948730469 0.22337064146995544 0.15385714173316956
0.62790966033935547 0.21621955931186676 0.16354288160800934
0.78748613595962524 0.21721909940242767 0.17631283402442932
0.93831342458724976 0.25144821405410767 0.19878411293029785
0.043849345296621323 0.30318045616149902 0.14828374981880188
0.13651622831821442 0.29454338550567627 0.14580482244491577
0.2853710949420929 0.30826753377914429 0.14182312786579132
0.47522979974746704 0.31922513246536255 0.14965812861919403
0.65648102760314941 0.33464890718460083 0.17376427352428436
0.81635218858718872 0.35570776462554932 0.20037685334682465
0.95261049270629883 0.38344737887382507 0.22462514042854309
0.092055484652519226 0.414987713098526 0.16120046377182007
0.16299903392791748 0.40320906043052673 0.1616133451461792
0.27788054943084717 0.4051569402217865 0.15570768713951111
0.43598100543022156 0.42019400000572205 0.13855269551277161
0.62265801429748535 0.44369986653327942 0.14458662271499634
0.80752807855606079 0.49753668904304504 0.19790124893188477
0.9591529369354248 0.55378776788711548 0.27372455596923828
0.10845824331045151 0.53224635124206543 0.16139908134937286
0.17850442230701447 0.52287864685058594 0.16479058563709259
0.27308440208435059 0.50506973266601562 0.1648591160774231
0.41576573252677917 0.5308193564414978 0.14466774463653564
0.57611721754074097 0.55406540632247925 0.11362853646278381
0.74000799655914307 0.58125382661819458 0.083802707493305206
0.92721903324127197 0.67424654960632324 0.21293841302394867
0.11565703153610229 0.70493042469024658 0.14288762211799622
0.19120831787586212 0.69426792860031128 0.15258072316646576
0.28483271598815918 0.67443293333053589 0.14405356347560883
0.4163631796836853 0.68537718057632446 0.12422388046979904
0.56761264801025391 0.71659833192825317 0.067573398351669312
0.72637015581130981 0.74921810626983643 0.00027753046015277505
0.89636629819869995 0.78755205869674683 0.015074277296662331
0.30485948920249939 0.94623905420303345 0.26527190208435059
0.35398128628730774 0.94216698408126831 0.27341368794441223
0.41320100426673889 0.93822109699249268 0.23948952555656433
0.52779704332351685 0.94122594594955444 0.24766851961612701
0.66809463500976562 0.95157283544540405 0.24841119349002838
0.81923693418502808 0.96312874555587769 0.26395609974861145
0.95605605840682983 0.97448903322219849 0.27303850650787354
0.0079484675079584122 0.1630428284406662 0.17084480822086334
0.10014595836400986 0.16781976819038391 0.18091313540935516
0.24125666916370392 0.17530369758605957 0.1948455423116684
0.42924058437347412 0.1628422886133194 0.20524613559246063
0.60822564363479614 0.14674147963523865 0.21090266108512878
0.77165007591247559 0.13050514459609985 0.21940037608146667
0.92891848087310791 0.16639257967472076 0.25097650289535522
0.01137098390609026 0.22264431416988373 0.19844996929168701
0.12984129786491394 0.22013767063617706 0.20371431112289429
0.29052183032035828 0.22649131715297699 0.21509657800197601
0.4699990451335907 0.22326290607452393 0.22144006192684174
0.63258117437362671 0.22145217657089233 0.22743460536003113
0.78744500875473022 0.2228713184595108 0.23810163140296936
0.93896347284317017 0.25350761413574219 0.25973093509674072
0.02935435064136982 0.33541411161422729 0.21830439567565918
0.15939439833164215 0.3268178403377533 0.22249755263328552
0.31470730900764465 0.32969117164611816 0.21327817440032959
0.49844476580619812 0.33852636814117432 0.2305133044719696
0.67158442735671997 0.35184904932975769 0.2587524950504303
0.81437832117080688 0.36035260558128357 0.2671908438205719
0.95122116804122925 0.38824054598808289 0.28460302948951721
0.11359196156263351 0.4502178430557251 0.23140920698642731
0.18624483048915863 0.4380418062210083 0.23154599964618683
0.29452535510063171 0.42310357093811035 0.21829880774021149
0.45616155862808228 0.43837231397628784 0.20363672077655792
0.63685804605484009 0.45546922087669373 0.21826754510402679
0.81580555438995361 0.51024961471557617 0.27380391955375671
0.95962750911712646 0.55558347702026367 0.33234640955924988
0.12995664775371552 0.56394565105438232 0.22572462260723114
0.19326353073120117 0.55084073543548584 0.22458493709564209
0.28948178887367249 0.53043454885482788 0.21836012601852417
0.42573976516723633 0.54490494728088379 0.20431548357009888
0.58709257841110229 0.56773906946182251 0.17825798690319061
0.75548511743545532 0.59960103034973145 0.17822779715061188
0.93276727199554443 0.68038731813430786 0.29005643725395203
0.11815614998340607 0.72452753782272339 0.2101595401763916
0.19130747020244598 0.71383559703826904 0.20497132837772369
0.29101395606994629 0.69513660669326782 0.19965936243534088
0.41937154531478882 0.69772052764892578 0.18063166737556458
0.57589864730834961 0.72953116893768311 0.15771095454692841
0.73354411125183105 0.75261396169662476 0.094817236065864563
0.89940780401229858 0.79143619537353516 0.086426965892314911
0.28802216053009033 0.94923746585845947 0.31342983245849609
0.34335058927536011 0.94838696718215942 0.30943113565444946
0.41398847103118896 0.94333785772323608 0.30350250005722046
0.52733594179153442 0.94119548797607422 0.30170786380767822
0.66575735807418823 0.95199084281921387 0.30170631408691406
0.81536483764648438 0.96659612655639648 0.30512899160385132
0.95313608646392822 0.97149288654327393 0.3348773717880249
0.00035686118644662201 0.18748937547206879 0.29972958564758301
0.055156916379928589 0.18823553621768951 0.31039842963218689
0.28036701679229736 0.20022718608379364 0.33667293190956116
0.47130066156387329 0.20748607814311981 0.36443325877189636
0.6518930196762085 0.19899815320968628 0.37291258573532104
0.8010450005531311 0.15019875764846802 0.3547307550907135
0.94149106740951538 0.1461174339056015 0.35452562570571899
0.00025649723829701543 0.25712963938713074 0.322418212890625
0.11191922426223755 0.25324779748916626 0.34057721495628357
0.32281798124313354 0.26593586802482605 0.37306001782417297
0.49965515732765198 0.27207168936729431 0.39092400670051575
0.66565901041030884 0.25674000382423401 0.38280209898948669
0.80686688423156738 0.23540118336677551 0.36731213331222534
0.94117444753646851 0.22952303290367126 0.36083325743675232
0.0082538081333041191 0.37130174040794373 0.36218583583831787
0.168930783867836 0.37837004661560059 0.3798116147518158
0.35979366302490234 0.37621712684631348 0.4011082649230957
0.5298953652381897 0.36993569135665894 0.40106445550918579
0.67413038015365601 0.35602346062660217 0.38740527629852295
0.81521981954574585 0.35562869906425476 0.38304316997528076
0.94979214668273926 0.38276037573814392 0.39283099770545959
0.034948162734508514 0.5088387131690979 0.37228047847747803
0.20531690120697021 0.50955760478973389 0.38121983408927917
0.34418663382530212 0.48289638757705688 0.37850287556648254
0.49962911009788513 0.48120522499084473 0.36188212037086487
0.67344582080841064 0.50497573614120483 0.38675302267074585
0.82459753751754761 0.53556424379348755 0.4225040078163147
0.95379281044006348 0.56887269020080566 0.45060059428215027
0.12490175664424896 0.62392592430114746 0.36191165447235107
0.21442115306854248 0.61654961109161377 0.35607346892356873
0.32557085156440735 0.59189820289611816 0.34706103801727295
0.44660285115242004 0.57759469747543335 0.32848379015922546
0.61250823736190796 0.60454654693603516 0.31600561738014221
0.77962309122085571 0.63183462619781494 0.33387047052383423
0.93921029567718506 0.71246427297592163 0.44287201762199402
0.11055821180343628 0.76404708623886108 0.33612406253814697
0.18613751232624054 0.7556992769241333 0.33254748582839966
0.30074617266654968 0.73972654342651367 0.3136218786239624
0.42015480995178223 0.71764355897903442 0.29929983615875244
0.57755774259567261 0.7465202808380127 0.27976822853088379
0.74431508779525757 0.77018582820892334 0.24384701251983643
0.91145098209381104 0.81112933158874512 0.27870288491249084
0.259378582239151 0.95455437898635864 0.40861213207244873
0.32230165600776672 0.95552593469619751 0.40972402691841125
0.40358719229698181 0.95301574468612671 0.39292988181114197
0.50153565406799316 0.94323867559432983 0.37739253044128418
0.64802151918411255 0.95170819759368896 0.38111627101898193
0.80747872591018677 0.96946972608566284 0.38670283555984497
0.94873404502868652 0.97330266237258911 0.40453749895095825
0.0086644338443875313 0.2302202582359314 0.49374580383300781
0.0029845742974430323 0.22004722058773041 0.5024484395980835
0.27141472697257996 0.23988431692123413 0.54262608289718628
0.52200758457183838 0.25319105386734009 0.56827843189239502
0.68412703275680542 0.28199085593223572 0.5835874080657959
0.83769077062606812 0.32199835777282715 0.59554862976074219
0.95711827278137207 0.32013145089149475 0.57524740695953369
7.3900409915950149e-06 0.31308645009994507 0.51695400476455688
0.033453863114118576 0.29491183161735535 0.53457939624786377
0.32166895270347595 0.30523291230201721 0.56825214624404907
0.54269486665725708 0.32584682106971741 0.58909755945205688
0.69247698783874512 0.34611201286315918 0.59763437509536743
0.83670419454574585 0.37676206231117249 0.60225194692611694
0.95930153131484985 0.35195094347000122 0.57970643043518066
0 0.42444378137588501 0.53257310390472412
0.14443455636501312 0.42409828305244446 0.54425609111785889
0.3616587221622467 0.42213398218154907 0.57565140724182129
0.55676263570785522 0.44484823942184448 0.60911005735397339
0.69807308912277222 0.45996025204658508 0.61118429899215698
0.82711631059646606 0.43668130040168762 0.58586305379867554
0.95790934562683105 0.40670698881149292 0.5574641227722168
0.017931664362549782 0.56394666433334351 0.56729364395141602
0.19497327506542206 0.55302178859710693 0.56521522998809814
0.37548011541366577 0.55778402090072632 0.57970219850540161
0.54822260141372681 0.56541067361831665 0.60063594579696655
0.69089049100875854 0.56061208248138428 0.59718102216720581
0.81988286972045898 0.54907083511352539 0.58165228366851807
0.94765079021453857 0.55036669969558716 0.56559890508651733
0.029016532003879547 0.70529139041900635 0.54943513870239258
0.20507416129112244 0.69715923070907593 0.55045270919799805
0.36802268028259277 0.69110006093978882 0.56164002418518066
0.4920291006565094 0.65712326765060425 0.5408095121383667
0.64255404472351074 0.66091179847717285 0.51903200149536133
0.80668395757675171 0.69309908151626587 0.55874311923980713
0.93820738792419434 0.73403137922286987 0.60651302337646484
0.021265771239995956 0.82962131500244141 0.51884216070175171
0.12837982177734375 0.82712370157241821 0.51636290550231934
0.3115527331829071 0.80942851305007935 0.5096735954284668
0.42954269051551819 0.77819335460662842 0.47762742638587952
0.57089000940322876 0.76609206199645996 0.44217827916145325
0.75207400321960449 0.79417800903320312 0.42806097865104675
0.9191170334815979 0.82816916704177856 0.48257690668106079
0.28989675641059875 0.9706616997718811 0.57605528831481934
0.2869543731212616 0.96996665000915527 0.56254202127456665
0.40960809588432312 0.96530896425247192 0.55588269233703613
0.49210342764854431 0.9599795937538147 0.51708650588989258
0.61776590347290039 0.95685774087905884 0.49365794658660889
0.79476016759872437 0.96871793270111084 0.51400816440582275
0.94562935829162598 0.97452652454376221 0.5352855920791626
0.017808636650443077 0.2970312237739563 0.71307843923568726
0 0.2837560772895813 0.71867108345031738
0.19404199719429016 0.29438015818595886 0.73878294229507446
0.53496837615966797 0.33114144206047058 0.76501750946044922
0.7254064679145813 0.37565964460372925 0.77694535255432129
0.84308940172195435 0.41567721962928772 0.77844792604446411
0.94941169023513794 0.53884410858154297 0.79552119970321655
0 0.38067448139190674 0.72950094938278198
0 0.36034670472145081 0.73434972763061523
0.25008535385131836 0.35809391736984253 0.75000351667404175
0.55622345209121704 0.40574446320533752 0.77823060750961304
0.73014324903488159 0.44369524717330933 0.78026610612869263
0.83952128887176514 0.48497062921524048 0.78619396686553955
0.94637882709503174 0.57760578393936157 0.80037152767181396
0.010969453491270542 0.49605759978294373 0.71457517147064209
0.1088581457734108 0.49045321345329285 0.72301334142684937
0.33370637893676758 0.47625359892845154 0.74733030796051025
0.55434727668762207 0.50940346717834473 0.77700519561767578
0.72700339555740356 0.56092572212219238 0.78671866655349731
0.82766163349151611 0.59190547466278076 0.79345208406448364
0.93611949682235718 0.6430124044418335 0.79510265588760376
0.0023598165716975927 0.60401803255081177 0.71099257469177246
0.058063238859176636 0.60469216108322144 0.71273475885391235
0.33545047044754028 0.60440343618392944 0.71945524215698242
0.54221469163894653 0.61660754680633545 0.75506454706192017
0.71171605587005615 0.67085123062133789 0.78841894865036011
0.82165288925170898 0.69372814893722534 0.79597091674804688
0.932769775390625 0.66587674617767334 0.76078337430953979
0.067728288471698761 0.74826854467391968 0.73204219341278076
0.18421529233455658 0.74504685401916504 0.73324549198150635
0.35552877187728882 0.74829012155532837 0.73905175924301147
0.52831125259399414 0.75432389974594116 0.75596249103546143
0.68598467111587524 0.75977468490600586 0.77245193719863892
0.81089460849761963 0.76088392734527588 0.76856333017349243
0.92870372533798218 0.74547988176345825 0.75602304935455322
0.16457024216651917 0.87907677888870239 0.71994400024414062
0.24964633584022522 0.88380658626556396 0.7251046895980835
0.36465552449226379 0.87472862005233765 0.72191965579986572
0.50144112110137939 0.86663538217544556 0.72060894966125488
0.61787348985671997 0.83332699537277222 0.69851738214492798
0.7667885422706604 0.83096379041671753 0.67086821794509888
0.91634374856948853 0.86835813522338867 0.71710216999053955
0.28030526638031006 0.98790830373764038 0.73216426372528076
0.33473804593086243 0.98499447107315063 0.72794395685195923
0.43381211161613464 0.98159962892532349 0.73040479421615601
0.53133493661880493 0.97900956869125366 0.72101300954818726
0.6296420693397522 0.97142386436462402 0.69228875637054443
0.77636164426803589 0.97096914052963257 0.68286705017089844
0.93720752000808716 0.97960460186004639 0.68526995182037354
0.00047704658936709166 0.40271016955375671 0.87884223461151123
7.180606644396903e-06 0.38526374101638794 0.87898224592208862
0.19704519212245941 0.38786542415618896 0.88601827621459961
0.53848481178283691 0.43426513671875 0.88840597867965698
0.74424451589584351 0.53395986557006836 0.90112745761871338
0.86856287717819214 0.58745276927947998 0.89506107568740845
0.94370543956756592 0.61592626571655273 0.89064556360244751
0.0019229963654652238 0.47373971343040466 0.87905526161193848
0.027398427948355675 0.46015384793281555 0.87683457136154175
0.26491078734397888 0.44641369581222534 0.88527810573577881
0.55463290214538574 0.49757516384124756 0.8898848295211792
0.74805688858032227 0.58715403079986572 0.89849323034286499
0.86572271585464478 0.6332317590713501 0.89260947704315186
0.94160681962966919 0.65928024053573608 0.894603431224823
0.1252640038728714 0.58893781900405884 0.86545979976654053
0.21114476025104523 0.57976442575454712 0.86971724033355713
0.36600705981254578 0.55919283628463745 0.87707257270812988
0.55228954553604126 0.58278435468673706 0.88281309604644775
0.74367833137512207 0.66720354557037354 0.89342015981674194
0.8573567271232605 0.70755195617675781 0.88956737518310547
0.92719382047653198 0.73077630996704102 0.89496052265167236
0.065177068114280701 0.68984478712081909 0.84463870525360107
0.1690317839384079 0.68597650527954102 0.84660279750823975
0.40120133757591248 0.69234234094619751 0.85565674304962158
0.56554704904556274 0.69148308038711548 0.87226194143295288
0.73013073205947876 0.74568825960159302 0.88810271024703979
0.84650903940200806 0.7868274450302124 0.88893264532089233
0.91767317056655884 0.80967921018600464 0.8935847282409668
0.00065101176733151078 0.80242812633514404 0.84791034460067749
0.090086407959461212 0.7999798059463501 0.84626823663711548
0.31480935215950012 0.79356801509857178 0.848652184009552
0.50463086366653442 0.7922787070274353 0.85258716344833374
0.69980061054229736 0.8166191577911377 0.8734438419342041
0.83907961845397949 0.86677998304367065 0.89048308134078979
0.91004657745361328 0.87613081932067871 0.89114856719970703
0.27015340328216553 0.91143321990966797 0.85790377855300903
0.32715737819671631 0.91054636240005493 0.85549849271774292
0.44405952095985413 0.9048842191696167 0.85648494958877563
0.56671994924545288 0.91071188449859619 0.86419391632080078
0.69080907106399536 0.90790635347366333 0.86864900588989258
0.8249620795249939 0.91501790285110474 0.87998849153518677
0.91472107172012329 0.91385918855667114 0.87817859649658203
0.52799880504608154 0.9929502010345459 0.86774158477783203
0.5406833291053772 0.99307024478912354 0.86594659090042114
0.59041380882263184 0.99069046974182129 0.86749017238616943
0.65412229299545288 0.99024897813796997 0.87031418085098267
0.71974533796310425 0.98833572864532471 0.86217087507247925
0.7949296236038208 0.97893482446670532 0.83953124284744263
0.92308396100997925 0.98681926727294922 0.84809762239456177
0.26267370581626892 0.59137076139450073 0.95731943845748901
0.34593096375465393 0.59011209011077881 0.95514732599258423
0.46660065650939941 0.58818221092224121 0.95481926202774048
0.62923389673233032 0.63677775859832764 0.94945216178894043
0.77073514461517334 0.69919514656066895 0.94895917177200317
0.88226234912872314 0.78349119424819946 0.94586777687072754
0.94006842374801636 0.80580973625183105 0.94105613231658936
0.3667449951171875 0.65184670686721802 0.95155793428421021
0.40456101298332214 0.64572983980178833 0.94989001750946045
0.49350181221961975 0.63559913635253906 0.95195502042770386
0.63576805591583252 0.67428863048553467 0.94848358631134033
0.77246487140655518 0.72944480180740356 0.94533771276473999
0.87833064794540405 0.79726004600524902 0.94218945503234863
0.94049721956253052 0.82593482732772827 0.93919497728347778
0.43665707111358643 0.74189978837966919 0.94129770994186401
0.47519293427467346 0.73402631282806396 0.94265764951705933
0.53119271993637085 0.72030359506607056 0.94361418485641479
0.63409793376922607 0.72724753618240356 0.94465178251266479
0.77233624458312988 0.77696532011032104 0.94117569923400879
0.87631458044052124 0.84160584211349487 0.93938755989074707
0.93322336673736572 0.85879278182983398 0.93679636716842651
0.44702592492103577 0.82367032766342163 0.93374061584472656
0.47741585969924927 0.81754207611083984 0.93442237377166748
0.55361157655715942 0.81250840425491333 0.93573677539825439
0.64754700660705566 0.8043091893196106 0.93926835060119629
0.76933062076568604 0.83343923091888428 0.93742960691452026
0.87074935436248779 0.87875902652740479 0.93630790710449219
0.93310010433197021 0.90120857954025269 0.93500882387161255
0.34412240982055664 0.89450538158416748 0.92438077926635742
0.39273717999458313 0.89123910665512085 0.92449390888214111
0.48465967178344727 0.88870143890380859 0.92582398653030396
0.61572921276092529 0.88141655921936035 0.92786902189254761
0.75902611017227173 0.88777142763137817 0.93199896812438965
0.86776566505432129 0.91729199886322021 0.93259614706039429
0.93067002296447754 0.94193148612976074 0.93491935729980469
0.44908636808395386 0.96837073564529419 0.92697173357009888
0.47747451066970825 0.96528613567352295 0.92381578683853149
0.54545259475708008 0.96161627769470215 0.92733311653137207
0.61622673273086548 0.95182490348815918 0.92393463850021362
0.73184454441070557 0.94627141952514648 0.92231470346450806
0.85338467359542847 0.95381903648376465 0.93049341440200806
0.93170690536499023 0.97766190767288208 0.93927985429763794
0.65966987609863281 1 0.94371408224105835
0.64613968133926392 0.99885076284408569 0.9248586893081665
0.68410593271255493 0.99870508909225464 0.92444407939910889
0.74383270740509033 0.99831455945968628 0.9300529956817627
0.80640280246734619 0.99666297435760498 0.9311557412147522
0.86788207292556763 0.99680948257446289 0.93441039323806763
0.93784129619598389 0.9970594048500061 0.9379875659942627
