assets/lut/films print kodak 2383 cuspclip.cube
# Created by: G'MIC (https://gmic.eu)
TITLE "kodak_2383_cuspclip"
# LUT size
LUT_3D_SIZE 7
# Data domain
DOMAIN_MIN 0.0 0.0 0.0
DOMAIN_MAX 1.0 1.0 1.0
# LUT data points
0.015678869560360909 0.024605005979537964 0.029940018430352211
0.059990514069795609 0.03904293105006218 0.028820861130952835
0.16430722177028656 0.053899876773357391 0.020876193419098854
0.36706140637397766 0.071784138679504395 0.0042320401407778263
0.5454399585723877 0.10518655180931091 0.0010815938003361225
0.63441181182861328 0.12772479653358459 0.0040800655260682106
0.66363108158111572 0.14283847808837891 0.0038672951050102711
0.0088698295876383781 0.068228267133235931 0.044885300099849701
0.057432916015386581 0.080321922898292542 0.042116757482290268
0.17626014351844788 0.096535854041576385 0.025587838143110275
0.40829646587371826 0.12568436563014984 0.0084708267822861671
0.60162723064422607 0.15537862479686737 0.004191290121525526
0.69114983081817627 0.18107348680496216 0.015779308974742889
0.71829801797866821 0.19438152015209198 0.015057552605867386
0.006219018716365099 0.15407036244869232 0.080157801508903503
0.024519467726349831 0.16290487349033356 0.052357364445924759
0.20391562581062317 0.19033022224903107 0.022642591968178749
0.49113589525222778 0.26312452554702759 0.001783902058377862
0.69814252853393555 0.29740703105926514 0.0054927151650190353
0.76276278495788574 0.29776495695114136 0.010941449552774429
0.792510986328125 0.32262232899665833 0.021232739090919495
0.027626905590295792 0.36462634801864624 0.18786084651947021
0.0068537243641912937 0.36682763695716858 0.11749119311571121
0.1958947479724884 0.40098637342453003 0.0088800918310880661
0.6016920804977417 0.50090348720550537 0.0079354085028171539
0.80587166547775269 0.54209810495376587 0.022431990131735802
0.8627970814704895 0.54850590229034424 0.015153802931308746
0.88231861591339111 0.55902540683746338 0.0074958950281143188
0.027617750689387321 0.51122480630874634 0.24898062646389008
0.02528807707130909 0.53765839338302612 0.21411089599132538
0.13681319355964661 0.57892888784408569 0.0077723781578242779
0.67401725053787231 0.71492600440979004 0.011086408048868179
0.87842094898223877 0.74974775314331055 0.056098457425832748
0.93193018436431885 0.74505829811096191 0.060720961540937424
0.95344054698944092 0.7583577036857605 0.069730393588542938
0.041096273809671402 0.56606566905975342 0.2749563455581665
0.021964458748698235 0.59243571758270264 0.22124591469764709
0.1788627952337265 0.65944552421569824 0.0089792590588331223
0.70273548364639282 0.78865760564804077 0.024167528375983238
0.89558911323547363 0.82009345293045044 0.070063523948192596
0.95822912454605103 0.81720459461212158 0.088368088006973267
0.97868961095809937 0.82276242971420288 0.11426685005426407
0.018479246646165848 0.60429495573043823 0.27365425229072571
0.015948725864291191 0.63215500116348267 0.13139724731445312
0.31930676102638245 0.70884627103805542 0.0038269641809165478
0.71929579973220825 0.80648940801620483 0.020285962149500847
0.90625506639480591 0.84712934494018555 0.071243941783905029
0.97282737493515015 0.85400527715682983 0.098050586879253387
0.99391549825668335 0.85520768165588379 0.11182273179292679
0.011747024022042751 0.024412864819169044 0.066129021346569061
0.061712644994258881 0.03946169838309288 0.071152433753013611
0.16060756146907806 0.055043809115886688 0.060550287365913391
0.37464600801467896 0.033089835196733475 0.027396153658628464
0.55653566122055054 0.015961844474077225 0.012165368534624577
0.64492380619049072 0.019917072728276253 0.0098379096016287804
0.68638616800308228 0.023369105532765388 0.010789414867758751
0.0045848921872675419 0.067366912961006165 0.07966671884059906
0.050234954804182053 0.078440815210342407 0.081766001880168915
0.17913234233856201 0.10009170323610306 0.079364180564880371
0.42127451300621033 0.098463527858257294 0.033024374395608902
0.63112026453018188 0.070446714758872986 0.011836601421236992
0.71127915382385254 0.070251435041427612 0.0038975286297500134
0.73657405376434326 0.066124662756919861 0.010103218257427216
0.0048075509257614613 0.17643645405769348 0.13007521629333496
0.021844916045665741 0.16357509791851044 0.10502186417579651
0.21214383840560913 0.21101357042789459 0.079185515642166138
0.51421713829040527 0.24781198799610138 0.018630323931574821
0.71041357517242432 0.2527344822883606 0.0044327978976070881
0.78860139846801758 0.25684869289398193 0.0029798320028930902
0.81647926568984985 0.27028098702430725 0.0063883913680911064
0.026757573708891869 0.38029590249061584 0.23095402121543884
0.020692145451903343 0.38645583391189575 0.19047835469245911
0.18375571072101593 0.41328805685043335 0.047594781965017319
0.61056077480316162 0.5068475604057312 0.012854886241257191
0.82094687223434448 0.52830702066421509 0.012528707273304462
0.8917577862739563 0.54785001277923584 0.0064841625280678272
0.91634798049926758 0.56779474020004272 0.0095867086201906204
0.016478205099701881 0.530681312084198 0.29489046335220337
0.017604244872927666 0.55229640007019043 0.25101539492607117
0.13415071368217468 0.5974920392036438 0.024186931550502777
0.67067402601242065 0.71560096740722656 0.0053991428576409817
0.89086854457855225 0.76100945472717285 0.057323172688484192
0.95227205753326416 0.75565475225448608 0.058714400976896286
0.97151881456375122 0.76695096492767334 0.049586664885282516
0.019073665142059326 0.58072596788406372 0.32931756973266602
0.02077820710837841 0.61426764726638794 0.29790195822715759
0.14010149240493774 0.66907179355621338 0.036936096847057343
0.68677198886871338 0.79083919525146484 0.0011880462989211082
0.90967202186584473 0.83460319042205811 0.050382383167743683
0.97922062873840332 0.84084546566009521 0.084836475551128387
0.99302911758422852 0.84395754337310791 0.12226469814777374
0.023467389866709709 0.6255689263343811 0.38258808851242065
0.04065743088722229 0.66537636518478394 0.33925572037696838
0.18772174417972565 0.71778315305709839 0.17703236639499664
0.69438749551773071 0.81862896680831909 0.10277306288480759
0.92629587650299072 0.86358547210693359 0.050713974982500076
0.99420976638793945 0.87388938665390015 0.098894707858562469
0.9993169903755188 0.87388187646865845 0.24680009484291077
0.0073603163473308086 0.026876980438828468 0.15442752838134766
0.046246875077486038 0.031060956418514252 0.16159756481647491
0.15522558987140656 0.043204318732023239 0.17352704703807831
0.37598678469657898 0.018041124567389488 0.18664862215518951
0.56577688455581665 0.0027270298451185226 0.17878147959709167
0.6622084379196167 0.0024520873557776213 0.18124459683895111
0.69432717561721802 0 0.18078386783599854
0.0016210069879889488 0.08833477646112442 0.18517710268497467
0.023720521479845047 0.088140301406383514 0.20104944705963135
0.1744081974029541 0.10122052580118179 0.20661634206771851
0.43035086989402771 0.082875221967697144 0.20373342931270599
0.64253705739974976 0.021277768537402153 0.19457118213176727
0.72004032135009766 0.01957651786506176 0.17711468040943146
0.7523769736289978 0.018530333414673805 0.19505923986434937
0.0004913629381917417 0.2086184173822403 0.24611273407936096
0.0082705924287438393 0.20402869582176208 0.24730028212070465
0.18285594880580902 0.22312912344932556 0.24102659523487091
0.5192863941192627 0.26112905144691467 0.23393908143043518
0.7245439887046814 0.24413163959980011 0.20857775211334229
0.8050573468208313 0.22278937697410583 0.20295265316963196
0.8407520055770874 0.26810714602470398 0.23173423111438751
0.010463220998644829 0.43577620387077332 0.37026599049568176
0.012755300849676132 0.44831648468971252 0.35865801572799683
0.10904521495103836 0.44575673341751099 0.28511637449264526
0.59200066328048706 0.51200801134109497 0.25828969478607178
0.83183509111404419 0.53542906045913696 0.22807562351226807
0.91375166177749634 0.53840738534927368 0.19845683872699738
0.94679373502731323 0.57098084688186646 0.22539907693862915
0.010019892826676369 0.57701689004898071 0.43681246042251587
0.032012399286031723 0.60114026069641113 0.41755273938179016
0.06006481871008873 0.63200199604034424 0.31138795614242554
0.63333654403686523 0.73549455404281616 0.24508705735206604
0.90821778774261475 0.77889907360076904 0.13113962113857269
0.99287772178649902 0.79338246583938599 0.13295228779315948
0.99688160419464111 0.79893380403518677 0.19655880331993103
0.03213336318731308 0.62432169914245605 0.47113856673240662
0.023775886744260788 0.6629301905632019 0.46551322937011719
0.035484597086906433 0.71050715446472168 0.38002693653106689
0.64552068710327148 0.81734424829483032 0.29178622364997864
0.91966158151626587 0.87004154920578003 0.22537650167942047
0.99604588747024536 0.87740898132324219 0.248853400349617
1 0.88055980205535889 0.34433785080909729
0.0082727167755365372 0.68409854173660278 0.55819195508956909
0.022362489253282547 0.71879744529724121 0.53904926776885986
0.10856562852859497 0.75931525230407715 0.46407622098922729
0.64855474233627319 0.84946250915527344 0.42206260561943054
0.91225093603134155 0.90126305818557739 0.40450254082679749
0.99834704399108887 0.9124951958656311 0.3966866135597229
1 0.91047519445419312 0.46060556173324585
0.0037965213414281607 0.14273180067539215 0.35018515586853027
0.042178016155958176 0.023574350401759148 0.3335590660572052
0.16742277145385742 0.0068657519295811653 0.35723444819450378
0.38933566212654114 0.0058665405958890915 0.37191164493560791
0.58110976219177246 0.0054158978164196014 0.39442014694213867
0.68162769079208374 0.0027069540228694677 0.40718939900398254
0.70394384860992432 0.00018678553169593215 0.40300664305686951
0 0.2093985378742218 0.39814490079879761
0.0094396257773041725 0.13441391289234161 0.38458472490310669
0.15335670113563538 0.073640637099742889 0.39696738123893738
0.4346453845500946 0.070082858204841614 0.41753533482551575
0.63426369428634644 0.021463071927428246 0.43777352571487427
0.73466795682907104 0.014251005835831165 0.44361665844917297
0.76372909545898438 0.01577473059296608 0.44829747080802917
0.0052319546230137348 0.32533136010169983 0.47529518604278564
0.0063176774419844151 0.31364873051643372 0.48317626118659973
0.12176080048084259 0.24819144606590271 0.46675047278404236
0.51121848821640015 0.26435419917106628 0.49009597301483154
0.73320311307907104 0.24499176442623138 0.50186944007873535
0.81489843130111694 0.23935124278068542 0.4992121160030365
0.8456423282623291 0.28774222731590271 0.51216012239456177
0.0099752387031912804 0.49570688605308533 0.55674940347671509
0.017484866082668304 0.51701807975769043 0.57356041669845581
0.037152159959077835 0.49882885813713074 0.54836064577102661
0.56525367498397827 0.55478346347808838 0.56363904476165771
0.81874221563339233 0.58613425493240356 0.56724637746810913
0.91053766012191772 0.58393007516860962 0.56351268291473389
0.94012439250946045 0.60764843225479126 0.56786942481994629
0.0059564625844359398 0.63159245252609253 0.62955319881439209
0.015533267520368099 0.66202777624130249 0.64250355958938599
0.013090679422020912 0.69686108827590942 0.61221730709075928
0.58553481101989746 0.77145516872406006 0.59197723865509033
0.87547963857650757 0.82679277658462524 0.59615457057952881
0.97157841920852661 0.83014142513275146 0.59632354974746704
0.99614018201828003 0.84148812294006348 0.60266304016113281
0.0072148940525949001 0.68335485458374023 0.67743712663650513
0.0088354377076029778 0.71959805488586426 0.68530881404876709
0.0083432961255311966 0.77031689882278442 0.668099045753479
0.5692937970161438 0.86447995901107788 0.64886617660522461
0.89279359579086304 0.91829091310501099 0.6462637186050415
0.98871195316314697 0.92712163925170898 0.64539998769760132
0.99762749671936035 0.92165929079055786 0.64997214078903198
0.0060586370527744293 0.73140686750411987 0.72822272777557373
0.0024677501060068607 0.76988571882247925 0.7398257851600647
0.020482216030359268 0.80953949689865112 0.71354281902313232
0.61284154653549194 0.89601284265518188 0.70924800634384155
0.88954633474349976 0.94314157962799072 0.72352051734924316
0.9864349365234375 0.95797014236450195 0.71869975328445435
0.99942976236343384 0.95997291803359985 0.72580260038375854
0.012938495725393295 0.23324321210384369 0.47883671522140503
0.018659450113773346 0.17064516246318817 0.48590070009231567
0.18943852186203003 0.005427640862762928 0.50268906354904175
0.40891364216804504 0.0023622401058673859 0.52488851547241211
0.61143112182617188 0.0025259428657591343 0.56104093790054321
0.68945682048797607 0.0025847491342574358 0.57234776020050049
0.71412688493728638 3.5903034586226568e-05 0.55982363224029541
0.0016481586499139667 0.28502136468887329 0.53240782022476196
0.005879510659724474 0.24003009498119354 0.53777015209197998
0.17141006886959076 0.034396346658468246 0.55366480350494385
0.46066832542419434 0.020290704444050789 0.59584152698516846
0.66033321619033813 0.010355153121054173 0.61218875646591187
0.74445950984954834 0.0063770818524062634 0.62629693746566772
0.77429109811782837 0.0087552834302186966 0.6227869987487793
0.003989784512668848 0.3776857852935791 0.59691280126571655
0.0046982858330011368 0.36358916759490967 0.61610269546508789
0.087746866047382355 0.26820996403694153 0.64034420251846313
0.49892476201057434 0.27098268270492554 0.67307901382446289
0.73230856657028198 0.2569369375705719 0.69618219137191772
0.82164371013641357 0.24101924896240234 0.70433777570724487
0.85391926765441895 0.29349112510681152 0.71223801374435425
0.01320413313806057 0.53587478399276733 0.69301849603652954
0.023708673194050789 0.5484423041343689 0.71118724346160889
0.028727751225233078 0.54336267709732056 0.73605620861053467
0.5455707311630249 0.58462882041931152 0.7623443603515625
0.82339370250701904 0.61163562536239624 0.7837185263633728
0.90845358371734619 0.61779165267944336 0.78602880239486694
0.9379921555519104 0.64381206035614014 0.79231977462768555
0.026453504338860512 0.66403967142105103 0.75510674715042114
0.019793298095464706 0.68960148096084595 0.77449047565460205
0.010056963190436363 0.73572969436645508 0.79614156484603882
0.53904390335083008 0.80974453687667847 0.81591320037841797
0.86158144474029541 0.85800880193710327 0.83933395147323608
0.96068274974822998 0.86755973100662231 0.83226609230041504
0.98896503448486328 0.87842190265655518 0.83753198385238647
0.032420903444290161 0.71266144514083862 0.78477531671524048
0.028171105310320854 0.74690216779708862 0.80377775430679321
0.023770948871970177 0.80693012475967407 0.82901346683502197
0.5395929217338562 0.89654362201690674 0.85175520181655884
0.87215709686279297 0.94685167074203491 0.86848145723342896
0.97473645210266113 0.95626527070999146 0.86426109075546265
0.99417883157730103 0.95075023174285889 0.86588144302368164
0.029389085248112679 0.74396854639053345 0.81590539216995239
0.0064885756000876427 0.78443354368209839 0.83726561069488525
0.017476100474596024 0.83265674114227295 0.85917037725448608
0.57244831323623657 0.91821366548538208 0.87642240524291992
0.86538040637969971 0.96455204486846924 0.88785666227340698
0.97006046772003174 0.97967106103897095 0.88587838411331177
0.99663597345352173 0.98550808429718018 0.8977501392364502
0.0029737285804003477 0.25666901469230652 0.53799557685852051
0.021237825974822044 0.2119707316160202 0.55205649137496948
0.18040406703948975 0.0087787853553891182 0.57671678066253662
0.41781714558601379 0.0035986807197332382 0.6102064847946167
0.61564874649047852 0.0022323608864098787 0.63456368446350098
0.69821351766586304 0.0029045105911791325 0.65465277433395386
0.72475773096084595 0.0032032385934144258 0.65111857652664185
0.00087512144818902016 0.31081238389015198 0.58566224575042725
0.0038883881643414497 0.28192523121833801 0.5999528169631958
0.1575390100479126 0.03106270544230938 0.63631457090377808
0.45160803198814392 0.018998613581061363 0.68322259187698364
0.67127037048339844 0.010612532496452332 0.70108449459075928
0.75354528427124023 0.0082680201157927513 0.71104884147644043
0.78317081928253174 0.016515994444489479 0.72128975391387939
0.0017465329729020596 0.39874932169914246 0.65435540676116943
0.0056790369562804699 0.37295237183570862 0.66725176572799683
0.077210448682308197 0.30601352453231812 0.71559083461761475
0.49900859594345093 0.27027291059494019 0.77011305093765259
0.72727638483047485 0.2459501326084137 0.78569239377975464
0.82442265748977661 0.25130167603492737 0.79422056674957275
0.8550717830657959 0.30227881669998169 0.81096559762954712
0.0061350655741989613 0.54629433155059814 0.73421955108642578
0.027365380898118019 0.55370527505874634 0.75278335809707642
0.014059074223041534 0.55039036273956299 0.80873209238052368
0.53204619884490967 0.5866234302520752 0.86946862936019897
0.80495291948318481 0.61726528406143188 0.88004052639007568
0.90202134847640991 0.63049471378326416 0.88021385669708252
0.93437820672988892 0.65742665529251099 0.90102612972259521
0.025290470570325851 0.66754651069641113 0.79827880859375
0.012170185334980488 0.69719141721725464 0.82362908124923706
0.032434619963169098 0.74604862928390503 0.86615264415740967
0.51815736293792725 0.81962186098098755 0.92437410354614258
0.85207891464233398 0.86344414949417114 0.94165980815887451
0.95151752233505249 0.87601166963577271 0.93687081336975098
0.97720742225646973 0.87658482789993286 0.93917232751846313
0.014772736467421055 0.7159419059753418 0.82416576147079468
0.015865640714764595 0.74802196025848389 0.84494268894195557
0.024682272225618362 0.81142699718475342 0.89025735855102539
0.48301184177398682 0.90388613939285278 0.94445854425430298
0.85178905725479126 0.94969707727432251 0.95118600130081177
0.95890021324157715 0.96199625730514526 0.94831031560897827
0.99081480503082275 0.96907007694244385 0.95587241649627686
0.014379613101482391 0.74411308765411377 0.84188902378082275
0.020766373723745346 0.78393900394439697 0.86854404211044312
0.015307257883250713 0.83504688739776611 0.90784496068954468
0.53197455406188965 0.92534887790679932 0.95226407051086426
0.85030853748321533 0.97146576642990112 0.96184068918228149
0.95695024728775024 0.98592656850814819 0.96272271871566772
0.991405189037323 0.99062693119049072 0.96039021015167236
0.0030405831057578325 0.29319199919700623 0.58745920658111572
0.015284160152077675 0.23972304165363312 0.58590853214263916
0.17421573400497437 0.010630843229591846 0.6181788444519043
0.42857414484024048 0.0034388673957437277 0.65783852338790894
0.63737517595291138 0.0052783293649554253 0.6922447681427002
0.71493804454803467 0.0015136569272726774 0.709564208984375
0.76109105348587036 0.0087452754378318787 0.72159922122955322
0.0011263828491792083 0.34019401669502258 0.62582671642303467
0.0057854149490594864 0.31236395239830017 0.63598203659057617
0.13267895579338074 0.098619632422924042 0.67956829071044922
0.47333189845085144 0.082052864134311676 0.73517912626266479
0.68650400638580322 0.044097945094108582 0.75462371110916138
0.77040165662765503 0.028566442430019379 0.76258760690689087
0.80445116758346558 0.051254391670227051 0.7747001051902771
0 0.42446267604827881 0.68081462383270264
0.0090952105820178986 0.39268255233764648 0.69634062051773071
0.071553096175193787 0.33737802505493164 0.75007760524749756
0.50575345754623413 0.30985859036445618 0.81220817565917969
0.74170482158660889 0.317392498254776 0.83209717273712158
0.82400619983673096 0.29906192421913147 0.83429181575775146
0.86616486310958862 0.35634088516235352 0.85185998678207397
0.013574622571468353 0.55913078784942627 0.75735855102539062
0.027147749438881874 0.55757629871368408 0.77194243669509888
0.012163154780864716 0.55965077877044678 0.82875937223434448
0.50258278846740723 0.60317438840866089 0.89777147769927979
0.80556356906890869 0.63188767433166504 0.91987591981887817
0.89468121528625488 0.61855101585388184 0.91379231214523315
0.93418675661087036 0.66729575395584106 0.92984306812286377
0.010652714408934116 0.65973162651062012 0.80368363857269287
0.013186794705688953 0.68975305557250977 0.83241432905197144
0.021447634324431419 0.74165719747543335 0.88260895013809204
0.49571701884269714 0.81580489873886108 0.95041340589523315
0.84822577238082886 0.87100189924240112 0.97170144319534302
0.94943779706954956 0.86316132545471191 0.97266584634780884
0.97390109300613403 0.87827658653259277 0.97147923707962036
0.026745621114969254 0.71602272987365723 0.83183985948562622
0.028670666739344597 0.75343072414398193 0.86089050769805908
0.032302498817443848 0.80764466524124146 0.9026607871055603
0.47613739967346191 0.90553772449493408 0.96840751171112061
0.83658230304718018 0.95316594839096069 0.98142880201339722
0.9624219536781311 0.9707566499710083 0.98676937818527222
0.98862481117248535 0.97037315368652344 0.98538899421691895
0.011765064671635628 0.75297850370407104 0.85761553049087524
0.0090704075992107391 0.78813117742538452 0.88008779287338257
0.031728647649288177 0.83695501089096069 0.92086023092269897
0.52455323934555054 0.92602717876434326 0.97378528118133545
0.84334546327590942 0.97244882583618164 0.98741656541824341
0.96278399229049683 0.99021202325820923 0.98847609758377075
0.99331784248352051 0.99360352754592896 0.99099689722061157
