assets/lut/films print kodak 2393 constlmap.cube
# Created by: G'MIC (https://gmic.eu)
TITLE "kodak_2393_constlmap"
# LUT size
LUT_3D_SIZE 7
# Data domain
DOMAIN_MIN 0.0 0.0 0.0
DOMAIN_MAX 1.0 1.0 1.0
# LUT data points
0.010492436587810516 0.021156026050448418 0.020513482391834259
0.036909185349941254 0.029254255816340446 0.024885619059205055
0.11915557086467743 0.052758384495973587 0.022009726613759995
0.29357686638832092 0.083391033113002777 0.0091607039794325829
0.44133251905441284 0.10266099870204926 0.0066197565756738186
0.5029253363609314 0.1126331090927124 0.016011375933885574
0.53866267204284668 0.1166219636797905 0.0095961475744843483
0.025995874777436256 0.043594494462013245 0.034957002848386765
0.048542484641075134 0.056442052125930786 0.032405972480773926
0.15329268574714661 0.083564609289169312 0.019120564684271812
0.36095705628395081 0.12865421175956726 0.0044251088984310627
0.51041418313980103 0.1576913446187973 0.017584603279829025
0.57708042860031128 0.16310228407382965 0.0078058131039142609
0.61452662944793701 0.18370792269706726 0.013985906727612019
0.02406526543200016 0.10418292880058289 0.063019737601280212
0.036580029875040054 0.14001663029193878 0.051753383129835129
0.19544738531112671 0.1905670166015625 0.019066425040364265
0.450002521276474 0.25045406818389893 0.016152909025549889
0.6148715615272522 0.2795644998550415 0.0044985455460846424
0.67723441123962402 0.29649755358695984 0.016305722296237946
0.71083313226699829 0.32385528087615967 0.015487132593989372
0.010880997404456139 0.22026883065700531 0.11340080946683884
0.0094426469877362251 0.26894292235374451 0.098165549337863922
0.23588638007640839 0.37091901898384094 0.027579229325056076
0.5516391396522522 0.46162086725234985 0.024327058345079422
0.72791910171508789 0.50366771221160889 0.0171381626278162
0.80315464735031128 0.52340072393417358 0.017594760283827782
0.83373022079467773 0.55329513549804688 0.0064052804373204708
0.011987543664872646 0.31399345397949219 0.15282914042472839
0.012311763130128384 0.38933038711547852 0.13942408561706543
0.27720588445663452 0.52398312091827393 0.024248713627457619
0.63021492958068848 0.64648288488388062 0.010939340107142925
0.8221089243888855 0.69545787572860718 0.043079961091279984
0.89741075038909912 0.71813905239105225 0.053644217550754547
0.91693681478500366 0.72374641895294189 0.05012347549200058
0.0043339896947145462 0.36564579606056213 0.17333443462848663
0.020023152232170105 0.45901572704315186 0.14883287250995636
0.29189702868461609 0.58789420127868652 0.019449256360530853
0.66236740350723267 0.7126915454864502 0.015763016417622566
0.85999369621276855 0.77196991443634033 0.068258665502071381
0.93317455053329468 0.79202234745025635 0.094877772033214569
0.95130914449691772 0.79964351654052734 0.085280366241931915
0.012840330600738525 0.45220321416854858 0.19828861951828003
0.058113876730203629 0.55202710628509521 0.097072362899780273
0.38309288024902344 0.65131664276123047 0.0030289145652204752
0.68171811103820801 0.74323201179504395 0.025886161252856255
0.87874197959899902 0.79851269721984863 0.072610057890415192
0.9614982008934021 0.82703191041946411 0.095719955861568451
0.97226840257644653 0.8268895149230957 0.10139156877994537
0.019648009911179543 0.032824017107486725 0.045243836939334869
0.043486367911100388 0.031693924218416214 0.050859652459621429
0.13761907815933228 0.03940257802605629 0.051624655723571777
0.31654366850852966 0.042147677391767502 0.03488507866859436
0.46165189146995544 0.064383260905742645 0.04035910964012146
0.53710424900054932 0.056325096637010574 0.019944313913583755
0.5683666467666626 0.053743399679660797 0.028387226164340973
0.03367125615477562 0.05473925918340683 0.055616818368434906
0.053101304918527603 0.061043504625558853 0.062840253114700317
0.15649120509624481 0.0842767134308815 0.064479947090148926
0.37453183531761169 0.12064202874898911 0.069957926869392395
0.53272265195846558 0.13733139634132385 0.064853787422180176
0.61415177583694458 0.11649385094642639 0.023369075730443001
0.64583766460418701 0.12305068969726562 0.022995892912149429
0.036429431289434433 0.11999272555112839 0.091743677854537964
0.067558586597442627 0.14237669110298157 0.09390731155872345
0.20772533118724823 0.20159901678562164 0.088296465575695038
0.46498554944992065 0.26622495055198669 0.099983423948287964
0.64037072658538818 0.28120312094688416 0.087407462298870087
0.72343355417251587 0.27968338131904602 0.037218745797872543
0.76292163133621216 0.30894702672958374 0.014646627008914948
0.029048081487417221 0.2340945303440094 0.14501078426837921
0.092232227325439453 0.29087775945663452 0.15367618203163147
0.23391422629356384 0.38722658157348633 0.11354102194309235
0.56303280591964722 0.48090070486068726 0.13063748180866241
0.7541009783744812 0.52591872215270996 0.13542957603931427
0.83554083108901978 0.54061496257781982 0.075849257409572601
0.87056320905685425 0.56151479482650757 0.011496450752019882
0.047936666756868362 0.33820250630378723 0.1948743462562561
0.075740441679954529 0.41341471672058105 0.19584774971008301
0.25265979766845703 0.54820114374160767 0.12031837552785873
0.63371080160140991 0.6642080545425415 0.14704732596874237
0.83718419075012207 0.71829366683959961 0.16968649625778198
0.91377836465835571 0.7290109395980835 0.13188399374485016
0.94489973783493042 0.74790209531784058 0.079316727817058563
0.026958271861076355 0.38485446572303772 0.22852246463298798
0.033942516893148422 0.47702330350875854 0.22523143887519836
0.21390512585639954 0.62292778491973877 0.075313925743103027
0.66253328323364258 0.74270415306091309 0.076300919055938721
0.88245368003845215 0.80004030466079712 0.1203235536813736
0.95643752813339233 0.81598466634750366 0.15547299385070801
0.98103255033493042 0.82280993461608887 0.11007171124219894
0.033804666250944138 0.47757866978645325 0.30852428078651428
0.034583475440740585 0.57414555549621582 0.29258796572685242
0.2563319206237793 0.70397806167602539 0.17875050008296967
0.68985641002655029 0.79306989908218384 0.13608217239379883
0.91044700145721436 0.83832484483718872 0.12539131939411163
0.98758614063262939 0.85575336217880249 0.17056071758270264
0.99582183361053467 0.85906022787094116 0.24729420244693756
0.024934865534305573 0.060632564127445221 0.096754081547260284
0.024825705215334892 0.050448816269636154 0.12445593625307083
0.14179982244968414 0.037327650934457779 0.15167450904846191
0.34488460421562195 0.051210187375545502 0.18133507668972015
0.48551097512245178 0.039960600435733795 0.18264077603816986
0.55570656061172485 0.019913781434297562 0.18845203518867493
0.58960729837417603 0.032752856612205505 0.19765761494636536
0.03251291811466217 0.086993873119354248 0.12591186165809631
0.052151668816804886 0.087198950350284576 0.14487604796886444
0.16689279675483704 0.095714926719665527 0.18826231360435486
0.39950889348983765 0.1221727728843689 0.21001836657524109
0.56844544410705566 0.11838018149137497 0.2208230197429657
0.65521490573883057 0.057272803038358688 0.21975263953208923
0.68693393468856812 0.03956952691078186 0.221811443567276
0.035931963473558426 0.14989091455936432 0.17105859518051147
0.08060561865568161 0.17341463267803192 0.18858768045902252
0.21189601719379425 0.2200327068567276 0.2399308979511261
0.49414545297622681 0.27336302399635315 0.25428944826126099
0.704273521900177 0.2513623833656311 0.2352641373872757
0.78372704982757568 0.24316971004009247 0.23561382293701172
0.82083213329315186 0.28761023283004761 0.25082653760910034
0.037672918289899826 0.27843502163887024 0.24856305122375488
0.12467123568058014 0.33698549866676331 0.28064581751823425
0.27343940734863281 0.4233822226524353 0.29850021004676819
0.57795614004135132 0.52212899923324585 0.33839964866638184
0.81036043167114258 0.55053794384002686 0.2924359142780304
0.90623486042022705 0.55771410465240479 0.22551332414150238
0.93112450838088989 0.59107643365859985 0.23479658365249634
0.038281787186861038 0.38076496124267578 0.31167906522750854
0.1149117723107338 0.4562188982963562 0.34585565328598022
0.22881299257278442 0.60289990901947021 0.31145784258842468
0.6286616325378418 0.71639043092727661 0.33383214473724365
0.85978084802627563 0.76268994808197021 0.36863768100738525
0.96997880935668945 0.78312003612518311 0.27576407790184021
0.99457764625549316 0.79719001054763794 0.2734052836894989
0.01931152306497097 0.44033268094062805 0.36234986782073975
0.04000091552734375 0.52551501989364624 0.39525669813156128
0.15778985619544983 0.68129086494445801 0.38692483305931091
0.64244890213012695 0.80396920442581177 0.34195160865783691
0.9098314642906189 0.85513651371002197 0.31751486659049988
0.98136556148529053 0.86738055944442749 0.38361182808876038
0.99849945306777954 0.87056052684783936 0.39343136548995972
0.012329161167144775 0.54662257432937622 0.46716836094856262
0.036039657890796661 0.62567496299743652 0.49398419260978699
0.17739479243755341 0.74878048896789551 0.49035069346427917
0.65404975414276123 0.84317582845687866 0.4790528416633606
0.90650546550750732 0.89018875360488892 0.46424710750579834
0.99248611927032471 0.90412408113479614 0.47713187336921692
1 0.90521585941314697 0.52843523025512695
0.016802933067083359 0.10078458487987518 0.18088540434837341
0.023188168182969093 0.084166795015335083 0.22529168426990509
0.14656153321266174 0.039452392607927322 0.2995980978012085
0.35537576675415039 0.057562556117773056 0.33512449264526367
0.49823695421218872 0.039664790034294128 0.35085740685462952
0.57544291019439697 0.022730493918061256 0.36074709892272949
0.60903078317642212 0.032238829880952835 0.37330809235572815
0.0086992746219038963 0.13597293198108673 0.22928066551685333
0.042973224073648453 0.1386297196149826 0.25642690062522888
0.16242998838424683 0.11686152964830399 0.36047998070716858
0.408683180809021 0.13943500816822052 0.39854639768600464
0.58063530921936035 0.12674330174922943 0.41666257381439209
0.66912782192230225 0.068243943154811859 0.42985430359840393
0.7047232985496521 0.046943292021751404 0.44761928915977478
0.016525208950042725 0.22015939652919769 0.3058319091796875
0.083116389811038971 0.2381816953420639 0.33447748422622681
0.21612705290317535 0.26862457394599915 0.42687353491783142
0.50016975402832031 0.29684543609619141 0.49026152491569519
0.70903319120407104 0.26720258593559265 0.50206243991851807
0.79537391662597656 0.2737373411655426 0.51100844144821167
0.82802778482437134 0.30698418617248535 0.5298423171043396
0.060497794300317764 0.35385328531265259 0.3998393714427948
0.1439213901758194 0.39208349585533142 0.43611356616020203
0.31483489274978638 0.48577654361724854 0.50678169727325439
0.581126868724823 0.5712120532989502 0.57416623830795288
0.81891250610351562 0.59302991628646851 0.57846629619598389
0.90406382083892822 0.61169111728668213 0.57972949743270874
0.93515169620513916 0.63444864749908447 0.58867502212524414
0.047117702662944794 0.45325160026550293 0.46932551264762878
0.12721827626228333 0.52465271949768066 0.51702594757080078
0.26626759767532349 0.65360486507415771 0.58402425050735474
0.59820520877838135 0.77945667505264282 0.61222684383392334
0.87115216255187988 0.82246071100234985 0.63109499216079712
0.9699099063873291 0.83726316690444946 0.61971241235733032
0.9884611964225769 0.84233111143112183 0.62647265195846558
0.014834758825600147 0.51182562112808228 0.52048361301422119
0.027208080515265465 0.59163063764572144 0.57396948337554932
0.13775599002838135 0.73470985889434814 0.64278227090835571
0.59801924228668213 0.85518980026245117 0.66428291797637939
0.88650321960449219 0.90628576278686523 0.66109508275985718
0.98100394010543823 0.91862541437149048 0.67586886882781982
0.99795198440551758 0.92416596412658691 0.69299912452697754
0.020267022773623466 0.58736860752105713 0.59709274768829346
0.036619551479816437 0.676277756690979 0.65762174129486084
0.06398850679397583 0.78803914785385132 0.70615965127944946
0.61187732219696045 0.88551163673400879 0.72930502891540527
0.88302981853485107 0.93169552087783813 0.73023802042007446
0.97995054721832275 0.94613242149353027 0.73215782642364502
0.99985873699188232 0.9506605863571167 0.76043963432312012
0.0027025409508496523 0.13491497933864594 0.2565552294254303
0.016485819593071938 0.12496553361415863 0.29286667704582214
0.14238405227661133 0.053671818226575851 0.40417572855949402
0.3615211546421051 0.054433606564998627 0.44863232970237732
0.52110248804092407 0.055451545864343643 0.47091931104660034
0.59354442358016968 0.04749157652258873 0.48221182823181152
0.63546210527420044 0.028392881155014038 0.51128745079040527
0.0034619648940861225 0.18120993673801422 0.3167579174041748
0.010145015083253384 0.17775660753250122 0.34928062558174133
0.14010171592235565 0.11719132959842682 0.49230566620826721
0.4257558286190033 0.13897374272346497 0.54177391529083252
0.59887844324111938 0.14990080893039703 0.55735743045806885
0.6806911826133728 0.087215885519981384 0.57524937391281128
0.72155892848968506 0.057631026953458786 0.60423046350479126
0.0042321598157286644 0.26130965352058411 0.39551293849945068
0.044550321996212006 0.2881375253200531 0.44265636801719666
0.17239800095558167 0.28211724758148193 0.59784752130508423
0.50026261806488037 0.28850606083869934 0.67026430368423462
0.71016860008239746 0.28850641846656799 0.68339169025421143
0.80093693733215332 0.27713921666145325 0.69651508331298828
0.83189952373504639 0.30073344707489014 0.71219205856323242
0.022000256925821304 0.39607751369476318 0.50259596109390259
0.13513703644275665 0.44418460130691528 0.55149239301681519
0.28061887621879578 0.52651345729827881 0.65457278490066528
0.55598330497741699 0.59238874912261963 0.76654326915740967
0.80893564224243164 0.61963814496994019 0.7799801230430603
0.9009285569190979 0.63104957342147827 0.78409779071807861
0.93038475513458252 0.66110873222351074 0.79736286401748657
0.014889989979565144 0.50663959980010986 0.58146631717681885
0.13444541394710541 0.5708577036857605 0.63581126928329468
0.2976955771446228 0.69355958700180054 0.73072409629821777
0.58241051435470581 0.81028848886489868 0.81466269493103027
0.85878247022628784 0.85414701700210571 0.83085286617279053
0.95981758832931519 0.86825990676879883 0.8281482458114624
0.98668932914733887 0.88408190011978149 0.84022283554077148
0.029613899067044258 0.55494952201843262 0.61932140588760376
0.064782150089740753 0.63887149095535278 0.6903567910194397
0.11993105709552765 0.76928341388702393 0.79048711061477661
0.54439753293991089 0.88952833414077759 0.85622859001159668
0.8658176064491272 0.93906384706497192 0.86302149295806885
0.97608226537704468 0.95604461431503296 0.86681205034255981
0.99625867605209351 0.96019023656845093 0.87356579303741455
0.025423791259527206 0.63208556175231934 0.69230455160140991
0.041838478296995163 0.71312671899795532 0.76200711727142334
0.043500520288944244 0.82093602418899536 0.84216427803039551
0.57399314641952515 0.91390824317932129 0.88490909337997437
0.85766792297363281 0.95690757036209106 0.88757717609405518
0.97335612773895264 0.97516822814941406 0.89197903871536255
0.99734503030776978 0.97958064079284668 0.9027019739151001
0 0.15717802941799164 0.30183297395706177
0.0059635089710354805 0.15607523918151855 0.33499932289123535
0.14464694261550903 0.043287687003612518 0.473552405834198
0.37600579857826233 0.040492773056030273 0.5224652886390686
0.53874891996383667 0.059778295457363129 0.54753214120864868
0.61105704307556152 0.056296344846487045 0.55492830276489258
0.65604442358016968 0.054200548678636551 0.58806037902832031
0 0.20104601979255676 0.35540953278541565
0.0040569677948951721 0.2081093043088913 0.40136778354644775
0.13746348023414612 0.087161406874656677 0.57626044750213623
0.43917033076286316 0.082184314727783203 0.64153838157653809
0.62120532989501953 0.10982785373926163 0.65382248163223267
0.69687604904174805 0.11059027165174484 0.66194832324981689
0.73720234632492065 0.083254225552082062 0.68931090831756592
0.00028934853617101908 0.28630480170249939 0.44642022252082825
0.0087352078408002853 0.30846649408340454 0.49829679727554321
0.11420491337776184 0.29537451267242432 0.66889184713363647
0.49873512983322144 0.28898444771766663 0.76615166664123535
0.71722948551177979 0.28884878754615784 0.7801278829574585
0.80311697721481323 0.279786616563797 0.78904181718826294
0.83724933862686157 0.31530916690826416 0.80575573444366455
0.0042856251820921898 0.41932424902915955 0.55603063106536865
0.062755987048149109 0.46575692296028137 0.61039179563522339
0.13283413648605347 0.54271632432937622 0.75146883726119995
0.52862679958343506 0.60581225156784058 0.86469310522079468
0.80332654714584351 0.63021612167358398 0.88363558053970337
0.89724314212799072 0.63960546255111694 0.88750648498535156
0.92836058139801025 0.67016518115997314 0.89777028560638428
0.013003540225327015 0.53016561269760132 0.63108879327774048
0.086282052099704742 0.5967717170715332 0.69484180212020874
0.22253085672855377 0.71251809597015381 0.80730700492858887
0.53210151195526123 0.82875365018844604 0.91883403062820435
0.84926015138626099 0.87185192108154297 0.93627709150314331
0.951710045337677 0.87678170204162598 0.93806582689285278
0.98289591073989868 0.89559870958328247 0.94361084699630737
0.011099512688815594 0.57611793279647827 0.66596966981887817
0.067573010921478271 0.65669077634811401 0.73976808786392212
0.14258264005184174 0.77763724327087402 0.84652560949325562
0.52145051956176758 0.90190112590789795 0.93811392784118652
0.85485893487930298 0.95487517118453979 0.958046555519104
0.96642410755157471 0.96790999174118042 0.96021223068237305
0.99610912799835205 0.97582161426544189 0.96148884296417236
0.02931518480181694 0.63992750644683838 0.72432458400726318
0.026806311681866646 0.72654259204864502 0.80124127864837646
0.060458358377218246 0.82821172475814819 0.89351898431777954
0.54441112279891968 0.92283087968826294 0.94900220632553101
0.85111188888549805 0.97146296501159668 0.96570903062820435
0.96605664491653442 0.98667019605636597 0.96553218364715576
0.99437814950942993 0.99194628000259399 0.96901929378509521
0 0.17740422487258911 0.33246225118637085
0.0041375854052603245 0.18052244186401367 0.37230464816093445
0.13577167689800262 0.03103141114115715 0.54229408502578735
0.39845675230026245 0.025729011744260788 0.59492653608322144
0.56815814971923828 0.058820147067308426 0.60354721546173096
0.64593958854675293 0.068025253713130951 0.61747997999191284
0.68990659713745117 0.068731583654880524 0.65076255798339844
0 0.22628097236156464 0.39368847012519836
0.0010685939341783524 0.23379941284656525 0.43488490581512451
0.13476523756980896 0.081828564405441284 0.63814914226531982
0.45630970597267151 0.057835999876260757 0.70826417207717896
0.64812690019607544 0.098252959549427032 0.71728014945983887
0.72760272026062012 0.090602755546569824 0.72681653499603271
0.76712071895599365 0.081762351095676422 0.75257474184036255
0 0.30469545722007751 0.47262907028198242
0.0017239140579476953 0.31775543093681335 0.5216185450553894
0.092790894210338593 0.31709575653076172 0.70110118389129639
0.49817180633544922 0.32158884406089783 0.80532574653625488
0.72636121511459351 0.31644389033317566 0.82621949911117554
0.81439262628555298 0.32707589864730835 0.83577907085418701
0.84777015447616577 0.35498633980751038 0.8472670316696167
0.0054378733038902283 0.43380773067474365 0.57539099454879761
0.0062012169510126114 0.47758254408836365 0.63668191432952881
0.028690995648503304 0.5491105318069458 0.7891649603843689
0.51737493276596069 0.61718922853469849 0.8968740701675415
0.80142122507095337 0.63937008380889893 0.91652286052703857
0.89742350578308105 0.65462392568588257 0.92519056797027588
0.93080925941467285 0.68116611242294312 0.93372100591659546
0.0063611050136387348 0.53866869211196899 0.64943885803222656
0.04684964194893837 0.60340255498886108 0.71419268846511841
0.022215031087398529 0.7178463339805603 0.83630567789077759
0.48632514476776123 0.83043175935745239 0.94862222671508789
0.8368186354637146 0.86658585071563721 0.96499520540237427
0.94872778654098511 0.87918299436569214 0.97056335210800171
0.97937643527984619 0.89596688747406006 0.9756353497505188
0.010628150776028633 0.60012853145599365 0.69524753093719482
0.019589787349104881 0.66759270429611206 0.75809264183044434
0.035074092447757721 0.7856563925743103 0.87133973836898804
0.48559451103210449 0.90613985061645508 0.96309113502502441
0.84361976385116577 0.9568336009979248 0.98185878992080688
0.96297997236251831 0.97223013639450073 0.98675507307052612
0.99368566274642944 0.97679322957992554 0.98585963249206543
0.0020048252772539854 0.65019685029983521 0.73986667394638062
0.0031135259196162224 0.72909271717071533 0.81355029344558716
0.029425706714391708 0.82616555690765381 0.90315502882003784
0.53297150135040283 0.92460507154464722 0.96894079446792603
0.84534198045730591 0.97426807880401611 0.98755353689193726
0.9475245475769043 0.98767280578613281 0.98842042684555054
0.99645799398422241 0.99552744626998901 0.99330019950866699
