assets/lut/films print kodak 2383 constlmap.cube
# Created by: G'MIC (https://gmic.eu)
TITLE "kodak_2383_constlmap"
# LUT size
LUT_3D_SIZE 5
# Data domain
DOMAIN_MIN 0.0 0.0 0.0
DOMAIN_MAX 1.0 1.0 1.0
# LUT data points
0.012074878439307213 0.01227244921028614 0.016717933118343353
0.08906160295009613 0.040608722716569901 0.023296849802136421
0.34344086050987244 0.094628229737281799 0.0097834868356585503
0.53771132230758667 0.13143153488636017 0.0061221253126859665
0.60292178392410278 0.14616492390632629 0.018402503803372383
0.018565727397799492 0.083462812006473541 0.056120794266462326
0.103792704641819 0.11466499418020248 0.045083094388246536
0.43277263641357422 0.19316928088665009 0.032883603125810623
0.63995033502578735 0.21705326437950134 0.019350523129105568
0.69406509399414062 0.24324005842208862 0.022955667227506638
0.023369239643216133 0.26474398374557495 0.14016199111938477
0.060973957180976868 0.3420957624912262 0.096955485641956329
0.5697324275970459 0.4755585789680481 0.024526365101337433
0.81029826402664185 0.52881014347076416 0.016495348885655403
0.85602885484695435 0.55520069599151611 0.016042238101363182
0.02756531722843647 0.41088345646858215 0.19974416494369507
0.059546913951635361 0.52764332294464111 0.10939705371856689
0.6543394923210144 0.71557486057281494 0.013508561067283154
0.90923410654067993 0.77993208169937134 0.087680265307426453
0.95803540945053101 0.79977452754974365 0.09393666684627533
0.0042091966606676579 0.48418578505516052 0.22177310287952423
0.14075130224227905 0.62570184469223022 0.074415169656276703
0.6961137056350708 0.7763906717300415 0.03004506416618824
0.94120770692825317 0.84471714496612549 0.090941064059734344
0.99045014381408691 0.85561120510101318 0.10891789197921753
0.0092379553243517876 0.030463229864835739 0.085679881274700165
0.099895879626274109 0.046556960791349411 0.10696418583393097
0.38085180521011353 0.043257828801870346 0.10195361822843552
0.58476591110229492 0.041716646403074265 0.090087354183197021
0.64697098731994629 0.049317020922899246 0.10434188693761826
0.031550850719213486 0.10066698491573334 0.11508186161518097
0.11480793356895447 0.12678466737270355 0.12964080274105072
0.46651908755302429 0.1862681657075882 0.14584772288799286
0.70680975914001465 0.15729910135269165 0.099862270057201385
0.77950847148895264 0.13348656892776489 0.058007661253213882
0.050685852766036987 0.28903749585151672 0.21051310002803802
0.16271060705184937 0.35709348320960999 0.21528013050556183
0.58619409799575806 0.50885462760925293 0.21825751662254333
0.85877126455307007 0.54883384704589844 0.14967715740203857
0.92715632915496826 0.58278363943099976 0.036185156553983688
0.035437416285276413 0.43846464157104492 0.28390288352966309
0.10108444839715958 0.55898112058639526 0.26282644271850586
0.6519126296043396 0.75447893142700195 0.19722744822502136
0.92959767580032349 0.81730908155441284 0.25938433408737183
0.99545866250991821 0.83504873514175415 0.16166314482688904
0.023496067151427269 0.53397601842880249 0.3830362856388092
0.034222111105918884 0.66400259733200073 0.36139723658561707
0.68249249458312988 0.83165198564529419 0.276153564453125
0.97409409284591675 0.88740211725234985 0.26665607094764709
1 0.89064896106719971 0.3891696035861969
0.014433378353714943 0.11058279126882553 0.23452778160572052
0.089748278260231018 0.029414637014269829 0.32643759250640869
0.38790449500083923 0.042770911008119583 0.37131607532501221
0.60627681016921997 0.033468209207057953 0.38558125495910645
0.66819041967391968 0.046621255576610565 0.40481254458427429
0.036707635968923569 0.17517286539077759 0.28590363264083862
0.078467153012752533 0.16731803119182587 0.3662446141242981
0.48119404911994934 0.20178768038749695 0.45041704177856445
0.73460906744003296 0.15010370314121246 0.46411940455436707
0.7970271110534668 0.14517001807689667 0.48787415027618408
0.058447565883398056 0.37074154615402222 0.41928845643997192
0.22183692455291748 0.44466668367385864 0.47941499948501587
0.58903545141220093 0.56835001707077026 0.57515072822570801
0.88893109560012817 0.59931135177612305 0.57390087842941284
0.94799256324768066 0.63229167461395264 0.58796608448028564
0.018094738945364952 0.52404582500457764 0.51879936456680298
0.13567005097866058 0.63211429119110107 0.58360320329666138
0.59847462177276611 0.8408355712890625 0.62984102964401245
0.94949603080749512 0.89289402961730957 0.64353591203689575
0.99900156259536743 0.90786480903625488 0.66584736108779907
0.0085346745327115059 0.60880511999130249 0.60811537504196167
0.033761192113161087 0.72736746072769165 0.67984747886657715
0.61448746919631958 0.89784115552902222 0.71794432401657104
0.95495438575744629 0.95443034172058105 0.72710394859313965
0.9998481273651123 0.95921987295150757 0.76464104652404785
0.00086125393863767385 0.1704297810792923 0.34050115942955017
0.043156418949365616 0.082217060029506683 0.47052809596061707
0.39927315711975098 0.040772397071123123 0.55132013559341431
0.63210535049438477 0.064781084656715393 0.58058542013168335
0.68408513069152832 0.043297667056322098 0.58764398097991943
0.0039373212493956089 0.2464110404253006 0.42384368181228638
0.05591621994972229 0.22176457941532135 0.52045375108718872
0.48552298545837402 0.17573642730712891 0.68523770570755005
0.73729097843170166 0.17559364438056946 0.69478917121887207
0.81004339456558228 0.12057849764823914 0.72724372148513794
0.017157925292849541 0.43092384934425354 0.57095354795455933
0.14122006297111511 0.49565675854682922 0.6599612832069397
0.5501025915145874 0.5947762131690979 0.84040170907974243
0.87867110967636108 0.62541615962982178 0.85446053743362427
0.94050103425979614 0.65858221054077148 0.87089526653289795
0.0088110379874706268 0.58701741695404053 0.67234224081039429
0.1745646744966507 0.69275897741317749 0.76253759860992432
0.54911929368972778 0.87521398067474365 0.90078818798065186
0.93253308534622192 0.93548071384429932 0.92318570613861084
0.99409604072570801 0.94632244110107422 0.92383164167404175
0.018848897889256477 0.65594923496246338 0.73365491628646851
0.068075112998485565 0.76362490653991699 0.82754313945770264
0.55571079254150391 0.92358100414276123 0.93135017156600952
0.92636573314666748 0.98008096218109131 0.94395893812179565
0.99439293146133423 0.98944824934005737 0.95270353555679321
0.0016329896170645952 0.18620263040065765 0.38488563895225525
0.040320977568626404 0.12762314081192017 0.50736212730407715
0.43390735983848572 0.036382414400577545 0.64619272947311401
0.66361075639724731 0.07042337954044342 0.66125333309173584
0.73495626449584961 0.072816543281078339 0.68967270851135254
0 0.26793903112411499 0.46981275081634521
0.014233832247555256 0.26219621300697327 0.56242752075195312
0.49886229634284973 0.19458518922328949 0.77062660455703735
0.77157866954803467 0.16862666606903076 0.79517322778701782
0.83382582664489746 0.19936357438564301 0.81238085031509399
0.00083875469863414764 0.45538192987442017 0.61352616548538208
0.0061400020495057106 0.51539725065231323 0.71690464019775391
0.52809470891952515 0.61129343509674072 0.90292459726333618
0.8707917332649231 0.63564097881317139 0.92546975612640381
0.93734586238861084 0.6707645058631897 0.93570727109909058
0.019607843831181526 0.59946829080581665 0.70487260818481445
0.012238715775310993 0.69428002834320068 0.79537451267242432
0.48122012615203857 0.88154065608978271 0.96380782127380371
0.92305648326873779 0.9355398416519165 0.9850085973739624
0.99029743671417236 0.94757556915283203 0.98896974325180054
0.0068975859321653843 0.66888618469238281 0.76236385107040405
0.01291218213737011 0.77474439144134521 0.85957503318786621
0.52624869346618652 0.92632603645324707 0.97374945878982544
0.92023617029190063 0.98621284961700439 0.99465960264205933
0.99548608064651489 0.99548953771591187 0.99487018585205078
