assets/lut/films colorslide fuji provia 400x.cube
# Created by: G'MIC (https://gmic.eu)
TITLE "fuji_provia_400x"
# LUT size
LUT_3D_SIZE 5
# Data domain
DOMAIN_MIN 0.0 0.0 0.0
DOMAIN_MAX 1.0 1.0 1.0
# LUT data points
0.044027261435985565 0.039701364934444427 0.036773756146430969
0.28962764143943787 0.032519754022359848 0.033888887614011765
0.58529090881347656 0.028532169759273529 0.031132178381085396
0.86646509170532227 0.020396452397108078 0.024067088961601257
1 0.012950941920280457 0
0.099605977535247803 0.28584623336791992 0.11187892407178879
0.27908274531364441 0.27628904581069946 0.10639521479606628
0.60058903694152832 0.2631477415561676 0.097551040351390839
0.90083658695220947 0.2376137375831604 0.075212739408016205
1 0.20848801732063293 0.016026455909013748
0.010445942170917988 0.56242281198501587 0.15277397632598877
0.24647587537765503 0.55695420503616333 0.1407712996006012
0.62698030471801758 0.54620689153671265 0.14139895141124725
0.9236299991607666 0.53600162267684937 0.11732598394155502
1 0.50950175523757935 0.067529074847698212
2.1003274014219642e-05 0.77225935459136963 0.072096027433872223
0.23612767457962036 0.76172024011611938 0.10234452784061432
0.66083598136901855 0.75563424825668335 0.10320057719945908
0.9545367956161499 0.74753552675247192 0.099691681563854218
0.99909341335296631 0.73601913452148438 0.0446929931640625
0 0.98896390199661255 0
0.086864292621612549 0.98174214363098145 0
0.62307095527648926 0.97947186231613159 0
0.96878397464752197 0.97165566682815552 0
1 0.97824627161026001 0
0.026603026315569878 0.014095920138061047 0.19167712330818176
0.24223436415195465 0.011136702261865139 0.18959209322929382
0.53608375787734985 0.011430972255766392 0.17795576155185699
0.79983317852020264 0.007538230624049902 0.15644638240337372
0.99900531768798828 0.003485002787783742 0.094898983836174011
0.070701062679290771 0.25738528370857239 0.25090721249580383
0.24503812193870544 0.24891489744186401 0.24686309695243835
0.5559546947479248 0.22871556878089905 0.23964935541152954
0.83254414796829224 0.18851238489151001 0.21308790147304535
0.9962654709815979 0.15809455513954163 0.15729092061519623
0.0017307356465607882 0.54657506942749023 0.3013654351234436
0.18630817532539368 0.54387533664703369 0.29675787687301636
0.57771950960159302 0.53548306226730347 0.29477006196975708
0.85666471719741821 0.52344530820846558 0.26800280809402466
0.9998965859413147 0.49165451526641846 0.21663445234298706
0 0.75879383087158203 0.31850078701972961
0.14162342250347137 0.75447237491607666 0.31520223617553711
0.60221105813980103 0.749245285987854 0.3243139386177063
0.87953895330429077 0.74389570951461792 0.29196047782897949
1 0.73028659820556641 0.20378859341144562
0.0011343712685629725 0.98186230659484863 0.14871473610401154
0.075909934937953949 0.98064529895782471 0.15418992936611176
0.56435638666152954 0.97936344146728516 0.12441002577543259
0.94247204065322876 0.97832351922988892 0.083769448101520538
1 0.97604411840438843 0.01107838936150074
0.010642526671290398 2.6927275030175224e-05 0.35583725571632385
0.19518399238586426 0.0021523120813071728 0.35808262228965759
0.47722917795181274 0.0047289980575442314 0.35549089312553406
0.72030484676361084 0.00020841711375396699 0.34588515758514404
0.94385278224945068 0 0.30309244990348816
0.044547256082296371 0.1979142427444458 0.42326849699020386
0.20570136606693268 0.18667341768741608 0.427223801612854
0.49352830648422241 0.15999060869216919 0.42638882994651794
0.73355162143707275 0.13414889574050903 0.41361322999000549
0.95052117109298706 0.10302890092134476 0.37904885411262512
0 0.51267141103744507 0.49692079424858093
0.12869651615619659 0.51469236612319946 0.50233942270278931
0.50770539045333862 0.50099903345108032 0.49912545084953308
0.75240802764892578 0.48686158657073975 0.49637067317962646
0.98382449150085449 0.45217978954315186 0.46650123596191406
0 0.73995167016983032 0.54889756441116333
0.057349573820829391 0.73991072177886963 0.55416464805603027
0.5018494725227356 0.73610609769821167 0.54912126064300537
0.7586243748664856 0.72504258155822754 0.54818129539489746
0.99612092971801758 0.7138863205909729 0.51504480838775635
0.00052741554100066423 0.98121839761734009 0.51690995693206787
0 0.97294098138809204 0.51908749341964722
0.37791794538497925 0.97006314992904663 0.51484853029251099
0.7506217360496521 0.97069573402404785 0.51033955812454224
0.99835753440856934 0.96176868677139282 0.41771742701530457
0.03821977972984314 0 0.49337726831436157
0.20862236618995667 0 0.50328701734542847
0.44022858142852783 0.002240349305793643 0.51080054044723511
0.65106695890426636 0 0.5159117579460144
0.85910910367965698 0 0.49168151617050171
0.069648057222366333 0.087253585457801819 0.55754739046096802
0.23138310015201569 0.072957776486873627 0.56167185306549072
0.45408079028129578 0.067209430038928986 0.56586575508117676
0.6547202467918396 0.057753141969442368 0.56452697515487671
0.86001896858215332 0.028292607516050339 0.5416712760925293
0.03023846261203289 0.45944225788116455 0.6400943398475647
0.22433802485466003 0.45006671547889709 0.63859480619430542
0.48985421657562256 0.43975144624710083 0.64211922883987427
0.69643133878707886 0.41788354516029358 0.64003688097000122
0.91551494598388672 0.380268394947052 0.62863695621490479
0.0010258543770760298 0.72249579429626465 0.70510286092758179
0.15604077279567719 0.71563202142715454 0.70055359601974487
0.47702711820602417 0.70673251152038574 0.70196163654327393
0.70197588205337524 0.70146507024765015 0.70248186588287354
0.95543444156646729 0.68990784883499146 0.69250458478927612
0 0.97770696878433228 0.73233860731124878
0.010369708761572838 0.976043701171875 0.72989249229431152
0.31360018253326416 0.96398669481277466 0.7281421422958374
0.64432454109191895 0.97219932079315186 0.7337145209312439
0.97719860076904297 0.95271092653274536 0.70727795362472534
0.11264808475971222 0 0.61126494407653809
0.2573624849319458 0.00050952390301972628 0.62538999319076538
0.44385722279548645 0 0.63135915994644165
0.62615036964416504 0 0.63303065299987793
0.82289689779281616 0 0.617573082447052
0.17567260563373566 0 0.6580689549446106
0.27321866154670715 0.0024565004277974367 0.66219073534011841
0.44383946061134338 0 0.66701811552047729
0.6170508861541748 0 0.67011785507202148
0.81544011831283569 0 0.66278755664825439
0.26238536834716797 0.31191736459732056 0.74606835842132568
0.34474128484725952 0.29673081636428833 0.74586915969848633
0.50070220232009888 0.27835389971733093 0.74893003702163696
0.66206502914428711 0.24617484211921692 0.75140190124511719
0.85750263929367065 0.18248976767063141 0.74335724115371704
0.182181715965271 0.66356724500656128 0.8337099552154541
0.32206082344055176 0.6634819507598877 0.83649063110351562
0.49929928779602051 0.65422272682189941 0.8372073769569397
0.68623942136764526 0.63938969373703003 0.84206688404083252
0.91177845001220703 0.62257683277130127 0.84335434436798096
0.00032438390189781785 0.93333077430725098 0.88712131977081299
0.10344184190034866 0.9410368800163269 0.90255677700042725
0.30091765522956848 0.95450752973556519 0.91560953855514526
0.61118811368942261 0.94804602861404419 0.92936462163925171
0.94237989187240601 0.9454914927482605 0.94161731004714966
