assets/lut/films colorslide polaroid polachrome.cube
# Created by: G'MIC (https://gmic.eu)
TITLE "polaroid_polachrome"
# LUT size
LUT_3D_SIZE 7
# Data domain
DOMAIN_MIN 0.0 0.0 0.0
DOMAIN_MAX 1.0 1.0 1.0
# LUT data points
0.0080241039395332336 0.0061272117309272289 0.0067559336312115192
0.082464195787906647 0.020173570141196251 0.02573140524327755
0.21796269714832306 0.051898866891860962 0.055655192583799362
0.42320024967193604 0.097084075212478638 0.099781140685081482
0.62574297189712524 0.14010374248027802 0.14169546961784363
0.76436543464660645 0.16827429831027985 0.16344375908374786
0.86980694532394409 0.19162222743034363 0.18139171600341797
0.069623284041881561 0.11025484651327133 0.043226849287748337
0.12092810124158859 0.11971122771501541 0.058291088789701462
0.25621864199638367 0.14828646183013916 0.088130280375480652
0.44942983984947205 0.1912989616394043 0.12601713836193085
0.63704425096511841 0.22648517787456512 0.16203345358371735
0.77456581592559814 0.24229341745376587 0.18228605389595032
0.87622255086898804 0.25121825933456421 0.19609855115413666
0.10176945477724075 0.27422341704368591 0.087146446108818054
0.15723375976085663 0.2854883074760437 0.10458271950483322
0.3050442636013031 0.31176197528839111 0.12686015665531158
0.49977961182594299 0.34522584080696106 0.16182984411716461
0.66296178102493286 0.36888498067855835 0.18733212351799011
0.79677838087081909 0.37957644462585449 0.20321054756641388
0.89657139778137207 0.38204550743103027 0.21182228624820709
0.10234478116035461 0.46471834182739258 0.14108957350254059
0.20176860690116882 0.47480258345603943 0.15206338465213776
0.36092433333396912 0.50171375274658203 0.170034259557724
0.53849518299102783 0.53555607795715332 0.19590167701244354
0.68313395977020264 0.5611075758934021 0.2134132981300354
0.81174546480178833 0.57300251722335815 0.22353693842887878
0.90799462795257568 0.58076494932174683 0.2206929475069046
0.22818230092525482 0.61518913507461548 0.21574994921684265
0.31430250406265259 0.62370079755783081 0.22116944193840027
0.43712151050567627 0.64317613840103149 0.23894572257995605
0.57389956712722778 0.66812390089035034 0.25831907987594604
0.70305275917053223 0.69209212064743042 0.26947799324989319
0.82820332050323486 0.71138370037078857 0.26858940720558167
0.93010681867599487 0.72659927606582642 0.2607654333114624
0.39197087287902832 0.73289549350738525 0.3099370002746582
0.4402194619178772 0.74029964208602905 0.3120434582233429
0.51549112796783447 0.75303089618682861 0.32529804110527039
0.61267757415771484 0.7699657678604126 0.34333178400993347
0.72205358743667603 0.78911119699478149 0.35258567333221436
0.83814370632171631 0.81042742729187012 0.33978527784347534
0.93857532739639282 0.83132088184356689 0.31938084959983826
0.49897664785385132 0.84261316061019897 0.41642042994499207
0.53257185220718384 0.84934115409851074 0.41039386391639709
0.58383339643478394 0.85798543691635132 0.41547423601150513
0.65720200538635254 0.86969530582427979 0.43033754825592041
0.74798375368118286 0.88560968637466431 0.44197255373001099
0.85724008083343506 0.90849471092224121 0.42126926779747009
0.96111947298049927 0.93286705017089844 0.39246371388435364
0.032213188707828522 0.027102841064333916 0.0986146479845047
0.12589728832244873 0.042072668671607971 0.12307770550251007
0.27020826935768127 0.072343043982982635 0.15551762282848358
0.45994934439659119 0.1141417995095253 0.19169676303863525
0.63821625709533691 0.15265116095542908 0.22034652531147003
0.77633398771286011 0.17696687579154968 0.2323661744594574
0.88289040327072144 0.19236235320568085 0.23971934616565704
0.091793522238731384 0.13408438861370087 0.13978517055511475
0.15891978144645691 0.1517682820558548 0.15736430883407593
0.29653528332710266 0.17831224203109741 0.1851385235786438
0.47974857687950134 0.21350724995136261 0.22027745842933655
0.64884656667709351 0.24414508044719696 0.25060346722602844
0.77877873182296753 0.25724601745605469 0.26015263795852661
0.87683606147766113 0.26166650652885437 0.26280710101127625
0.12672564387321472 0.3007645308971405 0.18838980793952942
0.19617399573326111 0.31258666515350342 0.205410435795784
0.33629119396209717 0.33326268196105957 0.22930410504341125
0.51763761043548584 0.36484470963478088 0.25881204009056091
0.66978925466537476 0.3910839855670929 0.28227829933166504
0.79650193452835083 0.40108600258827209 0.29139333963394165
0.89724993705749512 0.40029922127723694 0.29566699266433716
0.16128157079219818 0.4812920093536377 0.25229960680007935
0.24550595879554749 0.4930456280708313 0.26043379306793213
0.38678646087646484 0.51452124118804932 0.27934738993644714
0.54840552806854248 0.54202020168304443 0.30680811405181885
0.68440371751785278 0.56739634275436401 0.32408595085144043
0.81080561876296997 0.5825994610786438 0.33002406358718872
0.9060555100440979 0.58937829732894897 0.3204195499420166
0.28639042377471924 0.62021505832672119 0.33472639322280884
0.35393631458282471 0.62900251150131226 0.33738905191421509
0.45853328704833984 0.64452707767486572 0.35243242979049683
0.58163440227508545 0.66279858350753784 0.37045532464981079
0.70000827312469482 0.68729090690612793 0.38576504588127136
0.82006162405014038 0.70711416006088257 0.38712033629417419
0.91868489980697632 0.72129100561141968 0.37273725867271423
0.42121842503547668 0.73509293794631958 0.41649517416954041
0.4606187641620636 0.74026966094970703 0.41496995091438293
0.5265011191368103 0.7504880428314209 0.42591482400894165
0.61610651016235352 0.76493966579437256 0.44333943724632263
0.71780991554260254 0.78433555364608765 0.45574015378952026
0.82462286949157715 0.80380398035049438 0.45099669694900513
0.9139559268951416 0.82233768701553345 0.43634659051895142
0.51519376039505005 0.84371918439865112 0.49921190738677979
0.53769481182098389 0.84780263900756836 0.49368435144424438
0.58494538068771362 0.85408705472946167 0.49942627549171448
0.65699154138565063 0.8642585277557373 0.5136873722076416
0.74648165702819824 0.88115549087524414 0.52467221021652222
0.84911572933197021 0.90202325582504272 0.51636195182800293
0.9457206130027771 0.92384225130081177 0.50028342008590698
0.069536022841930389 0.046020746231079102 0.2394166886806488
0.16377590596675873 0.062491621822118759 0.26586732268333435
0.31531903147697449 0.093782462179660797 0.29711776971817017
0.49435511231422424 0.13399209082126617 0.32586804032325745
0.64157545566558838 0.16452813148498535 0.35190966725349426
0.77014273405075073 0.18480081856250763 0.36216533184051514
0.87871080636978149 0.19729630649089813 0.36030387878417969
0.12999875843524933 0.16864590346813202 0.28853315114974976
0.20035766065120697 0.18507616221904755 0.30788606405258179
0.34395894408226013 0.21351665258407593 0.33545640110969543
0.5109405517578125 0.24378165602684021 0.37054967880249023
0.65138483047485352 0.26614034175872803 0.39789760112762451
0.77334189414978027 0.27803128957748413 0.40794450044631958
0.86978071928024292 0.28063198924064636 0.40762868523597717
0.17078566551208496 0.3326779305934906 0.34777981042861938
0.24733109772205353 0.34534299373626709 0.36135703325271606
0.38550728559494019 0.36902138590812683 0.38759595155715942
0.54084163904190063 0.39687225222587585 0.41422340273857117
0.66785788536071777 0.41663938760757446 0.43572923541069031
0.78998976945877075 0.42705145478248596 0.44799673557281494
0.88338541984558105 0.4252682626247406 0.45163190364837646
0.24706880748271942 0.50153928995132446 0.41223257780075073
0.31844404339790344 0.51145476102828979 0.42078655958175659
0.43611875176429749 0.53145557641983032 0.44150698184967041
0.56555020809173584 0.55673819780349731 0.46459585428237915
0.68130958080291748 0.5756765604019165 0.48102128505706787
0.79778760671615601 0.59238934516906738 0.4928535521030426
0.88444375991821289 0.59968346357345581 0.48843958973884583
0.36657041311264038 0.62880861759185791 0.47915595769882202
0.41490015387535095 0.63640427589416504 0.48522812128067017
0.49574831128120422 0.64997118711471558 0.49801555275917053
0.59566128253936768 0.66817218065261841 0.51625633239746094
0.69789761304855347 0.68850511312484741 0.53411650657653809
0.80705446004867554 0.70555192232131958 0.54686063528060913
0.89301544427871704 0.71898561716079712 0.54030579328536987
0.46701884269714355 0.73977571725845337 0.53489762544631958
0.49421456456184387 0.74450182914733887 0.53454148769378662
0.54953795671463013 0.75341713428497314 0.54335206747055054
0.6285167932510376 0.76803761720657349 0.55898624658584595
0.71953147649765015 0.78594976663589478 0.57715582847595215
0.81660139560699463 0.80213427543640137 0.58663100004196167
0.89872050285339355 0.81586265563964844 0.58780425786972046
0.54185312986373901 0.84563028812408447 0.59065341949462891
0.55680739879608154 0.84867531061172485 0.5863226056098938
0.59984284639358521 0.85451030731201172 0.59293800592422485
0.66734039783477783 0.86522048711776733 0.60649573802947998
0.74970221519470215 0.88060176372528076 0.61992961168289185
0.84106487035751343 0.89766204357147217 0.62732231616973877
0.92749869823455811 0.91556632518768311 0.62900519371032715
0.12277055531740189 0.077328972518444061 0.39820009469985962
0.22911816835403442 0.10070407390594482 0.42829170823097229
0.3707236647605896 0.12862737476825714 0.46017071604728699
0.52432537078857422 0.16461502015590668 0.48593106865882874
0.64607357978820801 0.1830437183380127 0.51376998424530029
0.75974744558334351 0.19780872762203217 0.52866244316101074
0.86015301942825317 0.20618157088756561 0.52561783790588379
0.19262662529945374 0.22299163043498993 0.44826337695121765
0.27614471316337585 0.2379533052444458 0.47174680233001709
0.40584862232208252 0.26318007707595825 0.50176286697387695
0.54264450073242188 0.2899412214756012 0.5299144983291626
0.65796917676925659 0.30486452579498291 0.55352610349655151
0.76782268285751343 0.31340581178665161 0.57089483737945557
0.85397481918334961 0.30884096026420593 0.57729583978652954
0.26855331659317017 0.38909763097763062 0.49817889928817749
0.33484253287315369 0.39920035004615784 0.51254552602767944
0.44696947932243347 0.41918358206748962 0.53631389141082764
0.56538450717926025 0.44079366326332092 0.56045794486999512
0.67389208078384399 0.45555391907691956 0.58002525568008423
0.78102695941925049 0.46298283338546753 0.5991823673248291
0.86456060409545898 0.45866727828979492 0.61001592874526978
0.3635125458240509 0.53588032722473145 0.55132484436035156
0.40941229462623596 0.54266047477722168 0.55888372659683228
0.49404019117355347 0.55874073505401611 0.57389575242996216
0.59235310554504395 0.57646584510803223 0.59389722347259521
0.6919676661491394 0.59332019090652466 0.61082428693771362
0.79202592372894287 0.60579007863998413 0.62901031970977783
0.87116348743438721 0.6129612922668457 0.63704466819763184
0.44890734553337097 0.65511643886566162 0.59499871730804443
0.47949296236038208 0.65847939252853394 0.6016119122505188
0.540802001953125 0.6679268479347229 0.61335384845733643
0.62129592895507812 0.68420016765594482 0.62793809175491333
0.70985519886016846 0.69928061962127686 0.64344769716262817
0.80560863018035889 0.71659624576568604 0.65794748067855835
0.88412147760391235 0.72717964649200439 0.66735732555389404
0.52186280488967896 0.75371521711349487 0.63618206977844238
0.54160946607589722 0.75681859254837036 0.63834887742996216
0.58790892362594604 0.76352131366729736 0.64822643995285034
0.65461617708206177 0.77640008926391602 0.66137051582336426
0.73321568965911865 0.78963780403137207 0.67561477422714233
0.82182294130325317 0.806174635887146 0.6884569525718689
0.89995056390762329 0.81949758529663086 0.69705450534820557
0.58445292711257935 0.85189539194107056 0.67912346124649048
0.59886795282363892 0.85395711660385132 0.67868906259536743
0.63450348377227783 0.85962468385696411 0.68544661998748779
0.69034880399703979 0.86992955207824707 0.69667512178421021
0.75942838191986084 0.8834155797958374 0.70781826972961426
0.84178972244262695 0.90034449100494385 0.71976679563522339
0.92940455675125122 0.91764730215072632 0.72796493768692017
0.21978916227817535 0.14590036869049072 0.5398668646812439
0.34267395734786987 0.18199543654918671 0.56675499677658081
0.4569258987903595 0.19517609477043152 0.59568881988525391
0.5645676851272583 0.2276243269443512 0.61822456121444702
0.66487032175064087 0.23206621408462524 0.64315676689147949
0.76611298322677612 0.23823682963848114 0.66209399700164795
0.84654837846755981 0.23559266328811646 0.67252147197723389
0.31104210019111633 0.30886822938919067 0.58283370733261108
0.38822603225708008 0.32413145899772644 0.59987008571624756
0.48356986045837402 0.34074991941452026 0.62207323312759399
0.58360528945922852 0.36046481132507324 0.6439436674118042
0.68160027265548706 0.36844995617866516 0.66425943374633789
0.7794870138168335 0.37498635053634644 0.68639928102493286
0.85712641477584839 0.37410181760787964 0.70203977823257446
0.39691364765167236 0.45826959609985352 0.62229716777801514
0.44362583756446838 0.46751236915588379 0.63146096467971802
0.51746100187301636 0.48187780380249023 0.64643782377243042
0.60494023561477661 0.49757564067840576 0.66483300924301147
0.69694626331329346 0.51155537366867065 0.68354052305221558
0.78772872686386108 0.52056634426116943 0.70533722639083862
0.86445361375808716 0.51630741357803345 0.72194015979766846
0.47273999452590942 0.57918411493301392 0.66138845682144165
0.49860814213752747 0.5819401741027832 0.6654970645904541
0.55402326583862305 0.59273093938827515 0.67488080263137817
0.63014096021652222 0.6062544584274292 0.69248485565185547
0.7151343822479248 0.62346315383911133 0.70947235822677612
0.80106073617935181 0.63519501686096191 0.72788000106811523
0.87411928176879883 0.64379793405532837 0.73805445432662964
0.52714622020721436 0.68283724784851074 0.69192445278167725
0.54924798011779785 0.68530267477035522 0.69690364599227905
0.59361404180526733 0.69270718097686768 0.70593678951263428
0.65813440084457397 0.70472753047943115 0.71931886672973633
0.73292428255081177 0.71687346696853638 0.73435795307159424
0.81524032354354858 0.73089069128036499 0.74987936019897461
0.89072322845458984 0.7416192889213562 0.76015579700469971
0.58448171615600586 0.76948559284210205 0.72496479749679565
0.60197681188583374 0.77270114421844482 0.72825390100479126
0.63802683353424072 0.77801710367202759 0.7364344596862793
0.69147789478302002 0.78766018152236938 0.74743020534515381
0.75387799739837646 0.79823571443557739 0.75904244184494019
0.82826906442642212 0.81410318613052368 0.77261698246002197
0.89995408058166504 0.82663959264755249 0.78292220830917358
0.63870918750762939 0.86427831649780273 0.76027566194534302
0.65108990669250488 0.86680585145950317 0.7608102560043335
0.67932581901550293 0.87232047319412231 0.76622641086578369
0.72201883792877197 0.88205081224441528 0.77369868755340576
0.77496403455734253 0.89335626363754272 0.78237628936767578
0.84392857551574707 0.91035068035125732 0.79621201753616333
0.93606424331665039 0.926361083984375 0.80937045812606812
0.38356870412826538 0.26998689770698547 0.66241979598999023
0.46555575728416443 0.28323391079902649 0.67944788932800293
0.53588521480560303 0.29672089219093323 0.69891864061355591
0.61613184213638306 0.31815034151077271 0.71866649389266968
0.70359188318252563 0.33633571863174438 0.73874539136886597
0.78582203388214111 0.33614102005958557 0.75708556175231934
0.85253435373306274 0.32578447461128235 0.77152377367019653
0.45044147968292236 0.41408774256706238 0.69267910718917847
0.49933791160583496 0.42302635312080383 0.70347452163696289
0.56040686368942261 0.43410483002662659 0.71667170524597168
0.63660460710525513 0.44961681962013245 0.73550736904144287
0.7187575101852417 0.45794755220413208 0.75108402967453003
0.79718494415283203 0.45796164870262146 0.7687448263168335
0.86263042688369751 0.46224072575569153 0.7898859977722168
0.5086590051651001 0.52783983945846558 0.72006428241729736
0.53982287645339966 0.53407108783721924 0.7275201678276062
0.58855283260345459 0.54353725910186768 0.73784661293029785
0.65572696924209595 0.55465185642242432 0.75197464227676392
0.73138386011123657 0.5673639178276062 0.76638174057006836
0.80730521678924561 0.57487785816192627 0.78503274917602539
0.87528592348098755 0.57702434062957764 0.80447638034820557
0.5590740442276001 0.62399089336395264 0.75024056434631348
0.57989788055419922 0.62908029556274414 0.75334644317626953
0.61808216571807861 0.63623958826065063 0.76156282424926758
0.67959952354431152 0.64473164081573486 0.7765737771987915
0.74785417318344116 0.66116791963577271 0.79048079252243042
0.81985312700271606 0.6721922755241394 0.80921775102615356
0.88376635313034058 0.67494094371795654 0.81833487749099731
0.61198884248733521 0.71611529588699341 0.7810748815536499
0.63030886650085449 0.7207067608833313 0.78601950407028198
0.66042876243591309 0.72678899765014648 0.79201948642730713
0.70864182710647583 0.73350483179092407 0.80160349607467651
0.76591062545776367 0.74546366930007935 0.81303799152374268
0.83155065774917603 0.75635337829589844 0.82967483997344971
0.89260303974151611 0.76226198673248291 0.83704161643981934
0.66116726398468018 0.79706662893295288 0.80697935819625854
0.67667466402053833 0.79943579435348511 0.81194937229156494
0.69858759641647339 0.8028414249420166 0.81462758779525757
0.7384907603263855 0.8101765513420105 0.82384991645812988
0.78621351718902588 0.81982660293579102 0.83479052782058716
0.84526681900024414 0.83075779676437378 0.84600371122360229
0.91324162483215332 0.84031343460083008 0.85959088802337646
0.70631581544876099 0.88961362838745117 0.84048253297805786
0.71275454759597778 0.89355427026748657 0.83838045597076416
0.73301976919174194 0.89833813905715942 0.84290248155593872
0.76544511318206787 0.90347301959991455 0.84987813234329224
0.80546516180038452 0.91518700122833252 0.85854578018188477
0.86531716585159302 0.92833036184310913 0.87027621269226074
0.95129656791687012 0.94360136985778809 0.88606083393096924
0.49343305826187134 0.37610426545143127 0.74301314353942871
0.53571701049804688 0.37458264827728271 0.74820291996002197
0.59125125408172607 0.39385327696800232 0.76467615365982056
0.65721791982650757 0.40039128065109253 0.78164041042327881
0.73250663280487061 0.40888679027557373 0.79780429601669312
0.80577194690704346 0.42448735237121582 0.81876641511917114
0.8666534423828125 0.41698664426803589 0.83367651700973511
0.5356220006942749 0.49059012532234192 0.76304715871810913
0.56316602230072021 0.49550983309745789 0.76838445663452148
0.6099851131439209 0.50347721576690674 0.77796769142150879
0.68018150329589844 0.52468907833099365 0.80205506086349487
0.75061345100402832 0.53573453426361084 0.81664490699768066
0.81530284881591797 0.5385405421257019 0.83052092790603638
0.87156218290328979 0.54171764850616455 0.8487623929977417
0.5746692419052124 0.57515090703964233 0.78347378969192505
0.59812813997268677 0.57796221971511841 0.78802621364593506
0.64023107290267944 0.58747434616088867 0.79841148853302002
0.69787204265594482 0.60419690608978271 0.81357866525650024
0.76129460334777832 0.6135556697845459 0.82567411661148071
0.82266092300415039 0.6156737208366394 0.83753031492233276
0.87812274694442749 0.6289294958114624 0.85535186529159546
0.62225353717803955 0.66029441356658936 0.81178724765777588
0.6386985182762146 0.66197472810745239 0.81122094392776489
0.67438644170761108 0.66969555616378784 0.82169908285140991
0.72276145219802856 0.68222212791442871 0.833823561668396
0.77610534429550171 0.69436895847320557 0.84478914737701416
0.83361297845840454 0.70377832651138306 0.8616793155670166
0.88648498058319092 0.70845037698745728 0.86844086647033691
0.67544305324554443 0.74422538280487061 0.84322112798690796
0.68359231948852539 0.7467876672744751 0.8391990065574646
0.71539556980133057 0.75397801399230957 0.85046756267547607
0.7510266900062561 0.76046514511108398 0.85778713226318359
0.79410696029663086 0.77029240131378174 0.86565989255905151
0.84745734930038452 0.78079885244369507 0.88640123605728149
0.90328580141067505 0.78818106651306152 0.89938628673553467
0.72108989953994751 0.82078474760055542 0.87418538331985474
0.73233723640441895 0.82135516405105591 0.8757975697517395
0.75151890516281128 0.8256298303604126 0.8819509744644165
0.7804914116859436 0.83268922567367554 0.89088189601898193
0.82024365663528442 0.84081757068634033 0.90385442972183228
0.86959379911422729 0.84836441278457642 0.91888725757598877
0.93640053272247314 0.86531877517700195 0.93865108489990234
0.76255673170089722 0.91722673177719116 0.91368085145950317
0.76950782537460327 0.91664320230484009 0.91615486145019531
0.78632897138595581 0.92155176401138306 0.92368060350418091
0.80741924047470093 0.92816746234893799 0.92684876918792725
0.83947879076004028 0.93686282634735107 0.93790745735168457
0.89176040887832642 0.94902616739273071 0.95700991153717041
0.98264050483703613 0.96844673156738281 0.98024708032608032
