assets/lut/films colorslide kodak ektachrome 100 vs.cube
# Created by: G'MIC (https://gmic.eu)
TITLE "kodak_ektachrome_100_vs"
# LUT size
LUT_3D_SIZE 7
# Data domain
DOMAIN_MIN 0.0 0.0 0.0
DOMAIN_MAX 1.0 1.0 1.0
# LUT data points
0.013383648358285427 0.0070729721337556839 0.0088518178090453148
0.092430084943771362 0.0081474455073475838 0.0063968733884394169
0.26585808396339417 0.0095183132216334343 0.0022671569604426622
0.47187164425849915 0.0088290050625801086 0.0030994191765785217
0.67693835496902466 0.00044216081732884049 8.7902590166777372e-05
0.87038588523864746 0 0
1 0 0
0.059822142124176025 0.12314309179782867 0.057047031819820404
0.15708179771900177 0.12174839526414871 0.044152848422527313
0.32098788022994995 0.11754231154918671 0.026255948469042778
0.50989985466003418 0.098845988512039185 0.0060244840569794178
0.70130723714828491 0.064421109855175018 0.001649953774176538
0.89383763074874878 0.014342408627271652 0.00032896152697503567
1 0.0069641112349927425 0.0024613323621451855
0.12082585692405701 0.31090685725212097 0.13604484498500824
0.22026422619819641 0.31007048487663269 0.12790380418300629
0.37428545951843262 0.30351006984710693 0.10380346328020096
0.55116254091262817 0.28487995266914368 0.075801849365234375
0.726909339427948 0.24944311380386353 0.067711547017097473
0.9062575101852417 0.18943911790847778 0.065089881420135498
1 0.15883691608905792 0.073688611388206482
0.25091859698295593 0.50226455926895142 0.18616889417171478
0.32393339276313782 0.50054782629013062 0.18122375011444092
0.45190417766571045 0.49718192219734192 0.16571433842182159
0.60504418611526489 0.48930281400680542 0.14141596853733063
0.765453040599823 0.47453433275222778 0.13356368243694305
0.9194793701171875 0.43397343158721924 0.14666479825973511
1 0.39472624659538269 0.1704353541135788
0.40910592675209045 0.68406641483306885 0.24203187227249146
0.45470035076141357 0.68302434682846069 0.23935511708259583
0.54883438348770142 0.68163573741912842 0.22502027451992035
0.67789292335510254 0.67743074893951416 0.18823334574699402
0.82984024286270142 0.67114776372909546 0.15881918370723724
0.9617774486541748 0.64956855773925781 0.17263133823871613
0.9994206428527832 0.62079554796218872 0.22956152260303497
0.56825894117355347 0.8573799729347229 0.3131079375743866
0.60040593147277832 0.85713547468185425 0.31093883514404297
0.67187726497650146 0.85215681791305542 0.29643145203590393
0.76592779159545898 0.8578181266784668 0.26842007040977478
0.89487922191619873 0.8519628643989563 0.22878669202327728
0.99580031633377075 0.84556800127029419 0.19203908741474152
1 0.83088940382003784 0.2041732519865036
0.77460658550262451 0.99694621562957764 0.35815268754959106
0.79898953437805176 0.9975578784942627 0.36205288767814636
0.85129845142364502 0.99175631999969482 0.35518923401832581
0.90385818481445312 0.99719715118408203 0.33960050344467163
0.9838489294052124 0.99183756113052368 0.32238021492958069
0.99935287237167358 0.99649173021316528 0.28843420743942261
1 0.99420785903930664 0.23587018251419067
0.001142658875323832 0.0064619774930179119 0.082383893430233002
0.058302711695432663 0.005089194979518652 0.077116109430789948
0.23218025267124176 0.0010840322356671095 0.062819398939609528
0.4407120943069458 3.0158547815517522e-05 0.047934096306562424
0.65051919221878052 0 0.030102180317044258
0.85672533512115479 0 0.015905836597084999
1 0 0.014371714554727077
0.040374487638473511 0.12487683445215225 0.13466797769069672
0.1265043169260025 0.11576715856790543 0.1240684986114502
0.29302805662155151 0.099542759358882904 0.1022416353225708
0.48378685116767883 0.078674957156181335 0.074244976043701172
0.67337560653686523 0.053801160305738449 0.052872959524393082
0.87213832139968872 0.020174721255898476 0.039703190326690674
1 0.016568951308727264 0.045765221118927002
0.11851571500301361 0.30857962369918823 0.1964065283536911
0.19312763214111328 0.30396154522895813 0.19402690231800079
0.35059544444084167 0.29632860422134399 0.1817094087600708
0.524067223072052 0.27545779943466187 0.16002523899078369
0.7002183198928833 0.24265533685684204 0.14550502598285675
0.88966923952102661 0.19421087205410004 0.13302378356456757
1 0.16151247918605804 0.13101804256439209
0.23942732810974121 0.50047820806503296 0.23540268838405609
0.30764541029930115 0.49886083602905273 0.23080705106258392
0.43311843276023865 0.49460789561271667 0.22709442675113678
0.58101880550384521 0.48553529381752014 0.22218817472457886
0.74000149965286255 0.47133949398994446 0.22523343563079834
0.9135061502456665 0.43882268667221069 0.23205405473709106
1 0.39391347765922546 0.24130083620548248
0.41013231873512268 0.68692797422409058 0.26030966639518738
0.45395177602767944 0.6834532618522644 0.25879660248756409
0.54254812002182007 0.67978471517562866 0.25027135014533997
0.66640877723693848 0.67748653888702393 0.2322695404291153
0.80798518657684326 0.67151308059692383 0.23318904638290405
0.95412260293960571 0.64942330121994019 0.26312801241874695
1 0.61641460657119751 0.31354817748069763
0.57512807846069336 0.8614075779914856 0.31401306390762329
0.60502731800079346 0.86124545335769653 0.30515983700752258
0.66980111598968506 0.85745775699615479 0.29194939136505127
0.77230942249298096 0.86161231994628906 0.26217716932296753
0.89154618978500366 0.85774952173233032 0.24555021524429321
0.99182820320129395 0.84362185001373291 0.24050365388393402
0.99995797872543335 0.82576256990432739 0.2681688666343689
0.78481638431549072 0.99672883749008179 0.36385804414749146
0.80096632242202759 0.99814939498901367 0.3639681339263916
0.84517353773117065 0.99751925468444824 0.35724973678588867
0.90979921817779541 0.99799174070358276 0.33894488215446472
0.97720789909362793 0.99713122844696045 0.32089090347290039
0.99953550100326538 0.99172282218933105 0.28373017907142639
0.999350905418396 0.98993557691574097 0.25445863604545593
0 0.0013032801216468215 0.19020549952983856
0.026421220973134041 0.0039128470234572887 0.18696242570877075
0.19420887529850006 0.00098514929413795471 0.16313344240188599
0.41357427835464478 0.0014718896709382534 0.13204100728034973
0.62619352340698242 0.00046811570064164698 0.10519881546497345
0.84091109037399292 0 0.083171546459197998
0.99967330694198608 0 0.072524458169937134
0.016950495541095734 0.11743219196796417 0.25322502851486206
0.094812966883182526 0.10928426682949066 0.24139010906219482
0.25094613432884216 0.096252158284187317 0.21723979711532593
0.4496103823184967 0.081545226275920868 0.18492363393306732
0.64916503429412842 0.058646153658628464 0.15374571084976196
0.85342049598693848 0.015260195359587669 0.11919465661048889
1 0.011477062478661537 0.10498211532831192
0.074883133172988892 0.30141273140907288 0.32579663395881653
0.14719708263874054 0.29468941688537598 0.32038629055023193
0.30274155735969543 0.28809264302253723 0.30478361248970032
0.48514518141746521 0.27021190524101257 0.28090041875839233
0.66889232397079468 0.24217778444290161 0.25697058439254761
0.86659538745880127 0.18673638999462128 0.21917338669300079
1 0.14831887185573578 0.19539433717727661
0.1579405665397644 0.49223580956459045 0.37148883938789368
0.23652072250843048 0.48873832821846008 0.37107330560684204
0.37986510992050171 0.48524239659309387 0.3657478392124176
0.53943127393722534 0.4772179126739502 0.36161595582962036
0.69944077730178833 0.46328389644622803 0.35728758573532104
0.88260024785995483 0.4325263500213623 0.34229627251625061
1 0.38685950636863708 0.32860556244850159
0.3521057665348053 0.68050742149353027 0.37007227540016174
0.4068528413772583 0.6765783429145813 0.37642559409141541
0.50086694955825806 0.673378586769104 0.37812763452529907
0.62423229217529297 0.66819500923156738 0.37829771637916565
0.75695192813873291 0.65654700994491577 0.39877814054489136
0.91728132963180542 0.63770270347595215 0.41304853558540344
0.99970328807830811 0.61169707775115967 0.42737212777137756
0.56890749931335449 0.86382681131362915 0.33352804183959961
0.59911125898361206 0.86303961277008057 0.33095681667327881
0.66363388299942017 0.86266249418258667 0.32941505312919617
0.75319445133209229 0.86069661378860474 0.32785901427268982
0.8635706901550293 0.85181564092636108 0.34169211983680725
0.98057228326797485 0.8365321159362793 0.38737961649894714
0.99987900257110596 0.81512272357940674 0.45823711156845093
0.80162602663040161 0.99654948711395264 0.36280763149261475
0.81927251815795898 0.99851506948471069 0.34693726897239685
0.86339443922042847 0.99742323160171509 0.3435368537902832
0.91983389854431152 0.99847877025604248 0.33110657334327698
0.98583352565765381 0.99747860431671143 0.29597124457359314
0.99960196018218994 0.99522823095321655 0.27185466885566711
1 0.9965137243270874 0.27704641222953796
0 0 0.29356604814529419
0.0081603405997157097 0 0.28283810615539551
0.16294504702091217 0 0.25697571039199829
0.3858606219291687 0 0.22152760624885559
0.60640412569046021 0 0.18917550146579742
0.82690894603729248 0 0.15893752872943878
0.99748116731643677 0 0.13851633667945862
0.0022151721641421318 0.10568642616271973 0.36853688955307007
0.046437401324510574 0.097700871527194977 0.35205748677253723
0.20803083479404449 0.089597336947917938 0.32592695951461792
0.41973021626472473 0.067619755864143372 0.28675737977027893
0.6255841851234436 0.048107504844665527 0.2486547976732254
0.83949887752532959 0.01491705235093832 0.20151884853839874
0.99970018863677979 0.0026250802911818027 0.16951815783977509
0.026531608775258064 0.29262253642082214 0.45975664258003235
0.077870510518550873 0.28871211409568787 0.44578248262405396
0.25481924414634705 0.28062343597412109 0.42579641938209534
0.44970512390136719 0.26163995265960693 0.39382705092430115
0.63967859745025635 0.23194500803947449 0.35814958810806274
0.84351962804794312 0.17733864486217499 0.30780690908432007
0.99844920635223389 0.13569274544715881 0.2701413631439209
0.062518008053302765 0.48383921384811401 0.53109592199325562
0.13923449814319611 0.48091813921928406 0.52382016181945801
0.31500232219696045 0.47630405426025391 0.51162225008010864
0.4925713837146759 0.46977370977401733 0.49474319815635681
0.66468000411987305 0.45494824647903442 0.47325673699378967
0.85105568170547485 0.42517799139022827 0.44258281588554382
0.99396282434463501 0.38943383097648621 0.42079779505729675
0.23375150561332703 0.66694134473800659 0.56788557767868042
0.30749300122261047 0.66486227512359619 0.5653301477432251
0.41958567500114441 0.66132873296737671 0.56740587949752808
0.55860710144042969 0.65597224235534668 0.55745452642440796
0.7105594277381897 0.64485138654708862 0.54950994253158569
0.87942951917648315 0.62979930639266968 0.53722405433654785
0.9993751049041748 0.60676556825637817 0.53114980459213257
0.47735190391540527 0.85024529695510864 0.53645843267440796
0.51559889316558838 0.84841477870941162 0.53786933422088623
0.58089369535446167 0.850261390209198 0.53114992380142212
0.67536044120788574 0.84158027172088623 0.55159050226211548
0.78876739740371704 0.83455878496170044 0.57306098937988281
0.93320351839065552 0.82207262516021729 0.58945930004119873
0.99991363286972046 0.80630075931549072 0.60963881015777588
0.81394666433334351 0.99689620733261108 0.36251482367515564
0.83583420515060425 0.99456787109375 0.35724842548370361
0.87415009737014771 0.99437612295150757 0.35255303978919983
0.93269753456115723 0.99378269910812378 0.34533119201660156
0.98311609029769897 0.99481785297393799 0.33510714769363403
0.99954473972320557 0.99300968647003174 0.37800803780555725
0.99998706579208374 0.98644447326660156 0.4867326021194458
0 0 0.3923526406288147
0.00030562456231564283 0 0.38100004196166992
0.11741378158330917 0 0.3539479672908783
0.34951931238174438 0 0.31107679009437561
0.58147817850112915 0 0.2731204628944397
0.79648035764694214 0 0.23798453807830811
0.98000252246856689 0 0.21191833913326263
0 0.10052355378866196 0.47604018449783325
0.018953271210193634 0.090706981718540192 0.46095889806747437
0.16304726898670197 0.080029234290122986 0.4281192421913147
0.38778212666511536 0.050425615161657333 0.38008740544319153
0.59982234239578247 0.036200951784849167 0.3374323844909668
0.81762439012527466 0.010048062540590763 0.28053033351898193
0.99580776691436768 0 0.23164914548397064
0 0.28478386998176575 0.57035601139068604
0.031590837985277176 0.2803339958190918 0.5582420825958252
0.19273374974727631 0.27214407920837402 0.53119629621505737
0.41339200735092163 0.25150787830352783 0.49449291825294495
0.61115062236785889 0.22168931365013123 0.45387783646583557
0.81969910860061646 0.16702958941459656 0.39545181393623352
0.99352109432220459 0.10831709951162338 0.33893302083015442
0.011036861687898636 0.47723940014839172 0.65240019559860229
0.051163602620363235 0.47412273287773132 0.64387643337249756
0.23715920746326447 0.46892362833023071 0.62575256824493408
0.45088094472885132 0.46249514818191528 0.6022680401802063
0.63246238231658936 0.44844493269920349 0.57577311992645264
0.82516735792160034 0.42195817828178406 0.540782630443573
0.98788249492645264 0.37748250365257263 0.50029140710830688
0.12905223667621613 0.65624421834945679 0.71246325969696045
0.19934903085231781 0.65613836050033569 0.70705240964889526
0.34574362635612488 0.65221631526947021 0.69718611240386963
0.50567799806594849 0.64606314897537231 0.68465638160705566
0.6687626838684082 0.63788789510726929 0.66840028762817383
0.84314030408859253 0.62227362394332886 0.64537686109542847
0.9924432635307312 0.59825623035430908 0.62447971105575562
0.36944153904914856 0.83266276121139526 0.74454128742218018
0.40923416614532471 0.83396828174591064 0.75059229135513306
0.49198159575462341 0.83275312185287476 0.74304258823394775
0.60613101720809937 0.82676607370376587 0.73494404554367065
0.73539453744888306 0.82352131605148315 0.72911310195922852
0.88447219133377075 0.81442254781723022 0.72537052631378174
0.99566733837127686 0.79398679733276367 0.71792775392532349
0.73796427249908447 0.98975473642349243 0.56969350576400757
0.75254076719284058 0.9927065372467041 0.57859236001968384
0.79062438011169434 0.99199002981185913 0.57269841432571411
0.84135717153549194 0.99124330282211304 0.60015058517456055
0.90247178077697754 0.99144977331161499 0.63266223669052124
0.97618216276168823 0.98827838897705078 0.6696544885635376
1 0.97945183515548706 0.71005642414093018
0 0 0.47956040501594543
0 0 0.47132217884063721
0.073518358170986176 3.7698184314649552e-05 0.4452725350856781
0.29899862408638 0 0.39473772048950195
0.54937046766281128 0 0.35003876686096191
0.77881336212158203 0 0.31119012832641602
0.97033131122589111 0.0010981840314343572 0.27859270572662354
0 0.089908257126808167 0.56715840101242065
0.0085595222190022469 0.084884583950042725 0.55825066566467285
0.11241429299116135 0.070866450667381287 0.52690935134887695
0.34067758917808533 0.043637592345476151 0.47027647495269775
0.56888216733932495 0.031850326806306839 0.42161476612091064
0.78709834814071655 0.012716256082057953 0.3602772057056427
0.9727708101272583 0 0.30242878198623657
8.9652865426614881e-05 0.27547401189804077 0.66644501686096191
0.0048699621111154556 0.27261450886726379 0.65876585245132446
0.13232108950614929 0.26401698589324951 0.62914234399795532
0.36606878042221069 0.25135371088981628 0.58939117193222046
0.57681596279144287 0.21535153687000275 0.54419738054275513
0.78966712951660156 0.16285380721092224 0.48175895214080811
0.98005920648574829 0.098468214273452759 0.41007426381111145
0 0.46813005208969116 0.75810533761978149
0.0079274792224168777 0.46575012803077698 0.75474023818969727
0.16437384486198425 0.46178245544433594 0.72995519638061523
0.3987433910369873 0.45690953731536865 0.70321482419967651
0.59186416864395142 0.4406789243221283 0.66928040981292725
0.79696112871170044 0.4122900664806366 0.62929123640060425
0.98306953907012939 0.36358404159545898 0.57070767879486084
0.031289868056774139 0.64509373903274536 0.83032310009002686
0.083426758646965027 0.64576369524002075 0.82803595066070557
0.25656011700630188 0.64411908388137817 0.81582063436508179
0.44515424966812134 0.64078497886657715 0.79481500387191772
0.62194651365280151 0.6299472451210022 0.77455085515975952
0.81271445751190186 0.61593973636627197 0.74472296237945557
0.97941297292709351 0.58873534202575684 0.70984339714050293
0.22083187103271484 0.81686854362487793 0.89536935091018677
0.27851301431655884 0.81999832391738892 0.89142036437988281
0.40715593099594116 0.81885451078414917 0.87924253940582275
0.53110194206237793 0.81584006547927856 0.87734860181808472
0.6789976954460144 0.81185448169708252 0.85784447193145752
0.84079551696777344 0.80464142560958862 0.8389250636100769
0.98989367485046387 0.78875792026519775 0.81601113080978394
0.60037493705749512 0.98266714811325073 0.87568342685699463
0.62335467338562012 0.98558145761489868 0.87066638469696045
0.66609591245651245 0.98409342765808105 0.86184799671173096
0.72260010242462158 0.98252576589584351 0.86911791563034058
0.8120497465133667 0.98160088062286377 0.87463825941085815
0.91536396741867065 0.97894477844238281 0.88755631446838379
0.99915593862533569 0.97572880983352661 0.88904917240142822
0 0 0.54721039533615112
0 0 0.53891324996948242
0.054736267775297165 0 0.50981861352920532
0.25922420620918274 1.4002182979311328e-05 0.45575705170631409
0.52126991748809814 0 0.40487939119338989
0.74788945913314819 0 0.36355957388877869
0.94463044404983521 0 0.32429826259613037
0.0029021019581705332 0.075202688574790955 0.63478380441665649
0.0050330366939306259 0.072913661599159241 0.6268729567527771
0.082888297736644745 0.067228861153125763 0.59664803743362427
0.30170252919197083 0.043097477406263351 0.53312951326370239
0.54412299394607544 0.026807254180312157 0.47704985737800598
0.77053087949752808 0.02178771048784256 0.4155820906162262
0.9752618670463562 0.0042286142706871033 0.34792402386665344
0.0082448022440075874 0.2664247453212738 0.7365911602973938
0.0058734072372317314 0.26779922842979431 0.7267385721206665
0.099819138646125793 0.25897052884101868 0.69440698623657227
0.3296450674533844 0.24263499677181244 0.64851230382919312
0.54936152696609497 0.2116754949092865 0.60171985626220703
0.77106672525405884 0.17638616263866425 0.54012942314147949
0.9772346019744873 0.13231779634952545 0.46493184566497803
7.4678311648312956e-05 0.46307510137557983 0.83290904760360718
0 0.46003296971321106 0.82890719175338745
0.073070421814918518 0.45513945817947388 0.79687327146530151
0.33476477861404419 0.44858613610267639 0.77313804626464844
0.55581027269363403 0.43576109409332275 0.73305964469909668
0.77325564622879028 0.40977585315704346 0.685139000415802
0.97335493564605713 0.36928406357765198 0.62152397632598877
1.9447476006462239e-05 0.63955032825469971 0.91681015491485596
0.0051371855661273003 0.63903224468231201 0.91219347715377808
0.14665499329566956 0.63776057958602905 0.89411669969558716
0.3746611475944519 0.6356508731842041 0.87283682823181152
0.5818946361541748 0.62760406732559204 0.84147161245346069
0.78285592794418335 0.6134408712387085 0.80466187000274658
0.95458328723907471 0.58842873573303223 0.76774787902832031
0.12232046574354172 0.81068617105484009 0.98966938257217407
0.16505934298038483 0.8118363618850708 0.99011582136154175
0.3272835910320282 0.81208080053329468 0.96847319602966309
0.47407171130180359 0.8107907772064209 0.96126306056976318
0.63890570402145386 0.80805474519729614 0.93422788381576538
0.81259888410568237 0.79883736371994019 0.90508902072906494
0.98010933399200439 0.78439676761627197 0.87945526838302612
0.51028960943222046 0.98024505376815796 0.99862176179885864
0.51985281705856323 0.97995233535766602 1
0.5765877366065979 0.97941040992736816 1
0.64875102043151855 0.97796672582626343 1
0.75152891874313354 0.97920358180999756 0.99991744756698608
0.87472414970397949 0.97516047954559326 0.99538767337799072
0.99274301528930664 0.97535157203674316 0.98649656772613525
