assets/lut/films print kodak 2383 constlmap.cube
# Created by: G'MIC (https://gmic.eu)
TITLE "kodak_2383_constlmap"
# LUT size
LUT_3D_SIZE 13
# Data domain
DOMAIN_MIN 0.0 0.0 0.0
DOMAIN_MAX 1.0 1.0 1.0
# LUT data points
0.012074878439307213 0.01227244921028614 0.016717933118343353
0.027693161740899086 0.016628818586468697 0.018920913338661194
0.055382642894983292 0.02900003083050251 0.023566301912069321
0.08906160295009613 0.040608722716569901 0.023296849802136421
0.15458562970161438 0.055547211319208145 0.016528215259313583
0.24677504599094391 0.075530499219894409 0.0082349888980388641
0.34344086050987244 0.094628229737281799 0.0097834868356585503
0.42732337117195129 0.10980941355228424 0.01077734213322401
0.49240994453430176 0.12188614159822464 0.0064145703800022602
0.53771132230758667 0.13143153488636017 0.0061221253126859665
0.56492525339126587 0.13874363899230957 0.016113370656967163
0.58369743824005127 0.14115528762340546 0.018593447282910347
0.60292178392410278 0.14616492390632629 0.018402503803372383
0.014003454707562923 0.03088042326271534 0.028735605999827385
0.02852846123278141 0.032630305737257004 0.0303178820759058
0.054606016725301743 0.040356848388910294 0.030098648741841316
0.095021672546863556 0.051313735544681549 0.027771385386586189
0.17471460998058319 0.069171860814094543 0.022001229226589203
0.26983922719955444 0.091079309582710266 0.019220344722270966
0.37016481161117554 0.11273948848247528 0.018809374421834946
0.45444029569625854 0.12816469371318817 0.018306523561477661
0.51697856187820435 0.13966085016727448 0.013054432347416878
0.56526941061019897 0.14756542444229126 0.0070211221463978291
0.59436392784118652 0.15289691090583801 0.01256962213665247
0.61229294538497925 0.15673302114009857 0.016618676483631134
0.62212008237838745 0.1610642671585083 0.02172393724322319
0.014877050183713436 0.050463836640119553 0.040087398141622543
0.027869848534464836 0.05680389329791069 0.042293906211853027
0.053663082420825958 0.066243670880794525 0.039977610111236572
0.099843554198741913 0.075905770063400269 0.036412376910448074
0.17948640882968903 0.093406453728675842 0.033305764198303223
0.2846904993057251 0.11841271817684174 0.031848713755607605
0.39467376470565796 0.14231468737125397 0.028830539435148239
0.48691615462303162 0.15715248882770538 0.025540191680192947
0.55199164152145386 0.17008453607559204 0.020549848675727844
0.60131204128265381 0.17641410231590271 0.014111791737377644
0.6304314136505127 0.17930437624454498 0.015740653499960899
0.64437127113342285 0.1852678507566452 0.019157154485583305
0.65204322338104248 0.1889234185218811 0.022783197462558746
0.018565727397799492 0.083462812006473541 0.056120794266462326
0.019899675622582436 0.086410537362098694 0.053419388830661774
0.049558199942111969 0.10013650357723236 0.049939114600419998
0.103792704641819 0.11466499418020248 0.045083094388246536
0.19582568109035492 0.13460025191307068 0.040043417364358902
0.31876063346862793 0.16873139142990112 0.035085923969745636
0.43277263641357422 0.19316928088665009 0.032883603125810623
0.52378308773040771 0.19911018013954163 0.034029658883810043
0.589988112449646 0.20715443789958954 0.026984823867678642
0.63995033502578735 0.21705326437950134 0.019350523129105568
0.67045706510543823 0.23097652196884155 0.02344055101275444
0.68606102466583252 0.23797611892223358 0.026351345703005791
0.69406509399414062 0.24324005842208862 0.022955667227506638
0.031747795641422272 0.1307634562253952 0.080881528556346893
0.024340521544218063 0.13312183320522308 0.074178524315357208
0.038744639605283737 0.14874853193759918 0.065703190863132477
0.10647054761648178 0.17743858695030212 0.05290883406996727
0.22398647665977478 0.2103712409734726 0.037765983492136002
0.35724219679832458 0.23849417269229889 0.031673192977905273
0.4766271710395813 0.25987076759338379 0.030166236683726311
0.57295703887939453 0.27624645829200745 0.035988945513963699
0.64556211233139038 0.28456935286521912 0.030638646334409714
0.69349592924118042 0.29560673236846924 0.02242380753159523
0.72047233581542969 0.31128618121147156 0.02329222671687603
0.73619711399078369 0.316497802734375 0.028263285756111145
0.74707484245300293 0.32863140106201172 0.02217419259250164
0.030502798035740852 0.19314303994178772 0.10952546447515488
0.030768135562539101 0.20676976442337036 0.10640918463468552
0.027857881039381027 0.22257103025913239 0.096375547349452972
0.087689928710460663 0.25803261995315552 0.071169160306453705
0.23334464430809021 0.29329797625541687 0.039114590734243393
0.38867121934890747 0.33049443364143372 0.028318338096141815
0.52524805068969727 0.35930392146110535 0.031050886958837509
0.63182801008224487 0.3797207772731781 0.035892829298973083
0.70754420757293701 0.3899567723274231 0.026703089475631714
0.75296491384506226 0.4048340916633606 0.017331650480628014
0.77671217918395996 0.40956652164459229 0.012572180479764938
0.79403358697891235 0.42825239896774292 0.013754676096141338
0.8038906455039978 0.4371192455291748 0.0098109673708677292
0.023369239643216133 0.26474398374557495 0.14016199111938477
0.029887959361076355 0.28166121244430542 0.13871550559997559
0.032485406845808029 0.30255258083343506 0.12895330786705017
0.060973957180976868 0.3420957624912262 0.096955485641956329
0.23979827761650085 0.39672774076461792 0.052132520824670792
0.41892358660697937 0.44128993153572083 0.026878116652369499
0.5697324275970459 0.4755585789680481 0.024526365101337433
0.68821156024932861 0.50065279006958008 0.029166966676712036
0.76739531755447388 0.51812022924423218 0.016021952033042908
0.81029826402664185 0.52881014347076416 0.016495348885655403
0.83359062671661377 0.53577625751495361 0.024724340066313744
0.84759372472763062 0.54864156246185303 0.022742850705981255
0.85602885484695435 0.55520069599151611 0.016042238101363182
0.016360683366656303 0.33186298608779907 0.16845642030239105
0.023457949981093407 0.34722036123275757 0.16494734585285187
0.029315648600459099 0.37678796052932739 0.15377174317836761
0.057616453617811203 0.42711403965950012 0.11539369821548462
0.24625353515148163 0.49051320552825928 0.049235235899686813
0.44529101252555847 0.54620528221130371 0.024353476241230965
0.61016106605529785 0.59189730882644653 0.013915028423070908
0.73394948244094849 0.62000590562820435 0.018142789602279663
0.81087595224380493 0.6353461742401123 0.033956922590732574
0.85596871376037598 0.64563983678817749 0.041331063956022263
0.88154613971710205 0.65577018260955811 0.053836341947317123
0.89478176832199097 0.66521483659744263 0.046362139284610748
0.90380924940109253 0.67127662897109985 0.032171241939067841
0.022025913000106812 0.38266006112098694 0.18714481592178345
0.017664156854152679 0.39927536249160767 0.18269708752632141
0.019116375595331192 0.43602102994918823 0.17049525678157806
0.062950029969215393 0.48951798677444458 0.11184870451688766
0.24243423342704773 0.55924242734909058 0.02571939118206501
0.46692785620689392 0.62438130378723145 0.010109800845384598
0.63648241758346558 0.67209690809249878 0.011058837175369263
0.7647087574005127 0.70596438646316528 0.030482662841677666
0.84220600128173828 0.72253364324569702 0.056928671896457672
0.88737142086029053 0.72879678010940552 0.065026901662349701
0.91654837131500244 0.74124282598495483 0.073355972766876221
0.93008309602737427 0.74704456329345703 0.066180452704429626
0.93478530645370483 0.74556761980056763 0.060485631227493286
0.02756531722843647 0.41088345646858215 0.19974416494369507
0.0097367828711867332 0.43590167164802551 0.19505329430103302
0.0091660143807530403 0.47451609373092651 0.18032778799533844
0.059546913951635361 0.52764332294464111 0.10939705371856689
0.24098993837833405 0.59647101163864136 0.019961008802056313
0.47413083910942078 0.66563397645950317 0.0073132086545228958
0.6543394923210144 0.71557486057281494 0.013508561067283154
0.78124701976776123 0.75255894660949707 0.044323939830064774
0.86240428686141968 0.77411872148513794 0.072985976934432983
0.90923410654067993 0.77993208169937134 0.087680265307426453
0.93679076433181763 0.78974592685699463 0.088590271770954132
0.95006626844406128 0.7938874363899231 0.086726740002632141
0.95803540945053101 0.79977452754974365 0.09393666684627533
0.019632061943411827 0.43469628691673279 0.20720064640045166
0.0097286896780133247 0.46257743239402771 0.20171470940113068
0.015877129510045052 0.50337493419647217 0.18064801394939423
0.055172309279441833 0.55440574884414673 0.11421842128038406
0.25757637619972229 0.62245208024978638 0.021102664992213249
0.48686307668685913 0.6896246075630188 0.012868753634393215
0.66772615909576416 0.74380332231521606 0.019256306812167168
0.79387599229812622 0.78068351745605469 0.048675209283828735
0.87442857027053833 0.80244868993759155 0.077796801924705505
0.92634564638137817 0.817210853099823 0.10213721543550491
0.94824546575546265 0.81995862722396851 0.10054992884397507
0.96064406633377075 0.82104992866516113 0.095147259533405304
0.96796578168869019 0.8258059024810791 0.10060665756464005
0.0074701197445392609 0.4560394287109375 0.21385785937309265
0.010344172827899456 0.49021181464195251 0.20179595053195953
0.025734830647706985 0.5323108434677124 0.17659959197044373
0.071813918650150299 0.58327364921569824 0.10535390675067902
0.29048001766204834 0.64668011665344238 0.020784489810466766
0.51263833045959473 0.70979112386703491 0.01688416488468647
0.6822313666343689 0.76131141185760498 0.029211949557065964
0.80644774436950684 0.7959485650062561 0.052012365311384201
0.88456106185913086 0.81794357299804688 0.075672239065170288
0.93419653177261353 0.83245205879211426 0.095408402383327484
0.95727503299713135 0.83788412809371948 0.097921989858150482
0.97189050912857056 0.84072315692901611 0.098094984889030457
0.97869348526000977 0.84285497665405273 0.10328635573387146
0.0042091966606676579 0.48418578505516052 0.22177310287952423
0.0058473623357713223 0.53769499063491821 0.19965276122093201
0.040811456739902496 0.58180910348892212 0.14365400373935699
0.14075130224227905 0.62570184469223022 0.074415169656276703
0.3531949520111084 0.67941451072692871 0.011745871976017952
0.54390186071395874 0.73455560207366943 0.013388196006417274
0.6961137056350708 0.7763906717300415 0.03004506416618824
0.81507211923599243 0.80712151527404785 0.053565245121717453
0.88514029979705811 0.82711160182952881 0.073960743844509125
0.94120770692825317 0.84471714496612549 0.090941064059734344
0.96908444166183472 0.85147500038146973 0.098301202058792114
0.98318350315093994 0.85312312841415405 0.10144700855016708
0.99045014381408691 0.85561120510101318 0.10891789197921753
0.011000405065715313 0.02151985839009285 0.034557148814201355
0.027056122198700905 0.022804753854870796 0.035575643181800842
0.051679305732250214 0.03002827987074852 0.036437299102544785
0.095108091831207275 0.042008239775896072 0.036754459142684937
0.16689383983612061 0.054411794990301132 0.030431350693106651
0.26381057500839233 0.067982107400894165 0.019100429490208626
0.362693190574646 0.084397017955780029 0.01436507236212492
0.44697332382202148 0.097657285630702972 0.012015982531011105
0.51496559381484985 0.10471459478139877 0.010802115313708782
0.55606758594512939 0.11159053444862366 0.012438815087080002
0.5786365270614624 0.12323020398616791 0.020521994680166245
0.59861278533935547 0.12280596792697906 0.01571362093091011
0.616291344165802 0.12469556927680969 0.019881842657923698
0.012761733494699001 0.032442055642604828 0.038297645747661591
0.028267025947570801 0.034501481801271439 0.040232326835393906
0.056726537644863129 0.043778125196695328 0.042533949017524719
0.10418246686458588 0.056893665343523026 0.042420152574777603
0.17944309115409851 0.070825986564159393 0.03287854790687561
0.27637910842895508 0.08852531760931015 0.028539365157485008
0.37949079275131226 0.10555185377597809 0.02603168785572052
0.4674091637134552 0.11931939423084259 0.026839552447199821
0.53262758255004883 0.13220386207103729 0.032943353056907654
0.57791793346405029 0.13484267890453339 0.022643174976110458
0.60649502277374268 0.13781391084194183 0.013314610347151756
0.62596678733825684 0.13996393978595734 0.0097139542922377586
0.63837838172912598 0.14238816499710083 0.018068365752696991
0.01785825751721859 0.055549517273902893 0.050249751657247543
0.030436452478170395 0.056860439479351044 0.049769517034292221
0.059220422059297562 0.066989347338676453 0.05120517686009407
0.10442230850458145 0.078079313039779663 0.051001247018575668
0.1857273280620575 0.095808275043964386 0.046944785863161087
0.29396063089370728 0.12046249955892563 0.04734371230006218
0.40337702631950378 0.14217142760753632 0.04615599662065506
0.4981502890586853 0.15370208024978638 0.044636640697717667
0.56390869617462158 0.16557259857654572 0.044259104877710342
0.61045628786087036 0.16599749028682709 0.029276125133037567
0.64143484830856323 0.16679279506206512 0.017005816102027893
0.65968817472457886 0.17174535989761353 0.018136328086256981
0.67157447338104248 0.173807293176651 0.02146841399371624
0.024106478318572044 0.087169080972671509 0.066323332488536835
0.031285602599382401 0.087793387472629547 0.063263416290283203
0.057825513184070587 0.098546437919139862 0.061722129583358765
0.10729864984750748 0.11463575065135956 0.05900135263800621
0.19795212149620056 0.13773873448371887 0.059553228318691254
0.32343596220016479 0.17234310507774353 0.059404157102108002
0.44142454862594604 0.20123855769634247 0.057658519595861435
0.53185540437698364 0.20403118431568146 0.058615278452634811
0.60139298439025879 0.20685805380344391 0.053102083504199982
0.65092605352401733 0.21672528982162476 0.03800627589225769
0.68480426073074341 0.22703906893730164 0.028020985424518585
0.70173543691635132 0.2298138439655304 0.021998850628733635
0.71130180358886719 0.22941084206104279 0.011797063052654266
0.035900384187698364 0.13502392172813416 0.091150231659412384
0.046723954379558563 0.14132027328014374 0.090384542942047119
0.060584649443626404 0.15106569230556488 0.08204486221075058
0.10837970674037933 0.17806141078472137 0.068449415266513824
0.22019201517105103 0.21266068518161774 0.063437551259994507
0.36052674055099487 0.24654117226600647 0.064365968108177185
0.48281699419021606 0.26913732290267944 0.06444840133190155
0.57442867755889893 0.27656757831573486 0.067820243537425995
0.65049904584884644 0.28359082341194153 0.065196439623832703
0.70213711261749268 0.30003267526626587 0.054538711905479431
0.73616528511047363 0.31049603223800659 0.040790975093841553
0.75549173355102539 0.31613844633102417 0.025164630264043808
0.76571559906005859 0.32550612092018127 0.010146451182663441
0.039719764143228531 0.20302882790565491 0.12471802532672882
0.055417843163013458 0.21183930337429047 0.123307965695858
0.065234899520874023 0.22564202547073364 0.11613044142723083
0.10433445125818253 0.25978320837020874 0.093221135437488556
0.23033171892166138 0.30142056941986084 0.072032526135444641
0.388723224401474 0.33724808692932129 0.07021757960319519
0.52658241987228394 0.36187031865119934 0.070787213742733002
0.6343996524810791 0.38705942034721375 0.07286689430475235
0.71415811777114868 0.40005511045455933 0.064986571669578552
0.7605278491973877 0.40697517991065979 0.058383103460073471
0.79172688722610474 0.41961890459060669 0.033158499747514725
0.81094366312026978 0.4342103898525238 0.017284199595451355
0.82195931673049927 0.4440104067325592 0.010613669641315937
0.037020783871412277 0.27226364612579346 0.15525327622890472
0.055645797401666641 0.28542488813400269 0.15319731831550598
0.06882457435131073 0.30624055862426758 0.14689686894416809
0.098738260567188263 0.3467889130115509 0.12202401459217072
0.23538632690906525 0.40029531717300415 0.083438441157341003
0.41768363118171692 0.44757464528083801 0.073214314877986908
0.57434070110321045 0.48256993293762207 0.072165951132774353
0.69290566444396973 0.51013755798339844 0.075696088373661041
0.77187788486480713 0.52502822875976562 0.062150139361619949
0.81623727083206177 0.53276896476745605 0.051596429198980331
0.843578040599823 0.53872406482696533 0.027320189401507378
0.86003631353378296 0.55669158697128296 0.025047780945897102
0.8700670599937439 0.56757462024688721 0.025141471996903419
0.031259931623935699 0.33575031161308289 0.18226179480552673
0.052342269569635391 0.35134929418563843 0.17901545763015747
0.070682123303413391 0.38276252150535583 0.17274720966815948
0.089934825897216797 0.43004482984542847 0.13958141207695007
0.23308943212032318 0.49288791418075562 0.089826218783855438
0.4455227255821228 0.55306804180145264 0.075132407248020172
0.61253154277801514 0.59597063064575195 0.065966241061687469
0.7377694845199585 0.62622582912445068 0.072741717100143433
0.81640231609344482 0.64316397905349731 0.084497489035129547
0.86222106218338013 0.65284967422485352 0.086261644959449768
0.88924860954284668 0.66001904010772705 0.064122065901756287
0.90487027168273926 0.67067998647689819 0.05126354843378067
0.91402095556259155 0.6781005859375 0.046888791024684906
0.044241677969694138 0.38513195514678955 0.20245271921157837
0.051193565130233765 0.40524750947952271 0.19977198541164398
0.055624809116125107 0.44113391637802124 0.19106166064739227
0.076079979538917542 0.49485939741134644 0.13405562937259674
0.20813675224781036 0.56385666131973267 0.063997246325016022
0.45872801542282104 0.62936604022979736 0.059521500021219254
0.63612139225006104 0.67505484819412231 0.058649443089962006
0.76700407266616821 0.70914506912231445 0.07473648339509964
0.84850335121154785 0.72902089357376099 0.10195893049240112
0.89431113004684448 0.73865902423858643 0.1109897717833519
0.92327284812927246 0.74909424781799316 0.08841811865568161
0.93841004371643066 0.75502884387969971 0.073027864098548889
0.94521939754486084 0.75885969400405884 0.072810769081115723
0.033469900488853455 0.41529068350791931 0.21488764882087708
0.022900659590959549 0.44234171509742737 0.21204075217247009
0.028625562787055969 0.48002001643180847 0.19901062548160553
0.060250494629144669 0.53518187999725342 0.13256581127643585
0.19946900010108948 0.60596895217895508 0.047863919287919998
0.47360959649085999 0.67426031827926636 0.043905820697546005
0.65618127584457397 0.72103077173233032 0.050555597990751266
0.7859615683555603 0.75889831781387329 0.071685075759887695
0.86941671371459961 0.78079169988632202 0.1023668646812439
0.91526216268539429 0.78976470232009888 0.12341015040874481
0.94167554378509521 0.79711014032363892 0.10973513871431351
0.95591753721237183 0.80239647626876831 0.10015149414539337
0.96349883079528809 0.80762332677841187 0.1010928601026535
0.02147330529987812 0.43530392646789551 0.22286064922809601
0.013096948154270649 0.46558940410614014 0.21950894594192505
0.032773438841104507 0.50587058067321777 0.20334309339523315
0.052906844764947891 0.56144469976425171 0.12970055639743805
0.22957710921764374 0.63275647163391113 0.043130282312631607
0.4894159734249115 0.70032542943954468 0.040778964757919312
0.67251479625701904 0.75236684083938599 0.044390823692083359
0.80161035060882568 0.78774255514144897 0.06033528596162796
0.88397377729415894 0.80859518051147461 0.090974368155002594
0.93125069141387939 0.8215298056602478 0.12111080437898636
0.95452320575714111 0.82654368877410889 0.12255267053842545
0.96802395582199097 0.82927614450454712 0.11035025864839554
0.97692090272903442 0.83313000202178955 0.10591722279787064
0.02147909440100193 0.45695027709007263 0.2352331280708313
0.0097732394933700562 0.49382138252258301 0.22869546711444855
0.023184757679700851 0.54028904438018799 0.20965529978275299
0.045611049979925156 0.5906720757484436 0.13702911138534546
0.24587306380271912 0.65868580341339111 0.02447529137134552
0.5071757435798645 0.7243274450302124 0.026117153465747833
0.68863028287887573 0.77334433794021606 0.047442566603422165
0.81406295299530029 0.80553209781646729 0.059859585016965866
0.89472407102584839 0.82579463720321655 0.079485036432743073
0.94325655698776245 0.8386426568031311 0.098430275917053223
0.96805119514465332 0.84502333402633667 0.10768480598926544
0.98085641860961914 0.84748345613479614 0.10654141008853912
0.98865765333175659 0.84910780191421509 0.10841146856546402
0.029346959665417671 0.49745070934295654 0.26210549473762512
0.0096213100478053093 0.54329162836074829 0.25120121240615845
0.017175232991576195 0.59032857418060303 0.21708442270755768
0.071496360003948212 0.63695859909057617 0.14661623537540436
0.30160126090049744 0.69435083866119385 0.043665282428264618
0.53643918037414551 0.74876463413238525 0.019530203193426132
0.70445990562438965 0.79253959655761719 0.037018943578004837
0.82588076591491699 0.82225942611694336 0.056782681494951248
0.90196460485458374 0.84015935659408569 0.079262480139732361
0.95227962732315063 0.85221892595291138 0.096071265637874603
0.97949939966201782 0.8590548038482666 0.11323811858892441
0.99012690782546997 0.86081337928771973 0.13180673122406006
0.99603390693664551 0.86159706115722656 0.14211547374725342
0.011770181357860565 0.024872679263353348 0.057058852165937424
0.026510156691074371 0.025907464325428009 0.058277834206819534
0.051394667476415634 0.032122310250997543 0.060023542493581772
0.106464684009552 0.044096898287534714 0.066671989858150482
0.17927758395671844 0.055674266070127487 0.068455517292022705
0.27500298619270325 0.061326432973146439 0.060792542994022369
0.3728783130645752 0.06610068678855896 0.042911291122436523
0.46080416440963745 0.069310940802097321 0.027030481025576591
0.53248822689056396 0.069876968860626221 0.019003400579094887
0.57440489530563354 0.073278628289699554 0.019003685563802719
0.59957218170166016 0.083187565207481384 0.022929321974515915
0.62063741683959961 0.080025196075439453 0.025084013119339943
0.63921511173248291 0.076997824013233185 0.040867313742637634
0.014348018914461136 0.035813722759485245 0.059537176042795181
0.028284993022680283 0.03888365626335144 0.063944905996322632
0.054671928286552429 0.048213914036750793 0.067813307046890259
0.10669350624084473 0.060014508664608002 0.06996232271194458
0.18507570028305054 0.072150103747844696 0.072355501353740692
0.2883293628692627 0.084306217730045319 0.06790740042924881
0.39166751503944397 0.092283554375171661 0.052466973662376404
0.48589879274368286 0.096687406301498413 0.041884344071149826
0.55446285009384155 0.095870494842529297 0.037579212337732315
0.6000373363494873 0.089171163737773895 0.031868129968643188
0.62813985347747803 0.094615638256072998 0.02760733850300312
0.64763724803924561 0.092860490083694458 0.030025452375411987
0.66310375928878784 0.086961157619953156 0.033914647996425629
0.021408500149846077 0.059062927961349487 0.067880623042583466
0.034111831337213516 0.06172516942024231 0.071214653551578522
0.060540758073329926 0.069881975650787354 0.075510896742343903
0.10639971494674683 0.080437682569026947 0.07598751038312912
0.19856241345405579 0.098307937383651733 0.078425467014312744
0.30703535676002502 0.11700930446386337 0.076420307159423828
0.41628891229629517 0.13255020976066589 0.071921341121196747
0.51644241809844971 0.13751184940338135 0.06751745194196701
0.58481478691101074 0.1418675035238266 0.062320411205291748
0.63226824998855591 0.1351008266210556 0.048912886530160904
0.66386067867279053 0.12690263986587524 0.038686387240886688
0.68327504396438599 0.13416068255901337 0.033247433602809906
0.69801068305969238 0.13358144462108612 0.031870942562818527
0.028716487810015678 0.094352126121520996 0.085845619440078735
0.040699634701013565 0.096386000514030457 0.086537636816501617
0.06720423698425293 0.106110580265522 0.087579198181629181
0.11011666804552078 0.12320291996002197 0.085826531052589417
0.20307230949401855 0.14406344294548035 0.088479317724704742
0.32979175448417664 0.17063073813915253 0.089486978948116302
0.45078235864639282 0.19177292287349701 0.089947596192359924
0.54921501874923706 0.19364047050476074 0.08764425665140152
0.62352174520492554 0.19382207095623016 0.079356789588928223
0.67471981048583984 0.19774197041988373 0.060220561921596527
0.70972484350204468 0.19478651881217957 0.042673762887716293
0.73083984851837158 0.19795644283294678 0.025505365803837776
0.74431687593460083 0.19159717857837677 0.014185363426804543
0.037798997014760971 0.14372098445892334 0.11162218451499939
