assets/lut/films colorslide lomography x-pro slide 200.cube
# Created by: G'MIC (https://gmic.eu)
TITLE "lomography_x-pro_slide_200"
# LUT size
LUT_3D_SIZE 13
# Data domain
DOMAIN_MIN 0.0 0.0 0.0
DOMAIN_MAX 1.0 1.0 1.0
# LUT data points
0.028125718235969543 0.028838273137807846 0.027323897927999496
0.075598366558551788 0.031331021338701248 0.028884558007121086
0.13167800009250641 0.035109397023916245 0.030625257641077042
0.19331173598766327 0.040393080562353134 0.031185958534479141
0.26436528563499451 0.045656315982341766 0.033596787601709366
0.34963428974151611 0.050002798438072205 0.038640264421701431
0.4522247314453125 0.057250242680311203 0.043296352028846741
0.56728518009185791 0.069963820278644562 0.046346269547939301
0.68401634693145752 0.08717983216047287 0.047148969024419785
0.79177790880203247 0.10837066918611526 0.048046860843896866
0.88017266988754272 0.13274404406547546 0.046635136008262634
0.94862633943557739 0.16544638574123383 0.039700169116258621
0.99528616666793823 0.20670698583126068 0.027904780581593513
0.056448783725500107 0.086477614939212799 0.045333083719015121
0.091810368001461029 0.091325782239437103 0.045661747455596924
0.14242094755172729 0.095870897173881531 0.047477707266807556
0.20376387238502502 0.10153382271528244 0.050306372344493866
0.27586197853088379 0.10813280194997787 0.051783721894025803
0.36193627119064331 0.11419106274843216 0.056280143558979034
0.46340847015380859 0.12257342040538788 0.060473185032606125
0.57549107074737549 0.13607399165630341 0.06305154412984848
0.68989711999893188 0.15393334627151489 0.065277785062789917
0.79499155282974243 0.175444096326828 0.0650506392121315
0.88197576999664307 0.20103824138641357 0.06145063042640686
0.9498172402381897 0.23394757509231567 0.053507979959249496
0.99564206600189209 0.27348268032073975 0.041492640972137451
0.091243818402290344 0.14739863574504852 0.065972544252872467
0.11671894788742065 0.15286895632743835 0.066212520003318787
0.15774522721767426 0.15888521075248718 0.068452246487140656
0.21707463264465332 0.16523180902004242 0.07056097686290741
0.29124563932418823 0.17198647558689117 0.073855273425579071
0.37747642397880554 0.17988143861293793 0.077120490372180939
0.4760168194770813 0.19050686061382294 0.079634949564933777
0.58437520265579224 0.20512562990188599 0.082145079970359802
0.69471555948257446 0.22332820296287537 0.083369418978691101
0.79616039991378784 0.24461686611175537 0.082631386816501617
0.88077020645141602 0.27030006051063538 0.078762248158454895
0.94761335849761963 0.30272966623306274 0.069554105401039124
0.99459147453308105 0.34089970588684082 0.056868802756071091
0.10611195117235184 0.22379489243030548 0.085436455905437469
0.12845993041992188 0.22708508372306824 0.086982607841491699
0.16662201285362244 0.23213745653629303 0.089141875505447388
0.22702756524085999 0.23819546401500702 0.091343730688095093
0.30410444736480713 0.24503828585147858 0.094348713755607605
0.3908233642578125 0.25334599614143372 0.097772009670734406
0.48776516318321228 0.26427242159843445 0.10046474635601044
0.59421348571777344 0.27938991785049438 0.10257279872894287
0.70210278034210205 0.29712128639221191 0.10345617681741714
0.80004549026489258 0.31767764687538147 0.10291028767824173
0.88098883628845215 0.34262171387672424 0.098706461489200592
0.94530540704727173 0.37386283278465271 0.088964872062206268
0.99250280857086182 0.41075468063354492 0.074922911822795868
0.097616665065288544 0.31798389554023743 0.10459525883197784
0.12405683100223541 0.31730255484580994 0.10760161280632019
0.16754572093486786 0.31887871026992798 0.11160328984260559
0.23383918404579163 0.32306680083274841 0.11348564177751541
0.31527048349380493 0.33053639531135559 0.11481031775474548
0.40356311202049255 0.33950972557067871 0.11807677149772644
0.50000911951065063 0.34941327571868896 0.12207086384296417
0.60632896423339844 0.36346569657325745 0.12395425140857697
0.71336472034454346 0.38020810484886169 0.12454731017351151
0.80737614631652832 0.39870977401733398 0.12354554980993271
0.88249671459197998 0.42153385281562805 0.11961662769317627
0.94170904159545898 0.45069998502731323 0.10943545401096344
0.98855215311050415 0.48595929145812988 0.093293316662311554
0.081284016370773315 0.42433196306228638 0.12674108147621155
0.11526903510093689 0.4211999773979187 0.13029041886329651
0.16792686283588409 0.41957363486289978 0.13505734503269196
0.24171754717826843 0.42272409796714783 0.13665966689586639
0.32752415537834167 0.43121445178985596 0.13634014129638672
0.4179319441318512 0.44187328219413757 0.13814628124237061
0.51544845104217529 0.45200690627098083 0.14139100909233093
0.6214216947555542 0.46285524964332581 0.14342692494392395
0.72648602724075317 0.47557574510574341 0.14388000965118408
0.81474697589874268 0.49131631851196289 0.1410929262638092
0.88204240798950195 0.5112108588218689 0.13594631850719452
0.93555498123168945 0.53680932521820068 0.12574400007724762
0.98101133108139038 0.56971228122711182 0.10781315714120865
0.073481783270835876 0.53705984354019165 0.15203380584716797
0.11514467746019363 0.53369921445846558 0.15472452342510223
0.1769380122423172 0.5318724513053894 0.15853029489517212
0.25513479113578796 0.53439390659332275 0.16023387014865875
0.34292739629745483 0.54312312602996826 0.15972290933132172
0.4354100227355957 0.55525767803192139 0.15964473783969879
0.53340709209442139 0.56571710109710693 0.16095495223999023
0.63626587390899658 0.5721205472946167 0.16294597089290619
0.73474705219268799 0.57999557256698608 0.16201919317245483
0.81561416387557983 0.59331399202346802 0.1561126708984375
0.87643182277679443 0.61110419034957886 0.14676044881343842
0.92594617605209351 0.63219755887985229 0.13440515100955963
0.9694209098815918 0.65782952308654785 0.11855147033929825
0.090090088546276093 0.64736253023147583 0.18261820077896118
0.13736839592456818 0.64413696527481079 0.18430450558662415
0.20462243258953094 0.64127641916275024 0.18749323487281799
0.28472411632537842 0.64323925971984863 0.1894383579492569
0.37190833687782288 0.65093356370925903 0.18936721980571747
0.4628354012966156 0.6625102162361145 0.18810327351093292
0.55704659223556519 0.67194056510925293 0.18790930509567261
0.65299075841903687 0.67455947399139404 0.18946661055088043
0.74091917276382446 0.67877912521362305 0.18754543364048004
0.8133806586265564 0.68850225210189819 0.17968294024467468
0.86996328830718994 0.70245236158370972 0.1679045706987381
0.91697913408279419 0.71889972686767578 0.15398287773132324
0.95906275510787964 0.73787099123001099 0.14071068167686462
0.14543899893760681 0.74429166316986084 0.22306613624095917
0.19581899046897888 0.74039363861083984 0.22425295412540436
0.26275581121444702 0.73630797863006592 0.2273586243391037
0.33905032277107239 0.73649859428405762 0.22966070473194122
0.42103132605552673 0.74146223068237305 0.23019477725028992
0.50645458698272705 0.74901658296585083 0.22935198247432709
0.59329968690872192 0.75467425584793091 0.22920016944408417
0.67742633819580078 0.7562946081161499 0.22938460111618042
0.75309789180755615 0.75825726985931396 0.22790622711181641
0.81659418344497681 0.76366299390792847 0.2219720184803009
0.86887884140014648 0.77262324094772339 0.21218301355838776
0.91293251514434814 0.78451544046401978 0.19970332086086273
0.95354312658309937 0.79801380634307861 0.18939243257045746
0.25198912620544434 0.81809210777282715 0.27886447310447693
0.29636824131011963 0.81458562612533569 0.27905464172363281
0.3536345362663269 0.81069481372833252 0.28157952427864075
0.41874712705612183 0.8096277117729187 0.28354424238204956
0.48944830894470215 0.81170392036437988 0.28457850217819214
0.56398940086364746 0.81485021114349365 0.28439861536026001
0.638843834400177 0.81706362962722778 0.28389587998390198
0.70930230617523193 0.81737959384918213 0.28388479351997375
0.77193546295166016 0.81791019439697266 0.2835099995136261
0.82640182971954346 0.81988131999969482 0.28111588954925537
0.8727683424949646 0.82449454069137573 0.27564412355422974
0.91396582126617432 0.83264303207397461 0.26638460159301758
0.95211666822433472 0.84274148941040039 0.25783786177635193
0.39688822627067566 0.86927980184555054 0.35163623094558716
0.42744052410125732 0.86846268177032471 0.34977614879608154
0.46760374307632446 0.86629676818847656 0.35020542144775391
0.51547151803970337 0.86552226543426514 0.3511083722114563
0.5691874623298645 0.86603975296020508 0.35181134939193726
0.62822872400283813 0.86677485704421997 0.35158535838127136
0.68819594383239746 0.86674624681472778 0.35086405277252197
0.74441605806350708 0.8659813404083252 0.35052639245986938
0.79505705833435059 0.86467820405960083 0.35048049688339233
0.83987337350845337 0.86405074596405029 0.35083404183387756
0.88014525175094604 0.86629492044448853 0.34965482354164124
0.91585135459899902 0.87157660722732544 0.34410819411277771
0.95192748308181763 0.88002997636795044 0.33684700727462769
0.54751163721084595 0.91053032875061035 0.43663915991783142
0.56516462564468384 0.91066175699234009 0.43238401412963867
0.58731698989868164 0.91070300340652466 0.42965883016586304
0.61632996797561646 0.91114217042922974 0.42863321304321289
0.65248054265975952 0.9114496111869812 0.42809703946113586
0.69399595260620117 0.91121131181716919 0.42727234959602356
0.73818612098693848 0.91034835577011108 0.4258914589881897
0.78110343217849731 0.90823304653167725 0.42436790466308594
0.82092225551605225 0.90666204690933228 0.42425671219825745
0.85706931352615356 0.90543913841247559 0.42599111795425415
0.89023011922836304 0.90629816055297852 0.42683559656143188
0.92146235704421997 0.90885496139526367 0.42536717653274536
0.95495837926864624 0.91618055105209351 0.42065820097923279
0.68281960487365723 0.94907253980636597 0.52469724416732788
0.69042545557022095 0.9496772289276123 0.51855498552322388
0.69938558340072632 0.95202600955963135 0.51322191953659058
0.71364742517471313 0.95308178663253784 0.51018929481506348
0.73433172702789307 0.9531862735748291 0.50843358039855957
0.76045256853103638 0.95317119359970093 0.5064932107925415
0.7909313440322876 0.95187842845916748 0.50398629903793335
0.82204562425613403 0.94953519105911255 0.50206536054611206
0.85185396671295166 0.94736570119857788 0.50146377086639404
0.88006949424743652 0.94571548700332642 0.50315362215042114
0.9070354700088501 0.94584041833877563 0.50472396612167358
0.93428003787994385 0.94875246286392212 0.50545030832290649
0.9653555154800415 0.95500791072845459 0.50257694721221924
0.027610555291175842 0.022916741669178009 0.068080037832260132
0.074822805821895599 0.028454126790165901 0.069317281246185303
0.1301950216293335 0.033052526414394379 0.070666790008544922
0.19071805477142334 0.0370345339179039 0.071678683161735535
0.2617136538028717 0.040409807115793228 0.074204735457897186
0.34755265712738037 0.044160805642604828 0.078551799058914185
0.45100146532058716 0.051063057035207748 0.08227519690990448
0.5678945779800415 0.062741100788116455 0.085008911788463593
0.68659454584121704 0.078159958124160767 0.087531670928001404
0.79484701156616211 0.097253970801830292 0.089687466621398926
0.88301652669906616 0.12279470264911652 0.08931463211774826
0.94955414533615112 0.16206258535385132 0.08195081353187561
0.99471914768218994 0.21150793135166168 0.069020532071590424
0.053990878164768219 0.081453390419483185 0.084989719092845917
0.090792231261730194 0.086697563529014587 0.085386715829372406
0.14093604683876038 0.091599814593791962 0.088064156472682953
0.20186986029148102 0.096526950597763062 0.089344233274459839
0.27489769458770752 0.10130399465560913 0.092694468796253204
0.36096778512001038 0.10725340247154236 0.095986276865005493
0.46235501766204834 0.11652334034442902 0.098137632012367249
0.57579159736633301 0.13005556166172028 0.10065057873725891
0.69154208898544312 0.14690963923931122 0.10255487263202667
0.7971111536026001 0.16738238930702209 0.10329694300889969
0.88425678014755249 0.19412142038345337 0.10078191012144089
0.95002526044845581 0.23188309371471405 0.092223584651947021
0.99485045671463013 0.27720439434051514 0.080005154013633728
0.087260030210018158 0.14401529729366302 0.10277639329433441
0.11428369581699371 0.1480766236782074 0.1044190526008606
0.155923992395401 0.15407995879650116 0.10623671859502792
0.21606510877609253 0.15959377586841583 0.10891095548868179
0.29177093505859375 0.16519257426261902 0.1130325049161911
0.37745478749275208 0.17397044599056244 0.11571036279201508
0.47568491101264954 0.18594038486480713 0.11605410277843475
0.58450329303741455 0.20111799240112305 0.11685265600681305
0.69575732946395874 0.2191539853811264 0.11965972185134888
0.79780703783035278 0.23963053524494171 0.11986242234706879
0.88280266523361206 0.2658141553401947 0.11529315263032913
0.94794028997421265 0.30087989568710327 0.10606653243303299
0.99428999423980713 0.34258875250816345 0.093750342726707458
0.10485917329788208 0.22074934840202332 0.11977475881576538
0.12493491172790527 0.22369392216205597 0.1218440905213356
0.16238726675510406 0.22913818061351776 0.1233791708946228
0.22474929690361023 0.2349967360496521 0.12514074146747589
0.30372345447540283 0.24146133661270142 0.12921206653118134
0.39087748527526855 0.249893918633461 0.13190852105617523
0.48770153522491455 0.26233285665512085 0.13351425528526306
0.59446746110916138 0.27734914422035217 0.13536456227302551
0.70347470045089722 0.2950623631477356 0.13852605223655701
0.80223804712295532 0.31435847282409668 0.13912418484687805
0.88344645500183105 0.33913293480873108 0.13418079912662506
0.94603204727172852 0.37244358658790588 0.12461023032665253
0.99225664138793945 0.41191980242729187 0.11154243350028992
0.095408633351325989 0.31473523378372192 0.13903138041496277
0.1184631809592247 0.31513327360153198 0.14078293740749359
0.16300953924655914 0.31782281398773193 0.14385014772415161
0.23267252743244171 0.32203328609466553 0.14577361941337585
0.3159630298614502 0.32873481512069702 0.14779341220855713
0.40461000800132751 0.33788996934890747 0.15114365518093109
0.50127172470092773 0.34973222017288208 0.15344488620758057
0.60761523246765137 0.36320281028747559 0.15579186379909515
0.71494358777999878 0.37795561552047729 0.15873487293720245
0.80978000164031982 0.39595639705657959 0.15879963338375092
0.88513588905334473 0.41992601752281189 0.15461187064647675
0.9432748556137085 0.45136058330535889 0.14437110722064972
0.98859381675720215 0.48886868357658386 0.13007117807865143
0.072531290352344513 0.42224550247192383 0.16218245029449463
0.10666628181934357 0.41993683576583862 0.1651456356048584
0.16345600783824921 0.41955509781837463 0.16880905628204346
0.24063916504383087 0.42255321145057678 0.17077028751373291
0.32843631505966187 0.42981657385826111 0.17100827395915985
0.41941958665847778 0.44075796008110046 0.17309786379337311
0.51788324117660522 0.45164304971694946 0.17567595839500427
0.62385046482086182 0.46230319142341614 0.17833247780799866
0.72799432277679443 0.47427019476890564 0.17947632074356079
0.81643617153167725 0.49062788486480713 0.17779254913330078
0.88408911228179932 0.51263761520385742 0.17132779955863953
0.93676578998565674 0.5409320592880249 0.16038745641708374
0.98115730285644531 0.57376176118850708 0.14611934125423431
0.05747038871049881 0.5372549295425415 0.18865658342838287
0.10136213153600693 0.53437477350234985 0.19078706204891205
0.16739392280578613 0.53332984447479248 0.19425378739833832
0.24972271919250488 0.53610479831695557 0.19597788155078888
0.34096446633338928 0.5436936616897583 0.19613626599311829
0.43684884905815125 0.55429548025131226 0.19687217473983765
0.53656136989593506 0.56382554769515991 0.19911125302314758
0.64001595973968506 0.57189261913299561 0.20130667090415955
0.73741787672042847 0.58086717128753662 0.20078611373901367
0.81749683618545532 0.59506809711456299 0.19515682756900787
0.87822854518890381 0.61373305320739746 0.18550476431846619
0.92723006010055542 0.63610494136810303 0.17401035130023956
0.9697730541229248 0.66148912906646729 0.16176088154315948
0.073473848402500153 0.64916354417800903 0.21951951086521149
0.12211990356445312 0.64708238840103149 0.22047485411167145
0.19220790266990662 0.64532613754272461 0.22348573803901672
0.27566120028495789 0.64772498607635498 0.22537727653980255
0.36714944243431091 0.65410900115966797 0.2263052761554718
0.46304288506507874 0.66245013475418091 0.22676469385623932
0.56166183948516846 0.6701819896697998 0.22802501916885376
0.65789639949798584 0.67615580558776855 0.22931981086730957
0.74472862482070923 0.68275028467178345 0.22764715552330017
0.81561028957366943 0.69308286905288696 0.22038167715072632
0.87161314487457275 0.70663785934448242 0.20938010513782501
0.91809910535812378 0.72194576263427734 0.19789551198482513
0.95983225107192993 0.73907947540283203 0.18813973665237427
0.13851362466812134 0.74479168653488159 0.25919070839881897
0.18662521243095398 0.74310219287872314 0.25961428880691528
0.25329551100730896 0.74074798822402954 0.2626679539680481
0.33125239610671997 0.74173378944396973 0.26527753472328186
0.41713196039199829 0.74548870325088501 0.26688680052757263
0.50792574882507324 0.75065970420837402 0.26768895983695984
0.59867161512374878 0.75524401664733887 0.268585205078125
0.68311834335327148 0.7588382363319397 0.26916658878326416
0.75710827112197876 0.76331609487533569 0.26757985353469849
0.81906425952911377 0.76918697357177734 0.26197820901870728
0.8696674108505249 0.77714294195175171 0.2530057430267334
0.91382592916488647 0.78716516494750977 0.24234972894191742
0.95391678810119629 0.79921150207519531 0.23416142165660858
0.25748506188392639 0.8170132040977478 0.31260746717453003
0.29723769426345825 0.81527566909790039 0.31251004338264465
0.35138478875160217 0.81363379955291748 0.3154483437538147
0.41645553708076477 0.81350076198577881 0.31838157773017883
0.48927444219589233 0.81454700231552124 0.32084566354751587
0.56740617752075195 0.81620407104492188 0.32207736372947693
0.64560878276824951 0.81783086061477661 0.32239845395088196
0.71570867300033569 0.8191874623298645 0.32248380780220032
0.77577883005142212 0.82151234149932861 0.32142063975334167
0.82776010036468506 0.82400500774383545 0.31876716017723083
0.87296551465988159 0.82819491624832153 0.31315875053405762
0.91427731513977051 0.83459186553955078 0.30509573221206665
0.95249378681182861 0.84362339973449707 0.29795911908149719
0.4098086953163147 0.86744904518127441 0.38060536980628967
0.43622449040412903 0.8674626350402832 0.38017523288726807
0.47252309322357178 0.86655408143997192 0.3820805549621582
0.51818621158599854 0.8663826584815979 0.38482493162155151
0.57210314273834229 0.86679953336715698 0.38771870732307434
0.63257712125778198 0.86684727668762207 0.38896363973617554
0.6940951943397522 0.86666738986968994 0.38886874914169312
0.74930113554000854 0.86653751134872437 0.38785514235496521
0.79740285873413086 0.86642313003540039 0.38666951656341553
0.84001827239990234 0.86711937189102173 0.38583612442016602
0.87887561321258545 0.86839097738265991 0.38400667905807495
0.9151948094367981 0.87297308444976807 0.37918850779533386
0.95196753740310669 0.88003498315811157 0.37302592396736145
0.56012952327728271 0.90918165445327759 0.46270942687988281
0.57496029138565063 0.90994769334793091 0.46097764372825623
0.59470522403717041 0.90983647108078003 0.46073475480079651
0.62138289213180542 0.91015493869781494 0.46208435297012329
0.65555739402770996 0.91064172983169556 0.46438756585121155
0.69701296091079712 0.91061842441558838 0.46496778726577759
0.74126225709915161 0.90975439548492432 0.46398568153381348
0.78296858072280884 0.90736240148544312 0.46125295758247375
0.82084375619888306 0.90674018859863281 0.45971935987472534
0.8555222749710083 0.90673166513442993 0.45973697304725647
0.88799422979354858 0.90674412250518799 0.46034413576126099
0.92005425691604614 0.90966039896011353 0.45912343263626099
0.95445054769515991 0.91694545745849609 0.45449823141098022
0.68892508745193481 0.94926470518112183 0.55076771974563599
0.69679528474807739 0.94926685094833374 0.54752600193023682
0.70521622896194458 0.94958949089050293 0.54482024908065796
0.71754735708236694 0.95069724321365356 0.54429465532302856
0.73581022024154663 0.95192569494247437 0.54510343074798584
0.76062661409378052 0.95191341638565063 0.54474508762359619
0.7902337908744812 0.95028221607208252 0.54203730821609497
0.82044452428817749 0.94887292385101318 0.53933250904083252
0.84912610054016113 0.94652551412582397 0.53688722848892212
0.87640833854675293 0.94554495811462402 0.53737086057662964
0.90331381559371948 0.94647347927093506 0.54045456647872925
0.93151175975799561 0.94978338479995728 0.53961181640625
0.96363133192062378 0.95634090900421143 0.53537285327911377
0.030528603121638298 0.021073538810014725 0.10991784185171127
0.076032288372516632 0.025694394484162331 0.11150670051574707
0.12928463518619537 0.030547302216291428 0.11308744549751282
0.18911206722259521 0.034472551196813583 0.11428659409284592
0.26085165143013 0.037368055433034897 0.11664891242980957
0.34808120131492615 0.041009761393070221 0.11961326003074646
0.45244717597961426 0.047809332609176636 0.12285879999399185
0.56935769319534302 0.058229200541973114 0.12655453383922577
0.68817079067230225 0.072485007345676422 0.13001544773578644
0.79552453756332397 0.092061124742031097 0.13241966068744659
0.88102942705154419 0.12219274044036865 0.13154935836791992
0.9450647234916687 0.16749049723148346 0.12384702265262604
0.99159574508666992 0.22074195742607117 0.11207724362611771
0.05391426756978035 0.078576363623142242 0.12538410723209381
0.090757988393306732 0.082785315811634064 0.12791143357753754
0.14031383395195007 0.08792799711227417 0.1299859881401062
0.19994057714939117 0.093033313751220703 0.13198795914649963
0.27323806285858154 0.097128190100193024 0.13534222543239594
0.36087381839752197 0.10301835089921951 0.13781209290027618
0.46306225657463074 0.11260139942169189 0.13987615704536438
0.57688158750534058 0.12567064166069031 0.14206479489803314
0.69229304790496826 0.14199705421924591 0.14451786875724792
0.79719632863998413 0.16270731389522552 0.1456746906042099
0.88224512338638306 0.1919531524181366 0.14239536225795746
0.94626128673553467 0.23389075696468353 0.13335603475570679
0.99246847629547119 0.28242361545562744 0.12148895114660263
0.085307098925113678 0.14060169458389282 0.14463135600090027
0.11230756342411041 0.14443221688270569 0.1465613842010498
0.15488530695438385 0.14986979961395264 0.14900681376457214
0.21474589407444 0.15477925539016724 0.15162429213523865
0.28954458236694336 0.1608646959066391 0.15546683967113495
0.37602102756500244 0.16997992992401123 0.1573728621006012
0.47525930404663086 0.18227975070476532 0.15759879350662231
0.58491212129592896 0.19771786034107208 0.15904416143894196
0.69631284475326538 0.21595437824726105 0.16119171679019928
0.79811853170394897 0.23583513498306274 0.16141986846923828
0.88207727670669556 0.26293623447418213 0.15719892084598541
0.94599783420562744 0.30007082223892212 0.14720529317855835
0.9922669529914856 0.34364688396453857 0.135348841547966
0.10604022443294525 0.21659678220748901 0.16307827830314636
0.12385324388742447 0.2203897088766098 0.16453900933265686
0.16288924217224121 0.2258656769990921 0.16694475710391998
0.22527147829532623 0.23075436055660248 0.16909749805927277
0.30253991484642029 0.23788309097290039 0.17222461104393005
0.39022263884544373 0.24703632295131683 0.1754036545753479
0.48760083317756653 0.25966775417327881 0.17652121186256409
0.59481066465377808 0.27482354640960693 0.17811638116836548
0.70380550622940063 0.29153424501419067 0.18110215663909912
0.80276894569396973 0.31050321459770203 0.18158261477947235
0.88380724191665649 0.33595368266105652 0.17715509235858917
0.94547677040100098 0.37018805742263794 0.16717754304409027
0.99130856990814209 0.41120243072509766 0.15531443059444427
0.095625661313533783 0.31020495295524597 0.1834719330072403
0.11763718724250793 0.31146252155303955 0.18612360954284668
0.16490064561367035 0.31505405902862549 0.18903881311416626
0.23544208705425262 0.31983062624931335 0.19130256772041321
0.31603395938873291 0.32713022828102112 0.19298022985458374
0.40455019474029541 0.33612549304962158 0.19583384692668915
