assets/lut/films print fuji 3513 constlmap.cube
# Created by: G'MIC (https://gmic.eu)
TITLE "fuji_3513_constlmap"
# LUT size
LUT_3D_SIZE 13
# Data domain
DOMAIN_MIN 0.0 0.0 0.0
DOMAIN_MAX 1.0 1.0 1.0
# LUT data points
0.012019049376249313 0.018113080412149429 0.021519111469388008
0.028922451660037041 0.027071110904216766 0.025233384221792221
0.052854664623737335 0.03267211839556694 0.023886647075414658
0.080843411386013031 0.036190945655107498 0.020012963563203812
0.14504647254943848 0.045514274388551712 0.01322441827505827
0.22444427013397217 0.057212229818105698 0.0065063927322626114
0.30432048439979553 0.070500798523426056 0.0068293404765427113
0.37499359250068665 0.080305270850658417 0.0087453052401542664
0.42740967869758606 0.085729889571666718 0.011315289884805679
0.46956762671470642 0.091018721461296082 0.012404393404722214
0.50579619407653809 0.096566051244735718 0.010542821139097214
0.52424496412277222 0.098041743040084839 0.013828292489051819
0.53200149536132812 0.10254050046205521 0.018766365945339203
0.019124932587146759 0.038871333003044128 0.02982717752456665
0.034505657851696014 0.04585680365562439 0.031507827341556549
0.059411201626062393 0.051204502582550049 0.030630448833107948
0.092088036239147186 0.055344108492136002 0.027675405144691467
0.16228094696998596 0.065397627651691437 0.019866256043314934
0.2502036988735199 0.081784896552562714 0.01336720772087574
0.32953295111656189 0.094480074942111969 0.010769548825919628
0.40192499756813049 0.10389015078544617 0.0095127178356051445
0.46507653594017029 0.11204779893159866 0.0071448530070483685
0.50718206167221069 0.11929815262556076 0.0086439540609717369
0.53520089387893677 0.12010840326547623 0.0078580370172858238
0.55582529306411743 0.12129751592874527 0.006907354574650526
0.56797534227371216 0.13106639683246613 0.013497685082256794
0.018782522529363632 0.065266974270343781 0.04190494492650032
0.028740663081407547 0.069309741258621216 0.041700638830661774
0.055445816367864609 0.076285481452941895 0.039620343595743179
0.099067032337188721 0.084658212959766388 0.033505860716104507
0.18405714631080627 0.10162347555160522 0.023552943021059036
0.27792105078697205 0.12047002464532852 0.016584118828177452
0.3637450635433197 0.13436603546142578 0.011734576895833015
0.43673849105834961 0.14245833456516266 0.00923182163387537
0.4990132749080658 0.14679506421089172 0.0065530664287507534
0.54679465293884277 0.15160858631134033 0.0050715426914393902
0.57810938358306885 0.16374796628952026 0.0052085276693105698
0.6000247597694397 0.17145149409770966 0.0063383514061570168
0.60937678813934326 0.17395107448101044 0.01035753171890974
0.016040980815887451 0.095993593335151672 0.055616237223148346
0.017953624948859215 0.10267579555511475 0.055077690631151199
0.035603735595941544 0.11292021721601486 0.051233075559139252
0.10286585241556168 0.13291025161743164 0.035077832639217377
0.2044735848903656 0.15402050316333771 0.017956513911485672
0.31018096208572388 0.16930830478668213 0.012707429938018322
0.40072917938232422 0.18020124733448029 0.0082162143662571907
0.47659644484519958 0.18858489394187927 0.0056708692573010921
0.54169553518295288 0.1983049213886261 0.0060559590347111225
0.59368044137954712 0.20572564005851746 0.0045813317410647869
0.62391340732574463 0.22110287845134735 0.0079973107203841209
0.6450657844543457 0.22879151999950409 0.0066380221396684647
0.65463858842849731 0.22550345957279205 0.0059581534005701542
0.013313353061676025 0.14119702577590942 0.074684217572212219
0.013658590614795685 0.15126803517341614 0.07468743622303009
0.019777784124016762 0.16109059751033783 0.064434975385665894
0.097527384757995605 0.18747578561306 0.033040858805179596
0.21426263451576233 0.21104192733764648 0.010529132559895515
0.33463552594184875 0.23489080369472504 0.007878023199737072
0.43405050039291382 0.245674729347229 0.0052875741384923458
0.51982182264328003 0.25700229406356812 0.0087082656100392342
0.59022581577301025 0.27021190524101257 0.012692544609308243
0.6398322582244873 0.27821671962738037 0.0087735792621970177
0.66781747341156006 0.28637790679931641 0.014058161526918411
0.69341927766799927 0.30019667744636536 0.0083517488092184067
0.70739829540252686 0.30823752284049988 0.0079375924542546272
0.010056992992758751 0.20211561024188995 0.10120136290788651
0.016108479350805283 0.21332432329654694 0.10107401013374329
0.019321605563163757 0.22655810415744781 0.0881219282746315
0.078014463186264038 0.25412315130233765 0.047239579260349274
0.22317014634609222 0.28720933198928833 0.013571152463555336
0.35922020673751831 0.31603333353996277 0.0048377392813563347
0.46785342693328857 0.33376213908195496 0.0053712134249508381
0.56163197755813599 0.35608384013175964 0.018304698169231415
0.63640743494033813 0.36526748538017273 0.026534225791692734
0.68698561191558838 0.36852565407752991 0.012762420810759068
0.71606820821762085 0.37670114636421204 0.011300105601549149
0.73740899562835693 0.38976594805717468 0.012322190217673779
0.75146663188934326 0.40193158388137817 0.012943926267325878
0.0043137194588780403 0.26509955525398254 0.12649551033973694
0.01301263552159071 0.27816095948219299 0.12655583024024963
0.020726386457681656 0.29190391302108765 0.11489374190568924
0.054050266742706299 0.32563847303390503 0.073913902044296265
0.22125747799873352 0.36686506867408752 0.025840967893600464
0.38415107131004333 0.40846401453018188 0.014338205568492413
0.50935614109039307 0.43852630257606506 0.0094780568033456802
0.61055135726928711 0.4632677435874939 0.014472497627139091
0.68461805582046509 0.47371262311935425 0.016722794622182846
0.73629659414291382 0.47371238470077515 0.0081314835697412491
0.76502335071563721 0.48182743787765503 0.012146998196840286
0.78212618827819824 0.48697346448898315 0.017571019008755684
0.79431343078613281 0.498890221118927 0.016449304297566414
0.0087222084403038025 0.32887369394302368 0.15037229657173157
0.013704681769013405 0.34293249249458313 0.14909361302852631
0.014193935319781303 0.36394032835960388 0.13540199398994446
0.04456615075469017 0.40038937330245972 0.087771110236644745
0.22312982380390167 0.45506468415260315 0.025146005675196648
0.40871620178222656 0.50541937351226807 0.030417708680033684
0.54422521591186523 0.53617990016937256 0.012064286507666111
0.65441763401031494 0.5638587474822998 0.0078800870105624199
0.73156458139419556 0.57582700252532959 0.010103113949298859
0.78650373220443726 0.58315801620483398 0.0071650785394012928
0.8108561635017395 0.58686816692352295 0.016752339899539948
0.83152115345001221 0.59576594829559326 0.020078921690583229
0.84846985340118408 0.60958874225616455 0.016800105571746826
0.014309393242001534 0.38232848048210144 0.16908401250839233
0.012957719154655933 0.39827284216880798 0.16598999500274658
0.0077915266156196594 0.42166447639465332 0.15449999272823334
0.048792324960231781 0.46508058905601501 0.10131571441888809
0.23982009291648865 0.52453994750976562 0.023833556100726128
0.42696359753608704 0.57706624269485474 0.012719562277197838
0.57004743814468384 0.61495840549468994 0.0059099085628986359
0.68541759252548218 0.64530861377716064 0.0063867010176181793
0.76203179359436035 0.65738558769226074 0.024452269077301025
0.82225149869918823 0.66876423358917236 0.025444315746426582
0.8508152961730957 0.67357957363128662 0.027753477916121483
0.87395191192626953 0.68607300519943237 0.030348759144544601
0.89523416757583618 0.69993793964385986 0.036153126507997513
0.01008161623030901 0.41360655426979065 0.18334528803825378
0.014620567671954632 0.4296930730342865 0.17994113266468048
0.021214384585618973 0.45719903707504272 0.16665191948413849
0.065420664846897125 0.5076490044593811 0.10564079880714417
0.25005879998207092 0.56790626049041748 0.021879203617572784
0.4421638548374176 0.62424474954605103 0.0062450184486806393
0.59074139595031738 0.66789650917053223 0.0048706801608204842
0.70590871572494507 0.6965034008026123 0.015444482676684856
0.78800004720687866 0.71603274345397949 0.044322114437818527
0.84999293088912964 0.73010540008544922 0.056901071220636368
0.88185334205627441 0.73584455251693726 0.052199330180883408
0.90396064519882202 0.74379700422286987 0.055455584079027176
0.92326396703720093 0.75361436605453491 0.064795896410942078
0.010811271145939827 0.43791678547859192 0.19788520038127899
0.012127026915550232 0.45502051711082458 0.19055558741092682
0.026956295594573021 0.48608165979385376 0.16941969096660614
0.068758271634578705 0.53892803192138672 0.10891725122928619
0.27176448702812195 0.60304862260818481 0.039715155959129333
0.46151649951934814 0.6561015248298645 0.01976693794131279
0.60467785596847534 0.69776368141174316 0.011338267475366592
0.72127836942672729 0.73004889488220215 0.020274652168154716
0.81302928924560547 0.75586211681365967 0.057920988649129868
0.8766292929649353 0.76818341016769409 0.077291809022426605
0.90735113620758057 0.77193838357925415 0.070760540664196014
0.9249885082244873 0.77697944641113281 0.072606600821018219
0.93732666969299316 0.78253024816513062 0.07665570080280304
0.028725104406476021 0.46161594986915588 0.21329008042812347
0.014942019246518612 0.48960989713668823 0.20054231584072113
0.02225932665169239 0.52173250913619995 0.16670642793178558
0.070486985146999359 0.57431089878082275 0.083714455366134644
0.28247267007827759 0.63527339696884155 0.022826042026281357
0.47747102379798889 0.68298321962356567 0.022506458684802055
0.62861233949661255 0.72585588693618774 0.014090070500969887
0.7489316463470459 0.75921595096588135 0.028468800708651543
0.83454990386962891 0.78210490942001343 0.058163318783044815
0.89196580648422241 0.79173779487609863 0.078029721975326538
0.92662841081619263 0.79791158437728882 0.082601629197597504
0.9436454176902771 0.80328267812728882 0.087380081415176392
0.95303583145141602 0.80651712417602539 0.090785294771194458
0.015440577641129494 0.49932736158370972 0.23601849377155304
0.012992290779948235 0.54290562868118286 0.22050172090530396
0.029384538531303406 0.58273947238922119 0.17347675561904907
0.13555522263050079 0.62550204992294312 0.074409171938896179
0.33964872360229492 0.67666250467300415 0.022141983732581139
0.51164233684539795 0.71562469005584717 0.022954335436224937
0.65162700414657593 0.75234580039978027 0.012012152932584286
0.76991307735443115 0.78020894527435303 0.034521739929914474
0.8630104660987854 0.80595660209655762 0.065796151757240295
0.91749203205108643 0.81536591053009033 0.082360275089740753
0.95534259080886841 0.82379180192947388 0.091408871114253998
0.97263133525848389 0.82911783456802368 0.10564865171909332
0.97335666418075562 0.82735782861709595 0.12311258912086487
0.010727572254836559 0.02178376168012619 0.028954209759831429
0.022780129685997963 0.02577788382768631 0.027422273531556129
0.052537102252244949 0.032458003610372543 0.030433161184191704
0.085485897958278656 0.037041112780570984 0.030531624332070351
0.15382258594036102 0.046865709125995636 0.024519078433513641
0.2456519603729248 0.060121797025203705 0.015726126730442047
0.31739896535873413 0.068119481205940247 0.013484715484082699
0.39089152216911316 0.073644243180751801 0.011415429413318634
0.45235002040863037 0.076382823288440704 0.0133908586576581
0.49492964148521423 0.082092449069023132 0.011904039420187473
0.52975022792816162 0.085317440330982208 0.018781714141368866
0.54833972454071045 0.081917405128479004 0.023572301492094994
0.55589944124221802 0.088617868721485138 0.028591141104698181
0.018177226185798645 0.041181527078151703 0.037426669150590897
0.030142795294523239 0.045937094837427139 0.037261962890625
0.059671469032764435 0.053414933383464813 0.038845181465148926
0.097792498767375946 0.05811634287238121 0.037845700979232788
0.16757705807685852 0.065674968063831329 0.028751807287335396
0.26186683773994446 0.077949240803718567 0.016701972112059593
0.34379085898399353 0.093592658638954163 0.02311338484287262
0.42170554399490356 0.1014157310128212 0.015001573599874973
0.48647430539131165 0.10475975275039673 0.0071423398330807686
0.53037923574447632 0.10978023707866669 0.012282831594347954
0.5593293309211731 0.11428427696228027 0.017415154725313187
0.58216750621795654 0.10988853126764297 0.014394902624189854
0.59274053573608398 0.11957848072052002 0.025355171412229538
0.020735930651426315 0.067458130419254303 0.050173711031675339
0.02885538712143898 0.070144057273864746 0.048938166350126266
0.059878915548324585 0.078226275742053986 0.048294607549905777
0.1065155491232872 0.087130226194858551 0.044268693774938583
0.18925657868385315 0.10131677240133286 0.035008374601602554
0.28940227627754211 0.12010869383811951 0.024114871397614479
0.37743690609931946 0.13482247292995453 0.029287539422512054
0.4595285952091217 0.1443696916103363 0.028965745121240616
0.52767395973205566 0.14546149969100952 0.020275041460990906
0.57869178056716919 0.14285130798816681 0.010451926849782467
0.60702759027481079 0.15290826559066772 0.0091152414679527283
0.62712198495864868 0.15525378286838531 0.0095373261719942093
0.63549578189849854 0.1656789630651474 0.023191250860691071
0.018452947959303856 0.1027166023850441 0.069381117820739746
0.024508517235517502 0.10645119100809097 0.065683655440807343
0.047291774302721024 0.11274789273738861 0.05980975553393364
0.1079256534576416 0.13173113763332367 0.050398539751768112
0.20840632915496826 0.15083125233650208 0.034304331988096237
0.31434634327888489 0.16477750241756439 0.020226901397109032
0.41155755519866943 0.18108983337879181 0.02624225988984108
0.49883344769477844 0.19391767680644989 0.029674708843231201
0.57319241762161255 0.20502524077892303 0.021459795534610748
0.62568265199661255 0.20213490724563599 0.01023706141859293
0.6540258526802063 0.20989686250686646 0.0072303921915590763
0.6711658239364624 0.21877706050872803 0.0051107220351696014
0.67960697412490845 0.22299520671367645 0.013605229556560516
0.019012331962585449 0.15018391609191895 0.08942229300737381
0.024991128593683243 0.15602222084999084 0.085615105926990509
0.034126970916986465 0.16545532643795013 0.075558893382549286
0.096493005752563477 0.19268627464771271 0.056225869804620743
0.21570964157581329 0.21761159598827362 0.035640880465507507
0.34009623527526855 0.23380471765995026 0.02232036180794239
0.44720786809921265 0.25179126858711243 0.030742166563868523
0.54204130172729492 0.26680818200111389 0.032497420907020569
0.6209527850151062 0.2778795063495636 0.015281333588063717
0.67201846837997437 0.28384700417518616 0.012046978808939457
0.70091253519058228 0.29086688160896301 0.011140277609229088
0.71843564510345459 0.30061650276184082 0.0049693537876009941
0.73014479875564575 0.30864939093589783 0.0083606196567416191
0.017706029117107391 0.21274015307426453 0.11391408741474152
0.026476092636585236 0.21870283782482147 0.11108072102069855
0.02951284684240818 0.23749695718288422 0.097784392535686493
0.065277725458145142 0.26024678349494934 0.068735755980014801
0.2171119898557663 0.29440712928771973 0.038967791944742203
0.36650145053863525 0.32394233345985413 0.035181831568479538
0.4833739697933197 0.34263235330581665 0.04037824273109436
0.58369284868240356 0.36241462826728821 0.049317903816699982
0.66404217481613159 0.37774169445037842 0.040459815412759781
0.71869277954101562 0.3832002580165863 0.02833341620862484
0.74985861778259277 0.38669908046722412 0.011482762172818184
0.77182185649871826 0.40461310744285583 0.007684370968490839
0.78380054235458374 0.41693565249443054 0.010244601406157017
0.0064713424071669579 0.27941709756851196 0.14239694178104401
0.023713519796729088 0.29031491279602051 0.14134855568408966
0.041406460106372833 0.30987560749053955 0.13257570564746857
0.059902999550104141 0.33778867125511169 0.09494413435459137
0.22620433568954468 0.38325345516204834 0.056277643889188766
0.39374211430549622 0.42192623019218445 0.053768053650856018
0.52146834135055542 0.44959399104118347 0.051854662597179413
0.62926900386810303 0.47229442000389099 0.053746003657579422
0.70731478929519653 0.48701846599578857 0.053167980164289474
0.76710206270217896 0.49376764893531799 0.042321972548961639
0.80212169885635376 0.50271618366241455 0.02122650109231472
0.82243132591247559 0.51144778728485107 0.014176253229379654
0.83189541101455688 0.52208000421524048 0.012164845131337643
0.0080425487831234932 0.34225127100944519 0.16856375336647034
0.026296338066458702 0.35526663064956665 0.1667034775018692
0.049306996166706085 0.37626251578330994 0.15852853655815125
0.059659350663423538 0.41694158315658569 0.11677657812833786
0.23335602879524231 0.47146099805831909 0.068606927990913391
0.41598314046859741 0.51646643877029419 0.064725689589977264
0.55531477928161621 0.54983925819396973 0.058855392038822174
0.67125999927520752 0.57848340272903442 0.058608576655387878
0.75346958637237549 0.59385901689529419 0.055298209190368652
0.81347823143005371 0.60277915000915527 0.045707836747169495
0.84764683246612549 0.61161226034164429 0.025970937684178352
0.866382896900177 0.61966639757156372 0.022643549367785454
0.87613219022750854 0.62610507011413574 0.019879823550581932
0.015984838828444481 0.39349022507667542 0.18833799660205841
0.020002612844109535 0.40879324078559875 0.18543796241283417
0.028245948255062103 0.43370595574378967 0.17539045214653015
0.049028582870960236 0.48137259483337402 0.12521858513355255
0.23494440317153931 0.54168975353240967 0.056746583431959152
0.43535485863685608 0.5919225811958313 0.053109470754861832
0.58173167705535889 0.63105016946792603 0.056785687804222107
0.7039414644241333 0.6627802848815918 0.0650620236992836
0.78879475593566895 0.67824912071228027 0.076051898300647736
0.8486132025718689 0.68859905004501343 0.070385068655014038
0.88476204872131348 0.69714421033859253 0.047282245010137558
0.90327805280685425 0.70755338668823242 0.043423939496278763
0.91510266065597534 0.71522682905197144 0.047732889652252197
0.018284697085618973 0.4282967746257782 0.20580922067165375
0.015568751841783524 0.44335976243019104 0.20295912027359009
0.012372334487736225 0.47427457571029663 0.1878013014793396
0.043174728751182556 0.52493256330490112 0.12638035416603088
0.22746847569942474 0.58973300457000732 0.027968911454081535
0.4486842155456543 0.64417183399200439 0.021365432068705559
0.60387653112411499 0.68599843978881836 0.048616655170917511
0.72750020027160645 0.71725630760192871 0.080418653786182404
0.81589591503143311 0.73711776733398438 0.10684356838464737
0.87489414215087891 0.74953973293304443 0.10824248194694519
0.91123318672180176 0.7560269832611084 0.093838483095169067
0.93056982755661011 0.76405161619186401 0.079003199934959412
0.94274431467056274 0.76915633678436279 0.074175909161567688
0.01780732162296772 0.45492994785308838 0.22984947264194489
0.0095371771603822708 0.4686257541179657 0.22097721695899963
0.01538798026740551 0.50318002700805664 0.20244108140468597
0.045868504792451859 0.55610525608062744 0.13797008991241455
0.23585180938243866 0.62220221757888794 0.035817913711071014
0.46254909038543701 0.67748391628265381 0.021527517586946487
0.61910182237625122 0.72090637683868408 0.031483564525842667
0.74637687206268311 0.75213783979415894 0.054636549204587936
0.83821201324462891 0.77370470762252808 0.08546815812587738
0.90052253007888794 0.78760945796966553 0.10300637036561966
0.9346124529838562 0.79508513212203979 0.10286865383386612
0.95376253128051758 0.79969209432601929 0.089906327426433563
0.96321994066238403 0.80193608999252319 0.086148880422115326
0.02516670897603035 0.48300063610076904 0.26053029298782349
0.015945419669151306 0.50801891088485718 0.249996617436409
0.0188459362834692 0.53928571939468384 0.22667306661605835
0.033826086670160294 0.59537392854690552 0.14808735251426697
0.22880584001541138 0.65785038471221924 0.040807012468576431
0.47372180223464966 0.70887655019760132 0.026413112878799438
0.63734370470046997 0.74992221593856812 0.035818975418806076
0.76757538318634033 0.78140813112258911 0.039999015629291534
0.86136043071746826 0.80245316028594971 0.069486208260059357
0.92304366827011108 0.81537991762161255 0.09584440290927887
0.95587801933288574 0.82235223054885864 0.099643692374229431
0.97416824102401733 0.82632911205291748 0.10338703542947769
0.97923034429550171 0.82749766111373901 0.11703632026910782
0.023540152236819267 0.52436566352844238 0.2988230288028717
0.031741902232170105 0.56368005275726318 0.29141032695770264
0.017581190913915634 0.59944945573806763 0.26245486736297607
0.055653411895036697 0.64655101299285889 0.19435976445674896
0.27760744094848633 0.70462638139724731 0.097908452153205872
0.50147360563278198 0.75064140558242798 0.087018854916095734
0.65864193439483643 0.78026670217514038 0.077155500650405884
0.78677284717559814 0.80675262212753296 0.06060931459069252
0.88623476028442383 0.82976788282394409 0.068391434848308563
0.94995599985122681 0.84151148796081543 0.099456727504730225
0.97830569744110107 0.8459438681602478 0.1274569034576416
0.99044477939605713 0.84894567728042603 0.16334995627403259
0.99040979146957397 0.85052889585494995 0.21442003548145294
0.012557175941765308 0.032529734075069427 0.051443524658679962
0.021341016516089439 0.030659619718790054 0.052728001028299332
0.052258078008890152 0.034242205321788788 0.055832028388977051
0.093287646770477295 0.039285697042942047 0.055561620742082596
0.160047248005867 0.04559122771024704 0.053341329097747803
0.2552049458026886 0.055235080420970917 0.050896123051643372
0.33592283725738525 0.061146814376115799 0.051637403666973114
0.41166418790817261 0.059001848101615906 0.04861864447593689
0.47843214869499207 0.051390301436185837 0.04568544402718544
0.52660322189331055 0.048147358000278473 0.045446988195180893
0.55470865964889526 0.045459955930709839 0.047025598585605621
0.57465440034866333 0.032949037849903107 0.044850710779428482
0.58417671918869019 0.039018876850605011 0.058242257684469223
0.018346136435866356 0.048723887652158737 0.058146920055150986
0.029765903949737549 0.048818491399288177 0.058905448764562607
0.059804730117321014 0.05485139787197113 0.06195538118481636
0.10220636427402496 0.060727018862962723 0.062833525240421295
0.1770692765712738 0.071211844682693481 0.064992316067218781
0.27630195021629333 0.082757942378520966 0.062421970069408417
0.36365041136741638 0.093930140137672424 0.063614517450332642
0.44557881355285645 0.097936950623989105 0.058819744735956192
0.51500964164733887 0.092586547136306763 0.050142820924520493
0.56571191549301147 0.083607964217662811 0.039236690849065781
0.5935547947883606 0.074471145868301392 0.037020977586507797
0.61632037162780762 0.069616906344890594 0.025624234229326248
0.62775725126266479 0.068134427070617676 0.050557050853967667
0.020370662212371826 0.074193082749843597 0.071698777377605438
0.033879596740007401 0.075996503233909607 0.0723906010389328
0.062854304909706116 0.082591034471988678 0.074124202132225037
0.11555292457342148 0.092846795916557312 0.075506620109081268
0.2006555050611496 0.10742130875587463 0.075057022273540497
0.30080252885818481 0.12381766736507416 0.072365075349807739
0.3983248770236969 0.13997761905193329 0.074815727770328522
0.48374980688095093 0.14428345859050751 0.073293901979923248
0.55635964870452881 0.14005683362483978 0.057213697582483292
0.61456900835037231 0.12611182034015656 0.02780119888484478
0.6436992883682251 0.11807728558778763 0.019949864596128464
0.66424310207366943 0.11446113139390945 0.018392225727438927
0.67761540412902832 0.10775293409824371 0.043347153812646866
0.017337977886199951 0.11014144122600555 0.091737933456897736
0.032462280243635178 0.11545549333095551 0.093599922955036163
0.059402331709861755 0.12175872176885605 0.093628764152526855
0.11633665859699249 0.13864320516586304 0.089883245527744293
0.21500615775585175 0.15827716886997223 0.082057088613510132
0.32801526784896851 0.17636841535568237 0.07680346816778183
0.43268841505050659 0.19537411630153656 0.083367370069026947
0.52744108438491821 0.20227986574172974 0.081091895699501038
0.60540509223937988 0.20426547527313232 0.060713764280080795
0.658519446849823 0.19109292328357697 0.032845634967088699
0.69316983222961426 0.18552380800247192 0.015253209508955479
0.7140381932258606 0.18715520203113556 0.01579965278506279
0.72376453876495361 0.19106349349021912 0.029992870986461639
