assets/lut/films colorslide kodak ektachrome 100 vs.cube
# Created by: G'MIC (https://gmic.eu)
TITLE "kodak_ektachrome_100_vs"
# LUT size
LUT_3D_SIZE 13
# Data domain
DOMAIN_MIN 0.0 0.0 0.0
DOMAIN_MAX 1.0 1.0 1.0
# LUT data points
0.013383648358285427 0.0070729721337556839 0.0088518178090453148
0.041510846465826035 0.0057036755606532097 0.0082126092165708542
0.092430084943771362 0.0081474455073475838 0.0063968733884394169
0.17099043726921082 0.0095175802707672119 0.0038251390215009451
0.26585808396339417 0.0095183132216334343 0.0022671569604426622
0.36700299382209778 0.0095472894608974457 0.0024655212182551622
0.47187164425849915 0.0088290050625801086 0.0030994191765785217
0.57644122838973999 0.005072485189884901 0.0020769007969647646
0.67693835496902466 0.00044216081732884049 8.7902590166777372e-05
0.77501022815704346 0 0
0.87038588523864746 0 0
0.96004027128219604 0 0
1 0 0
0.031970035284757614 0.051742404699325562 0.02617156133055687
0.06390487402677536 0.048022549599409103 0.021094303578138351
0.12526059150695801 0.047160502523183823 0.013987851329147816
0.20594985783100128 0.048286393284797668 0.0095216641202569008
0.2958771288394928 0.049345113337039948 0.0059998906217515469
0.39164388179779053 0.047147981822490692 0.0029296425636857748
0.49163615703582764 0.041501421481370926 0.00089932611444965005
0.59160178899765015 0.031921073794364929 8.2756494521163404e-05
0.68999695777893066 0.016193509101867676 0
0.78734266757965088 0.0025556974578648806 0
0.88339400291442871 0 0
0.97141158580780029 0 0
1 0 0
0.059822142124176025 0.12314309179782867 0.057047031819820404
0.096557393670082092 0.12264401465654373 0.051461491733789444
0.15708179771900177 0.12174839526414871 0.044152848422527313
0.23424425721168518 0.12029221653938293 0.036128472536802292
0.32098788022994995 0.11754231154918671 0.026255948469042778
0.41409969329833984 0.11007954925298691 0.014549314975738525
0.50989985466003418 0.098845988512039185 0.0060244840569794178
0.60573852062225342 0.084550268948078156 0.0030967413913458586
0.70130723714828491 0.064421109855175018 0.001649953774176538
0.79781758785247803 0.038544375449419022 0.00059132295427843928
0.89383763074874878 0.014342408627271652 0.00032896152697503567
0.97920036315917969 0.004520835354924202 0.00053203804418444633
1 0.0069641112349927425 0.0024613323621451855
0.093435950577259064 0.21418656408786774 0.098096825182437897
0.13747137784957886 0.21437188982963562 0.0948067307472229
0.1899958997964859 0.21476666629314423 0.08919467031955719
0.26069045066833496 0.21176800131797791 0.07789573073387146
0.34538730978965759 0.2067200094461441 0.062780730426311493
0.43668061494827271 0.19713474810123444 0.046145554631948471
0.52895230054855347 0.18301917612552643 0.032957624644041061
0.62098520994186401 0.16622944176197052 0.027792807668447495
0.71353930234909058 0.14404360949993134 0.025647003203630447
0.80778127908706665 0.11477263271808624 0.022122940048575401
0.90176528692245483 0.083013333380222321 0.019345736131072044
0.98295336961746216 0.06215934082865715 0.020976467058062553
1 0.064178645610809326 0.029046241194009781
0.12082585692405701 0.31090685725212097 0.13604484498500824
0.16452197730541229 0.31090685725212097 0.13228802382946014
0.22026422619819641 0.31007048487663269 0.12790380418300629
0.29113474488258362 0.30700778961181641 0.11866679787635803
0.37428545951843262 0.30351006984710693 0.10380346328020096
0.46282905340194702 0.29675355553627014 0.088663764297962189
0.55116254091262817 0.28487995266914368 0.075801849365234375
0.63859528303146362 0.26928159594535828 0.069364644587039948
0.726909339427948 0.24944311380386353 0.067711547017097473
0.81742501258850098 0.22175303101539612 0.066335506737232208
0.9062575101852417 0.18943911790847778 0.065089881420135498
0.98215222358703613 0.16557994484901428 0.067336000502109528
1 0.15883691608905792 0.073688611388206482
0.17208491265773773 0.40741422772407532 0.16428355872631073
0.2099902331829071 0.40741422772407532 0.16111618280410767
0.26379507780075073 0.4059634804725647 0.15737782418727875
0.33164197206497192 0.40349265933036804 0.15015889704227448
0.40968042612075806 0.40139627456665039 0.13824975490570068
0.49229693412780762 0.39697003364562988 0.12518033385276794
0.57576245069503784 0.38894030451774597 0.11416254937648773
0.65898609161376953 0.37856072187423706 0.1081843376159668
0.74299991130828857 0.36476996541023254 0.10826218873262405
0.82854080200195312 0.34231889247894287 0.10917937010526657
0.91112494468688965 0.31248414516448975 0.11125669628381729
0.98023897409439087 0.28715646266937256 0.11684413254261017
1 0.2740723192691803 0.12342436611652374
0.25091859698295593 0.50226455926895142 0.18616889417171478
0.27941551804542542 0.50225907564163208 0.1845831573009491
0.32393339276313782 0.50054782629013062 0.18122375011444092
0.38289281725883484 0.49970421195030212 0.17513658106327057
0.45190417766571045 0.49718192219734192 0.16571433842182159
0.52692365646362305 0.4944254457950592 0.15329553186893463
0.60504418611526489 0.48930281400680542 0.14141596853733063
0.68483173847198486 0.48296245932579041 0.13434068858623505
0.765453040599823 0.47453433275222778 0.13356368243694305
0.84527784585952759 0.45807608962059021 0.13717405498027802
0.9194793701171875 0.43397343158721924 0.14666479825973511
0.97787415981292725 0.41050088405609131 0.16029027104377747
1 0.39472624659538269 0.1704353541135788
0.33348235487937927 0.59434860944747925 0.2106882780790329
0.35470563173294067 0.59437543153762817 0.20993371307849884
0.38976374268531799 0.59344756603240967 0.20716579258441925
0.43888232111930847 0.59192746877670288 0.20177407562732697
0.49883320927619934 0.59101921319961548 0.19270111620426178
0.56634092330932617 0.58872240781784058 0.17918357253074646
0.63985520601272583 0.58473199605941772 0.16270670294761658
0.71674728393554688 0.58064097166061401 0.15057103335857391
0.79501843452453613 0.57535356283187866 0.14615979790687561
0.87066656351089478 0.56459498405456543 0.1498771458864212
0.93585044145584106 0.54624396562576294 0.16698840260505676
0.97970491647720337 0.52640396356582642 0.19253189861774445
0.99913382530212402 0.5120503306388855 0.20863041281700134
0.40910592675209045 0.68406641483306885 0.24203187227249146
0.42604479193687439 0.6841161847114563 0.24211791157722473
0.45470035076141357 0.68302434682846069 0.23935511708259583
0.49649685621261597 0.68163555860519409 0.23409761488437653
0.54883438348770142 0.68163573741912842 0.22502027451992035
0.60972630977630615 0.68051284551620483 0.20928707718849182
0.67789292335510254 0.67743074893951416 0.18823334574699402
0.75194847583770752 0.67413508892059326 0.17040543258190155
0.82984024286270142 0.67114776372909546 0.15881918370723724
0.90463989973068237 0.66367250680923462 0.1555292010307312
0.9617774486541748 0.64956855773925781 0.17263133823871613
0.99024796485900879 0.63316118717193604 0.20709425210952759
0.9994206428527832 0.62079554796218872 0.22956152260303497
0.48480919003486633 0.77187889814376831 0.27825412154197693
0.49777749180793762 0.77221018075942993 0.2784731388092041
0.52181637287139893 0.77057546377182007 0.27571806311607361
0.55858969688415527 0.76870429515838623 0.2702232301235199
0.60454702377319336 0.76880162954330444 0.26070845127105713
0.65814769268035889 0.77001762390136719 0.24557916820049286
0.71863859891891479 0.76888751983642578 0.22535701096057892
0.78749799728393555 0.76670324802398682 0.20581541955471039
0.86391770839691162 0.76356524229049683 0.18490517139434814
0.93865752220153809 0.75824135541915894 0.16664363443851471
0.98871582746505737 0.74861884117126465 0.17122642695903778
0.99963468313217163 0.73633450269699097 0.20174165070056915
1 0.72608393430709839 0.22277666628360748
0.56825894117355347 0.8573799729347229 0.3131079375743866
0.57910603284835815 0.85883748531341553 0.31357571482658386
0.60040593147277832 0.85713547468185425 0.31093883514404297
0.63233816623687744 0.85340797901153564 0.30546426773071289
0.67187726497650146 0.85215681791305542 0.29643145203590393
0.71634989976882935 0.85490107536315918 0.28324028849601746
0.76592779159545898 0.8578181266784668 0.26842007040977478
0.82568114995956421 0.85582447052001953 0.25217783451080322
0.89487922191619873 0.8519628643989563 0.22878669202327728
0.95845627784729004 0.8493226170539856 0.20296658575534821
0.99580031633377075 0.84556800127029419 0.19203908741474152
1 0.83881652355194092 0.19908563792705536
1 0.83088940382003784 0.2041732519865036
0.66528236865997314 0.93918275833129883 0.34036818146705627
0.67476034164428711 0.94236338138580322 0.34213730692863464
0.69386142492294312 0.94092196226119995 0.34010589122772217
0.72147828340530396 0.93412339687347412 0.33627563714981079
0.75504112243652344 0.92976510524749756 0.32905226945877075
0.7891380786895752 0.93394869565963745 0.31897145509719849
0.82660502195358276 0.94122171401977539 0.30779793858528137
0.87706893682479858 0.93922197818756104 0.29611122608184814
0.93335962295532227 0.9315909743309021 0.27956423163414001
0.97387570142745972 0.93230366706848145 0.25804516673088074
0.99405550956726074 0.93580532073974609 0.23941102623939514
0.99994868040084839 0.93297165632247925 0.22139297425746918
1 0.92685043811798096 0.20601190626621246
0.77460658550262451 0.99694621562957764 0.35815268754959106
0.78277885913848877 0.99779176712036133 0.36188077926635742
0.79898953437805176 0.9975578784942627 0.36205288767814636
0.82314056158065796 0.99465548992156982 0.35979354381561279
0.85129845142364502 0.99175631999969482 0.35518923401832581
0.87684941291809082 0.99360752105712891 0.34792247414588928
0.90385818481445312 0.99719715118408203 0.33960050344467163
0.9442717432975769 0.99613738059997559 0.33197277784347534
0.9838489294052124 0.99183756113052368 0.32238021492958069
0.99668818712234497 0.99355512857437134 0.30731698870658875
0.99935287237167358 0.99649173021316528 0.28843420743942261
1 0.99596631526947021 0.26224461197853088
1 0.99420785903930664 0.23587018251419067
0.0074349497444927692 0.0084891375154256821 0.037688236683607101
0.027089137583971024 0.0069666546769440174 0.036209091544151306
0.075418137013912201 0.0079660303890705109 0.030707953497767448
0.15724819898605347 0.0047441520728170872 0.026168270036578178
0.25208258628845215 0.0033476885873824358 0.02425435371696949
0.35253417491912842 0.0027617211453616619 0.022350296378135681
0.4574533998966217 0.0018970414530485868 0.019703704863786697
0.56211400032043457 0.00060073251370340586 0.01493994053453207
0.6643674373626709 1.4361213516167481e-06 0.0065952525474131107
0.76519083976745605 0 0.0012965183705091476
0.86445116996765137 0 2.1392223061411642e-05
0.95796197652816772 0 0
1 0 5.1341336074983701e-05
0.025101799517869949 0.05362822487950325 0.057934630662202835
0.052422318607568741 0.048588994890451431 0.053526755422353745
0.10998141765594482 0.045491475611925125 0.045136678963899612
0.19467039406299591 0.040291730314493179 0.03667880967259407
0.28470975160598755 0.037842635065317154 0.031644079834222794
0.37942102551460266 0.034340009093284607 0.025804437696933746
0.478861004114151 0.02817065641283989 0.018581464886665344
0.57866901159286499 0.020612454041838646 0.012098933570086956
0.67665624618530273 0.0099518569186329842 0.0054566329345107079
0.77549529075622559 0.0015718946233391762 0.0013648986350744963
0.87500345706939697 0 0.00055899529252201319
0.9682013988494873 0 0.0010184044949710369
1 0 0.0026699588634073734
0.052893649786710739 0.12597203254699707 0.087914437055587769
0.088011004030704498 0.12308458983898163 0.083110883831977844
0.1462673544883728 0.11938880383968353 0.075962483882904053
0.22308509051799774 0.11349204927682877 0.066379159688949585
0.31006523966789246 0.1080714538693428 0.05621134489774704
0.40287148952484131 0.099274620413780212 0.044545747339725494
0.49821138381958008 0.087032899260520935 0.032996952533721924
0.59348851442337036 0.073928683996200562 0.025083713233470917
0.68784999847412109 0.056597571820020676 0.017736127600073814
0.78439915180206299 0.034704860299825668 0.01121832150965929
0.88380420207977295 0.016370855271816254 0.0098717184737324715
0.97440898418426514 0.0086737684905529022 0.012477470561861992
1 0.010703591629862785 0.018872220069169998
0.088762976229190826 0.21482725441455841 0.12321114540100098
0.12596778571605682 0.21413867175579071 0.12083951383829117
0.18075653910636902 0.21082969009876251 0.1163671612739563
0.24957330524921417 0.20676973462104797 0.10724406689405441
0.33470892906188965 0.20118845999240875 0.094841420650482178
0.42637515068054199 0.19076293706893921 0.080728955566883087
0.51819229125976562 0.17591693997383118 0.067618198692798615
0.6090390682220459 0.15896864235401154 0.058907333761453629
0.70082122087478638 0.13801662623882294 0.052622191607952118
0.7957303524017334 0.11205625534057617 0.047123808413743973
0.89253443479537964 0.085689857602119446 0.044744782149791718
0.97900450229644775 0.068973302841186523 0.046591844409704208
1 0.068117879331111908 0.053365491330623627
0.12119079381227493 0.31090685725212097 0.15622575581073761
0.1499369889497757 0.3108675479888916 0.15345153212547302
0.20552597939968109 0.30821603536605835 0.15111909806728363
0.27950981259346008 0.30499431490898132 0.14537611603736877
0.36457794904708862 0.30103790760040283 0.13522490859031677
0.45285201072692871 0.29340597987174988 0.12320290505886078
0.54027694463729858 0.28070259094238281 0.11187401413917542
0.62680619955062866 0.26474082469940186 0.10427464544773102
0.71524786949157715 0.24536539614200592 0.099986761808395386
0.80746430158615112 0.21979108452796936 0.096692763268947601
0.90059554576873779 0.19137576222419739 0.094429150223731995
0.98168659210205078 0.16894334554672241 0.09556097537279129
1 0.16036507487297058 0.10034918785095215
0.17344646155834198 0.40741422772407532 0.18235397338867188
0.20175771415233612 0.40741422772407532 0.17964430153369904
0.25267469882965088 0.4057978093624115 0.17726832628250122
0.32235422730445862 0.4033254086971283 0.17322427034378052
0.40099045634269714 0.40038233995437622 0.16615191102027893
0.48285827040672302 0.39544156193733215 0.15723663568496704
0.56500482559204102 0.38685572147369385 0.14898791909217834
0.64772987365722656 0.37572634220123291 0.14458012580871582
0.73256808519363403 0.3617091178894043 0.14385202527046204
0.82068932056427002 0.34143224358558655 0.14343664050102234
0.90884184837341309 0.31456005573272705 0.14441785216331482
0.98299801349639893 0.28954300284385681 0.14801065623760223
1 0.27464038133621216 0.15279372036457062
0.25200363993644714 0.50296193361282349 0.20160399377346039
0.27630513906478882 0.50293296575546265 0.19881314039230347
0.31894859671592712 0.50076138973236084 0.19627141952514648
0.37774249911308289 0.49962583184242249 0.19236747920513153
0.44547080993652344 0.49685484170913696 0.18742211163043976
0.5187651515007019 0.49371474981307983 0.18030562996864319
0.59550648927688599 0.48834007978439331 0.17284971475601196
0.67440801858901978 0.48186260461807251 0.16951380670070648
0.75545364618301392 0.47351080179214478 0.17033500969409943
0.83843708038330078 0.45947852730751038 0.17344900965690613
0.91952699422836304 0.4367489218711853 0.18215182423591614
0.98337048292160034 0.41325294971466064 0.19377928972244263
1 0.39567935466766357 0.20191177725791931
0.33618044853210449 0.59533363580703735 0.22048720717430115
0.35551938414573669 0.59520173072814941 0.2185606062412262
0.38934522867202759 0.59397429227828979 0.21595951914787292
0.43732538819313049 0.59200334548950195 0.21192128956317902
0.49509748816490173 0.59060072898864746 0.20665892958641052
0.56081146001815796 0.58817297220230103 0.19729800522327423
0.63234490156173706 0.5845218300819397 0.18627549707889557
0.7076682448387146 0.58087658882141113 0.17977334558963776
0.78554123640060425 0.57643795013427734 0.17920927703380585
0.86395323276519775 0.56723397970199585 0.18449914455413818
0.93710243701934814 0.54916691780090332 0.20222163200378418
0.98652839660644531 0.52889448404312134 0.22664695978164673
0.99973469972610474 0.51335620880126953 0.24077990651130676
0.4132295548915863 0.68611019849777222 0.24646486341953278
0.42936336994171143 0.68584096431732178 0.24514363706111908
0.45655015110969543 0.68382805585861206 0.24259915947914124
0.49609136581420898 0.68171232938766479 0.23812013864517212
0.5468524694442749 0.68093651533126831 0.23006156086921692
0.60677599906921387 0.68001699447631836 0.21672694385051727
0.6736522912979126 0.6777845025062561 0.20068268477916718
0.74575603008270264 0.67536956071853638 0.18913565576076508
0.82150423526763916 0.67299646139144897 0.18327227234840393
0.89705204963684082 0.66597294807434082 0.18502193689346313
0.96009153127670288 0.65144842863082886 0.20677222311496735
0.99276697635650635 0.63328397274017334 0.24289475381374359
0.99950629472732544 0.6205894947052002 0.26415687799453735
0.48817005753517151 0.77409815788269043 0.28068631887435913
0.50167417526245117 0.77427685260772705 0.27836021780967712
0.52431380748748779 0.77178430557250977 0.27496501803398132
0.55788004398345947 0.7687801718711853 0.26979315280914307
0.60255849361419678 0.7682034969329834 0.25972676277160645
0.65716844797134399 0.77011400461196899 0.24385921657085419
0.71799343824386597 0.77012592554092407 0.2264188826084137
0.78520077466964722 0.76863771677017212 0.21230797469615936
0.8581317663192749 0.76609158515930176 0.19902649521827698
0.93019825220108032 0.76066058874130249 0.18924419581890106
0.98191922903060913 0.7491992712020874 0.20208890736103058
0.99908566474914551 0.73412704467773438 0.23654480278491974
1 0.7234000563621521 0.25754639506340027
0.56976628303527832 0.85942018032073975 0.31711748242378235
0.58118855953216553 0.86094576120376587 0.31351637840270996
0.60092806816101074 0.85875129699707031 0.30933952331542969
0.62965667247772217 0.85447454452514648 0.30415144562721252
0.66861063241958618 0.85344171524047852 0.29426944255828857
0.71558105945587158 0.85694772005081177 0.2792113721370697
0.7678520679473877 0.8596225380897522 0.26423382759094238
0.82661730051040649 0.8586769700050354 0.25115177035331726
0.89119535684585571 0.85502809286117554 0.23507370054721832
0.95332878828048706 0.85089826583862305 0.2153262197971344
0.99239057302474976 0.8444221019744873 0.20921182632446289
1 0.83602482080459595 0.21669101715087891
1 0.8297845721244812 0.21888512372970581
0.66637587547302246 0.94036704301834106 0.34505447745323181
0.67496615648269653 0.94291341304779053 0.34444791078567505
0.69196528196334839 0.9421735405921936 0.34153029322624207
0.7172778844833374 0.93773847818374634 0.33724653720855713
0.74974411725997925 0.93509244918823242 0.32944223284721375
0.78726732730865479 0.93824654817581177 0.31779983639717102
0.82903808355331421 0.94267863035202026 0.30609264969825745
0.87762856483459473 0.94158124923706055 0.29669621586799622
0.92859858274459839 0.93618625402450562 0.28319588303565979
0.97083878517150879 0.9328187108039856 0.26207241415977478
0.99285978078842163 0.93066227436065674 0.2441263347864151
0.99900871515274048 0.92772257328033447 0.22457972168922424
1 0.92576605081558228 0.20267459750175476
0.77761638164520264 0.99700921773910522 0.36347681283950806
0.78374052047729492 0.99779409170150757 0.36655750870704651
0.79752647876739502 0.997722327709198 0.36519250273704529
0.81894761323928833 0.99631649255752563 0.36371320486068726
0.84562534093856812 0.9948241114616394 0.3583739697933197
0.87414729595184326 0.99576985836029053 0.35015210509300232
0.9053223729133606 0.99756771326065063 0.34174573421478271
0.94240224361419678 0.99703347682952881 0.33483365178108215
0.97705763578414917 0.99457764625549316 0.32510638236999512
0.99417906999588013 0.9934161901473999 0.30913898348808289
0.99835401773452759 0.99291497468948364 0.29195794463157654
0.99954205751419067 0.99236434698104858 0.26692116260528564
1 0.99212276935577393 0.23978586494922638
0.001142658875323832 0.0064619774930179119 0.082383893430233002
0.012362147681415081 0.0044859494082629681 0.083798334002494812
0.058302711695432663 0.005089194979518652 0.077116109430789948
0.13770544528961182 0.0031333025544881821 0.068843886256217957
0.23218025267124176 0.0010840322356671095 0.062819398939609528
0.33408606052398682 0.0003351548220962286 0.056237045675516129
0.4407120943069458 3.0158547815517522e-05 0.047934096306562424
0.54673856496810913 0 0.039357353001832962
0.65051919221878052 0 0.030102180317044258
0.75367218255996704 0 0.021406525745987892
0.85672533512115479 0 0.015905836597084999
0.95456880331039429 0 0.014182385988533497
1 0 0.014371714554727077
0.012519058771431446 0.049905635416507721 0.10540077090263367
0.036134444177150726 0.043962322175502777 0.10347363352775574
0.090903274714946747 0.041452012956142426 0.094663314521312714
0.17456112802028656 0.03579958900809288 0.083436198532581329
0.26544708013534546 0.030217893421649933 0.074692942202091217
0.36176297068595886 0.025169402360916138 0.064893223345279694
0.46301999688148499 0.019370598718523979 0.052660219371318817
0.56363540887832642 0.014574507251381874 0.042528700083494186
0.66257107257843018 0.0081114079803228378 0.033194418996572495
0.7627331018447876 0.0018124449998140335 0.024569656699895859
0.86515319347381592 1.6455556760774925e-05 0.020776890218257904
0.96302574872970581 0 0.021439975127577782
1 9.8404227173887193e-05 0.024784388020634651
0.040374487638473511 0.12487683445215225 0.13466797769069672
0.071908377110958099 0.12062253803014755 0.13188143074512482
0.1265043169260025 0.11576715856790543 0.1240684986114502
0.20469659566879272 0.10710878670215607 0.11346945911645889
0.29302805662155151 0.099542759358882904 0.1022416353225708
0.38675257563591003 0.090322040021419525 0.08878885954618454
0.48378685116767883 0.078674957156181335 0.074244976043701172
0.57884353399276733 0.067909643054008484 0.063029542565345764
0.67337560653686523 0.053801160305738449 0.052872959524393082
0.77061277627944946 0.035362079739570618 0.04352816566824913
0.87213832139968872 0.020174721255898476 0.039703190326690674
0.96808254718780518 0.013966474682092667 0.041194826364517212
1 0.016568951308727264 0.045765221118927002
0.081456564366817474 0.21440523862838745 0.16692131757736206
0.11531225591897964 0.21164838969707489 0.1667943149805069
0.16345195472240448 0.20682843029499054 0.16180096566677094
0.23154883086681366 0.20077167451381683 0.1531117856502533
0.31928980350494385 0.19405780732631683 0.1420009434223175
0.41108161211013794 0.18327319622039795 0.12807768583297729
0.50285953283309937 0.1695096343755722 0.11408380419015884
0.59409290552139282 0.15429416298866272 0.10309261083602905
0.68599748611450195 0.13540357351303101 0.093676581978797913
0.78161835670471191 0.11222217231988907 0.084783829748630524
0.88073050975799561 0.08922971785068512 0.079113557934761047
0.97279280424118042 0.07455608993768692 0.078169487416744232
1 0.07236645370721817 0.081659562885761261
0.11851571500301361 0.30857962369918823 0.1964065283536911
0.14422982931137085 0.30770325660705566 0.19578167796134949
0.19312763214111328 0.30396154522895813 0.19402690231800079
0.26398351788520813 0.30034750699996948 0.1894536018371582
0.35059544444084167 0.29632860422134399 0.1817094087600708
0.43733084201812744 0.28764805197715759 0.1706429123878479
0.524067223072052 0.27545779943466187 0.16002523899078369
0.61123752593994141 0.2608436644077301 0.152089923620224
0.7002183198928833 0.24265533685684204 0.14550502598285675
0.7933470606803894 0.22041280567646027 0.13898412883281708
0.88966923952102661 0.19421087205410004 0.13302378356456757
0.97698605060577393 0.17247501015663147 0.12995527684688568
1 0.16151247918605804 0.13101804256439209
0.16714616119861603 0.4050288200378418 0.22016119956970215
0.19255267083644867 0.40487301349639893 0.21830944716930389
0.2406899631023407 0.40236639976501465 0.21691182255744934
0.30891638994216919 0.3999844491481781 0.21443450450897217
0.38716447353363037 0.39712271094322205 0.21027502417564392
0.46708634495735168 0.39151355624198914 0.20402611792087555
0.54891008138656616 0.38291677832603455 0.19848081469535828
0.63200539350509644 0.37230756878852844 0.19528479874134064
0.71712321043014526 0.3595811128616333 0.19369718432426453
