assets/lut/films colorslide kodak elite chrome 400.cube
# Created by: G'MIC (https://gmic.eu)
TITLE "kodak_elite_chrome_400"
# LUT size
LUT_3D_SIZE 13
# Data domain
DOMAIN_MIN 0.0 0.0 0.0
DOMAIN_MAX 1.0 1.0 1.0
# LUT data points
0.023666247725486755 0.02435506135225296 0.022937161847949028
0.063423752784729004 0.019982162863016129 0.019109539687633514
0.11112508177757263 0.018716102465987206 0.012833524495363235
0.16860346496105194 0.020034251734614372 0.0079668527469038963
0.24134239554405212 0.020404022186994553 0.0064582973718643188
0.32592743635177612 0.023416092619299889 0.0055042342282831669
0.41771304607391357 0.028242342174053192 0.0049165613017976284
0.5095323920249939 0.032746978104114532 0.0040275724604725838
0.59418702125549316 0.034839227795600891 0.00090928917052224278
0.67207539081573486 0.038309283554553986 0
0.74798166751861572 0.047790348529815674 0.00085105147445574403
0.8243831992149353 0.063408538699150085 0.0043126721866428852
0.90077710151672363 0.077193960547447205 0.0025543961673974991
0.054862063378095627 0.081901252269744873 0.042482893913984299
0.086807698011398315 0.077101223170757294 0.039410937577486038
0.13184773921966553 0.07253563404083252 0.034598182886838913
0.18853287398815155 0.069705694913864136 0.028287924826145172
0.25963115692138672 0.06702771782875061 0.022929307073354721
0.34227502346038818 0.065298549830913544 0.018445197492837906
0.43199455738067627 0.065284401178359985 0.01427109632641077
0.52033406496047974 0.062506459653377533 0.0091729257255792618
0.60168170928955078 0.054996907711029053 0.0029373618308454752
0.67716419696807861 0.047829288989305496 0
0.75140583515167236 0.04729214683175087 0.0022246267180889845
0.82693874835968018 0.054968696087598801 0.0072416565380990505
0.90359562635421753 0.064727440476417542 0.0049581043422222137
0.097475253045558929 0.14455129206180573 0.065408118069171906
0.11930790543556213 0.141421839594841 0.062409598380327225
0.15664307773113251 0.13896162807941437 0.058245223015546799
0.21193423867225647 0.13438457250595093 0.051138859242200851
0.28215143084526062 0.12826947867870331 0.042499855160713196
0.36364781856536865 0.12215697020292282 0.033644404262304306
0.45114985108375549 0.11797048896551132 0.025403281673789024
0.53604793548583984 0.10959812253713608 0.016640158370137215
0.61376625299453735 0.093476377427577972 0.0075645595788955688
0.68618404865264893 0.074019141495227814 0.0016452266136184335
0.75812685489654541 0.058086425065994263 0.0018896065885201097
0.83218944072723389 0.051236514002084732 0.0043701468966901302
0.90857058763504028 0.053283572196960449 0.0016355925472453237
0.13118350505828857 0.22304902970790863 0.090965002775192261
0.14665119349956512 0.22227531671524048 0.088621608912944794
0.18133766949176788 0.22080259025096893 0.084332302212715149
0.23800599575042725 0.21707057952880859 0.076158873736858368
0.30977606773376465 0.20916357636451721 0.065109014511108398
0.39108288288116455 0.19983424246311188 0.052822500467300415
0.47650444507598877 0.19198475778102875 0.04151008278131485
0.55791950225830078 0.18001174926757812 0.030147716403007507
0.63170838356018066 0.15844228863716125 0.018224604427814484
0.70176136493682861 0.12844431400299072 0.0089642247185111046
0.77138018608093262 0.09547608345746994 0.0040186415426433086
0.84332567453384399 0.068897202610969543 0.00051668949890881777
0.91849726438522339 0.058724585920572281 0
0.15239021182060242 0.32064759731292725 0.11795302480459213
0.16959631443023682 0.319772869348526 0.11661706119775772
0.20870654284954071 0.31831568479537964 0.11307814717292786
0.26930955052375793 0.31531396508216858 0.10441526770591736
0.34360185265541077 0.30897852778434753 0.091618992388248444
0.4250829815864563 0.29979228973388672 0.077541276812553406
0.50738674402236938 0.28930503129959106 0.063780196011066437
0.58376127481460571 0.27564388513565063 0.049655452370643616
0.65421026945114136 0.25319057703018188 0.03467915952205658
0.72280621528625488 0.21837244927883148 0.020897405222058296
0.79220706224441528 0.17429575324058533 0.010248729959130287
0.86319106817245483 0.12982077896595001 0.0022180445957928896
0.93532794713973999 0.09937768429517746 0
0.18407507240772247 0.42504507303237915 0.1479678750038147
0.2077912837266922 0.42261800169944763 0.14684282243251801
0.25057953596115112 0.42138844728469849 0.14394176006317139
0.31182131171226501 0.42028918862342834 0.13600224256515503
0.38508617877960205 0.41780111193656921 0.12244752049446106
0.4639306366443634 0.412465900182724 0.10738439857959747
0.54018604755401611 0.40349024534225464 0.091811805963516235
0.61063170433044434 0.39182764291763306 0.074749082326889038
0.67770349979400635 0.37213140726089478 0.056153062731027603
0.74661189317703247 0.33890271186828613 0.036873746663331985
0.81747150421142578 0.29305574297904968 0.020341476425528526
0.88827657699584961 0.2364870011806488 0.0078887045383453369
0.95656991004943848 0.18373115360736847 0.00029784557409584522
0.23679882287979126 0.52350282669067383 0.18567138910293579
0.26533910632133484 0.52085322141647339 0.18328189849853516
0.30926075577735901 0.51914918422698975 0.17949505150318146
0.36682841181755066 0.5194583535194397 0.1712823212146759
0.4330882728099823 0.5213591456413269 0.15893864631652832
0.50331485271453857 0.52192920446395874 0.14374370872974396
0.57198888063430786 0.51891601085662842 0.12589770555496216
0.63583618402481079 0.51096010208129883 0.10559937357902527
0.70020651817321777 0.49687457084655762 0.082025609910488129
0.77014309167861938 0.47167328000068665 0.056420106440782547
0.84291750192642212 0.43727532029151917 0.032745361328125
0.91361498832702637 0.38637977838516235 0.014020374044775963
0.97701501846313477 0.32056665420532227 0.001145531190559268
0.30876031517982483 0.60989773273468018 0.23465706408023834
0.33604827523231506 0.60877794027328491 0.22992922365665436
0.37602314352989197 0.6074104905128479 0.22422417998313904
0.42651352286338806 0.60813498497009277 0.21558941900730133
0.48207050561904907 0.61200708150863647 0.20446574687957764
0.54068028926849365 0.61606442928314209 0.18974944949150085
0.60096275806427002 0.61626178026199341 0.16931928694248199
0.66003859043121338 0.61133909225463867 0.14315739274024963
0.72274333238601685 0.60231000185012817 0.11314006149768829
0.79226177930831909 0.59092849493026733 0.0821266770362854
0.865520179271698 0.57694977521896362 0.051711436361074448
0.93442463874816895 0.5494580864906311 0.022700544446706772
0.98862463235855103 0.49142971634864807 0.0023587844334542751
0.3878217339515686 0.68777793645858765 0.29198774695396423
0.40945184230804443 0.68774509429931641 0.28643125295639038
0.441089928150177 0.68774509429931641 0.28072232007980347
0.48136386275291443 0.68834173679351807 0.27304896712303162
0.52618944644927979 0.69261997938156128 0.26295351982116699
0.5755232572555542 0.69597631692886353 0.24731151759624481
0.62839359045028687 0.69654941558837891 0.22449296712875366
0.68396574258804321 0.69293010234832764 0.19397243857383728
0.74449843168258667 0.68734157085418701 0.15832465887069702
0.81198728084564209 0.68675082921981812 0.12289615720510483
0.88339459896087646 0.68545210361480713 0.083002544939517975
0.94859230518341064 0.67023992538452148 0.041432954370975494
0.99400478601455688 0.63035708665847778 0.0071020685136318207
0.46444225311279297 0.76330798864364624 0.35438969731330872
0.47925359010696411 0.76378077268600464 0.34982946515083313
0.50122588872909546 0.76431310176849365 0.3462124764919281
0.53036534786224365 0.76506954431533813 0.34125107526779175
0.56729179620742798 0.7678452730178833 0.33175024390220642
0.61017924547195435 0.77045488357543945 0.31553539633750916
0.65784317255020142 0.77077013254165649 0.2927129864692688
0.70916390419006348 0.76892101764678955 0.26395675539970398
0.76568371057510376 0.76747345924377441 0.23034784197807312
0.82934707403182983 0.77034711837768555 0.18932752311229706
0.89848750829696655 0.77245157957077026 0.12933498620986938
0.96190696954727173 0.76348298788070679 0.057735923677682877
0.99816238880157471 0.73930007219314575 0.0061027975752949715
0.53841948509216309 0.83603733777999878 0.41998165845870972
0.5479501485824585 0.83676505088806152 0.41655305027961731
0.56242138147354126 0.8377525806427002 0.41477936506271362
0.58280467987060547 0.839089035987854 0.41235288977622986
0.61264097690582275 0.8410332202911377 0.40440860390663147
0.65063035488128662 0.84309291839599609 0.38917171955108643
0.69282984733581543 0.84382659196853638 0.36987483501434326
0.73884779214859009 0.84383320808410645 0.34753522276878357
0.79025322198867798 0.84582680463790894 0.32139119505882263
0.84800893068313599 0.84922134876251221 0.28097859025001526
0.91235804557800293 0.85285431146621704 0.20390695333480835
0.97243380546569824 0.84917843341827393 0.10031923651695251
0.99983412027359009 0.83493489027023315 0.025922393426299095
0.61316102743148804 0.90826505422592163 0.48736059665679932
0.61889445781707764 0.9093925952911377 0.48409169912338257
0.629017174243927 0.91079479455947876 0.4827369749546051
0.64492911100387573 0.912467360496521 0.48037880659103394
0.66921061277389526 0.91431188583374023 0.47430700063705444
0.70037239789962769 0.91594690084457397 0.46348127722740173
0.73579990863800049 0.91709500551223755 0.44987070560455322
0.7756311297416687 0.91845804452896118 0.43534514307975769
0.8215520977973938 0.92023146152496338 0.41850784420967102
0.87326443195343018 0.9234195351600647 0.38739287853240967
0.92688357830047607 0.92629474401473999 0.31786984205245972
0.97296184301376343 0.92692697048187256 0.21517415344715118
0.99860203266143799 0.91927814483642578 0.12607482075691223
0.6891016960144043 0.97860699892044067 0.55494415760040283
0.69274258613586426 0.97980767488479614 0.55145084857940674
0.70036649703979492 0.98144710063934326 0.54909670352935791
0.7140117883682251 0.98277837038040161 0.54687368869781494
0.73332524299621582 0.98392665386199951 0.54290521144866943
0.75766360759735107 0.98461830615997314 0.53688544034957886
0.78626006841659546 0.98596584796905518 0.53015470504760742
0.81990510225296021 0.9862978458404541 0.52278923988342285
0.85986542701721191 0.98726016283035278 0.51489013433456421
0.90364289283752441 0.98856449127197266 0.49720141291618347
0.94577270746231079 0.9897887110710144 0.44816696643829346
0.9771496057510376 0.99093139171600342 0.36208048462867737
0.99781918525695801 0.98884487152099609 0.27020299434661865
0.020741736516356468 0.023472730070352554 0.061042994260787964
0.059342179447412491 0.020711442455649376 0.056532960385084152
0.10291855782270432 0.020330242812633514 0.047414399683475494
0.15878449380397797 0.019855065271258354 0.039414290338754654
0.23057474195957184 0.018536750227212906 0.034397754818201065
0.31592276692390442 0.020128481090068817 0.02876700647175312
0.4108489453792572 0.024970529600977898 0.021107781678438187
0.50553649663925171 0.028706016018986702 0.01152298878878355
0.59184515476226807 0.030099591240286827 0.0018516092095524073
0.67103314399719238 0.034585241228342056 0
0.74807775020599365 0.047934409230947495 7.4797986826524721e-07
0.8267332911491394 0.068018175661563873 0.00035472196759656072
0.9051557183265686 0.084502063691616058 0.00022892671404406428
0.049054000526666641 0.081387251615524292 0.080283790826797485
0.079307645559310913 0.077994056046009064 0.076942220330238342
0.12285970151424408 0.07340201735496521 0.071103081107139587
0.1797511875629425 0.069437824189662933 0.063098013401031494
0.25106614828109741 0.065570011734962463 0.054693304002285004
0.3353065550327301 0.063447557389736176 0.045454166829586029
0.42768928408622742 0.063192404806613922 0.034373894333839417
0.51822859048843384 0.058572299778461456 0.020775424316525459
0.59964001178741455 0.04829031229019165 0.0062135136686265469
0.67536598443984985 0.041316326707601547 5.4797004850115627e-05
0.75152397155761719 0.046581685543060303 0.00020681643218267709
0.82952851057052612 0.061980798840522766 0.0040977178141474724
0.90802478790283203 0.076400801539421082 0.0026732201222330332
0.089980453252792358 0.14544160664081573 0.10220133513212204
0.11042086780071259 0.14317640662193298 0.099928684532642365
0.14856632053852081 0.13911700248718262 0.095581516623497009
0.20501776039600372 0.13418072462081909 0.08701450377702713
0.27689927816390991 0.1282380223274231 0.07618364691734314
0.36084452271461487 0.12285382300615311 0.064054436981678009
0.45096156001091003 0.11852503567934036 0.050128113478422165
0.53705072402954102 0.10760192573070526 0.033915337175130844
0.61286747455596924 0.087350539863109589 0.016444098204374313
0.68482577800750732 0.06788075715303421 0.0043216031044721603
0.75863444805145264 0.058942370116710663 0.0022889829706400633
0.8352850079536438 0.060351725667715073 0.0042309630662202835
0.91311913728713989 0.065885312855243683 0.0016151128802448511
0.12320621311664581 0.22412525117397308 0.12802660465240479
0.13803902268409729 0.22342543303966522 0.12666043639183044
0.17465674877166748 0.22107584774494171 0.12224161624908447
0.23263570666313171 0.21706299483776093 0.11278945207595825
0.30619260668754578 0.20992648601531982 0.10012234002351761
0.39057281613349915 0.20162864029407501 0.085831224918365479
0.47854074835777283 0.19263866543769836 0.070348195731639862
0.5599702000617981 0.17874379456043243 0.053166050463914871
0.63233387470245361 0.15499678254127502 0.034670855849981308
0.70144009590148926 0.12633901834487915 0.019104482606053352
0.77242434024810791 0.099087432026863098 0.0089406929910182953
0.84654724597930908 0.078996829688549042 0.0023753894492983818
0.92243748903274536 0.067973911762237549 0
0.14288163185119629 0.3203619122505188 0.15730199217796326
0.15911941230297089 0.32003676891326904 0.15580062568187714
0.20077390968799591 0.31863811612129211 0.15106654167175293
0.26372763514518738 0.3162674605846405 0.14108109474182129
0.3399956226348877 0.31081578135490417 0.12725526094436646
0.42456027865409851 0.30062538385391235 0.11190957576036453
0.50926941633224487 0.28744816780090332 0.095839843153953552
0.5858425498008728 0.27328839898109436 0.077762618660926819
0.65501248836517334 0.25224357843399048 0.057812035083770752
0.72276264429092407 0.21978534758090973 0.037668459117412567
0.79258280992507935 0.17968802154064178 0.01979338750243187
0.864909827709198 0.13815800845623016 0.0043581197969615459
0.9380226731300354 0.10620808601379395 0
0.17570902407169342 0.42287817597389221 0.1896275132894516
0.19890415668487549 0.42202740907669067 0.18684601783752441
0.24335175752639771 0.421995609998703 0.182087242603302
0.30618369579315186 0.42253682017326355 0.17207303643226624
0.38065075874328613 0.42139342427253723 0.15828758478164673
0.46106112003326416 0.41343054175376892 0.14314915239810944
0.54042249917984009 0.40083804726600647 0.12660449743270874
0.6114119291305542 0.3899179995059967 0.10723309963941574
0.67763310670852661 0.37329992651939392 0.08447759598493576
0.74553173780441284 0.3435971736907959 0.059385381639003754
0.81641864776611328 0.30005630850791931 0.034983199089765549
0.88804471492767334 0.24584943056106567 0.011709101498126984
0.95718073844909668 0.19405363500118256 4.7751032980158925e-05
0.2329820990562439 0.51999413967132568 0.22803677618503571
0.25978046655654907 0.51909959316253662 0.22365102171897888
0.30365589261054993 0.51914238929748535 0.21781444549560547
0.36184388399124146 0.52184724807739258 0.20812101662158966
0.42829549312591553 0.52453166246414185 0.19580678641796112
0.4989740252494812 0.52252835035324097 0.18166303634643555
0.56894171237945557 0.51704341173171997 0.16412985324859619
0.63415145874023438 0.51045793294906616 0.14250805974006653
0.69885373115539551 0.4987906813621521 0.11601456254720688
0.76787573099136353 0.47715169191360474 0.085795775055885315
0.84042471647262573 0.44438761472702026 0.05464109405875206
0.9117743968963623 0.39538338780403137 0.024388525635004044
0.97659438848495483 0.33378192782402039 0.0016332439845427871
0.30941161513328552 0.60669547319412231 0.27464249730110168
0.33431768417358398 0.60655492544174194 0.26869890093803406
0.37315011024475098 0.60649222135543823 0.26174506545066833
0.42379909753799438 0.60845822095870972 0.25235849618911743
0.47842490673065186 0.61262595653533936 0.24245701730251312
0.53667497634887695 0.61563903093338013 0.22940714657306671
0.5967479944229126 0.61518973112106323 0.21045400202274323
0.65680605173110962 0.61215746402740479 0.18507067859172821
0.71985584497451782 0.60564923286437988 0.15466812252998352
0.78908020257949829 0.59534585475921631 0.12043328583240509
0.8622136116027832 0.57996165752410889 0.083209440112113953
0.93251156806945801 0.54969865083694458 0.043724492192268372
0.9889712929725647 0.49439707398414612 0.0067391339689493179
0.39107272028923035 0.68589103221893311 0.32786518335342407
0.40987494587898254 0.68649113178253174 0.32190892100334167
0.43968746066093445 0.68725264072418213 0.31547814607620239
0.47944304347038269 0.68775033950805664 0.30803367495536804
0.52363967895507812 0.69141459465026855 0.29945969581604004
0.57197839021682739 0.69490289688110352 0.28639835119247437
0.62455660104751587 0.69578081369400024 0.26613074541091919
0.6801154613494873 0.69443202018737793 0.23871403932571411
0.74062788486480713 0.69125610589981079 0.2058665007352829
0.80781632661819458 0.68888360261917114 0.16846044361591339
0.87986671924591064 0.68356204032897949 0.12312034517526627
0.94826716184616089 0.66479223966598511 0.070561051368713379
0.99538606405258179 0.62700790166854858 0.014840040355920792
0.46620166301727295 0.76096779108047485 0.38525277376174927
0.47907242178916931 0.76159816980361938 0.38047122955322266
0.49998658895492554 0.76219421625137329 0.37645861506462097
0.52926808595657349 0.76397550106048584 0.3719494640827179
0.56562298536300659 0.76613086462020874 0.36401298642158508
0.60795086622238159 0.76857537031173706 0.35054242610931396
0.65467405319213867 0.76967918872833252 0.33082351088523865
0.70561850070953369 0.7689288854598999 0.30516251921653748
0.76196986436843872 0.76864880323410034 0.27421426773071289
0.82495826482772827 0.76899760961532593 0.23382642865180969
0.89339196681976318 0.76781117916107178 0.17410461604595184
0.95768553018569946 0.75728458166122437 0.096136011183261871
0.99749147891998291 0.73613101243972778 0.019283264875411987
0.53557294607162476 0.83441257476806641 0.44534176588058472
0.54464453458786011 0.8354184627532959 0.44148904085159302
0.56019032001495361 0.83647698163986206 0.43974238634109497
0.58309417963027954 0.83783727884292603 0.43713328242301941
0.61341321468353271 0.83960849046707153 0.43056941032409668
0.64984136819839478 0.84120362997055054 0.41828325390815735
0.69083553552627563 0.84221380949020386 0.4015842080116272
0.73623210191726685 0.84261220693588257 0.38101878762245178
0.78728097677230835 0.84367531538009644 0.35586872696876526
0.84468907117843628 0.84616541862487793 0.31699889898300171
0.90630394220352173 0.84793663024902344 0.24735988676548004
0.96273738145828247 0.84578323364257812 0.14678658545017242
0.99746561050415039 0.83458924293518066 0.050879742950201035
0.60668057203292847 0.90699225664138794 0.50780963897705078
0.61308598518371582 0.90841579437255859 0.50441139936447144
0.62603127956390381 0.90977209806442261 0.50272095203399658
0.64566808938980103 0.91132873296737671 0.50079125165939331
0.67124563455581665 0.91282767057418823 0.49564653635025024
0.70104414224624634 0.91423314809799194 0.48661750555038452
0.73503917455673218 0.91539502143859863 0.47488337755203247
0.77422404289245605 0.91652125120162964 0.4608059823513031
0.81950265169143677 0.91871684789657593 0.4435478150844574
0.87057775259017944 0.92112141847610474 0.41460320353507996
0.92363458871841431 0.9240538477897644 0.35693967342376709
0.9701722264289856 0.92490690946578979 0.26507881283760071
0.99847877025604248 0.9197239875793457 0.16669490933418274
0.68191474676132202 0.97837132215499878 0.5724523663520813
0.68680977821350098 0.9789547324180603 0.56883227825164795
0.6976621150970459 0.98058909177780151 0.56667554378509521
0.71482342481613159 0.9818120002746582 0.56445330381393433
0.73591190576553345 0.98321050405502319 0.56087487936019897
0.75918102264404297 0.98391115665435791 0.55617111921310425
0.78628790378570557 0.98437994718551636 0.5498008131980896
0.81905233860015869 0.98574745655059814 0.54197901487350464
0.85798096656799316 0.98646444082260132 0.53291624784469604
0.90210670232772827 0.98816061019897461 0.51742565631866455
0.9458850622177124 0.98921287059783936 0.48185765743255615
0.98366302251815796 0.99013471603393555 0.41554325819015503
0.99984169006347656 0.98828655481338501 0.32347148656845093
0.017182160168886185 0.02243875153362751 0.10509523749351501
0.052462305873632431 0.020411323755979538 0.099723294377326965
0.098855875432491302 0.018143897876143456 0.092827200889587402
0.15359222888946533 0.01635761559009552 0.083993487060070038
0.22128523886203766 0.014786798506975174 0.074749469757080078
0.30502930283546448 0.015738947317004204 0.063281729817390442
0.40355765819549561 0.02135041169822216 0.047510229051113129
0.50210565328598022 0.025382276624441147 0.028536014258861542
0.58950954675674438 0.025543332099914551 0.011068845167756081
0.66985315084457397 0.030130961909890175 0.0014021630631759763
0.74823993444442749 0.046149101108312607 1.7951517293113284e-05
0.82914131879806519 0.069110438227653503 0
0.90884101390838623 0.087325289845466614 0
0.043886639177799225 0.080005079507827759 0.12644891440868378
0.071222402155399323 0.077404648065567017 0.12240017205476761
0.115070641040802 0.07257341593503952 0.11683834344148636
0.1735190749168396 0.067817360162734985 0.10793241858482361
0.24330990016460419 0.063418745994567871 0.097106754779815674
0.32733887434005737 0.060929495841264725 0.083580762147903442
0.42196467518806458 0.059868935495615005 0.06632869690656662
0.51459187269210815 0.053922511637210846 0.044324193149805069
0.59634214639663696 0.041708778589963913 0.022405602037906647
0.67212760448455811 0.034594740718603134 0.0059907948598265648
0.75040644407272339 0.04457855224609375 0.0016708074836060405
0.83096420764923096 0.065327949821949005 0.0014288958627730608
0.91120260953903198 0.08296889066696167 0.00035886577097699046
0.082235746085643768 0.14528834819793701 0.14946898818016052
0.10392414033412933 0.14326614141464233 0.14667265117168427
0.14308130741119385 0.13898448646068573 0.14185900986194611
0.19987954199314117 0.13388171792030334 0.13275119662284851
0.27145105600357056 0.12781530618667603 0.12080592662096024
0.35610499978065491 0.12248096615076065 0.10585685819387436
0.44761484861373901 0.11699612438678741 0.08741365373134613
0.53391754627227783 0.10396691411733627 0.064908109605312347
0.60977637767791748 0.081338323652744293 0.040290262550115585
0.68160295486450195 0.062309145927429199 0.019526299089193344
0.75743627548217773 0.05894157662987709 0.010325068607926369
0.83645808696746826 0.066459178924560547 0.0055203456431627274
0.9158322811126709 0.074610888957977295 0.00066446041455492377
0.11457431316375732 0.22553810477256775 0.17587202787399292
0.13629879057407379 0.22376702725887299 0.17407068610191345
0.17429299652576447 0.2205837070941925 0.16921420395374298
0.22894404828548431 0.21611799299716949 0.15966814756393433
0.30184337496757507 0.20973703265190125 0.14683592319488525
0.38712745904922485 0.20234797894954681 0.13091000914573669
0.47605910897254944 0.19266708195209503 0.11230091750621796
0.55776774883270264 0.17689028382301331 0.090673394501209259
0.6298215389251709 0.15177145600318909 0.066712804138660431
0.69909512996673584 0.12464986741542816 0.043471843004226685
0.7714531421661377 0.10241936892271042 0.02413584478199482
0.84756934642791748 0.086181879043579102 0.0072290906682610512
0.92444503307342529 0.074706807732582092 0
0.13303856551647186 0.32124617695808411 0.20644071698188782
0.15706139802932739 0.31993386149406433 0.20386645197868347
0.19884470105171204 0.31804680824279785 0.19859200716018677
0.2589053213596344 0.31549498438835144 0.18877211213111877
0.33448132872581482 0.31087455153465271 0.17533271014690399
0.42005720734596252 0.30133596062660217 0.15925958752632141
