assets/lut/films negative color fuji superia 200.cube
# Created by: G'MIC (https://gmic.eu)
TITLE "fuji_superia_200"
# LUT size
LUT_3D_SIZE 7
# Data domain
DOMAIN_MIN 0.0 0.0 0.0
DOMAIN_MAX 1.0 1.0 1.0
# LUT data points
0.032023157924413681 0.031293697655200958 0.02922547236084938
0.13921025395393372 0.012436900287866592 0.0099260816350579262
0.30650126934051514 0.0014966030139476061 0
0.4871675968170166 0 0
0.63060933351516724 0.00049318798119202256 0.0010478299809619784
0.72196048498153687 0.0066138473339378834 0.0061356336809694767
0.80694669485092163 0.0011740440968424082 3.0338062060764059e-05
0.10545860975980759 0.21725106239318848 0.096445001661777496
0.19152280688285828 0.18668699264526367 0.057480216026306152
0.3715912401676178 0.12300452589988708 0.010453317314386368
0.54573363065719604 0.067052982747554779 1.077091019396903e-05
0.67499071359634399 0.0084522916004061699 0.001215078285895288
0.75057268142700195 0 0.00033410763717256486
0.81277883052825928 0 0
0.1136743575334549 0.46356895565986633 0.16537214815616608
0.25936686992645264 0.4380127489566803 0.12314529716968536
0.44748973846435547 0.3937726616859436 0.059214439243078232
0.62368935346603394 0.33426177501678467 0.011457270942628384
0.76031875610351562 0.25935512781143188 0.0049678278155624866
0.83087289333343506 0.14953465759754181 0.00062607409199699759
0.86911994218826294 0.033599000424146652 0.0017964082071557641
0.25024160742759705 0.66037476062774658 0.15776929259300232
0.37213194370269775 0.64763540029525757 0.13883605599403381
0.5324329137802124 0.62234097719192505 0.10484956949949265
0.69739556312561035 0.57957959175109863 0.059583224356174469
0.83172321319580078 0.5369916558265686 0.037696808576583862
0.9192926287651062 0.48453104496002197 0.038744173943996429
0.97632521390914917 0.39796668291091919 0.061980977654457092
0.43417149782180786 0.79649358987808228 0.1008671447634697
0.51704663038253784 0.78874200582504272 0.085928641259670258
0.64112567901611328 0.77020061016082764 0.069678120315074921
0.77719604969024658 0.74172681570053101 0.049567442387342453
0.89164412021636963 0.71179085969924927 0.045684844255447388
0.97455030679702759 0.67971211671829224 0.070293113589286804
1 0.63497519493103027 0.099861383438110352
0.60888946056365967 0.90002429485321045 0.0034070333931595087
0.66448056697845459 0.89260721206665039 0.00095068238442763686
0.75667393207550049 0.87731492519378662 0.010034957900643349
0.868324875831604 0.85421895980834961 0.011805066838860512
0.96100807189941406 0.82942295074462891 0.0079399561509490013
0.99998205900192261 0.80879354476928711 0.023789754137396812
1 0.78258532285690308 0.062161974608898163
0.78414052724838257 0.99403572082519531 0
0.81695300340652466 0.99091660976409912 0
0.87607049942016602 0.98325115442276001 0.0015042623272165656
0.97108936309814453 0.96509468555450439 0.00028471104451455176
1 0.94841891527175903 0
1 0.93551939725875854 0
1 0.9179038405418396 0.00011201746383449063
0.014437282457947731 0.033813923597335815 0.16042532026767731
0.12408871948719025 0.0096417441964149475 0.1170380562543869
0.29276973009109497 0.0033079260028898716 0.040887840092182159
0.45631352066993713 0 0.0049591362476348877
0.58835458755493164 0.00080143049126490951 0
0.68230032920837402 0.012004882097244263 0
0.75805914402008057 0.011424524709582329 0.0042546740733087063
0.086154237389564514 0.21796569228172302 0.22566090524196625
0.18626022338867188 0.18205654621124268 0.18259157240390778
0.35903719067573547 0.12250176072120667 0.10695133358240128
0.51610207557678223 0.059003852307796478 0.056698024272918701
0.63684451580047607 0.017718849703669548 0.013867920264601707
0.71064883470535278 0.00028153962921351194 0.006640999112278223
0.76506441831588745 0 0.00090759876184165478
0.10045076161623001 0.46485793590545654 0.2962287962436676
0.24515518546104431 0.44092151522636414 0.25709813833236694
0.43205216526985168 0.39792916178703308 0.19782264530658722
0.59783673286437988 0.33369696140289307 0.13853789865970612
0.72600424289703369 0.25367254018783569 0.089144885540008545
0.79789060354232788 0.15963022410869598 0.070713132619857788
0.83664441108703613 0.052014250308275223 0.053434766829013824
0.21768268942832947 0.66858416795730591 0.31705015897750854
0.33930540084838867 0.65556925535202026 0.29608392715454102
0.50211578607559204 0.62754064798355103 0.26007193326950073
0.66695111989974976 0.58389902114868164 0.2126089334487915
0.79781126976013184 0.54284554719924927 0.17471978068351746
0.88548123836517334 0.48758462071418762 0.168730229139328
0.94542092084884644 0.39557680487632751 0.18314418196678162
0.39099276065826416 0.80219572782516479 0.29505494236946106
0.475096195936203 0.79244816303253174 0.2624267041683197
0.60386598110198975 0.7715834379196167 0.21997052431106567
0.73846054077148438 0.74291682243347168 0.19774596393108368
0.85133302211761475 0.71825659275054932 0.19657343626022339
0.93869441747665405 0.68696457147598267 0.21741640567779541
0.99746006727218628 0.64239645004272461 0.24450094997882843
0.57357883453369141 0.89789873361587524 0.167488694190979
0.62942463159561157 0.89010179042816162 0.12127969413995743
0.72674906253814697 0.87529224157333374 0.084101267158985138
0.82560747861862183 0.85590678453445435 0.099198326468467712
0.91268044710159302 0.83600717782974243 0.13929569721221924
0.98308438062667847 0.81353795528411865 0.17823176085948944
1 0.7868531346321106 0.22222104668617249
0.77749145030975342 0.98987531661987305 0.0002297794126207009
0.81326866149902344 0.98833882808685303 0
0.87748140096664429 0.98244971036911011 0
0.94565993547439575 0.96972048282623291 0.00040211397572420537
0.99610167741775513 0.95527845621109009 0.0010799632873386145
1 0.9414176344871521 0.0043406765908002853
1 0.92313951253890991 0.075728431344032288
0.005952498409897089 0.031075885519385338 0.33472666144371033
0.103029765188694 0.015870321542024612 0.29341629147529602
0.26151448488235474 0.00087103748228400946 0.22190304100513458
0.41772675514221191 0 0.14062441885471344
0.55124455690383911 0 0.091435372829437256
0.65393990278244019 0.0018245622050017118 0.069748058915138245
0.72693383693695068 0.012569083832204342 0.084562785923480988
0.042711548507213593 0.21408933401107788 0.40934363007545471
0.15952274203300476 0.18387219309806824 0.36942151188850403
0.32750186324119568 0.12155324965715408 0.3004612922668457
0.4785345196723938 0.067409813404083252 0.22962827980518341
0.59858435392379761 0.026530276983976364 0.16888900101184845
0.67849647998809814 3.1415154808200896e-05 0.12638914585113525
0.73377639055252075 1.9836425053654239e-05 0.10141061246395111
0.04561474546790123 0.45796430110931396 0.48281079530715942
0.20570634305477142 0.44129598140716553 0.44817253947257996
0.40190091729164124 0.40103024244308472 0.3957822322845459
0.55939453840255737 0.33613544702529907 0.33408218622207642
0.68067008256912231 0.24799008667469025 0.27956351637840271
0.75667339563369751 0.14697951078414917 0.23948214948177338
0.80473977327346802 0.051568605005741119 0.20341037213802338
0.1524309366941452 0.67189973592758179 0.52532321214675903
0.28896602988243103 0.65780913829803467 0.50255215167999268
0.46384367346763611 0.62756609916687012 0.46574380993843079
0.62373250722885132 0.58793044090270996 0.4187886118888855
0.74958032369613647 0.55082237720489502 0.3774791955947876
0.83906280994415283 0.49398607015609741 0.35492351651191711
0.90715903043746948 0.39670175313949585 0.34118282794952393
0.3231995701789856 0.80724805593490601 0.53752285242080688
0.41197144985198975 0.79670089483261108 0.52286702394485474
0.54564827680587769 0.77439260482788086 0.48793214559555054
0.67996108531951904 0.74867844581604004 0.45949214696884155
0.79435092210769653 0.72372472286224365 0.43345582485198975
0.88507330417633057 0.69169044494628906 0.42140460014343262
0.96285617351531982 0.64395749568939209 0.42260482907295227
0.49891871213912964 0.90477067232131958 0.50331836938858032
0.55330735445022583 0.89733290672302246 0.49727866053581238
0.64770686626434326 0.88211619853973389 0.46883988380432129
0.74624878168106079 0.86382585763931274 0.45756363868713379
0.84498649835586548 0.84714138507843018 0.44240710139274597
0.92838752269744873 0.82334399223327637 0.44500553607940674
0.99222183227539062 0.79186666011810303 0.44639906287193298
0.71129363775253296 0.99364405870437622 0.204100102186203
0.7366529107093811 0.99249035120010376 0.21185402572154999
0.80257219076156616 0.98967438936233521 0.19295328855514526
0.86992907524108887 0.98013597726821899 0.21157974004745483
0.94688218832015991 0.96897739171981812 0.20262983441352844
0.99030894041061401 0.95067822933197021 0.23799015581607819
0.99938100576400757 0.92873072624206543 0.34709581732749939
0.0038378697354346514 0.019999230280518532 0.49458590149879456
0.10399483889341354 0.0066702747717499733 0.44726186990737915
0.24665491282939911 4.3083641685370822e-06 0.37634485960006714
0.39112293720245361 0 0.30421170592308044
0.51794946193695068 0 0.25253722071647644
0.62274444103240967 0.00057817349443212152 0.22467406094074249
0.70453363656997681 0.00051477469969540834 0.21525655686855316
0.033151276409626007 0.20248034596443176 0.57707315683364868
0.1547919362783432 0.16962774097919464 0.53248178958892822
0.31241306662559509 0.11634659022092819 0.46424728631973267
0.45448333024978638 0.067740738391876221 0.39496499300003052
0.5658799409866333 0.017105625942349434 0.33288195729255676
0.65067386627197266 2.8423233743524179e-05 0.28296253085136414
0.71719253063201904 0 0.24692095816135406
0.068372078239917755 0.44763010740280151 0.64743143320083618
0.2073255181312561 0.42557346820831299 0.61608320474624634
0.38423103094100952 0.38911369442939758 0.56279474496841431
0.53514224290847778 0.33219859004020691 0.50201511383056641
0.64467465877532959 0.24596866965293884 0.44259017705917358
0.72266530990600586 0.15847629308700562 0.39020004868507385
0.77676874399185181 0.046373628079891205 0.33637982606887817
0.15350741147994995 0.66408848762512207 0.70147478580474854
0.27548781037330627 0.6506848931312561 0.67932981252670288
0.4412820041179657 0.6248466968536377 0.63964313268661499
0.59463298320770264 0.59038406610488892 0.59010714292526245
0.7135615348815918 0.54609918594360352 0.5466427206993103
0.80412191152572632 0.49313509464263916 0.51219302415847778
0.87071019411087036 0.38309159874916077 0.46640530228614807
0.29339024424552917 0.80418521165847778 0.72805726528167725
0.37912416458129883 0.79583054780960083 0.70979994535446167
0.51019763946533203 0.77595871686935425 0.68075913190841675
0.6412232518196106 0.75379782915115356 0.64258337020874023
0.75095492601394653 0.72523766756057739 0.60614180564880371
0.84425097703933716 0.69479519128799438 0.58403849601745605
0.93273246288299561 0.65016430616378784 0.56048882007598877
0.45144796371459961 0.91013365983963013 0.7186049222946167
0.50244146585464478 0.90303653478622437 0.70812809467315674
0.59149372577667236 0.88947200775146484 0.68803149461746216
0.6933823823928833 0.87322646379470825 0.66520923376083374
0.78958368301391602 0.85510385036468506 0.63699507713317871
0.88270372152328491 0.83455789089202881 0.61920690536499023
0.97657305002212524 0.80154883861541748 0.61077570915222168
0.6108282208442688 0.99759715795516968 0.6051749587059021
0.64647418260574341 0.99558919668197632 0.5873226523399353
0.705852210521698 0.99307036399841309 0.57836717367172241
0.78076213598251343 0.98818504810333252 0.572334885597229
0.86139935255050659 0.98173689842224121 0.56281381845474243
0.94265186786651611 0.96936178207397461 0.55982273817062378
0.99987614154815674 0.9401012659072876 0.58363825082778931
0.013762305490672588 0.0053584231063723564 0.61308437585830688
0.12049206346273422 0.00040067784721031785 0.56410872936248779
0.25035777688026428 0 0.49646168947219849
0.37885913252830505 0 0.42983219027519226
0.49371457099914551 0 0.37947919964790344
0.59478318691253662 0 0.34995949268341064
0.67985594272613525 0 0.32395857572555542
0.065746590495109558 0.17414021492004395 0.69378364086151123
0.17727988958358765 0.14141342043876648 0.64758330583572388
0.31334874033927917 0.086631849408149719 0.58087605237960815
0.43990537524223328 0.033298298716545105 0.5105023980140686
0.54127633571624756 0.0012915218248963356 0.44857263565063477
0.62323778867721558 0 0.39888325333595276
0.69470560550689697 0 0.35639774799346924
0.13125544786453247 0.42695987224578857 0.76130759716033936
0.24078367650508881 0.40723499655723572 0.73180466890335083
0.38647234439849854 0.3715323805809021 0.67927348613739014
0.52161300182342529 0.30890324711799622 0.61694532632827759
0.62459516525268555 0.22959218919277191 0.5563470721244812
0.69673115015029907 0.13756635785102844 0.49860566854476929
0.74920803308486938 0.01979268342256546 0.43309834599494934
0.21208004653453827 0.65355348587036133 0.81702911853790283
0.30771198868751526 0.64145952463150024 0.79680728912353516
0.44579923152923584 0.61726677417755127 0.75728011131286621
0.5831139087677002 0.5839381217956543 0.7092665433883667
0.6945807933807373 0.54401117563247681 0.66449248790740967
0.78272998332977295 0.49600937962532043 0.62279093265533447
0.84714168310165405 0.3710210919380188 0.56316506862640381
0.32835572957992554 0.80001592636108398 0.84559351205825806
0.39881452918052673 0.79160183668136597 0.82859206199645996
0.5081062912940979 0.77401745319366455 0.79910486936569214
0.6255260705947876 0.75253951549530029 0.7620505690574646
0.72827452421188354 0.72662293910980225 0.72663480043411255
0.81951189041137695 0.69482487440109253 0.69433510303497314
0.90717679262161255 0.64352494478225708 0.65902310609817505
0.45353502035140991 0.90656816959381104 0.85438412427902222
0.49929356575012207 0.90318077802658081 0.83939963579177856
0.57310658693313599 0.89139121770858765 0.82202088832855225
0.66911441087722778 0.87683451175689697 0.79593980312347412
0.76169341802597046 0.85819816589355469 0.76693475246429443
0.85320430994033813 0.83805984258651733 0.74022573232650757
0.94844067096710205 0.80478394031524658 0.71463114023208618
0.57350361347198486 0.99472957849502563 0.82550394535064697
0.60348546504974365 0.99613362550735474 0.80879735946655273
0.65637195110321045 0.99224364757537842 0.80072510242462158
0.73116236925125122 0.98985618352890015 0.78004193305969238
0.81385320425033569 0.9855991005897522 0.7585790753364563
0.89953798055648804 0.977608323097229 0.74471646547317505
0.99192357063293457 0.94939035177230835 0.72479116916656494
0.055016059428453445 0 0.68748396635055542
0.15621545910835266 0 0.64302325248718262
0.27256205677986145 0 0.58425652980804443
0.38081318140029907 0 0.52235537767410278
0.47914576530456543 0 0.47147107124328613
0.57203572988510132 0 0.43671241402626038
0.66087335348129272 0 0.40991309285163879
0.13370421528816223 0.13326169550418854 0.75510740280151367
0.224659264087677 0.10696195811033249 0.71418887376785278
0.33777785301208496 0.066351421177387238 0.65501445531845093
0.44022530317306519 0.012169258669018745 0.58979862928390503
0.52608400583267212 1.1967677892243955e-05 0.53132337331771851
0.59856796264648438 0 0.47963404655456543
0.67411303520202637 0 0.43886950612068176
0.22501257061958313 0.39497613906860352 0.82295411825180054
0.30513283610343933 0.38047692179679871 0.79757684469223022
0.41940030455589294 0.34017994999885559 0.74968308210372925
0.52889776229858398 0.28579419851303101 0.6952248215675354
0.61352217197418213 0.21050487458705902 0.6382482647895813
0.67185491323471069 0.096480399370193481 0.57684600353240967
0.73118835687637329 0.01687278039753437 0.51682835817337036
0.3067840039730072 0.63776254653930664 0.88484323024749756
0.37594515085220337 0.62688219547271729 0.86662620306015015
0.48038500547409058 0.60220015048980713 0.83233845233917236
0.59162372350692749 0.5731080174446106 0.79178804159164429
0.68764680624008179 0.53387117385864258 0.75119507312774658
0.76600462198257446 0.47578465938568115 0.70790797472000122
0.83261078596115112 0.37072330713272095 0.64935445785522461
0.39764443039894104 0.78877431154251099 0.9205203652381897
0.45120346546173096 0.77943414449691772 0.90502643585205078
0.53444415330886841 0.76574993133544922 0.88072878122329712
0.62893646955490112 0.74779278039932251 0.85129231214523315
0.72011083364486694 0.72429376840591431 0.81923121213912964
0.80531251430511475 0.6924324631690979 0.78486371040344238
0.89115643501281738 0.64401674270629883 0.74443203210830688
0.48871320486068726 0.90172439813613892 0.93907135725021362
0.52574449777603149 0.89628738164901733 0.93076115846633911
0.58593666553497314 0.88890612125396729 0.91476345062255859
0.66438496112823486 0.87650591135025024 0.89476889371871948
0.75118434429168701 0.85703438520431519 0.86251205205917358
0.83382999897003174 0.83316564559936523 0.83582979440689087
0.92891377210617065 0.79980373382568359 0.79948681592941284
0.57321822643280029 0.99742752313613892 0.95471996068954468
0.59939217567443848 0.9955449104309082 0.95129728317260742
0.64265388250350952 0.99618750810623169 0.93506747484207153
0.71014642715454102 0.99356919527053833 0.91795957088470459
0.79239261150360107 0.98518317937850952 0.8941991925239563
0.87394440174102783 0.97885769605636597 0.86935657262802124
0.97603446245193481 0.95856863260269165 0.83439379930496216
0.11269199103116989 0 0.73721683025360107
0.20353175699710846 0 0.70001834630966187
0.30527529120445251 0 0.65416306257247925
0.39261782169342041 0 0.59840279817581177
0.47487702965736389 0 0.54942643642425537
0.56147050857543945 0 0.51407957077026367
0.65316033363342285 0 0.49150431156158447
0.2073797732591629 0.074330456554889679 0.78992831707000732
0.27763062715530396 0.046355035156011581 0.75457215309143066
0.36723446846008301 0.0273603405803442 0.70764541625976562
0.44586625695228577 0.0010419359896332026 0.65294790267944336
0.51537811756134033 0 0.59913754463195801
0.58195793628692627 0 0.5493817925453186
0.66087985038757324 0 0.51448845863342285
0.32388579845428467 0.34288516640663147 0.85919153690338135
0.3742372989654541 0.32589861750602722 0.83959704637527466
0.45765584707260132 0.29024717211723328 0.79942089319229126
0.53177094459533691 0.22628606855869293 0.7507595419883728
0.59740370512008667 0.16021272540092468 0.69932478666305542
0.6491820216178894 0.058103136718273163 0.63845616579055786
0.70491045713424683 0.00090499577345326543 0.57779192924499512
0.41328224539756775 0.60581690073013306 0.93188035488128662
0.45158150792121887 0.59499037265777588 0.91753441095352173
0.52175700664520264 0.57329422235488892 0.88969939947128296
0.60592555999755859 0.54544293880462646 0.85563802719116211
0.68196040391921997 0.50157755613327026 0.81815946102142334
0.75202125310897827 0.44242104887962341 0.77590525150299072
0.80502068996429443 0.30383485555648804 0.7099074125289917
0.47651952505111694 0.76651012897491455 0.98111814260482788
0.51475834846496582 0.76019400358200073 0.96852129697799683
0.57434546947479248 0.75130742788314819 0.94774770736694336
0.64596104621887207 0.73410367965698242 0.92289304733276367
0.71968626976013184 0.71021908521652222 0.89578843116760254
0.79626786708831787 0.68287932872772217 0.86569035053253174
0.87902522087097168 0.6319078803062439 0.82692384719848633
0.54020673036575317 0.88845694065093994 0.99980521202087402
0.5723118782043457 0.88567447662353516 0.99591559171676636
0.62316197156906128 0.87560242414474487 0.98852282762527466
0.68276971578598022 0.86291968822479248 0.97475844621658325
0.74840623140335083 0.84942281246185303 0.95271182060241699
0.81941509246826172 0.83061927556991577 0.93146634101867676
0.91539722681045532 0.79920077323913574 0.8974187970161438
0.61202049255371094 0.99336737394332886 1
0.62844526767730713 0.99727195501327515 0.99979352951049805
0.67053830623626709 0.99215525388717651 1
0.71732181310653687 0.99261516332626343 0.99784177541732788
0.78482478857040405 0.98605012893676758 0.99513614177703857
0.85575032234191895 0.97833633422851562 0.98577868938446045
0.96483141183853149 0.96517080068588257 0.96137756109237671
