assets/lut/films colorslide fuji astia 100f.cube
# Created by: G'MIC (https://gmic.eu)
TITLE "fuji_astia_100f"
# LUT size
LUT_3D_SIZE 5
# Data domain
DOMAIN_MIN 0.0 0.0 0.0
DOMAIN_MAX 1.0 1.0 1.0
# LUT data points
0.042214754968881607 0.039383023977279663 0.029565580189228058
0.25445377826690674 0.02938862144947052 0.023679502308368683
0.50184613466262817 0.035731926560401917 0.02919921837747097
0.74177277088165283 0.044182781130075455 0.059591811150312424
0.95009452104568481 0.079037532210350037 0.12643532454967499
0.12774753570556641 0.27490997314453125 0.15315775573253632
0.3064272403717041 0.27077636122703552 0.13543799519538879
0.54966741800308228 0.24470402300357819 0.12462355941534042
0.78333055973052979 0.15732736885547638 0.098784066736698151
0.98277127742767334 0.080976776778697968 0.11051773279905319
0.27593144774436951 0.52079969644546509 0.24196319282054901
0.41821140050888062 0.52314770221710205 0.22546525299549103
0.64601564407348633 0.5252947211265564 0.21621973812580109
0.87781322002410889 0.50463736057281494 0.2339598536491394
0.99959373474121094 0.36619311571121216 0.24839580059051514
0.39718329906463623 0.7420685887336731 0.36667612195014954
0.51049256324768066 0.74339461326599121 0.35835900902748108
0.7329944372177124 0.75662362575531006 0.32236617803573608
0.97468507289886475 0.75816142559051514 0.26295262575149536
0.99721533060073853 0.73534762859344482 0.29159241914749146
0.54889243841171265 0.92628836631774902 0.43527975678443909
0.65433609485626221 0.92140316963195801 0.43222853541374207
0.8218265175819397 0.93687278032302856 0.42514535784721375
1 0.94913327693939209 0.38764834403991699
1 0.9632260799407959 0.31957429647445679
0.01078377477824688 0.024954073131084442 0.164664626121521
0.21139636635780334 0.019257849082350731 0.14538468420505524
0.45564687252044678 0.023099668323993683 0.14223691821098328
0.71286284923553467 0.048358272761106491 0.1592431366443634
0.93938380479812622 0.091850727796554565 0.20566688477993011
0.090956881642341614 0.26847612857818604 0.2710384726524353
0.26236173510551453 0.26293477416038513 0.26132825016975403
0.50062215328216553 0.22892902791500092 0.23678292334079742
0.74744665622711182 0.15028670430183411 0.19168426096439362
0.9602515697479248 0.085177436470985413 0.18346808850765228
0.24605661630630493 0.52144259214401245 0.32650601863861084
0.37919968366622925 0.52275866270065308 0.32919147610664368
0.58849525451660156 0.51661056280136108 0.33805814385414124
0.80980056524276733 0.49075722694396973 0.35716965794563293
0.98936498165130615 0.37451747059822083 0.33289250731468201
0.46119055151939392 0.74596661329269409 0.3554747998714447
0.56526631116867065 0.75043046474456787 0.34071546792984009
0.76143616437911987 0.76110559701919556 0.32032296061515808
0.96279370784759521 0.75793159008026123 0.33911383152008057
0.99999827146530151 0.72802174091339111 0.44842329621315002
0.59892785549163818 0.92273283004760742 0.44956043362617493
0.67966753244400024 0.92693281173706055 0.44153347611427307
0.84546655416488647 0.94106680154800415 0.42522701621055603
0.9999614953994751 0.95582586526870728 0.38875743746757507
0.99934291839599609 0.96586424112319946 0.33973997831344604
0.003411969868466258 0.015981681644916534 0.26994651556015015
0.19491229951381683 0.020277673378586769 0.25387957692146301
0.43126693367958069 0.019205788150429726 0.2391466349363327
0.68347811698913574 0.061126828193664551 0.25441008806228638
0.91665256023406982 0.09265492856502533 0.27619755268096924
0.046165481209754944 0.25023022294044495 0.39753761887550354
0.22918708622455597 0.23817028105258942 0.382610023021698
0.46308183670043945 0.20387817919254303 0.3435676097869873
0.70493966341018677 0.11546620726585388 0.27847984433174133
0.92436718940734863 0.077674493193626404 0.2638280987739563
0.099465914070606232 0.51410090923309326 0.52882272005081177
0.2692381739616394 0.51576191186904907 0.52029049396514893
0.50718545913696289 0.50775790214538574 0.51393550634384155
0.74825847148895264 0.47681620717048645 0.48517519235610962
0.95995891094207764 0.33585917949676514 0.41283857822418213
0.36868351697921753 0.74418199062347412 0.53131604194641113
0.46775883436203003 0.74672526121139526 0.52926844358444214
0.63569408655166626 0.75694924592971802 0.55422794818878174
0.83056604862213135 0.75474351644515991 0.58545988798141479
0.99171793460845947 0.72129088640213013 0.61209279298782349
0.68080228567123413 0.9317927360534668 0.43447244167327881
0.74759954214096069 0.93714207410812378 0.43051159381866455
0.89783507585525513 0.94968920946121216 0.41629457473754883
1 0.96362674236297607 0.37246224284172058
1 0.96962058544158936 0.39613801240921021
0.029574539512395859 0.0022245370782911777 0.36288097500801086
0.20411083102226257 0.005337689071893692 0.35030260682106018
0.42218819260597229 0.013706416822969913 0.33744534850120544
0.66292250156402588 0.063443876802921295 0.34259107708930969
0.89560383558273315 0.091065578162670135 0.34526792168617249
0.082998760044574738 0.21065507829189301 0.49287661910057068
0.23945240676403046 0.20103755593299866 0.47481265664100647
0.45205700397491455 0.15443360805511475 0.42584162950515747
0.67994958162307739 0.092319875955581665 0.3636271059513092
0.8999018669128418 0.086418449878692627 0.34744507074356079
0.093700006604194641 0.49930047988891602 0.65820455551147461
0.25203415751457214 0.49944087862968445 0.64969712495803833
0.48549708724021912 0.49317032098770142 0.62988150119781494
0.71513921022415161 0.44551649689674377 0.5801551342010498
0.92702293395996094 0.27603369951248169 0.46518155932426453
0.20199856162071228 0.74173486232757568 0.76997953653335571
0.33245190978050232 0.74431657791137695 0.75862562656402588
0.53619015216827393 0.7486845850944519 0.75608962774276733
0.74856418371200562 0.74679911136627197 0.74317824840545654
0.95794129371643066 0.70236599445343018 0.71991336345672607
0.67824673652648926 0.94023925065994263 0.55434441566467285
0.72462016344070435 0.94301313161849976 0.56503510475158691
0.83231371641159058 0.95211970806121826 0.5863003134727478
0.93603616952896118 0.96308720111846924 0.63571047782897949
0.99952834844589233 0.96306908130645752 0.74743282794952393
0.1114971712231636 0 0.42502045631408691
0.25637531280517578 0.0206947922706604 0.43643629550933838
0.44963619112968445 0.016414478421211243 0.41576039791107178
0.66504085063934326 0.052118249237537384 0.41494989395141602
0.8784063458442688 0.080556370317935944 0.41902759671211243
0.203184574842453 0.1403542160987854 0.52944421768188477
0.30808490514755249 0.15167975425720215 0.52310878038406372
0.48477435111999512 0.10695219039916992 0.47354307770729065
0.68678075075149536 0.045245736837387085 0.40898317098617554
0.89012497663497925 0.090005524456501007 0.41481238603591919
0.24771787226200104 0.47076296806335449 0.72579479217529297
0.34324687719345093 0.46029943227767944 0.71199500560760498
0.52218925952911377 0.43969210982322693 0.67682570219039917
0.7265135645866394 0.38189062476158142 0.61618781089782715
0.91300243139266968 0.17106379568576813 0.46460950374603271
0.29932394623756409 0.73292452096939087 0.87728548049926758
0.39073702692985535 0.73311024904251099 0.87071037292480469
0.55284219980239868 0.73255664110183716 0.85643559694290161
0.73980915546417236 0.7238013744354248 0.83282840251922607
0.93208217620849609 0.66158843040466309 0.78126764297485352
0.45854303240776062 0.94165068864822388 0.96014845371246338
0.51463812589645386 0.94234174489974976 0.95773506164550781
0.63561958074569702 0.952381432056427 0.94989961385726929
0.77609771490097046 0.96053731441497803 0.96107453107833862
0.96536588668823242 0.96329373121261597 0.96095722913742065
