assets/lut/films colorslide lomography x-pro slide 200.cube
# Created by: G'MIC (https://gmic.eu)
TITLE "lomography_x-pro_slide_200"
# LUT size
LUT_3D_SIZE 5
# Data domain
DOMAIN_MIN 0.0 0.0 0.0
DOMAIN_MAX 1.0 1.0 1.0
# LUT data points
0.028125718235969543 0.028838273137807846 0.027323897927999496
0.19331173598766327 0.040393080562353134 0.031185958534479141
0.4522247314453125 0.057250242680311203 0.043296352028846741
0.79177790880203247 0.10837066918611526 0.048046860843896866
0.99528616666793823 0.20670698583126068 0.027904780581593513
0.10611195117235184 0.22379489243030548 0.085436455905437469
0.22702756524085999 0.23819546401500702 0.091343730688095093
0.48776516318321228 0.26427242159843445 0.10046474635601044
0.80004549026489258 0.31767764687538147 0.10291028767824173
0.99250280857086182 0.41075468063354492 0.074922911822795868
0.073481783270835876 0.53705984354019165 0.15203380584716797
0.25513479113578796 0.53439390659332275 0.16023387014865875
0.53340709209442139 0.56571710109710693 0.16095495223999023
0.81561416387557983 0.59331399202346802 0.1561126708984375
0.9694209098815918 0.65782952308654785 0.11855147033929825
0.25198912620544434 0.81809210777282715 0.27886447310447693
0.41874712705612183 0.8096277117729187 0.28354424238204956
0.638843834400177 0.81706362962722778 0.28389587998390198
0.82640182971954346 0.81988131999969482 0.28111588954925537
0.95211666822433472 0.84274148941040039 0.25783786177635193
0.68281960487365723 0.94907253980636597 0.52469724416732788
0.71364742517471313 0.95308178663253784 0.51018929481506348
0.7909313440322876 0.95187842845916748 0.50398629903793335
0.88006949424743652 0.94571548700332642 0.50315362215042114
0.9653555154800415 0.95500791072845459 0.50257694721221924
0.034775320440530777 0.020261771976947784 0.15671560168266296
0.18817916512489319 0.030671961605548859 0.16323782503604889
0.4541221559047699 0.045280024409294128 0.17017893493175507
0.79369473457336426 0.091825030744075775 0.18090501427650452
0.98983085155487061 0.2226579487323761 0.16363805532455444
0.10572902858257294 0.21172043681144714 0.21925964951515198
0.22727569937705994 0.22629563510417938 0.22640779614448547
0.48840731382369995 0.25474506616592407 0.23189224302768707
0.80423033237457275 0.30612674355506897 0.23647928237915039
0.99045336246490479 0.40844336152076721 0.21219056844711304
0.026852341368794441 0.53679955005645752 0.29693105816841125
0.2413143515586853 0.54004150629043579 0.30293926596641541
0.54031544923782349 0.55741602182388306 0.3108193576335907
0.81747865676879883 0.5938866138458252 0.31423962116241455
0.96882784366607666 0.66280800104141235 0.28682520985603333
0.25670590996742249 0.8178328275680542 0.41880470514297485
0.411773681640625 0.81822794675827026 0.42310768365859985
0.64952069520950317 0.81809210777282715 0.43461334705352783
0.82738155126571655 0.82908129692077637 0.43508854508399963
0.9531862735748291 0.841899573802948 0.41579282283782959
0.68292033672332764 0.95345985889434814 0.63177937269210815
0.72100257873535156 0.94964116811752319 0.62876850366592407
0.78698104619979858 0.95139342546463013 0.63571059703826904
0.87020611763000488 0.95077872276306152 0.63078445196151733
0.96341675519943237 0.96342337131500244 0.62111514806747437
0.032936036586761475 0.021374765783548355 0.34213897585868835
0.18955093622207642 0.015028096735477448 0.36243623495101929
0.47198706865310669 0.026171980425715446 0.38073372840881348
0.79736733436584473 0.07855573296546936 0.39090344309806824
0.99201887845993042 0.20294740796089172 0.38480144739151001
0.10846474021673203 0.19061887264251709 0.43055656552314758
0.23605330288410187 0.201483353972435 0.44437551498413086
0.50170224905014038 0.23319812119007111 0.45838791131973267
0.812397301197052 0.29078179597854614 0.46999692916870117
0.99180632829666138 0.39963015913963318 0.46241459250450134
0.048234589397907257 0.52177327871322632 0.52675610780715942
0.24438819289207458 0.52922064065933228 0.534809410572052
0.54593569040298462 0.54538869857788086 0.5461127758026123
0.81987082958221436 0.58855736255645752 0.55908769369125366
0.97017437219619751 0.65889173746109009 0.54717475175857544
0.24646192789077759 0.81789863109588623 0.63786286115646362
0.40368396043777466 0.82200837135314941 0.64447486400604248
0.64460676908493042 0.82013654708862305 0.65599042177200317
0.82905673980712891 0.83118844032287598 0.66331416368484497
0.95138132572174072 0.84741979837417603 0.65488678216934204
0.67022216320037842 0.96489763259887695 0.76963573694229126
0.71327751874923706 0.96058303117752075 0.77441728115081787
0.78556555509567261 0.95944297313690186 0.77981942892074585
0.87115943431854248 0.95962291955947876 0.78046703338623047
0.96472269296646118 0.97446995973587036 0.77353543043136597
0.020281309261918068 0.00081194710219278932 0.59207218885421753
0.1791316419839859 0.00035615809611044824 0.60939556360244751
0.46987339854240417 0.0044107325375080109 0.63667058944702148
0.80419766902923584 0.04214579239487648 0.65026521682739258
0.995494544506073 0.16466650366783142 0.63667327165603638
0.10731445252895355 0.1455189436674118 0.68441259860992432
0.23115561902523041 0.15836438536643982 0.69326353073120117
0.49866452813148499 0.18439041078090668 0.71410036087036133
0.80645084381103516 0.24053125083446503 0.73043656349182129
0.99475473165512085 0.35148853063583374 0.72362405061721802
0.073055654764175415 0.48284202814102173 0.74884188175201416
0.25601065158843994 0.48940640687942505 0.76119965314865112
0.55243521928787231 0.51340949535369873 0.77158671617507935
0.82144385576248169 0.55272930860519409 0.78555792570114136
0.9761054515838623 0.63499468564987183 0.78360509872436523
0.22945086658000946 0.81267112493515015 0.80129742622375488
0.39529839158058167 0.81842708587646484 0.8069031834602356
0.64402526617050171 0.81907320022583008 0.81816083192825317
0.82977414131164551 0.8267209529876709 0.82791370153427124
0.95530706644058228 0.84619289636611938 0.82975107431411743
0.68009728193283081 0.96693128347396851 0.86503833532333374
0.72081905603408813 0.96390891075134277 0.87251549959182739
0.78877764940261841 0.96608251333236694 0.87251025438308716
0.86868596076965332 0.96762186288833618 0.87674868106842041
0.96949392557144165 0.97827881574630737 0.87742072343826294
0.0075202491134405136 0 0.80010950565338135
0.15847322344779968 0 0.81577819585800171
0.45027783513069153 0 0.84425055980682373
0.79442542791366577 0.025450658053159714 0.86298316717147827
0.99831706285476685 0.1039820984005928 0.84228700399398804
0.10012590140104294 0.064441099762916565 0.86034810543060303
0.21766200661659241 0.087455734610557556 0.86823707818984985
0.48559612035751343 0.096821293234825134 0.88322263956069946
0.79697179794311523 0.16512325406074524 0.90335333347320557
0.99839568138122559 0.26988261938095093 0.89697766304016113
0.10657931864261627 0.39445739984512329 0.88652437925338745
0.28570181131362915 0.40899047255516052 0.89466363191604614
0.56197959184646606 0.42612189054489136 0.90470868349075317
0.81618249416351318 0.47664490342140198 0.91899091005325317
0.98701018095016479 0.5561143159866333 0.92085152864456177
0.18503181636333466 0.78341609239578247 0.90459161996841431
0.39120274782180786 0.78462404012680054 0.90931189060211182
0.63796615600585938 0.79239296913146973 0.91846215724945068
0.83131933212280273 0.80293124914169312 0.93092429637908936
0.96206516027450562 0.82935947179794312 0.93741244077682495
0.66890150308609009 0.96575307846069336 0.9505850076675415
0.71498221158981323 0.96402758359909058 0.95647925138473511
0.7877468466758728 0.96853786706924438 0.96116358041763306
0.86474883556365967 0.96771305799484253 0.96751374006271362
0.97458040714263916 0.97361773252487183 0.97602498531341553
