assets/lut/films negative color kodak portra 160 nc.cube
# Created by: G'MIC (https://gmic.eu)
TITLE "kodak_portra_160_nc"
# LUT size
LUT_3D_SIZE 7
# Data domain
DOMAIN_MIN 0.0 0.0 0.0
DOMAIN_MAX 1.0 1.0 1.0
# LUT data points
0.022088712081313133 0.028114857152104378 0.029729386791586876
0.11386207491159439 0.044703390449285507 0.029030982404947281
0.29133632779121399 0.065085873007774353 0.02500203438103199
0.51349401473999023 0.074244074523448944 0.010784583166241646
0.71594828367233276 0.085819408297538757 0.0016791848465800285
0.87027382850646973 0.14457704126834869 0.0011576933320611715
0.99014180898666382 0.22061486542224884 0.015370821580290794
0.0057781892828643322 0.13569140434265137 0.061414562165737152
0.096518546342849731 0.15971881151199341 0.032194625586271286
0.34810921549797058 0.19202786684036255 0.013981703668832779
0.55979001522064209 0.18970140814781189 0.0010463340440765023
0.73963254690170288 0.2041688859462738 0.00047625374281778932
0.88305467367172241 0.23587214946746826 0
0.99319851398468018 0.29030439257621765 0.006274922750890255
0.0023406981490552425 0.32950562238693237 0.11178268492221832
0.0027813632041215897 0.3338102400302887 0.094236068427562714
0.29122632741928101 0.3988705575466156 0.019306423142552376
0.6075286865234375 0.41329559683799744 0.0004305222537368536
0.76351237297058105 0.3738592267036438 0.00036775178159587085
0.89466267824172974 0.37038704752922058 0
0.99393379688262939 0.40059259533882141 0.0033212997950613499
0 0.50847154855728149 0.19830383360385895
0 0.510883629322052 0.20771345496177673
0.12832872569561005 0.53381741046905518 0.16823750734329224
0.49275627732276917 0.58330506086349487 0.07033209502696991
0.76488423347473145 0.60130900144577026 3.6621095205191523e-05
0.90968936681747437 0.55582493543624878 0
0.99326622486114502 0.53387588262557983 0.0067671979777514935
0.00077269313624128699 0.66120332479476929 0.3182920515537262
0.015502226538956165 0.66123378276824951 0.32665884494781494
0.16507400572299957 0.66318804025650024 0.32819625735282898
0.39121717214584351 0.68699491024017334 0.28172224760055542
0.65304708480834961 0.72653424739837646 0.17941707372665405
0.88278371095657349 0.74830394983291626 0.027866572141647339
0.99256646633148193 0.71281534433364868 0.095670871436595917
0.2299947589635849 0.79483926296234131 0.4883570671081543
0.26055079698562622 0.79511135816574097 0.4878728985786438
0.34563276171684265 0.79106235504150391 0.49235817790031433
0.45811495184898376 0.80063968896865845 0.47132155299186707
0.60393279790878296 0.82029557228088379 0.4420619010925293
0.78313136100769043 0.84581142663955688 0.35965725779533386
0.9702029824256897 0.86805391311645508 0.30069872736930847
0.5803600549697876 0.91437137126922607 0.70229893922805786
0.59204661846160889 0.91413611173629761 0.70383960008621216
0.61198490858078003 0.9135514497756958 0.70830345153808594
0.65160119533538818 0.91804301738739014 0.71320813894271851
0.71136713027954102 0.93348872661590576 0.69991803169250488
0.78970801830291748 0.94687020778656006 0.675556480884552
0.89985918998718262 0.96231549978256226 0.63764572143554688
0.02437947504222393 0.042997848242521286 0.13363435864448547
0.12675812840461731 0.049462411552667618 0.13511747121810913
0.30354723334312439 0.031807065010070801 0.12929242849349976
0.52877134084701538 0.045773599296808243 0.1394428014755249
0.711883544921875 0.095829874277114868 0.14532920718193054
0.86166352033615112 0.18510507047176361 0.15127870440483093
0.98714601993560791 0.24000367522239685 0.16214743256568909
0.0045571420341730118 0.16142584383487701 0.15911276638507843
0.13412946462631226 0.17181454598903656 0.16321146488189697
0.35188266634941101 0.18945492804050446 0.159475177526474
0.55694198608398438 0.20075488090515137 0.15858034789562225
0.72955405712127686 0.22062203288078308 0.1501806229352951
0.87555378675460815 0.25181156396865845 0.14813691377639771
0.98976033926010132 0.30793470144271851 0.16696776449680328
0.037503950297832489 0.35654303431510925 0.21971443295478821
0.09013492614030838 0.36324167251586914 0.22526907920837402
0.33349823951721191 0.40024241805076599 0.1823514997959137
0.60529893636703491 0.40031629800796509 0.14324600994586945
0.75855737924575806 0.37158656120300293 0.13770388066768646
0.89024782180786133 0.37915503978729248 0.14007754623889923
0.99247151613235474 0.41560748219490051 0.16833803057670593
0.076376639306545258 0.52950382232666016 0.30538731813430786
0.06713288277387619 0.5316663384437561 0.30378800630569458
0.24053932726383209 0.54092884063720703 0.2867608368396759
0.51462244987487793 0.58330100774765015 0.2180321216583252
0.76898336410522461 0.5963059663772583 0.13372696936130524
0.9041978120803833 0.55059623718261719 0.14255307614803314
0.99373209476470947 0.53813499212265015 0.16957865655422211
0.12229453027248383 0.67218285799026489 0.3954126238822937
0.15233075618743896 0.67108505964279175 0.3916093111038208
0.26024848222732544 0.66884487867355347 0.38867872953414917
0.43024498224258423 0.690024733543396 0.36306372284889221
0.66095900535583496 0.72291320562362671 0.30063235759735107
0.87689363956451416 0.74364084005355835 0.21816185116767883
0.99294382333755493 0.71212136745452881 0.2357134073972702
0.31406286358833313 0.79825127124786377 0.52370554208755493
0.34196507930755615 0.79650402069091797 0.5249747633934021
0.40036234259605408 0.7903328537940979 0.52738088369369507
0.49074149131774902 0.79916554689407349 0.5194704532623291
0.61878412961959839 0.81926614046096802 0.48758956789970398
0.79557567834854126 0.84878873825073242 0.42737141251564026
0.97499752044677734 0.87424445152282715 0.37758547067642212
0.59542053937911987 0.91451287269592285 0.7141345739364624
0.60413289070129395 0.91409313678741455 0.71341586112976074
0.62199801206588745 0.91238605976104736 0.71618771553039551
0.66319960355758667 0.91570806503295898 0.72651380300521851
0.71856117248535156 0.93201643228530884 0.71518224477767944
0.79070264101028442 0.94409841299057007 0.69435924291610718
0.90418392419815063 0.96259140968322754 0.65842175483703613
0.003774919779971242 0.061589185148477554 0.3396550714969635
0.1634785383939743 0.069325089454650879 0.34643036127090454
0.34611773490905762 0.074980534613132477 0.33916991949081421
0.54868900775909424 0.060532812029123306 0.31872162222862244
0.73739200830459595 0.046206649392843246 0.29866373538970947
0.87480443716049194 0.13656574487686157 0.30634066462516785
0.98066014051437378 0.28307703137397766 0.33842921257019043
0.00092094269348308444 0.19076994061470032 0.35844448208808899
0.14979475736618042 0.20222125947475433 0.36838406324386597
0.38358244299888611 0.23011134564876556 0.37132871150970459
0.5746886134147644 0.22677282989025116 0.35487651824951172
0.73741668462753296 0.22377663850784302 0.33169180154800415
0.86887985467910767 0.27387568354606628 0.33430519700050354
0.97822076082229614 0.35752144455909729 0.35786586999893188
0.014984789304435253 0.38698685169219971 0.38130137324333191
0.19221264123916626 0.39822334051132202 0.3977847695350647
0.39906728267669678 0.41330742835998535 0.40595656633377075
0.58862268924713135 0.41011756658554077 0.38809111714363098
0.73753517866134644 0.40670326352119446 0.37025728821754456
0.86649602651596069 0.42264434695243835 0.36506667733192444
0.98002231121063232 0.4528336226940155 0.36721938848495483
0.25338277220726013 0.55677902698516846 0.44829002022743225
0.33317869901657104 0.56041282415390015 0.456258624792099
0.39658239483833313 0.55702888965606689 0.45020872354507446
0.5578499436378479 0.58842158317565918 0.41813915967941284
0.7593843936920166 0.57804763317108154 0.38339900970458984
0.8873295783996582 0.5580592155456543 0.37083661556243896
0.98821383714675903 0.56077802181243896 0.36798521876335144
0.37290871143341064 0.68635863065719604 0.52403455972671509
0.39220035076141357 0.68568605184555054 0.51857131719589233
0.41226503252983093 0.68408393859863281 0.50455641746520996
0.49206525087356567 0.69026607275009155 0.48953533172607422
0.68763440847396851 0.7257726788520813 0.45154270529747009
0.88284921646118164 0.7400621771812439 0.40850722789764404
0.99236178398132324 0.70749980211257935 0.40182316303253174
0.47468787431716919 0.80116850137710571 0.61160165071487427
0.4744172990322113 0.79938560724258423 0.60412663221359253
0.48829436302185059 0.79823344945907593 0.59666150808334351
0.54418623447418213 0.79678976535797119 0.5974850058555603
0.64493697881698608 0.81825655698776245 0.57767033576965332
0.80336445569992065 0.84777551889419556 0.53835415840148926
0.96123480796813965 0.86194729804992676 0.50483608245849609
0.63187491893768311 0.91796875 0.74420332908630371
0.63190543651580811 0.91409313678741455 0.73932182788848877
0.64739334583282471 0.91410559415817261 0.740916907787323
0.68567913770675659 0.91706269979476929 0.75139963626861572
0.73192125558853149 0.92730259895324707 0.74957376718521118
0.80583637952804565 0.94521766901016235 0.73247402906417847
0.91540628671646118 0.96416270732879639 0.7022431492805481
0.0062760896980762482 0.097310148179531097 0.5555533766746521
0.18264050781726837 0.10607618093490601 0.55553686618804932
0.41526508331298828 0.14122891426086426 0.57043838500976562
0.60042929649353027 0.17297780513763428 0.56262600421905518
0.74104243516921997 0.20659612119197845 0.52717882394790649
0.88720834255218506 0.2389887273311615 0.49558421969413757
0.99192714691162109 0.28603577613830566 0.48046353459358215
0.0036271936260163784 0.22950012981891632 0.57128548622131348
0.19392293691635132 0.24141359329223633 0.57685184478759766
0.4367181658744812 0.27484071254730225 0.58216720819473267
0.61559218168258667 0.30093079805374146 0.5771755576133728
0.74594056606292725 0.3140336275100708 0.53889024257659912
0.88257414102554321 0.33008167147636414 0.50644266605377197
0.98494505882263184 0.37741634249687195 0.50646507740020752
0.00016371783567592502 0.41085246205329895 0.57110953330993652
0.18393824994564056 0.41609898209571838 0.57932376861572266
0.42827242612838745 0.43328171968460083 0.58742713928222656
0.61515384912490845 0.45912110805511475 0.5903315544128418
0.74299883842468262 0.45291301608085632 0.56056547164916992
0.86769002676010132 0.45136332511901855 0.53216350078582764
0.9741329550743103 0.46597245335578918 0.52331048250198364
0.19531425833702087 0.57552993297576904 0.57903444766998291
0.31510734558105469 0.58036714792251587 0.58693289756774902
0.45937001705169678 0.58686310052871704 0.59268110990524292
0.60612291097640991 0.59619361162185669 0.60244309902191162
0.74581485986709595 0.58860963582992554 0.57995927333831787
0.85828524827957153 0.57819068431854248 0.55591589212417603
0.96709209680557251 0.58307528495788574 0.54535293579101562
0.43645191192626953 0.70305079221725464 0.62564730644226074
0.48135310411453247 0.70484793186187744 0.63306033611297607
0.55446451902389526 0.70632994174957275 0.64410179853439331
0.59998351335525513 0.70429569482803345 0.63221299648284912
0.71549975872039795 0.72863304615020752 0.61103188991546631
0.86890649795532227 0.72657322883605957 0.58448970317840576
0.97673636674880981 0.70617026090621948 0.56956082582473755
0.57842057943344116 0.80766397714614868 0.70304924249649048
0.58836942911148071 0.80809450149536133 0.70343917608261108
0.61040800809860229 0.80926543474197388 0.70070832967758179
0.62034279108047485 0.80547028779983521 0.68289840221405029
0.68047416210174561 0.81452935934066772 0.67525053024291992
0.81781065464019775 0.8410947322845459 0.65498512983322144
0.96584039926528931 0.86047816276550293 0.63128489255905151
0.69235455989837646 0.9180719256401062 0.79694956541061401
0.69427180290222168 0.9154897928237915 0.79455435276031494
0.70349240303039551 0.9188188910484314 0.79155069589614868
0.71450108289718628 0.92158645391464233 0.78649783134460449
0.75193482637405396 0.9241490364074707 0.7873769998550415
0.81728458404541016 0.94211018085479736 0.77569442987442017
0.92338186502456665 0.96443778276443481 0.75633996725082397
0.10169656574726105 0.1703646332025528 0.73557239770889282
0.25551900267601013 0.18419128656387329 0.73438090085983276
0.45451474189758301 0.21703967452049255 0.73687994480133057
0.64211750030517578 0.27796438336372375 0.74099653959274292
0.78103190660476685 0.31794002652168274 0.73104196786880493
0.87158328294754028 0.34163299202919006 0.69260877370834351
0.97772562503814697 0.43577179312705994 0.67927175760269165
0.12993466854095459 0.28878298401832581 0.74289995431900024
0.28202676773071289 0.29736784100532532 0.74130284786224365
0.46823832392692566 0.32093000411987305 0.74147695302963257
0.64771074056625366 0.37522181868553162 0.74705523252487183
0.78002274036407471 0.40147903561592102 0.7358100414276123
0.87584728002548218 0.42033630609512329 0.70692020654678345
0.97493064403533936 0.48744961619377136 0.69193875789642334
0.15047180652618408 0.4385932981967926 0.73262250423431396
0.2918059229850769 0.44329696893692017 0.73672193288803101
0.4701540470123291 0.46046990156173706 0.73851346969604492
0.64273571968078613 0.49958705902099609 0.74712115526199341
0.7698095440864563 0.52128708362579346 0.73980116844177246
0.86402469873428345 0.53573042154312134 0.71884840726852417
0.96613222360610962 0.56578254699707031 0.70213723182678223
0.1758669912815094 0.57968217134475708 0.72060286998748779
0.30256673693656921 0.58520978689193726 0.7271573543548584
0.45407918095588684 0.5930132269859314 0.7270779013633728
0.61887925863265991 0.60902947187423706 0.73811233043670654
0.76199644804000854 0.63700324296951294 0.74479407072067261
0.85143750905990601 0.635794997215271 0.72599756717681885
0.9556613564491272 0.62911242246627808 0.70192360877990723
0.41624137759208679 0.71551603078842163 0.72756516933441162
0.4520907998085022 0.71703183650970459 0.72790539264678955
0.53293049335479736 0.71886134147644043 0.73363065719604492
0.64268302917480469 0.72331541776657104 0.74212592840194702
0.74698692560195923 0.73151892423629761 0.74733817577362061
0.85176569223403931 0.72306406497955322 0.72989821434020996
0.95672285556793213 0.72297602891921997 0.71817159652709961
0.59418278932571411 0.82312405109405518 0.7642967700958252
0.61010223627090454 0.82381671667098999 0.76984721422195435
0.65426898002624512 0.82364749908447266 0.77707034349441528
0.70420628786087036 0.82172566652297974 0.77687865495681763
0.75106179714202881 0.82554274797439575 0.77849441766738892
0.83776062726974487 0.84648901224136353 0.76443755626678467
0.96718257665634155 0.85113871097564697 0.74848181009292603
0.72346317768096924 0.92553138732910156 0.83961731195449829
0.72769969701766968 0.92489337921142578 0.8419119119644165
0.74968701601028442 0.92588651180267334 0.84271508455276489
0.7672504186630249 0.92837512493133545 0.83977979421615601
0.78337442874908447 0.93132925033569336 0.83359736204147339
0.83244490623474121 0.94126272201538086 0.83013570308685303
0.93128770589828491 0.96380883455276489 0.81884992122650146
0.31077355146408081 0.29045888781547546 0.86299651861190796
0.38849496841430664 0.30566897988319397 0.86152833700180054
0.52215832471847534 0.33327305316925049 0.85725677013397217
0.66823768615722656 0.37732231616973877 0.85800915956497192
0.80629092454910278 0.45665669441223145 0.86019814014434814
0.8932991623878479 0.4899732768535614 0.84231287240982056
0.9707343578338623 0.50468659400939941 0.82671302556991577
0.34200635552406311 0.37167713046073914 0.85943877696990967
0.41002872586250305 0.38107779622077942 0.86071336269378662
0.53350543975830078 0.4052274227142334 0.85776525735855103
0.67141520977020264 0.44269737601280212 0.85664635896682739
0.80197978019714355 0.51066404581069946 0.85833597183227539
0.88938194513320923 0.53324538469314575 0.84197163581848145
0.96991217136383057 0.5489690899848938 0.83329480886459351
0.37781688570976257 0.49111476540565491 0.85420358180999756
0.42769894003868103 0.49521562457084656 0.85549390316009521
0.54367750883102417 0.51379954814910889 0.85404592752456665
0.67588895559310913 0.54656094312667847 0.85524380207061768
0.79833173751831055 0.60029047727584839 0.85726410150527954
0.88255709409713745 0.61637043952941895 0.84858876466751099
0.95347166061401367 0.61892879009246826 0.83227658271789551
0.32985290884971619 0.59888303279876709 0.84307092428207397
0.40694606304168701 0.60731077194213867 0.84619343280792236
0.52677899599075317 0.61732673645019531 0.8454318642616272
0.65908986330032349 0.63631099462509155 0.84899938106536865
0.79135960340499878 0.67569601535797119 0.85645753145217896
0.87925863265991211 0.69608849287033081 0.85436761379241943
0.95190775394439697 0.69987338781356812 0.84547680616378784
0.40338903665542603 0.71794122457504272 0.83683639764785767
0.45580187439918518 0.72308957576751709 0.83982861042022705
0.52565336227416992 0.72309577465057373 0.83967816829681396
0.63145560026168823 0.72689622640609741 0.84057462215423584
0.76660454273223877 0.74778980016708374 0.85102337598800659
0.86995267868041992 0.77446848154067993 0.85439217090606689
0.9484257698059082 0.77301371097564697 0.84924781322479248
0.566852867603302 0.83128410577774048 0.84111541509628296
0.59259712696075439 0.83455425500869751 0.84726417064666748
0.63264697790145874 0.83463519811630249 0.84753167629241943
0.69822639226913452 0.83716887235641479 0.84955787658691406
0.77581936120986938 0.84039616584777832 0.85762536525726318
0.85870116949081421 0.84955286979675293 0.86236113309860229
0.95716959238052368 0.85115796327590942 0.8555375337600708
0.72199040651321411 0.93128180503845215 0.88351041078567505
0.72092258930206299 0.93094831705093384 0.88431912660598755
0.75309807062149048 0.93337446451187134 0.88801747560501099
0.79454505443572998 0.93762767314910889 0.89229041337966919
0.83499538898468018 0.93986004590988159 0.89691931009292603
0.87203347682952881 0.94348311424255371 0.89457142353057861
0.95240849256515503 0.96687799692153931 0.88959133625030518
0.53264153003692627 0.4731997549533844 0.95902442932128906
0.56613975763320923 0.47763210535049438 0.95933014154434204
0.64068514108657837 0.50541394948959351 0.9552118182182312
0.73734307289123535 0.54089152812957764 0.95186054706573486
0.83367174863815308 0.59099006652832031 0.94773983955383301
0.92048466205596924 0.65516263246536255 0.94809222221374512
0.99505305290222168 0.66361361742019653 0.94722384214401245
0.5434069037437439 0.51570135354995728 0.95624476671218872
0.57890361547470093 0.52164286375045776 0.9571908712387085
0.65074795484542847 0.54686456918716431 0.95377641916275024
0.74283456802368164 0.58020353317260742 0.95056980848312378
0.83280187845230103 0.61852347850799561 0.9476693868637085
0.91982471942901611 0.67330735921859741 0.94673836231231689
0.99099278450012207 0.68573808670043945 0.94716817140579224
0.56827390193939209 0.5969468355178833 0.95479351282119751
0.59658753871917725 0.59905803203582764 0.95446538925170898
0.6596028208732605 0.61612892150878906 0.95135688781738281
0.74383443593978882 0.6378180980682373 0.94918477535247803
0.83070480823516846 0.66819709539413452 0.94765645265579224
0.91404736042022705 0.70733815431594849 0.94396048784255981
0.97807598114013672 0.72278249263763428 0.94018077850341797
0.54873210191726685 0.67129242420196533 0.95132541656494141
0.58462768793106079 0.67625051736831665 0.95112705230712891
0.64911985397338867 0.68536156415939331 0.95007026195526123
0.72991663217544556 0.7001461386680603 0.94822770357131958
0.82487177848815918 0.72360295057296753 0.94613111019134521
0.91113799810409546 0.76426833868026733 0.94702565670013428
0.97667932510375977 0.76807159185409546 0.9468846321105957
0.51378250122070312 0.75715100765228271 0.94709384441375732
0.54760956764221191 0.76081192493438721 0.94859069585800171
0.60486173629760742 0.75928270816802979 0.94783943891525269
0.68821185827255249 0.76170730590820312 0.94880050420761108
0.80295681953430176 0.77934390306472778 0.95101535320281982
0.90308201313018799 0.81409281492233276 0.95510637760162354
0.97175949811935425 0.82604736089706421 0.95409083366394043
0.60760188102722168 0.85902392864227295 0.94582509994506836
0.62467843294143677 0.86429327726364136 0.94924134016036987
0.64755034446716309 0.85834527015686035 0.94456422328948975
0.69611883163452148 0.85573679208755493 0.94797009229660034
0.77906554937362671 0.85734814405441284 0.94893735647201538
0.88471424579620361 0.87094789743423462 0.95772331953048706
0.97094780206680298 0.89756369590759277 0.96026182174682617
0.71169155836105347 0.95308417081832886 0.95432054996490479
0.71560806035995483 0.95067501068115234 0.95329850912094116
0.74236947298049927 0.95160192251205444 0.95582836866378784
0.77956134080886841 0.95532804727554321 0.95848262310028076
0.83411884307861328 0.95644629001617432 0.96242606639862061
0.89454954862594604 0.96024692058563232 0.96352827548980713
0.9796634316444397 0.97233778238296509 0.97543179988861084
