assets/lut/films print kodak 2383 cuspclip.cube
# Created by: G'MIC (https://gmic.eu)
TITLE "kodak_2383_cuspclip"
# LUT size
LUT_3D_SIZE 13
# Data domain
DOMAIN_MIN 0.0 0.0 0.0
DOMAIN_MAX 1.0 1.0 1.0
# LUT data points
0.015678869560360909 0.024605005979537964 0.029940018430352211
0.036728639155626297 0.032441698014736176 0.03044312447309494
0.059990514069795609 0.03904293105006218 0.028820861130952835
0.094432264566421509 0.045078173279762268 0.025413887575268745
0.16430722177028656 0.053899876773357391 0.020876193419098854
0.26204726099967957 0.062641948461532593 0.010525751858949661
0.36706140637397766 0.071784138679504395 0.0042320401407778263
0.46134331822395325 0.083657130599021912 0.0038739223964512348
0.5454399585723877 0.10518655180931091 0.0010815938003361225
0.60667818784713745 0.12254399061203003 0.00081022671656683087
0.63441181182861328 0.12772479653358459 0.0040800655260682106
0.65429741144180298 0.1357085108757019 0.0055355294607579708
0.66363108158111572 0.14283847808837891 0.0038672951050102711
0.012690016999840736 0.045361537486314774 0.037436407059431076
0.031631678342819214 0.05121205747127533 0.036815058439970016
0.060474127531051636 0.057310964912176132 0.035329811275005341
0.099287457764148712 0.060827173292636871 0.032571353018283844
0.16621096432209015 0.068137809634208679 0.025382427498698235
0.27580255270004272 0.081467755138874054 0.015048771165311337
0.39020624756813049 0.095594637095928192 0.0070180706679821014
0.49175769090652466 0.10534743964672089 0.0039215688593685627
0.57106500864028931 0.12394996732473373 0.0032187965698540211
0.62778729200363159 0.14183707535266876 0.0060991323553025723
0.65886384248733521 0.14961826801300049 0.009047369472682476
0.67914777994155884 0.15881384909152985 0.012383090332150459
0.68875795602798462 0.16425324976444244 0.012484830804169178
0.0088698295876383781 0.068228267133235931 0.044885300099849701
0.022753681987524033 0.072232641279697418 0.044121012091636658
0.057432916015386581 0.080321922898292542 0.042116757482290268
0.10165338218212128 0.088477909564971924 0.03781668096780777
0.17626014351844788 0.096535854041576385 0.025587838143110275
0.28898122906684875 0.10987062752246857 0.014539980329573154
0.40829646587371826 0.12568436563014984 0.0084708267822861671
0.52335667610168457 0.13918930292129517 0.0033787896391004324
0.60162723064422607 0.15537862479686737 0.004191290121525526
0.65426725149154663 0.17181169986724854 0.011357639916241169
0.69114983081817627 0.18107348680496216 0.015779308974742889
0.7088969349861145 0.19037899374961853 0.017127452418208122
0.71829801797866821 0.19438152015209198 0.015057552605867386
0.0053241653367877007 0.094763211905956268 0.053425479680299759
0.01065978966653347 0.095064245164394379 0.050847761332988739
0.04590442031621933 0.10952425003051758 0.047795537859201431
0.10375934839248657 0.12961836159229279 0.039547190070152283
0.18824660778045654 0.13503175973892212 0.019254900515079498
0.29925015568733215 0.14714999496936798 0.0069338479079306126
0.42874431610107422 0.17191103100776672 0.004086214117705822
0.55662411451339722 0.19339287281036377 0.0017712612170726061
0.63983458280563354 0.211308553814888 0.00417327880859375
0.68822586536407471 0.2206788957118988 0.0085645783692598343
0.72274154424667358 0.22347436845302582 0.015464453957974911
0.7389824390411377 0.23232601583003998 0.022908993065357208
0.75059306621551514 0.23591126501560211 0.016122825443744659
0.006219018716365099 0.15407036244869232 0.080157801508903503
0.0052482453174889088 0.15028311312198639 0.07153976708650589
0.024519467726349831 0.16290487349033356 0.052357364445924759
0.094978228211402893 0.17750902473926544 0.044289890676736832
0.20391562581062317 0.19033022224903107 0.022642591968178749
0.34600949287414551 0.22538618743419647 0.0032681932207196951
0.49113589525222778 0.26312452554702759 0.001783902058377862
0.61388593912124634 0.28145086765289307 0.0012138965539634228
0.69814252853393555 0.29740703105926514 0.0054927151650190353
0.73840785026550293 0.30159977078437805 0.011457376182079315
0.76276278495788574 0.29776495695114136 0.010941449552774429
0.77863574028015137 0.31030622124671936 0.023351721465587616
0.792510986328125 0.32262232899665833 0.021232739090919495
0.016196532174944878 0.2570318877696991 0.13214296102523804
0.013106297701597214 0.25512975454330444 0.1141374483704567
0.0071752960793673992 0.25226393342018127 0.071294240653514862
0.058676101267337799 0.25888144969940186 0.040542393922805786
0.21784302592277527 0.2935451865196228 0.024178164079785347
0.40462797880172729 0.33700323104858398 0.0060422113165259361
0.55991125106811523 0.37384653091430664 0.0035896601621061563
0.6760525107383728 0.39506375789642334 0.0083042969927191734
0.75480258464813232 0.40923935174942017 0.017031606286764145
0.79447418451309204 0.41468223929405212 0.029119858518242836
0.81599044799804688 0.41969043016433716 0.01991056464612484
0.82963544130325317 0.42888396978378296 0.0094157950952649117
0.83886635303497314 0.44162669777870178 0.014922422356903553
0.027626905590295792 0.36462634801864624 0.18786084651947021
0.020225465297698975 0.36629432439804077 0.16728796064853668
0.0068537243641912937 0.36682763695716858 0.11749119311571121
0.027079308405518532 0.36386010050773621 0.038625799119472504
0.1958947479724884 0.40098637342453003 0.0088800918310880661
0.43141007423400879 0.45207247138023376 0.0038256326224654913
0.6016920804977417 0.50090348720550537 0.0079354085028171539
0.72676974534988403 0.53100138902664185 0.018508777022361755
0.80587166547775269 0.54209810495376587 0.022431990131735802
0.84171700477600098 0.53827375173568726 0.018536586314439774
0.8627970814704895 0.54850590229034424 0.015153802931308746
0.87609785795211792 0.5593000054359436 0.010670890100300312
0.88231861591339111 0.55902540683746338 0.0074958950281143188
0.026246972382068634 0.45310765504837036 0.22517037391662598
0.020923584699630737 0.46112623810768127 0.2133103609085083
0.014784150756895542 0.46860986948013306 0.17648744583129883
0.0097956191748380661 0.4612182080745697 0.073388494551181793
0.15420250594615936 0.49811592698097229 0.0053567024879157543
0.44560325145721436 0.56377971172332764 0.0013530806172639132
0.64410781860351562 0.62537038326263428 0.0065342769958078861
0.77396887540817261 0.65325188636779785 0.016485640779137611
0.84861302375793457 0.65962618589401245 0.022871892899274826
0.88373416662216187 0.65674775838851929 0.024640744552016258
0.90500384569168091 0.66825354099273682 0.031396932899951935
0.91661173105239868 0.67433798313140869 0.032059747725725174
0.92473244667053223 0.67789912223815918 0.031742889434099197
0.027617750689387321 0.51122480630874634 0.24898062646389008
0.033742569386959076 0.52366501092910767 0.24194857478141785
0.02528807707130909 0.53765839338302612 0.21411089599132538
0.0063569014891982079 0.5437818169593811 0.11309259384870529
0.13681319355964661 0.57892888784408569 0.0077723781578242779
0.44987025856971741 0.64777541160583496 0.001689222757704556
0.67401725053787231 0.71492600440979004 0.011086408048868179
0.80839002132415771 0.74384438991546631 0.035069156438112259
0.87842094898223877 0.74974775314331055 0.056098457425832748
0.91511356830596924 0.74838382005691528 0.060925576835870743
0.93193018436431885 0.74505829811096191 0.060720961540937424
0.94313478469848633 0.74908310174942017 0.063793689012527466
0.95344054698944092 0.7583577036857605 0.069730393588542938
0.019841855391860008 0.54377263784408569 0.26411724090576172
0.036078717559576035 0.55853110551834106 0.25621721148490906
0.020399115979671478 0.57147699594497681 0.2238890677690506
0.015501059591770172 0.59236019849777222 0.12482660263776779
0.14800684154033661 0.63444066047668457 0.010151313617825508
0.4825197160243988 0.70796042680740356 0.0023823308292776346
0.69658112525939941 0.76648408174514771 0.017096171155571938
0.82345986366271973 0.79343521595001221 0.050403114408254623
0.89154863357543945 0.79718983173370361 0.068363353610038757
0.93120878934860229 0.79502731561660767 0.078710250556468964
0.9462510347366333 0.78501451015472412 0.078315511345863342
0.95781612396240234 0.78734195232391357 0.083700977265834808
0.96718621253967285 0.79464578628540039 0.09308084100484848
0.041096273809671402 0.56606566905975342 0.2749563455581665
0.037543099373579025 0.58021539449691772 0.2624146044254303
0.021964458748698235 0.59243571758270264 0.22124591469764709
0.034524250775575638 0.61477762460708618 0.12057080864906311
0.1788627952337265 0.65944552421569824 0.0089792590588331223
0.5054665207862854 0.73461228609085083 0.0055208993144333363
0.70273548364639282 0.78865760564804077 0.024167528375983238
0.82941365242004395 0.8176993727684021 0.051289577037096024
0.89558911323547363 0.82009345293045044 0.070063523948192596
0.94037294387817383 0.820029616355896 0.083973050117492676
0.95822912454605103 0.81720459461212158 0.088368088006973267
0.96963626146316528 0.81691479682922363 0.095662198960781097
0.97868961095809937 0.82276242971420288 0.11426685005426407
0.031564868986606598 0.58052152395248413 0.27742069959640503
0.02416464127600193 0.59631109237670898 0.25407177209854126
0.0087693901732563972 0.60790395736694336 0.19515602290630341
0.040467683225870132 0.629658043384552 0.080345749855041504
0.22674660384654999 0.68028420209884644 0.0090690460056066513
0.52078020572662354 0.7470775842666626 0.0070101269520819187
0.70690548419952393 0.79792678356170654 0.026657538488507271
0.83518338203430176 0.82924920320510864 0.051328994333744049
0.90362465381622314 0.8369486927986145 0.073790006339550018
0.94861578941345215 0.83936047554016113 0.088834874331951141
0.96768224239349365 0.83987367153167725 0.093095503747463226
0.98003602027893066 0.84235268831253052 0.102297343313694
0.98827606439590454 0.84431898593902588 0.12216648459434509
0.018479246646165848 0.60429495573043823 0.27365425229072571
0.013316120952367783 0.61770391464233398 0.23095418512821198
0.015948725864291191 0.63215500116348267 0.13139724731445312
0.080057345330715179 0.65550154447555542 0.025433139875531197
0.31930676102638245 0.70884627103805542 0.0038269641809165478
0.54860788583755493 0.76179665327072144 0.0049667959101498127
0.71929579973220825 0.80648940801620483 0.020285962149500847
0.83777135610580444 0.83655369281768799 0.046702813357114792
0.90625506639480591 0.84712934494018555 0.071243941783905029
0.94799476861953735 0.85166579484939575 0.084754019975662231
0.97282737493515015 0.85400527715682983 0.098050586879253387
0.98578029870986938 0.85590583086013794 0.10720118880271912
0.99391549825668335 0.85520768165588379 0.11182273179292679
0.014595450833439827 0.025072718039155006 0.046305142343044281
0.036004353314638138 0.032669231295585632 0.047069564461708069
0.061515748500823975 0.040173906832933426 0.045943628996610641
0.092248134315013885 0.046980105340480804 0.041318856179714203
0.15522688627243042 0.054210230708122253 0.032940283417701721
0.25875753164291382 0.061187788844108582 0.01512858085334301
0.36878150701522827 0.06067199632525444 0.0036816466599702835
0.47013410925865173 0.059179656207561493 0.0026053634937852621
0.55535197257995605 0.07590194046497345 0.000912714924197644
0.60753732919692993 0.077110052108764648 0.0001074697429430671
0.63883787393569946 0.07930360734462738 0.0019984077662229538
0.65995091199874878 0.087877251207828522 0.0028974495362490416
0.67261183261871338 0.093460425734519958 0.0014955109218135476
0.0107077956199646 0.044678930193185806 0.052058201283216476
0.027936508879065514 0.049421843141317368 0.051455777138471603
0.058323219418525696 0.057472169399261475 0.051676250994205475
0.10040353238582611 0.0661444291472435 0.051359739154577255
0.16738590598106384 0.074148930609226227 0.044168286025524139
0.27736672759056091 0.081882238388061523 0.02447529137134552
0.39648699760437012 0.08271375298500061 0.0096540562808513641
0.50314724445343018 0.079057700932025909 0.0044218176044523716
0.58266371488571167 0.094457797706127167 0.0026508106384426355
0.63376021385192871 0.09085458517074585 0.0042365877889096737
0.66756290197372437 0.098605811595916748 0.0047752829268574715
0.68745285272598267 0.11501119285821915 0.0052987192757427692
0.69678324460983276 0.12048888951539993 0.0052514318376779556
0.0077881906181573868 0.066837474703788757 0.057602331042289734
0.018029008060693741 0.069091245532035828 0.05648447573184967
0.05410124734044075 0.078768201172351837 0.057124238461256027
0.10498839616775513 0.091701075434684753 0.059048432856798172
0.17853021621704102 0.10053739696741104 0.048947621136903763
0.2940402626991272 0.1088082417845726 0.027796875685453415
0.41797643899917603 0.11555391550064087 0.011129611171782017
0.53721576929092407 0.12434575706720352 0.0052789873443543911
0.61979824304580688 0.13345238566398621 0.0047249589115381241
0.66639691591262817 0.12880291044712067 0.0080434009432792664
0.699485182762146 0.13662508130073547 0.0089099211618304253
0.71702295541763306 0.15138690173625946 0.0078579625114798546
0.72541868686676025 0.14829838275909424 0.0083047756925225258
0.0043927361257374287 0.097849659621715546 0.06844685971736908
0.0083606792613863945 0.09623323380947113 0.065358072519302368
0.043943427503108978 0.11211377382278442 0.064356863498687744
0.10766951739788055 0.13215221464633942 0.060817837715148926
0.19084574282169342 0.13785973191261292 0.04166577011346817
0.31156980991363525 0.14935700595378876 0.019109150394797325
0.44336524605751038 0.16503986716270447 0.006156502291560173
0.56518542766571045 0.18182635307312012 0.0039372760802507401
0.65805089473724365 0.2033122181892395 0.0052259406074881554
0.7072451114654541 0.20669366419315338 0.0080453166738152504
0.73365706205368042 0.19529491662979126 0.008959691971540451
0.74903815984725952 0.20288074016571045 0.0096653960645198822
0.75747418403625488 0.20285776257514954 0.0092587191611528397
0.0059516159817576408 0.16496838629245758 0.10188227891921997
0.004975547082722187 0.15689714252948761 0.089870959520339966
0.022640915587544441 0.16069196164608002 0.076605670154094696
0.097787804901599884 0.17923727631568909 0.065006375312805176
0.21042768657207489 0.19833672046661377 0.037405889481306076
0.35434386134147644 0.22703804075717926 0.013449979014694691
0.50152498483657837 0.25502932071685791 0.0055829067714512348
0.61166787147521973 0.25944775342941284 0.0037701774854212999
0.70158779621124268 0.28413718938827515 0.0059910793788731098
0.75413888692855835 0.2991710901260376 0.0090218335390090942
0.77487260103225708 0.28511905670166016 0.0052179074846208096
0.79068189859390259 0.28706514835357666 0.0085394019261002541
0.80054491758346558 0.3025173544883728 0.015496018342673779
0.011862062849104404 0.25922742486000061 0.14950956404209137
0.011837619356811047 0.25384271144866943 0.13397502899169922
0.0089631322771310806 0.25192272663116455 0.10370386391878128
0.053971774876117706 0.26245251297950745 0.062301576137542725
0.21958371996879578 0.29819828271865845 0.026325419545173645
0.40374678373336792 0.33867433667182922 0.0075691672973334789
0.56235522031784058 0.36928606033325195 0.011047094129025936
0.67249876260757446 0.37895879149436951 0.010973178781569004
0.75366747379302979 0.3987172544002533 0.01227225549519062
0.80596774816513062 0.41798463463783264 0.013223625719547272
0.82624614238739014 0.40860295295715332 0.0083521371707320213
0.83975386619567871 0.41411983966827393 0.0064865262247622013
0.85136181116104126 0.43974852561950684 0.022472845390439034
0.024292619898915291 0.36842203140258789 0.20314541459083557
0.021347809582948685 0.37173956632614136 0.18828800320625305
0.011973466724157333 0.37234732508659363 0.1487993597984314
0.025911921635270119 0.37038174271583557 0.069636277854442596
0.1887332946062088 0.40341067314147949 0.011635051108896732
0.42808917164802551 0.46417975425720215 0.0041861739009618759
0.60982364416122437 0.50804954767227173 0.010795144364237785
0.73291069269180298 0.53130418062210083 0.022610323503613472
0.81347745656967163 0.54258722066879272 0.0225499477237463
0.856903076171875 0.55000162124633789 0.0092514185234904289
0.87514239549636841 0.55320876836776733 0.0055187451653182507
0.88699865341186523 0.55954182147979736 0.0057830661535263062
0.89519011974334717 0.56507784128189087 0.014327195473015308
0.022518651559948921 0.45733138918876648 0.23933029174804688
0.021579323336482048 0.46659395098686218 0.22929546236991882
0.019393187016248703 0.47770518064498901 0.19679199159145355
0.010921702720224857 0.47009271383285522 0.092100568115711212
0.14178007841110229 0.50327152013778687 0.0070879915729165077
0.43872314691543579 0.57653188705444336 0.0036747651174664497
0.65047544240951538 0.63415491580963135 0.0059320037253201008
0.77769839763641357 0.65722393989562988 0.02159435860812664
0.85496968030929565 0.66741430759429932 0.03574078157544136
0.89586389064788818 0.66952729225158691 0.025097178295254707
0.91369444131851196 0.67141491174697876 0.021706510335206985
0.92568230628967285 0.676891028881073 0.021582718938589096
0.93340384960174561 0.67910110950469971 0.031687390059232712
0.02715645544230938 0.51708656549453735 0.26384013891220093
0.032842598855495453 0.52830022573471069 0.25443479418754578
0.024583615362644196 0.5419887900352478 0.22203695774078369
0.007228177972137928 0.54868787527084351 0.12598563730716705
0.13106578588485718 0.58608174324035645 0.0093248104676604271
0.45859357714653015 0.65723848342895508 0.0020646937191486359
0.67739778757095337 0.71806305646896362 0.011063235811889172
0.81008130311965942 0.74557667970657349 0.036302588880062103
0.88365405797958374 0.75460129976272583 0.058367244899272919
0.9218558669090271 0.75107437372207642 0.061189509928226471
0.93942952156066895 0.74593335390090942 0.061139650642871857
0.95036351680755615 0.74818354845046997 0.060241084545850754
0.96036225557327271 0.75912874937057495 0.066392712295055389
0.019989268854260445 0.55103451013565063 0.2806304395198822
0.025722173973917961 0.56323641538619995 0.27179861068725586
0.018741518259048462 0.5789225697517395 0.23852570354938507
0.015686798840761185 0.59884089231491089 0.15469099581241608
0.14735125005245209 0.63750195503234863 0.013363677076995373
0.48256519436836243 0.70612674951553345 0.001834869384765625
0.69310593605041504 0.76318907737731934 0.015238533727824688
0.82437038421630859 0.79588407278060913 0.042396292090415955
0.89367002248764038 0.80203098058700562 0.067663379013538361
0.93827992677688599 0.80329436063766479 0.080686368048191071
0.9555966854095459 0.7938532829284668 0.082213364541530609
0.96627926826477051 0.79541373252868652 0.087118528783321381
0.97428435087203979 0.80250674486160278 0.095181651413440704
0.023814557120203972 0.57054942846298218 0.29387485980987549
0.016044408082962036 0.58541649580001831 0.28444766998291016
0.017775695770978928 0.60142368078231812 0.25021815299987793
0.021450402215123177 0.62254530191421509 0.15145015716552734
0.15381832420825958 0.66389334201812744 0.014527877792716026
0.49466678500175476 0.73607581853866577 0.0027036329265683889
0.69979959726333618 0.7906983494758606 0.010821802541613579
0.82590806484222412 0.81756460666656494 0.034935776144266129
0.90081089735031128 0.82545000314712524 0.066676706075668335
0.94691437482833862 0.82797032594680786 0.084885567426681519
0.96698975563049316 0.82719933986663818 0.091715626418590546
0.97691452503204346 0.82684338092803955 0.10196982324123383
0.98389983177185059 0.83017665147781372 0.11676374077796936
0.030131500214338303 0.58980411291122437 0.30630937218666077
0.01907278411090374 0.60430681705474854 0.28718036413192749
0.026761313900351524 0.62010473012924194 0.23950284719467163
0.022964147850871086 0.63900488615036011 0.12556293606758118
0.16436254978179932 0.6807979941368103 0.020160719752311707
0.49744239449501038 0.75047820806503296 0.0058135385625064373
0.70130729675292969 0.80160230398178101 0.019237369298934937
0.83501929044723511 0.83225917816162109 0.037973485887050629
0.91155564785003662 0.84252846240997314 0.069232046604156494
0.95523613691329956 0.84452450275421143 0.088247783482074738
0.97393137216567993 0.84643125534057617 0.092016585171222687
0.98402184247970581 0.84765595197677612 0.10595054179430008
0.99162673950195312 0.84946048259735107 0.12614430487155914
0.034993533045053482 0.61495167016983032 0.32738474011421204
0.022285357117652893 0.62487637996673584 0.29657143354415894
0.020874995738267899 0.64460176229476929 0.24112342298030853
0.050697401165962219 0.66493463516235352 0.11909958720207214
0.26394397020339966 0.70986837148666382 0.02730141393840313
0.52087587118148804 0.76465117931365967 0.018187040463089943
0.70344871282577515 0.80872529745101929 0.025212395936250687
0.83991408348083496 0.83982616662979126 0.028532125055789948
0.92011493444442749 0.85313171148300171 0.050249375402927399
0.9653770923614502 0.85879749059677124 0.061046957969665527
0.98327946662902832 0.86145168542861938 0.088112756609916687
0.99040502309799194 0.86165964603424072 0.12913103401660919
0.99670016765594482 0.86144232749938965 0.14689533412456512
0.011747024022042751 0.024412864819169044 0.066129021346569061
0.034035850316286087 0.031667191535234451 0.070179015398025513
0.061712644994258881 0.03946169838309288 0.071152433753013611
0.098924331367015839 0.049174588173627853 0.067424684762954712
0.16060756146907806 0.055043809115886688 0.060550287365913391
0.26421290636062622 0.05184236541390419 0.048070959746837616
0.37464600801467896 0.033089835196733475 0.027396153658628464
0.47816100716590881 0.014768129214644432 0.013947355560958385
0.55653566122055054 0.015961844474077225 0.012165368534624577
0.61151325702667236 0.019994264468550682 0.011763314716517925
0.64492380619049072 0.019917072728276253 0.0098379096016287804
0.66780203580856323 0.028516881167888641 0.012236890383064747
0.68638616800308228 0.023369105532765388 0.010789414867758751
0.0078970668837428093 0.044830039143562317 0.074363410472869873
0.024839917197823524 0.049133092164993286 0.075100213289260864
0.058687981218099594 0.058180641382932663 0.077567934989929199
0.10368634760379791 0.069199942052364349 0.078134171664714813
0.16982774436473846 0.074738956987857819 0.072274394333362579
0.27922028303146362 0.073174074292182922 0.058017715811729431
0.39775487780570984 0.057452887296676636 0.03614400327205658
0.51117336750030518 0.027589581906795502 0.018696878105401993
0.59291613101959229 0.022930474951863289 0.012192221358418465
0.64504718780517578 0.020620457828044891 0.0089932158589363098
0.6808505654335022 0.025155371055006981 0.0081004276871681213
0.69582521915435791 0.033087216317653656 0.0083457194268703461
0.70631390810012817 0.02887452021241188 0.0082801822572946548
0.0045848921872675419 0.067366912961006165 0.07966671884059906
0.012930477038025856 0.067895539104938507 0.07816150039434433
0.050234954804182053 0.078440815210342407 0.081766001880168915
0.10350486636161804 0.09157620370388031 0.085572995245456696
0.17913234233856201 0.10009170323610306 0.079364180564880371
0.29794174432754517 0.10368094593286514 0.0602608323097229
0.42127451300621033 0.098463527858257294 0.033024374395608902
0.54096853733062744 0.078628718852996826 0.018907703459262848
0.63112026453018188 0.070446714758872986 0.011836601421236992
0.6783861517906189 0.06575939804315567 0.0057015363126993179
0.71127915382385254 0.070251435041427612 0.0038975286297500134
0.72608464956283569 0.075330547988414764 0.0039125028997659683
0.73657405376434326 0.066124662756919861 0.010103218257427216
0.0039215688593685627 0.10341488569974899 0.092898726463317871
0.0044665466994047165 0.0991087406873703 0.086982414126396179
0.040301304310560226 0.1108354926109314 0.087085947394371033
0.10322622954845428 0.13082203269004822 0.090382851660251617
0.19021190702915192 0.1427510678768158 0.082142442464828491
0.32118380069732666 0.15526567399501801 0.058051779866218567
0.45621812343597412 0.15755420923233032 0.024603884667158127
0.56873297691345215 0.15302185714244843 0.0097446814179420471
0.66593998670578003 0.15636557340621948 0.0078080571256577969
0.71856117248535156 0.14936743676662445 0.0048111709766089916
0.74582326412200928 0.15194627642631531 0.0039057263638824224
