assets/lut/films negative color kodak portra 160 vc.cube
# Created by: G'MIC (https://gmic.eu)
TITLE "kodak_portra_160_vc"
# LUT size
LUT_3D_SIZE 5
# Data domain
DOMAIN_MIN 0.0 0.0 0.0
DOMAIN_MAX 1.0 1.0 1.0
# LUT data points
0.017682528123259544 0.026018045842647552 0.028276076540350914
0.18870420753955841 0.048229306936264038 0.026395775377750397
0.55499851703643799 0.026764513924717903 0.0019783468451350927
0.87082773447036743 0.052985906600952148 0
1 0.16873323917388916 0
0.00024523268803022802 0.20830880105495453 0.073279224336147308
0.16504624485969543 0.24133498966693878 0.032643724232912064
0.58765071630477905 0.2634885311126709 5.8701458328869194e-05
0.86586391925811768 0.26768344640731812 0
0.99959248304367065 0.31973785161972046 0
0 0.52141654491424561 0.20015281438827515
0.076857671141624451 0.52639591693878174 0.19499599933624268
0.51115185022354126 0.56270027160644531 0.08045477420091629
0.83496963977813721 0.54651743173599243 0.00053888955153524876
1 0.51319074630737305 0
0.22038795053958893 0.74904924631118774 0.3918454647064209
0.31475380063056946 0.74706214666366577 0.40148428082466125
0.49087688326835632 0.74967443943023682 0.37246206402778625
0.74854910373687744 0.76802253723144531 0.25001135468482971
0.99213391542434692 0.78407251834869385 0.12209548801183701
0.60867458581924438 0.92585784196853638 0.67504101991653442
0.64422726631164551 0.92585784196853638 0.68735319375991821
0.68928086757659912 0.92856442928314209 0.69001460075378418
0.78882521390914917 0.9427751898765564 0.67172467708587646
0.93256038427352905 0.95797425508499146 0.61242866516113281
0.00040031882235780358 0.04684428870677948 0.24631743133068085
0.2148938924074173 0.054564785212278366 0.23792855441570282
0.56743264198303223 0.00014648438082076609 0.2112375944852829
0.87026655673980713 0.06400018185377121 0.23966114223003387
0.99864524602890015 0.27595531940460205 0.26750335097312927
0.0029138154350221157 0.26032727956771851 0.27079907059669495
0.24300795793533325 0.27156338095664978 0.28027626872062683
0.6051170825958252 0.26600426435470581 0.25673165917396545
0.86114448308944702 0.3026338517665863 0.24820156395435333
0.9999854564666748 0.36202722787857056 0.24476969242095947
0.11515465378761292 0.55631464719772339 0.37127596139907837
0.26969215273857117 0.54938286542892456 0.36385276913642883
0.54175615310668945 0.56634402275085449 0.3015042245388031
0.83745658397674561 0.53369987010955811 0.20589664578437805
1 0.52005147933959961 0.16519375145435333
0.35180699825286865 0.76079845428466797 0.49356099963188171
0.40630128979682922 0.75311017036437988 0.49134054780006409
0.54850834608078003 0.75251525640487671 0.48713463544845581
0.76208066940307617 0.77339702844619751 0.40889403223991394
0.99053597450256348 0.77630186080932617 0.29830765724182129
0.65621578693389893 0.93029260635375977 0.71408379077911377
0.67065185308456421 0.92947602272033691 0.71660119295120239
0.72944754362106323 0.92684614658355713 0.73223841190338135
0.7997785210609436 0.93883812427520752 0.70816522836685181
0.93406283855438232 0.95584011077880859 0.65415024757385254
0.00083740835543721914 0.13339033722877502 0.60055124759674072
0.30432391166687012 0.15841883420944214 0.59667789936065674
0.63432413339614868 0.19226129353046417 0.5776945948600769
0.85134327411651611 0.068016752600669861 0.50017672777175903
0.99985063076019287 0.18169166147708893 0.46448764204978943
0.0044687157496809959 0.38316133618354797 0.61323589086532593
0.32950490713119507 0.36720016598701477 0.60794919729232788
0.62509334087371826 0.38115519285202026 0.57707524299621582
0.85031235218048096 0.31346771121025085 0.51153481006622314
0.99753248691558838 0.40408134460449219 0.5209316611289978
0.13564914464950562 0.59998470544815063 0.58964931964874268
0.35516476631164551 0.5951048731803894 0.59094464778900146
0.59823918342590332 0.57796895503997803 0.5785408616065979
0.82742041349411011 0.56737565994262695 0.5471617579460144
0.9942551851272583 0.60222649574279785 0.55731093883514404
0.51328086853027344 0.77408349514007568 0.65788131952285767
0.57338601350784302 0.77391231060028076 0.66271340847015381
0.64412075281143188 0.76385259628295898 0.65339368581771851
0.78722256422042847 0.77579659223556519 0.61506372690200806
0.98684263229370117 0.7639656662940979 0.53448164463043213
0.70868843793869019 0.93382918834686279 0.78237414360046387
0.71467775106430054 0.93508654832839966 0.7810128927230835
0.75318318605422974 0.9335094690322876 0.78397589921951294
0.81647634506225586 0.93950146436691284 0.7810395359992981
0.94779473543167114 0.96530038118362427 0.74417698383331299
0.1724926084280014 0.31361839175224304 0.83443582057952881
0.42592540383338928 0.34132611751556396 0.8325846791267395
0.68832331895828247 0.416974276304245 0.81506305932998657
0.86818152666091919 0.46910905838012695 0.80138885974884033
0.99356716871261597 0.41295647621154785 0.75133645534515381
0.30253511667251587 0.47238457202911377 0.83034902811050415
0.45178958773612976 0.47994396090507507 0.82765698432922363
0.69819527864456177 0.53218185901641846 0.81782251596450806
0.859638512134552 0.56069833040237427 0.80310392379760742
0.99244087934494019 0.51436382532119751 0.75921136140823364
0.32505190372467041 0.6605534553527832 0.81110519170761108
0.46069681644439697 0.65801787376403809 0.80891138315200806
0.67523074150085449 0.66074472665786743 0.80897039175033569
0.84516364336013794 0.68831890821456909 0.80299431085586548
0.98385906219482422 0.64198338985443115 0.769214928150177
0.50216877460479736 0.80250543355941772 0.8014482855796814
0.57539784908294678 0.80451887845993042 0.8042064905166626
0.68569105863571167 0.80018705129623413 0.80816876888275146
0.82068121433258057 0.79183369874954224 0.80063968896865845
0.97782796621322632 0.78878277540206909 0.78519392013549805
0.71991932392120361 0.94933700561523438 0.86108183860778809
0.73895800113677979 0.94488310813903809 0.86265993118286133
0.79764270782470703 0.94492143392562866 0.86805063486099243
0.85407513380050659 0.94466483592987061 0.86790561676025391
0.96083366870880127 0.96122795343399048 0.84465897083282471
0.56999707221984863 0.57419830560684204 0.96846526861190796
0.6392139196395874 0.59124398231506348 0.96566414833068848
0.77491378784179688 0.63459557294845581 0.95756787061691284
0.90165019035339355 0.69791632890701294 0.95170706510543823
0.99824374914169312 0.72019439935684204 0.9465060830116272
0.58990222215652466 0.63915151357650757 0.96741503477096558
0.65856736898422241 0.65137064456939697 0.96430748701095581
0.78298109769821167 0.68330568075180054 0.95718955993652344
0.89927434921264648 0.73264306783676147 0.9507555365562439
0.99176347255706787 0.74547433853149414 0.94599008560180664
0.61896979808807373 0.75270432233810425 0.96239042282104492
0.68161123991012573 0.7512516975402832 0.96343779563903809
0.77024555206298828 0.75632691383361816 0.95962899923324585
0.8935123085975647 0.78910738229751587 0.95562458038330078
0.98769235610961914 0.80523198843002319 0.95250892639160156
0.62000536918640137 0.86117333173751831 0.96250981092453003
0.65461432933807373 0.85889953374862671 0.96112531423568726
0.73399901390075684 0.85787796974182129 0.9615827202796936
0.87369030714035034 0.85837733745574951 0.96202164888381958
0.98445242643356323 0.88363951444625854 0.9594118595123291
0.74920839071273804 0.98999309539794922 0.98785912990570068
0.74074649810791016 0.97333890199661255 0.96601313352584839
0.80261778831481934 0.97220975160598755 0.96743851900100708
0.88184249401092529 0.97116184234619141 0.97433477640151978
0.98414367437362671 0.97804850339889526 0.97941428422927856
