assets/lut/films colorslide fuji velvia 50.cube
# Created by: G'MIC (https://gmic.eu)
TITLE "fuji_velvia_50"
# LUT size
LUT_3D_SIZE 5
# Data domain
DOMAIN_MIN 0.0 0.0 0.0
DOMAIN_MAX 1.0 1.0 1.0
# LUT data points
0.005495019257068634 0.0050047482363879681 0.0033738827332854271
0.18478493392467499 0.00022116268519312143 0.0069374833256006241
0.47528213262557983 0 0.00047050925786606967
0.73196905851364136 0 0
0.98088979721069336 0 0
0.033933062106370926 0.23186127841472626 0.032787099480628967
0.20368722081184387 0.19894611835479736 0.03163503110408783
0.4807218611240387 0.16421617567539215 0.033605687320232391
0.73315697908401489 0.10300379991531372 0.02434610016644001
0.97686398029327393 0.097436420619487762 0.0071615329943597317
0.009961714968085289 0.52408307790756226 0.078850284218788147
0.18443681299686432 0.50396054983139038 0.07296251505613327
0.47031465172767639 0.47251617908477783 0.066719487309455872
0.73058217763900757 0.43551754951477051 0.058325119316577911
0.97932219505310059 0.38966077566146851 0.028480440378189087
0 0.78422403335571289 0.1217215433716774
0.12152224034070969 0.77215391397476196 0.11340223997831345
0.43237957358360291 0.74872910976409912 0.10271622985601425
0.71694058179855347 0.72107505798339844 0.10331709682941437
0.97968727350234985 0.68212836980819702 0.078115202486515045
0 1 0.15238878130912781
0.052393745630979538 0.99995797872543335 0.14420744776725769
0.33687284588813782 0.9969211220741272 0.13155953586101532
0.66967999935150146 0.98738521337509155 0.10594040900468826
0.96696346998214722 0.96765154600143433 0.035695511847734451
0.01068592444062233 0.0045665218494832516 0.13197857141494751
0.19177044928073883 0.0008944492437876761 0.13525930047035217
0.47980067133903503 0.00010151582682738081 0.13829056918621063
0.7344433069229126 0 0.11022674292325974
0.97977471351623535 0.00022228465240914375 0.068548165261745453
0.032601464539766312 0.22316171228885651 0.19733572006225586
0.20401342213153839 0.20124475657939911 0.2041231095790863
0.48511138558387756 0.15850339829921722 0.2008247971534729
0.73747092485427856 0.10661371052265167 0.17977972328662872
0.97808367013931274 0.099963352084159851 0.16160194575786591
0 0.52027106285095215 0.2596595287322998
0.15335234999656677 0.50423210859298706 0.26152953505516052
0.47363185882568359 0.47547537088394165 0.25994649529457092
0.73571491241455078 0.43390095233917236 0.25067257881164551
0.98099023103713989 0.38958296179771423 0.21200735867023468
0 0.78532963991165161 0.31356069445610046
0.076846085488796234 0.77400726079940796 0.31129509210586548
0.44858938455581665 0.75078952312469482 0.31129378080368042
0.7277483344078064 0.72408115863800049 0.30899706482887268
0.98014682531356812 0.68257200717926025 0.27428123354911804
0 1 0.3557266891002655
0.012749451212584972 1 0.35296708345413208
0.32271534204483032 0.99801850318908691 0.35138848423957825
0.68079942464828491 0.99045932292938232 0.34113553166389465
0.96969294548034668 0.97044068574905396 0.29059809446334839
0.013533408753573895 0 0.34853309392929077
0.19148261845111847 0 0.35863620042800903
0.47762763500213623 0 0.35827314853668213
0.7356642484664917 0.0049905064515769482 0.35058718919754028
0.98041838407516479 0.00061813055071979761 0.33155724406242371
0.0245030727237463 0.22036741673946381 0.40984299778938293
0.20111565291881561 0.19060944020748138 0.41121286153793335
0.48553988337516785 0.13757982850074768 0.41383379697799683
0.74527370929718018 0.11473926901817322 0.41683205962181091
0.98312944173812866 0.080178283154964447 0.40010309219360352
0.0013120165094733238 0.52448505163192749 0.4674203097820282
0.13513512909412384 0.50387656688690186 0.46833917498588562
0.47079280018806458 0.4719395637512207 0.47258567810058594
0.73568689823150635 0.43927809596061707 0.47318935394287109
0.98582690954208374 0.38453772664070129 0.45409545302391052
0.0007146947318688035 0.78916501998901367 0.51884609460830688
0.047000885009765625 0.77879208326339722 0.52118527889251709
0.41930970549583435 0.75480204820632935 0.52387332916259766
0.73028564453125 0.72665059566497803 0.52625751495361328
0.98631840944290161 0.68364185094833374 0.51230651140213013
0 1 0.56257909536361694
0.004746156744658947 1 0.5609251856803894
0.31380331516265869 0.99939018487930298 0.56288105249404907
0.68738436698913574 0.99325203895568848 0.56037503480911255
0.97253817319869995 0.97508054971694946 0.5356566309928894
0.0097504556179046631 0 0.54675769805908203
0.16989028453826904 2.8587790438905358e-05 0.55226308107376099
0.46539026498794556 0 0.55453824996948242
0.73326212167739868 0 0.55977213382720947
0.98257791996002197 0 0.55001521110534668
0.016033187508583069 0.19645684957504272 0.60599994659423828
0.1772514134645462 0.16964142024517059 0.61161047220230103
0.48298615217208862 0.11578591912984848 0.6140252947807312
0.74346357583999634 0.078720375895500183 0.61839056015014648
0.98566865921020508 0.014012355357408524 0.61334484815597534
0 0.51822161674499512 0.65859401226043701
0.10708931088447571 0.50135648250579834 0.66243302822113037
0.47267919778823853 0.46939951181411743 0.66702544689178467
0.73830616474151611 0.42808371782302856 0.67005163431167603
0.9905427098274231 0.37002772092819214 0.66557854413986206
0.0045966655015945435 0.79297345876693726 0.71327346563339233
0.022050371393561363 0.78033554553985596 0.71724343299865723
0.43521907925605774 0.7515331506729126 0.71956861019134521
0.72447723150253296 0.72204500436782837 0.72281497716903687
0.98815643787384033 0.68418031930923462 0.7216600775718689
0.00014293895219452679 1 0.76594829559326172
0 1 0.76360607147216797
0.29619529843330383 1 0.76592898368835449
0.67911070585250854 0.99502253532409668 0.76873540878295898
0.97610467672348022 0.97731387615203857 0.76463627815246582
0.011362322606146336 0 0.73534876108169556
0.14626342058181763 0 0.74065881967544556
0.43473732471466064 0 0.74587100744247437
0.72380083799362183 0 0.74950414896011353
0.98582512140274048 0 0.74245262145996094
0.011943861842155457 0.15040485560894012 0.79074561595916748
0.13811039924621582 0.12761034071445465 0.79431378841400146
0.46496427059173584 0.079664342105388641 0.80208921432495117
0.7419203519821167 0.021956216543912888 0.80826383829116821
0.99049490690231323 0.010322585701942444 0.80764925479888916
0.00014935662329662591 0.50594526529312134 0.8480527400970459
0.070038154721260071 0.48642098903656006 0.85159128904342651
0.4586080014705658 0.44613867998123169 0.85810738801956177
0.7401738166809082 0.4011496901512146 0.86497920751571655
0.99175596237182617 0.33629640936851501 0.8670419454574585
0.002171939006075263 0.78837448358535767 0.90950554609298706
0.00055295159108936787 0.77716392278671265 0.91359007358551025
0.39713829755783081 0.74925464391708374 0.91756331920623779
0.71580749750137329 0.71595859527587891 0.92614853382110596
0.99018150568008423 0.67163550853729248 0.92857325077056885
0.00056551763555034995 0.99990648031234741 0.96819251775741577
0 1 0.96673452854156494
0.21793787181377411 1 0.97134923934936523
0.65901261568069458 0.99616467952728271 0.97772216796875
0.97823458909988403 0.97785848379135132 0.9813232421875
