assets/lut/films colorslide fuji provia 400f.cube
# Created by: G'MIC (https://gmic.eu)
TITLE "fuji_provia_400f"
# LUT size
LUT_3D_SIZE 5
# Data domain
DOMAIN_MIN 0.0 0.0 0.0
DOMAIN_MAX 1.0 1.0 1.0
# LUT data points
0.019682072103023529 0.014344547875225544 0.011526219546794891
0.17928774654865265 0.01460819598287344 0
0.44965368509292603 0.031896539032459259 0
0.68509656190872192 0.052432071417570114 0
0.88279128074645996 0.079996354877948761 0.00018475102842785418
0.11405032128095627 0.24655938148498535 0.14092493057250977
0.253583163022995 0.22571316361427307 0.096467621624469757
0.49908322095870972 0.19328184425830841 0.038192987442016602
0.69625860452651978 0.11455752700567245 0.0022097120527178049
0.86030769348144531 0.051775690168142319 0
0.23241384327411652 0.53693658113479614 0.31803596019744873
0.37660300731658936 0.54026371240615845 0.29598724842071533
0.58491724729537964 0.52973979711532593 0.24949471652507782
0.77205318212509155 0.47572776675224304 0.19089981913566589
0.90471357107162476 0.26652801036834717 0.087753370404243469
0.42948833107948303 0.77093017101287842 0.49006456136703491
0.50984996557235718 0.76925539970397949 0.48283043503761292
0.65587759017944336 0.77166354656219482 0.45765995979309082
0.82594507932662964 0.76331245899200439 0.42389610409736633
0.98336577415466309 0.70169556140899658 0.37964841723442078
0.60500234365463257 0.97786527872085571 0.66676938533782959
0.65490871667861938 0.97725832462310791 0.65907508134841919
0.74748808145523071 0.98078912496566772 0.64791601896286011
0.88546139001846313 0.98542201519012451 0.62692040205001831
1 0.97337371110916138 0.59629321098327637
0.0085124298930168152 0.016899542883038521 0.11959639936685562
0.16520053148269653 0.01349958498030901 0.076801881194114685
0.41976490616798401 0.011181401088833809 0.023682223632931709
0.64130681753158569 0.010847562924027443 0.0093419244512915611
0.83718335628509521 0.036336623132228851 0.00086140353232622147
0.093522883951663971 0.25029060244560242 0.27984696626663208
0.23643200099468231 0.23855076730251312 0.23924833536148071
0.47506982088088989 0.19796477258205414 0.16429680585861206
0.66518962383270264 0.10309369117021561 0.081058233976364136
0.81765580177307129 0.0013677410315722227 0.016272915527224541
0.19969081878662109 0.53081107139587402 0.43742460012435913
0.34712028503417969 0.53308957815170288 0.42308813333511353
0.55938684940338135 0.52638238668441772 0.37754487991333008
0.7466120719909668 0.4758143424987793 0.31385600566864014
0.88465124368667603 0.27568092942237854 0.20119845867156982
0.39866900444030762 0.76187008619308472 0.58482074737548828
0.48951601982116699 0.76319307088851929 0.57655739784240723
0.63913238048553467 0.76589339971542358 0.54825365543365479
0.80778861045837402 0.75858676433563232 0.51285189390182495
0.96981352567672729 0.70286279916763306 0.46122020483016968
0.58831304311752319 0.97201460599899292 0.73040759563446045
0.63725405931472778 0.97042334079742432 0.72572755813598633
0.73348915576934814 0.97577184438705444 0.70868426561355591
0.86924958229064941 0.98361861705780029 0.68852394819259644
0.99958533048629761 0.97277563810348511 0.66330605745315552
0.00058845069725066423 0.015133681707084179 0.30217114090919495
0.13960310816764832 0.007914569228887558 0.25379890203475952
0.3778710663318634 9.2809343186672777e-05 0.18616528809070587
0.59593808650970459 0 0.13368646800518036
0.79330015182495117 0.0143623948097229 0.11381014436483383
0.05231069028377533 0.26437124609947205 0.45647221803665161
0.20609799027442932 0.25777092576026917 0.41718536615371704
0.44724884629249573 0.22133971750736237 0.34737178683280945
0.63149511814117432 0.10681606829166412 0.24517336487770081
0.78459078073501587 0.0050695831887423992 0.16408668458461761
0.16263391077518463 0.53178173303604126 0.5866890549659729
0.3145831823348999 0.53215092420578003 0.56710302829742432
0.52772361040115356 0.523601233959198 0.52494543790817261
0.71661990880966187 0.48991787433624268 0.47063019871711731
0.85818737745285034 0.30282771587371826 0.35295620560646057
0.36990809440612793 0.74669945240020752 0.70612061023712158
0.46069520711898804 0.75114822387695312 0.69329863786697388
0.61214625835418701 0.75789886713027954 0.66807925701141357
0.77967411279678345 0.75168585777282715 0.6348499059677124
0.94537603855133057 0.69451355934143066 0.57672178745269775
0.56390708684921265 0.95517003536224365 0.82369214296340942
0.61143189668655396 0.95778375864028931 0.81604385375976562
0.71196228265762329 0.97150039672851562 0.80117571353912354
0.84560930728912354 0.97781521081924438 0.78168672323226929
0.99110466241836548 0.97200185060501099 0.75193041563034058
0.00023660098668187857 0.048723317682743073 0.48511227965354919
0.12782610952854156 0.028949035331606865 0.43060806393623352
0.35933622717857361 0.0095181930810213089 0.3622683584690094
0.56138688325881958 0 0.28842625021934509
0.74779552221298218 0 0.24753132462501526
0.031416948884725571 0.30844008922576904 0.62112843990325928
0.20048555731773376 0.30120649933815002 0.58383214473724365
0.43457281589508057 0.27233916521072388 0.52010601758956909
0.61795848608016968 0.1740884929895401 0.42572426795959473
0.75469553470611572 0.0084220441058278084 0.30388835072517395
0.13342432677745819 0.5402635931968689 0.72341686487197876
0.29717874526977539 0.5406801700592041 0.70450162887573242
0.50756251811981201 0.54175752401351929 0.66752153635025024
0.69701492786407471 0.51931923627853394 0.6157764196395874
0.84709650278091431 0.37044629454612732 0.50802189111709595
0.35508406162261963 0.7430119514465332 0.82255297899246216
0.44345945119857788 0.7477567195892334 0.80863970518112183
0.59014099836349487 0.75308895111083984 0.78636282682418823
0.74934303760528564 0.7508774995803833 0.75033187866210938
0.92395740747451782 0.70698028802871704 0.69213026762008667
0.5516822338104248 0.94649875164031982 0.92366153001785278
0.59514689445495605 0.95592635869979858 0.91620874404907227
0.68969565629959106 0.9621129035949707 0.90430092811584473
0.81727021932601929 0.97002774477005005 0.88388347625732422
0.98325896263122559 0.96289741992950439 0.84715908765792847
0.0086342459544539452 0.13236258924007416 0.66185033321380615
0.14712618291378021 0.12639765441417694 0.6029052734375
0.37106233835220337 0.076094098389148712 0.5247308611869812
0.54888749122619629 0.0090588591992855072 0.43451967835426331
0.72227269411087036 0.00031621597008779645 0.37045550346374512
0.02188955619931221 0.37225320935249329 0.7676355242729187
0.19429661333560944 0.37622034549713135 0.73148185014724731
0.43663123250007629 0.3609778881072998 0.67802804708480835
0.62220305204391479 0.2879335880279541 0.60054326057434082
0.74413383007049561 0.044212162494659424 0.44986578822135925
0.16348116099834442 0.57299000024795532 0.8498835563659668
0.30204132199287415 0.57633990049362183 0.83076417446136475
0.49720278382301331 0.57585161924362183 0.79679232835769653
0.67930829524993896 0.56217348575592041 0.7540099024772644
0.84466665983200073 0.46010378003120422 0.66552996635437012
0.36414292454719543 0.75937539339065552 0.94002169370651245
0.44559559226036072 0.75859123468399048 0.92595356702804565
0.57794779539108276 0.76599311828613281 0.90498632192611694
0.73262542486190796 0.76782351732254028 0.87753200531005859
0.90598815679550171 0.73716253042221069 0.82417488098144531
0.54498106241226196 0.95472538471221924 1
0.59216749668121338 0.95666837692260742 0.99995261430740356
0.680530846118927 0.95891642570495605 0.99898070096969604
0.80125832557678223 0.96692359447479248 0.99482697248458862
0.97658765316009521 0.96785545349121094 0.9674980640411377
