assets/lut/films negative color kodak ektar 100.cube
# Created by: G'MIC (https://gmic.eu)
TITLE "kodak_ektar_100"
# LUT size
LUT_3D_SIZE 13
# Data domain
DOMAIN_MIN 0.0 0.0 0.0
DOMAIN_MAX 1.0 1.0 1.0
# LUT data points
0.048790305852890015 0.041310824453830719 0.040381830185651779
0.12722724676132202 0.044687069952487946 0.038725491613149643
0.20319007337093353 0.051323879510164261 0.035475082695484161
0.27489528059959412 0.05678081139922142 0.034803923219442368
0.35337331891059875 0.059516068547964096 0.034838926047086716
0.44925075769424438 0.063387744128704071 0.032008524984121323
0.55965924263000488 0.069883055984973907 0.025373496115207672
0.66379064321517944 0.07614569365978241 0.018855540081858635
0.75377070903778076 0.081352338194847107 0.013938948512077332
0.83666825294494629 0.086210288107395172 0.0095087988302111626
0.9169655442237854 0.088821440935134888 0.0055209589190781116
0.98736834526062012 0.086225949227809906 0.0027559767477214336
1 0.077013544738292694 0.0013565961271524429
0.056077964603900909 0.10674156993627548 0.062801092863082886
0.11555507779121399 0.11177629977464676 0.060416832566261292
0.18493399024009705 0.11801015585660934 0.058281153440475464
0.25883027911186218 0.12236130982637405 0.056099042296409607
0.34065300226211548 0.12434978038072586 0.056028358638286591
0.43745556473731995 0.12786653637886047 0.053584393113851547
0.54447609186172485 0.13308979570865631 0.047624923288822174
0.6466098427772522 0.137457475066185 0.04003288596868515
0.73719710111618042 0.13975970447063446 0.032619312405586243
0.82259488105773926 0.13950216770172119 0.025779964402318001
0.90702909231185913 0.13556955754756927 0.019538160413503647
0.98321259021759033 0.12799973785877228 0.014486769214272499
1 0.11918957531452179 0.010554684326052666
0.078708037734031677 0.16682295501232147 0.088789932429790497
0.12165839970111847 0.17085516452789307 0.087684154510498047
0.1763414740562439 0.1765812486410141 0.085863970220088959
0.24622607231140137 0.18093687295913696 0.083182089030742645
0.32998129725456238 0.18374776840209961 0.080368831753730774
0.42783364653587341 0.18885320425033569 0.076568722724914551
0.53334951400756836 0.19492831826210022 0.070815712213516235
0.63223773241043091 0.19890670478343964 0.062874391674995422
0.72086602449417114 0.19986428320407867 0.054120171815156937
0.80718201398849487 0.19626651704311371 0.046604949980974197
0.89420044422149658 0.18783116340637207 0.040411766618490219
0.97517096996307373 0.17646916210651398 0.034838583320379257
1 0.16637104749679565 0.029321169480681419
0.088425822556018829 0.22740910947322845 0.11380951851606369
0.12461275607347488 0.22810192406177521 0.1136072650551796
0.16971394419670105 0.23312899470329285 0.11181282997131348
0.23542164266109467 0.23757797479629517 0.10877527296543121
0.31970146298408508 0.24165062606334686 0.10456936061382294
0.41827163100242615 0.24752072989940643 0.099492393434047699
0.52454608678817749 0.2547382116317749 0.093542270362377167
0.62092852592468262 0.25960543751716614 0.085894718766212463
0.70726293325424194 0.26020696759223938 0.077811852097511292
0.79247242212295532 0.2564336359500885 0.070400863885879517
0.87814891338348389 0.24892780184745789 0.063629120588302612
0.96029245853424072 0.23620975017547607 0.057320568710565567
0.99993699789047241 0.22316275537014008 0.0513470359146595
0.071771077811717987 0.29771715402603149 0.13547709584236145
0.10320764034986496 0.2959616482257843 0.13500218093395233
0.14623920619487762 0.29985207319259644 0.13275799155235291
0.21525867283344269 0.30334347486495972 0.13054187595844269
0.30537194013595581 0.30623659491539001 0.12665146589279175
0.40846875309944153 0.31095072627067566 0.12136439979076385
0.5142250657081604 0.31800931692123413 0.11420798301696777
0.60622352361679077 0.32594218850135803 0.10770254582166672
0.6901664137840271 0.32701835036277771 0.10190405696630478
0.77443009614944458 0.32130423188209534 0.095959633588790894
0.85725551843643188 0.31581258773803711 0.088645398616790771
0.93753409385681152 0.30476081371307373 0.080704271793365479
0.99609410762786865 0.2901206910610199 0.073364853858947754
0.036978956311941147 0.37801182270050049 0.15279650688171387
0.05824647843837738 0.37852603197097778 0.15055982768535614
0.101108118891716 0.38187608122825623 0.14897358417510986
0.17674028873443604 0.38496914505958557 0.14838758111000061
0.27685600519180298 0.38655936717987061 0.1455308198928833
0.38803315162658691 0.3887060284614563 0.13979277014732361
0.49256759881973267 0.39588665962219238 0.13288742303848267
0.57967990636825562 0.40652710199356079 0.12767192721366882
0.66145455837249756 0.40809145569801331 0.12257429957389832
0.74536430835723877 0.40164795517921448 0.11765114217996597
0.82633191347122192 0.39632400870323181 0.11063543707132339
0.90550249814987183 0.38703933358192444 0.10259046405553818
0.97983634471893311 0.37166175246238708 0.093733750283718109
0.0065390793606638908 0.45831495523452759 0.16904960572719574
0.020273350179195404 0.45909637212753296 0.16581553220748901
0.063059352338314056 0.46256917715072632 0.16400028765201569
0.14216747879981995 0.46772077679634094 0.16346259415149689
0.24838390946388245 0.47023630142211914 0.16045498847961426
0.36308065056800842 0.47201141715049744 0.15458664298057556
0.4637904167175293 0.48047298192977905 0.14921282231807709
0.54842984676361084 0.49146875739097595 0.14462146162986755
0.6301957368850708 0.49320924282073975 0.1386837512254715
0.71112096309661865 0.49240481853485107 0.13277313113212585
0.78928971290588379 0.48942252993583679 0.12673218548297882
0.86616396903991699 0.48233234882354736 0.1204053983092308
0.94373977184295654 0.46789407730102539 0.11100941151380539
1.6335879990947433e-05 0.52941703796386719 0.18349060416221619
0.0074920053593814373 0.52892112731933594 0.18111123144626617
0.052332844585180283 0.53174835443496704 0.17912018299102783
0.13535431027412415 0.53753221035003662 0.17681591212749481
0.24237626791000366 0.54160565137863159 0.17306472361087799
0.35232070088386536 0.54556828737258911 0.16759504377841949
0.44669041037559509 0.55334633588790894 0.16289667785167694
0.52894508838653564 0.56133782863616943 0.15842612087726593
0.6100347638130188 0.56314563751220703 0.15317294001579285
0.6883310079574585 0.56543624401092529 0.14648975431919098
0.76134324073791504 0.56783461570739746 0.1399058997631073
0.83262777328491211 0.56709557771682739 0.1338852196931839
0.90717816352844238 0.55774933099746704 0.1248387023806572
0.00047891653957776725 0.59469723701477051 0.19722428917884827
0.015095220878720284 0.59409081935882568 0.1957256942987442
0.065133564174175262 0.59568184614181519 0.19438536465167999
0.14813680946826935 0.60017627477645874 0.19221609830856323
0.25015801191329956 0.60445410013198853 0.18868468701839447
0.35167747735977173 0.60931950807571411 0.18375910818576813
0.43793597817420959 0.61691755056381226 0.17904038727283478
0.51614809036254883 0.62284153699874878 0.17459197342395782
0.59563350677490234 0.62415486574172974 0.16991712152957916
0.67215913534164429 0.6261066198348999 0.16275303065776825
0.7416120171546936 0.63035571575164795 0.15472975373268127
0.80846202373504639 0.63307332992553711 0.1467820405960083
0.87987661361694336 0.63060218095779419 0.13848736882209778
0.015878655016422272 0.65713143348693848 0.21526160836219788
0.042837765067815781 0.65682500600814819 0.21423237025737762
0.093688219785690308 0.6580348014831543 0.21393457055091858
0.17074640095233917 0.66029918193817139 0.21364188194274902
0.26194003224372864 0.66424715518951416 0.2113633006811142
0.35203993320465088 0.66975456476211548 0.20709110796451569
0.43265166878700256 0.67660874128341675 0.20239226520061493
0.50728511810302734 0.68175756931304932 0.19803862273693085
0.58312922716140747 0.68332529067993164 0.19362971186637878
0.6549527645111084 0.68550950288772583 0.18665848672389984
0.72169125080108643 0.69029802083969116 0.17718100547790527
0.78777360916137695 0.69441795349121094 0.16678802669048309
0.86002373695373535 0.69516664743423462 0.15715566277503967
0.052379831671714783 0.71615809202194214 0.24137671291828156
0.083664976060390472 0.71608644723892212 0.24122424423694611
0.13242833316326141 0.7165830135345459 0.2422223836183548
0.19995002448558807 0.71798568964004517 0.24280135333538055
0.27706798911094666 0.72262793779373169 0.24034568667411804
0.35573685169219971 0.72889626026153564 0.23591791093349457
0.43231254816055298 0.73410850763320923 0.23198451101779938
0.50615555047988892 0.73717516660690308 0.22946533560752869
0.57495957612991333 0.74020582437515259 0.2256561815738678
0.63825321197509766 0.74508762359619141 0.21834281086921692
0.70165038108825684 0.7507825493812561 0.20738014578819275
0.77057027816772461 0.75509732961654663 0.1944417804479599
0.8473740816116333 0.75605118274688721 0.18250164389610291
0.092450596392154694 0.77605223655700684 0.27314004302024841
0.12680192291736603 0.7742842435836792 0.2738584578037262
0.17286601662635803 0.77407252788543701 0.27566391229629517
0.23026017844676971 0.77604717016220093 0.27600511908531189
0.29292416572570801 0.78291106224060059 0.27114921808242798
0.35968896746635437 0.79052096605300903 0.26520800590515137
0.43124133348464966 0.794322669506073 0.26251950860023499
0.502796471118927 0.79560011625289917 0.26207605004310608
0.56464517116546631 0.79982942342758179 0.25969523191452026
0.61976432800292969 0.80715614557266235 0.252693772315979
0.68097758293151855 0.81371116638183594 0.24125196039676666
0.75495195388793945 0.81738346815109253 0.22638413310050964
0.83797281980514526 0.81780308485031128 0.21242816746234894
0.12526983022689819 0.83923739194869995 0.30510073900222778
0.16123880445957184 0.83759582042694092 0.30615073442459106
0.20359015464782715 0.83769285678863525 0.30701941251754761
0.2519075870513916 0.84100985527038574 0.30546194314956665
0.30322638154029846 0.84909099340438843 0.29934015870094299
0.36011186242103577 0.85743439197540283 0.29274052381515503
0.4243781566619873 0.86096477508544922 0.29100030660629272
0.48954954743385315 0.86247968673706055 0.29148715734481812
0.5467904806137085 0.86695593595504761 0.29014426469802856
0.59921461343765259 0.87450534105300903 0.28467285633087158
0.66081750392913818 0.88084632158279419 0.27387085556983948
0.73925065994262695 0.88343435525894165 0.25846755504608154
0.82677215337753296 0.8835480809211731 0.243698850274086
0.059858553111553192 0.046462427824735641 0.098207481205463409
0.1322997659444809 0.048580814152956009 0.096042260527610779
0.20535105466842651 0.054002933204174042 0.092760033905506134
0.27838936448097229 0.060406956821680069 0.09270833432674408
0.35919412970542908 0.066498309373855591 0.091270342469215393
0.458396315574646 0.072200313210487366 0.086089007556438446
0.57102817296981812 0.077735692262649536 0.077822335064411163
0.67621320486068726 0.082351177930831909 0.070663973689079285
0.76398384571075439 0.086379870772361755 0.065429225564002991
0.84501475095748901 0.092860907316207886 0.058383971452713013
0.923442542552948 0.10072196274995804 0.049268744885921478
0.98997539281845093 0.1019594818353653 0.041076060384511948
1 0.09046667069196701 0.035957936197519302
0.067586176097393036 0.11340638995170593 0.11817894876003265
0.12285271286964417 0.11613716930150986 0.11565881222486496
0.18976785242557526 0.11941441893577576 0.11332542449235916
0.26258280873298645 0.12361740320920944 0.11178164184093475
0.34439331293106079 0.12912531197071075 0.10927297919988632
0.44334053993225098 0.13460773229598999 0.10465385764837265
0.55322599411010742 0.13958349823951721 0.097297951579093933
0.65689867734909058 0.14257414638996124 0.089758917689323425
0.74720686674118042 0.14374880492687225 0.083336412906646729
0.83123958110809326 0.1442926824092865 0.076161012053489685
0.91357338428497314 0.14370763301849365 0.068265073001384735
0.98599237203598022 0.13851135969161987 0.061236303299665451
1 0.12884129583835602 0.056140601634979248
0.094306603074073792 0.17132948338985443 0.13847449421882629
0.1294679194688797 0.17452098429203033 0.13668657839298248
0.1820799857378006 0.17775534093379974 0.13512684404850006
0.25051051378250122 0.18129473924636841 0.13217043876647949
0.33253005146980286 0.18700046837329865 0.12815308570861816
0.4315025806427002 0.19374819099903107 0.1230117529630661
0.54019182920455933 0.19996775686740875 0.11654201149940491
0.64161396026611328 0.20189303159713745 0.10884056985378265
0.7313002347946167 0.20171569287776947 0.10084573924541473
0.81682121753692627 0.19949935376644135 0.093359492719173431
0.90138393640518188 0.19340130686759949 0.086257144808769226
0.97920602560043335 0.18366754055023193 0.080160491168498993
1 0.17290115356445312 0.07538527250289917
0.10070572048425674 0.23072525858879089 0.15728119015693665
0.1272234320640564 0.23234786093235016 0.15612974762916565
0.17066031694412231 0.23550964891910553 0.15452270209789276
0.23750397562980652 0.23853738605976105 0.15141361951828003
0.32065582275390625 0.24362215399742126 0.14656226336956024
0.42008486390113831 0.25117936730384827 0.14080595970153809
0.53017514944076538 0.25820231437683105 0.13491284847259521
0.62929666042327881 0.26230090856552124 0.1276736855506897
0.71670055389404297 0.26172718405723572 0.12004239112138748
0.80120730400085449 0.25915873050689697 0.11243226379156113
0.88513267040252686 0.25362956523895264 0.10505609214305878
0.96549779176712036 0.24170072376728058 0.098747536540031433
1 0.2285018265247345 0.093870647251605988
0.073724336922168732 0.30103915929794312 0.17383861541748047
0.096045143902301788 0.3020169734954834 0.17181418836116791
0.14004312455654144 0.30383124947547913 0.16971865296363831
0.2163587361574173 0.30391648411750793 0.16767588257789612
0.30846685171127319 0.30691525340080261 0.16357362270355225
0.41039729118347168 0.31373810768127441 0.15745255351066589
0.51863259077072144 0.32008764147758484 0.15110841393470764
0.6127811074256897 0.3267177939414978 0.14484898746013641
0.69676131010055542 0.32859146595001221 0.13904409110546112
0.78037363290786743 0.32553783059120178 0.13289059698581696
0.86259907484054565 0.32162055373191833 0.12512682378292084
0.94257569313049316 0.31045612692832947 0.11744597554206848
0.99726021289825439 0.29608404636383057 0.11140000820159912
0.032323051244020462 0.38153508305549622 0.18827518820762634
0.04395129531621933 0.38438355922698975 0.18413101136684418
0.089547023177146912 0.38631269335746765 0.18199168145656586
0.17856705188751221 0.38475131988525391 0.18145087361335754
0.28531372547149658 0.38546684384346008 0.178730309009552
0.39488315582275391 0.3897569477558136 0.17280295491218567
0.49811312556266785 0.39686578512191772 0.1655757874250412
0.58384257555007935 0.40669709444046021 0.15915824472904205
0.6651986837387085 0.40977251529693604 0.15482120215892792
0.7490050196647644 0.40620675683021545 0.15036396682262421
0.83055472373962402 0.40214478969573975 0.14338657259941101
0.9092898964881897 0.39305797219276428 0.13492006063461304
0.98155486583709717 0.37856963276863098 0.12747348845005035
0.0022598865907639265 0.46020138263702393 0.20316526293754578
0.0069651436060667038 0.4627787172794342 0.19872193038463593
0.053033191710710526 0.46512690186500549 0.19663524627685547
0.1473129540681839 0.46648141741752625 0.19543449580669403
0.26243317127227783 0.46800017356872559 0.19245649874210358
0.37538599967956543 0.47190815210342407 0.18677990138530731
0.47193357348442078 0.48057329654693604 0.18009524047374725
0.55205607414245605 0.49162927269935608 0.17310960590839386
0.631702721118927 0.49542686343193054 0.16850683093070984
0.7147376537322998 0.4938012957572937 0.16428709030151367
0.79436236619949341 0.49156606197357178 0.15802636742591858
0.87067210674285889 0.48531952500343323 0.14969652891159058
0.9463011622428894 0.47343754768371582 0.14160157740116119
0 0.53091722726821899 0.21833862364292145
0.0015511605888605118 0.5296255350112915 0.21614877879619598
0.046155981719493866 0.53149223327636719 0.21350774168968201
0.14230728149414062 0.5369575023651123 0.21036878228187561
0.25822299718856812 0.54091423749923706 0.20657573640346527
0.36765697598457336 0.54551208019256592 0.20134012401103973
0.45659551024436951 0.55359137058258057 0.1959359347820282
0.5337556004524231 0.56181114912033081 0.19054596126079559
0.61209952831268311 0.56544822454452515 0.18523794412612915
0.69160604476928711 0.5674901008605957 0.17946946620941162
0.76735949516296387 0.56768977642059326 0.17244486510753632
0.83907139301300049 0.56607997417449951 0.1642913818359375
0.91106289625167847 0.56084537506103516 0.15657021105289459
0.00019303863518871367 0.59695124626159668 0.23317381739616394
0.0096505554392933846 0.5951380729675293 0.23138558864593506
0.061773009598255157 0.59678661823272705 0.22970132529735565
0.1554456353187561 0.60169738531112671 0.22775872051715851
0.2648773193359375 0.60570645332336426 0.22474110126495361
0.36645305156707764 0.61045092344284058 0.22061969339847565
0.44758474826812744 0.61841541528701782 0.21622687578201294
0.52067726850509644 0.62465018033981323 0.21145370602607727
0.59834563732147217 0.62718570232391357 0.20631593465805054
0.67630887031555176 0.62765794992446899 0.19919875264167786
0.74829959869384766 0.62936818599700928 0.19089660048484802
0.81601345539093018 0.63081377744674683 0.1823539137840271
0.88490444421768188 0.63229119777679443 0.17517916858196259
0.018165364861488342 0.6603432297706604 0.25185677409172058
0.041165910661220551 0.66045844554901123 0.24997667968273163
0.09244035929441452 0.66238689422607422 0.24942703545093536
0.17645922303199768 0.66424560546875 0.25065866112709045
0.27291852235794067 0.6672787070274353 0.25055456161499023
0.36292436718940735 0.67234587669372559 0.2475445419549942
0.43954944610595703 0.67944574356079102 0.24314399063587189
0.51061898469924927 0.68505585193634033 0.23854102194309235
0.58616167306900024 0.68547791242599487 0.23443004488945007
0.66003191471099854 0.68703478574752808 0.22747419774532318
0.72813880443572998 0.69025278091430664 0.2179146409034729
0.79404324293136597 0.6944153904914856 0.20686830580234528
0.86469703912734985 0.69716149568557739 0.19744971394538879
0.062673218548297882 0.71980547904968262 0.2809041440486908
0.08991800993680954 0.7198641300201416 0.27996790409088135
0.1364116370677948 0.72098743915557861 0.28047749400138855
0.20605403184890747 0.72259855270385742 0.28223761916160583
0.2854466438293457 0.72636133432388306 0.28149524331092834
0.36379435658454895 0.73187559843063354 0.27825957536697388
0.43844428658485413 0.73656326532363892 0.27506804466247559
0.51016438007354736 0.74008625745773315 0.27264440059661865
0.57921034097671509 0.74236470460891724 0.26934903860092163
0.64386641979217529 0.74595463275909424 0.26243740320205688
0.70781570672988892 0.75135183334350586 0.25126707553863525
0.77653473615646362 0.75609683990478516 0.23769199848175049
0.8534008264541626 0.75868409872055054 0.22565189003944397
0.11067879199981689 0.7776343822479248 0.31709372997283936
0.14096735417842865 0.77725207805633545 0.31687557697296143
0.18322740495204926 0.77757322788238525 0.31770747900009155
0.23821547627449036 0.7803351879119873 0.31708848476409912
0.30004385113716125 0.78692984580993652 0.31276196241378784
0.36612692475318909 0.79375523328781128 0.30765506625175476
0.43740454316139221 0.79612451791763306 0.30618491768836975
0.50819587707519531 0.79736828804016113 0.30659651756286621
0.57041710615158081 0.80052953958511353 0.3045465350151062
0.62594783306121826 0.80783247947692871 0.29767081141471863
0.68703001737594604 0.81461960077285767 0.28596273064613342
0.76227796077728271 0.81789708137512207 0.27107945084571838
0.84812307357788086 0.8178565502166748 0.25734886527061462
0.14659769833087921 0.83898454904556274 0.35202863812446594
0.17884862422943115 0.83884084224700928 0.35178887844085693
0.21700985729694366 0.83976858854293823 0.35119837522506714
0.26147350668907166 0.84457409381866455 0.34805041551589966
0.31021392345428467 0.85322368144989014 0.34106573462486267
0.36460518836975098 0.86160504817962646 0.33412134647369385
0.43014758825302124 0.86317402124404907 0.3338075578212738
0.49625107645988464 0.86314636468887329 0.3361419141292572
0.55324703454971313 0.86728066205978394 0.33523541688919067
0.6047133207321167 0.87549054622650146 0.32918083667755127
0.66587108373641968 0.882607102394104 0.31824854016304016
0.74636787176132202 0.88449984788894653 0.30356335639953613
0.83845633268356323 0.88339173793792725 0.28937983512878418
0.066464319825172424 0.051694158464670181 0.15339846909046173
0.13615880906581879 0.052631888538599014 0.15063901245594025
0.20861256122589111 0.056945502758026123 0.14918592572212219
0.28301864862442017 0.064314521849155426 0.14890646934509277
0.36397850513458252 0.073313675820827484 0.14756292104721069
0.46392574906349182 0.080384410917758942 0.14165624976158142
0.57549023628234863 0.08483944833278656 0.13304419815540314
0.67925858497619629 0.087118200957775116 0.12630359828472137
0.76923853158950806 0.088645681738853455 0.12200614809989929
0.85208457708358765 0.093937724828720093 0.1146204024553299
0.93131726980209351 0.10274575650691986 0.10334517806768417
0.99321830272674561 0.10497920960187912 0.094585597515106201
1 0.094320215284824371 0.089909031987190247
0.073291018605232239 0.11856168508529663 0.17048546671867371
0.12721769511699677 0.11997393518686295 0.16790878772735596
0.19183759391307831 0.12229128181934357 0.16659213602542877
0.26524478197097778 0.12708714604377747 0.16504734754562378
0.34779083728790283 0.13444741070270538 0.16269360482692719
0.44784149527549744 0.14095890522003174 0.15658138692378998
0.55807280540466309 0.14498649537563324 0.14857958257198334
0.66160356998443604 0.14602221548557281 0.14192795753479004
0.75304108858108521 0.14491891860961914 0.13662469387054443
0.83833938837051392 0.14500483870506287 0.12961243093013763
0.92066866159439087 0.1442146897315979 0.12108245491981506
0.98938995599746704 0.13955418765544891 0.1137576550245285
1 0.13152682781219482 0.10905306786298752
0.097728893160820007 0.1754058450460434 0.18663740158081055
0.13191911578178406 0.1782858669757843 0.18489271402359009
0.18349732458591461 0.1807645708322525 0.18368174135684967
0.25278499722480774 0.18472917377948761 0.1813197135925293
0.33570468425750732 0.19119457900524139 0.17739751935005188
0.43581464886665344 0.19800794124603271 0.17143729329109192
0.54484140872955322 0.20285230875015259 0.16435627639293671
0.64673680067062378 0.20519401133060455 0.15751913189888
0.73745256662368774 0.20358860492706299 0.15080879628658295
0.82383006811141968 0.2004053145647049 0.14366151392459869
0.90827405452728271 0.19413045048713684 0.13644586503505707
0.9829707145690918 0.18501080572605133 0.13041757047176361
1 0.17598596215248108 0.12653861939907074
0.10285982489585876 0.23346556723117828 0.20205467939376831
0.12788443267345428 0.23570245504379272 0.20075671374797821
0.17136894166469574 0.23862415552139282 0.19945736229419708
0.23895302414894104 0.2425730973482132 0.19700410962104797
0.32394424080848694 0.24841420352458954 0.1926930695772171
0.4255460798740387 0.25513458251953125 0.18695688247680664
0.5344616174697876 0.26021435856819153 0.1808219850063324
0.63375222682952881 0.26347965002059937 0.17452605068683624
0.72214412689208984 0.26318573951721191 0.16759859025478363
0.80769920349121094 0.2597576379776001 0.16024439036846161
0.89194804430007935 0.25378245115280151 0.15274037420749664
0.97081762552261353 0.24358735978603363 0.14639072120189667
1 0.23211126029491425 0.14258632063865662
0.074756145477294922 0.30405643582344055 0.21674028038978577
0.094470098614692688 0.30452141165733337 0.21482484042644501
0.13892902433872223 0.30709335207939148 0.2132127583026886
0.21541483700275421 0.30969724059104919 0.21086902916431427
0.31074920296669006 0.3136698305606842 0.20718172192573547
0.41567361354827881 0.31921374797821045 0.20191964507102966
0.52219909429550171 0.32389825582504272 0.19664449989795685
0.61665290594100952 0.32767784595489502 0.19138319790363312
0.70194846391677856 0.32875466346740723 0.18537479639053345
0.78661340475082397 0.32569441199302673 0.17897194623947144
