assets/lut/films print fuji 3510 cuspclip.cube
# Created by: G'MIC (https://gmic.eu)
TITLE "fuji_3510_cuspclip"
# LUT size
LUT_3D_SIZE 7
# Data domain
DOMAIN_MIN 0.0 0.0 0.0
DOMAIN_MAX 1.0 1.0 1.0
# LUT data points
0.016034742817282677 0.016715001314878464 0.015014722943305969
0.046922869980335236 0.030752459540963173 0.020957661792635918
0.13904838263988495 0.048568561673164368 0.023691199719905853
0.32915559411048889 0.033375907689332962 0.0089784804731607437
0.49423569440841675 0.013421496376395226 0
0.57565110921859741 0.020729050040245056 0
0.60858708620071411 0.024108348414301872 0
0.012894259765744209 0.07204081118106842 0.039922244846820831
0.057774323970079422 0.080245360732078552 0.044908709824085236
0.18007136881351471 0.10916357487440109 0.029812965542078018
0.38739615678787231 0.11687935888767242 0.0021154815331101418
0.56101870536804199 0.12628114223480225 0
0.64151030778884888 0.1432034820318222 3.5903033221984515e-06
0.68561482429504395 0.15490636229515076 0.0017938202945515513
0.0032733841799199581 0.1789185106754303 0.081245124340057373
0.009623388759791851 0.1751590222120285 0.063039205968379974
0.19474996626377106 0.22159649431705475 0.026308352127671242
0.42924845218658447 0.25321820378303528 0.0046606622636318207
0.62565803527832031 0.27218064665794373 0.00012709673319477588
0.71853220462799072 0.27814275026321411 0.0033787447027862072
0.75332522392272949 0.3032526969909668 0.0052052666433155537
0.0072933570481836796 0.34792947769165039 0.14880985021591187
0.0039135953411459923 0.35105022788047791 0.098291032016277313
0.16190744936466217 0.37619024515151978 0.0080466177314519882
0.48826220631599426 0.44238972663879395 0.0010763130849227309
0.70674800872802734 0.48842397332191467 0.0095873512327671051
0.7967684268951416 0.48933118581771851 0.025308107957243919
0.83261531591415405 0.51361954212188721 0.030776198953390121
0.010905681177973747 0.50755548477172852 0.22340883314609528
0.0026977090165019035 0.52162712812423706 0.19807012379169464
0.11952249705791473 0.54375964403152466 0.0067662708461284637
0.54018795490264893 0.63102430105209351 8.5987761849537492e-05
0.79851680994033813 0.69509398937225342 0.025803001597523689
0.87106382846832275 0.67314356565475464 0.024809414520859718
0.90584921836853027 0.70674455165863037 0.033534839749336243
0.017670426517724991 0.57184380292892456 0.25595399737358093
0.014473141171038151 0.58920007944107056 0.21483965218067169
0.13849197328090668 0.62850522994995117 0.0069155073724687099
0.61426001787185669 0.73885107040405273 0.0039328183047473431
0.83338922262191772 0.78553104400634766 0.041993353515863419
0.9160347580909729 0.78899520635604858 0.071695543825626373
0.95078128576278687 0.80081433057785034 0.08031502366065979
0.022739440202713013 0.62125015258789062 0.29387474060058594
0.0083286063745617867 0.63466501235961914 0.16018246114253998
0.29819414019584656 0.69778889417648315 0.017625382170081139
0.65326809883117676 0.78091490268707275 0.010923662222921848
0.86190736293792725 0.82153606414794922 0.038745895028114319
0.95762139558792114 0.83427298069000244 0.060841459780931473
0.98249465227127075 0.83706653118133545 0.075214728713035583
0.025560341775417328 0.028536254540085793 0.058718275278806686
0.054353661835193634 0.037737410515546799 0.05670502781867981
0.16592840850353241 0.053617902100086212 0.060591153800487518
0.37190386652946472 0.017640072852373123 0.026069626212120056
0.52443104982376099 0.0038712145760655403 0.01331628579646349
0.61257350444793701 0.0036936143878847361 0.016615504398941994
0.65759932994842529 0.0012701445957645774 0.017129471525549889
0.014577453956007957 0.090618237853050232 0.086290039122104645
0.061177287250757217 0.096690095961093903 0.085563302040100098
0.19757044315338135 0.11118650436401367 0.079748846590518951
0.4262140691280365 0.11566316336393356 0.035184986889362335
0.60983341932296753 0.089360393583774567 0.011127891018986702
0.68433654308319092 0.072109043598175049 0.013873141258955002
0.73393923044204712 0.084320709109306335 0.023580843582749367
0.0032488654833287001 0.19089606404304504 0.11868026107549667
0.0089669022709131241 0.19294565916061401 0.11042317748069763
0.21811187267303467 0.23199290037155151 0.091278940439224243
0.4864828884601593 0.25262871384620667 0.025864245370030403
0.68768954277038574 0.26895603537559509 0.015837784856557846
0.76804244518280029 0.26746073365211487 0.011256273835897446
0.80738526582717896 0.29230132699012756 0.021054616197943687
0.020574681460857391 0.38731116056442261 0.2187560498714447
0.024912143126130104 0.39977502822875977 0.1910804957151413
0.19672250747680664 0.40765783190727234 0.058248676359653473
0.55734860897064209 0.47407969832420349 0.021536868065595627
0.76997470855712891 0.49502569437026978 0.0044704661704599857
0.86039036512374878 0.51133978366851807 0.018168205395340919
0.89200848340988159 0.52130132913589478 0.015089775435626507
0.032120063900947571 0.55109000205993652 0.29973557591438293
0.023651512339711189 0.56409794092178345 0.26934289932250977
0.12436963617801666 0.58833187818527222 0.051166653633117676
0.60491698980331421 0.68031543493270874 0.0037846583873033524
0.84773379564285278 0.72017908096313477 0.020612964406609535
0.93307888507843018 0.72365766763687134 0.027222577482461929
0.95697140693664551 0.74165076017379761 0.048333216458559036
0.024610348045825958 0.61302369832992554 0.35380005836486816
0.036031283438205719 0.63519048690795898 0.32646316289901733
0.12007016688585281 0.66927951574325562 0.10645675659179688
0.61715877056121826 0.76362735033035278 0.014515955001115799
0.87122362852096558 0.8156859278678894 0.018116805702447891
0.97188162803649902 0.82602429389953613 0.02781047485768795
0.99082320928573608 0.83140486478805542 0.068862840533256531
0.016875861212611198 0.66577965021133423 0.44104322791099548
0.015130211599171162 0.69314122200012207 0.39188560843467712
0.18391969799995422 0.73310202360153198 0.26816537976264954
0.63341230154037476 0.81073981523513794 0.22239793837070465
0.87939035892486572 0.8539549708366394 0.13859501481056213
0.99294966459274292 0.87128889560699463 0.14702478051185608
0.99968749284744263 0.87274092435836792 0.2540314793586731
0.020324168726801872 0.024653341621160507 0.15424913167953491
0.048615697771310806 0.036493819206953049 0.1660737544298172
0.17569123208522797 0.04419257864356041 0.17058420181274414
0.3901517391204834 0.0087256189435720444 0.17433509230613708
0.55744504928588867 0.0065221749246120453 0.18645001947879791
0.63963973522186279 0.001541825826279819 0.18795989453792572
0.67614305019378662 0 0.19029819965362549
0.0091506661847233772 0.12264552712440491 0.20132207870483398
0.019945511594414711 0.10390053689479828 0.19424733519554138
0.20273688435554504 0.11807312071323395 0.22849066555500031
0.44802922010421753 0.097946301102638245 0.2189042717218399
0.63525861501693726 0.049004379659891129 0.20120078325271606
0.71728473901748657 0.022788358852267265 0.19449339807033539
0.75313770771026611 0.024269627407193184 0.21880927681922913
0.0039215688593685627 0.27982807159423828 0.29701453447341919
0.0077200047671794891 0.25479286909103394 0.28163707256317139
0.2054135799407959 0.25817099213600159 0.26034563779830933
0.5111691951751709 0.28838580846786499 0.2665368914604187
0.70862990617752075 0.27162081003189087 0.24143259227275848
0.80921900272369385 0.26118505001068115 0.22048841416835785
0.84164512157440186 0.2930198609828949 0.24260830879211426
0.004885310772806406 0.47611647844314575 0.40971794724464417
0.011902842670679092 0.46161219477653503 0.37286892533302307
0.12675797939300537 0.45118778944015503 0.29612234234809875
0.56248563528060913 0.5074884295463562 0.29349434375762939
0.80067932605743408 0.53588134050369263 0.25700259208679199
0.9014970064163208 0.53872770071029663 0.24413067102432251
0.92578524351119995 0.54715752601623535 0.23949386179447174
0.022738602012395859 0.60726690292358398 0.45965790748596191
0.034045111387968063 0.62194770574569702 0.45701321959495544
0.068190015852451324 0.64670819044113159 0.35310649871826172
0.58445459604263306 0.71443814039230347 0.28175646066665649
0.86847192049026489 0.76629239320755005 0.26504164934158325
0.97480940818786621 0.77625381946563721 0.21868675947189331
0.99114257097244263 0.78575557470321655 0.2489941269159317
0.028601327911019325 0.66447609663009644 0.50842976570129395
0.036697506904602051 0.68545424938201904 0.50528174638748169
0.035010572522878647 0.72630304098129272 0.41780948638916016
0.59076130390167236 0.81043905019760132 0.34401866793632507
0.86960995197296143 0.85665667057037354 0.3118135929107666
0.98348045349121094 0.87284451723098755 0.30416205525398254
0.99962043762207031 0.87287485599517822 0.3445526659488678
0.013389303348958492 0.71427619457244873 0.59520155191421509
0.021543540060520172 0.73945963382720947 0.58479011058807373
0.096591860055923462 0.77069199085235596 0.50884717702865601
0.60762512683868408 0.85343015193939209 0.50948870182037354
0.87506377696990967 0.89519411325454712 0.4749247133731842
0.98696589469909668 0.91224342584609985 0.47997933626174927
0.99996268749237061 0.91301310062408447 0.51512086391448975
0.0034657197538763285 0.077181138098239899 0.32890433073043823
0.050605595111846924 0.018450748175382614 0.32702431082725525
0.18935063481330872 0.014497554861009121 0.34962248802185059
0.40053996443748474 0.0026537426747381687 0.36937180161476135
0.57473409175872803 0.0040617100894451141 0.38218584656715393
0.66300755739212036 0 0.39983972907066345
0.70031523704528809 0 0.40195053815841675
0.0037974936421960592 0.20162369310855865 0.40027430653572083
0.013147465884685516 0.1377185732126236 0.38449481129646301
0.21065367758274078 0.12545351684093475 0.41293126344680786
0.46413344144821167 0.1097172275185585 0.43384987115859985
0.6540522575378418 0.04786987230181694 0.43548250198364258
0.73968160152435303 0.020004361867904663 0.43959051370620728
0.76963448524475098 0.025110581889748573 0.44090536236763
0.0014481787802651525 0.35212606191635132 0.48458755016326904
0.020808111876249313 0.33471617102622986 0.49559855461120605
0.17198477685451508 0.28740334510803223 0.48942136764526367
0.51408219337463379 0.31235545873641968 0.5102962851524353
0.73062461614608765 0.29864364862442017 0.50676906108856201
0.8155752420425415 0.27727878093719482 0.50176000595092773
0.84705954790115356 0.31416696310043335 0.49292048811912537
0.014993525110185146 0.53542113304138184 0.58820915222167969
0.021014614030718803 0.5357593297958374 0.5934675931930542
0.072341740131378174 0.51991009712219238 0.56750297546386719
0.55033004283905029 0.55898666381835938 0.55699265003204346
0.80374389886856079 0.58018070459365845 0.57040750980377197
0.90406924486160278 0.5852159857749939 0.56326520442962646
0.92975670099258423 0.59559673070907593 0.56246984004974365
0.013101301155984402 0.65818154811859131 0.6508479118347168
0.0044790380634367466 0.68628418445587158 0.66209274530410767
0.0071620717644691467 0.71717172861099243 0.63405156135559082
0.55544012784957886 0.77775555849075317 0.61389648914337158
0.8549119234085083 0.82136720418930054 0.61958867311477661
0.96821582317352295 0.82857125997543335 0.61129659414291382
0.99222052097320557 0.83243840932846069 0.60999602079391479
0.0043444465845823288 0.72135871648788452 0.69743853807449341
0.0074670230969786644 0.75015485286712646 0.7111169695854187
0.007328287698328495 0.78211730718612671 0.6857491135597229
0.53789132833480835 0.86060106754302979 0.66732358932495117
0.86602354049682617 0.91192936897277832 0.67225742340087891
0.98284852504730225 0.92673903703689575 0.66371810436248779
0.99607843160629272 0.91492605209350586 0.66176497936248779
0.0090176751837134361 0.75036942958831787 0.7420470118522644
0.0035962872207164764 0.78849238157272339 0.76455610990524292
0.0072394725866615772 0.82012999057769775 0.74705404043197632
0.56422752141952515 0.89208203554153442 0.74920409917831421
0.85911834239959717 0.93811601400375366 0.7569878101348877
0.97655302286148071 0.95432186126708984 0.75618994235992432
0.99818462133407593 0.95454365015029907 0.75585281848907471
0.0090560764074325562 0.22074660658836365 0.48205146193504333
0.039088618010282516 0.071464195847511292 0.47397264838218689
0.19819587469100952 0.0066779791377484798 0.50345802307128906
0.41203218698501587 0.0012004777090623975 0.52539688348770142
0.59223967790603638 0.001125275855883956 0.54217374324798584
0.6864389181137085 0 0.55196171998977661
0.7184944748878479 0 0.55919772386550903
0.0039555719122290611 0.29903092980384827 0.55615538358688354
0.0042513529770076275 0.26417821645736694 0.56463533639907837
0.19565817713737488 0.12026705592870712 0.58005726337432861
0.47751685976982117 0.077805720269680023 0.60594886541366577
0.66630297899246216 0.026025211438536644 0.61553877592086792
0.75121390819549561 0.021191809326410294 0.62918996810913086
0.78313541412353516 0.025642529129981995 0.64051789045333862
0.00087661744328215718 0.40704339742660522 0.62921470403671265
0.0068090548738837242 0.39489728212356567 0.64451926946640015
0.11703314632177353 0.29896628856658936 0.65652060508728027
0.49761340022087097 0.30638518929481506 0.690807044506073
0.72965598106384277 0.30434229969978333 0.69449865818023682
0.82258933782577515 0.29503437876701355 0.70752638578414917
0.85550647974014282 0.33326828479766846 0.7213442325592041
0.026392918080091476 0.56183081865310669 0.70453560352325439
0.030971437692642212 0.56931072473526001 0.72565895318984985
0.021252457052469254 0.55263602733612061 0.74642902612686157
0.53167366981506348 0.58153611421585083 0.76396369934082031
0.79661691188812256 0.60741937160491943 0.77678471803665161
0.89664715528488159 0.61007070541381836 0.78673470020294189
0.92803972959518433 0.62483859062194824 0.79283434152603149
0.018801013007760048 0.68729138374328613 0.76413583755493164
0.022305132821202278 0.71104192733764648 0.78544104099273682
0.017979387193918228 0.75419509410858154 0.80667930841445923
0.51265102624893188 0.81257367134094238 0.83152079582214355
0.83074915409088135 0.84837543964385986 0.83090579509735107
0.96165961027145386 0.8619874119758606 0.84344607591629028
0.98471927642822266 0.86337608098983765 0.83842641115188599
0.028890468180179596 0.73895907402038574 0.78891313076019287
0.016198446974158287 0.76994615793228149 0.81706947088241577
0.011268196627497673 0.81665748357772827 0.83886635303497314
0.49535521864891052 0.8931804895401001 0.86055123805999756
0.83007383346557617 0.93643587827682495 0.86957770586013794
0.97079074382781982 0.95911473035812378 0.87990391254425049
0.99403327703475952 0.94769942760467529 0.86749941110610962
0.0093401139602065086 0.76010000705718994 0.81959784030914307
0.0071223089471459389 0.80238550901412964 0.85297977924346924
0.0079490216448903084 0.84337902069091797 0.87103158235549927
0.53286230564117432 0.91762447357177734 0.89420163631439209
0.83631300926208496 0.96057808399200439 0.90782153606414795
0.96480822563171387 0.97783607244491577 0.90723049640655518
0.99490886926651001 0.97928434610366821 0.90839964151382446
0.0032197390682995319 0.25372499227523804 0.55470800399780273
0.022180743515491486 0.19947536289691925 0.55847477912902832
0.20129925012588501 0.0070380414836108685 0.5843585729598999
0.4294109046459198 0.0044520511291921139 0.62196439504623413
0.60657775402069092 0.0025681140832602978 0.63878798484802246
0.70226627588272095 0.0050529777072370052 0.65185177326202393
0.74200701713562012 0.0098113566637039185 0.66513395309448242
0.0039176791906356812 0.32668980956077576 0.62184423208236694
0.0038874009624123573 0.29230219125747681 0.62920463085174561
0.18122147023677826 0.10450424253940582 0.67112284898757935
0.47449624538421631 0.075468622148036957 0.70164018869400024
0.67743104696273804 0.026431888341903687 0.72337132692337036
0.76492577791213989 0.02373829297721386 0.73189049959182739
0.79640334844589233 0.023300426080822945 0.74795722961425781
0.0037393008824437857 0.42455515265464783 0.67573559284210205
0.0076875723898410797 0.4053821861743927 0.69390976428985596
0.097126498818397522 0.32917672395706177 0.74042576551437378
0.49924054741859436 0.32806867361068726 0.78769338130950928
0.7301708459854126 0.31282183527946472 0.80433350801467896
0.8250049352645874 0.29649260640144348 0.80619686841964722
0.86266285181045532 0.33781710267066956 0.8240361213684082
0.025531468912959099 0.57210612297058105 0.74978256225585938
0.018280882388353348 0.57323873043060303 0.76816916465759277
0.020594429224729538 0.56741607189178467 0.82211458683013916
0.50050491094589233 0.60066729784011841 0.87231928110122681
0.79020088911056519 0.61676359176635742 0.88498812913894653
0.89205741882324219 0.6112673282623291 0.88346642255783081
0.92983448505401611 0.6497122049331665 0.89602065086364746
0.023254305124282837 0.70247304439544678 0.81252199411392212
0.011594570241868496 0.70902556180953979 0.82587933540344238
0.033787522464990616 0.76404237747192383 0.87475955486297607
0.48299872875213623 0.82199454307556152 0.92219579219818115
0.8292919397354126 0.86514437198638916 0.93783247470855713
0.94657111167907715 0.87304818630218506 0.94501173496246338
0.97927123308181763 0.8886711597442627 0.9492303729057312
0.042431086301803589 0.74608737230300903 0.83537977933883667
0.042373761534690857 0.76935964822769165 0.85623252391815186
0.033313840627670288 0.82862609624862671 0.89729684591293335
0.4502352774143219 0.90667212009429932 0.94236129522323608
0.83330005407333374 0.95550107955932617 0.95628899335861206
0.95529407262802124 0.96745175123214722 0.96026182174682617
0.99179726839065552 0.9738653302192688 0.96191990375518799
0.014783193357288837 0.76905703544616699 0.85346382856369019
0.040775075554847717 0.80466234683990479 0.88040637969970703
0.015607751905918121 0.84894901514053345 0.91394829750061035
0.50455093383789062 0.92522633075714111 0.95392405986785889
0.83188521862030029 0.96933722496032715 0.96553152799606323
0.94433760643005371 0.98383957147598267 0.96616137027740479
0.9907955527305603 0.99115145206451416 0.97031539678573608
0.00047411452396772802 0.30493038892745972 0.60355770587921143
0.019644584506750107 0.25608730316162109 0.60898482799530029
0.19475768506526947 0.0088139697909355164 0.64538896083831787
0.45240968465805054 0.0057109608314931393 0.69555485248565674
0.6394118070602417 0.0070191328413784504 0.70516139268875122
0.72705268859863281 0.0029329487588256598 0.70722019672393799
0.76162892580032349 0.013718189671635628 0.7233472466468811
0 0.36379742622375488 0.65640991926193237
0.0021121753379702568 0.33420500159263611 0.66193598508834839
0.16310848295688629 0.18027682602405548 0.72061461210250854
0.4814494252204895 0.15865875780582428 0.76258736848831177
0.69129544496536255 0.12728337943553925 0.78552019596099854
0.78529626131057739 0.073176376521587372 0.79054701328277588
0.81851643323898315 0.14646689593791962 0.80501973628997803
0.00096393661806359887 0.43371677398681641 0.69896423816680908
0.0012149586109444499 0.42825183272361755 0.7186245322227478
0.085082203149795532 0.36403593420982361 0.77756404876708984
0.4878389835357666 0.35045364499092102 0.82726246118545532
0.72522431612014771 0.33920755982398987 0.84445482492446899
0.82944709062576294 0.33982345461845398 0.84822630882263184
0.86700111627578735 0.37826746702194214 0.86139404773712158
0.0057036308571696281 0.56922620534896851 0.7623479962348938
0.007923126220703125 0.58474558591842651 0.78735268115997314
0.014876257628202438 0.58056819438934326 0.84747344255447388
0.49405843019485474 0.60297214984893799 0.89920264482498169
0.7776336669921875 0.61633408069610596 0.91277742385864258
0.89016163349151611 0.61624562740325928 0.91871774196624756
0.93117862939834595 0.65844106674194336 0.93044584989547729
0.02667153999209404 0.70368081331253052 0.82503211498260498
0.027359427884221077 0.71877473592758179 0.84199947118759155
0.027566183358430862 0.76120662689208984 0.8909146785736084
0.45956185460090637 0.82239836454391479 0.94804030656814575
0.81736773252487183 0.86498808860778809 0.96506404876708984
0.94291567802429199 0.87443280220031738 0.9730370044708252
0.97875577211380005 0.88962841033935547 0.97712153196334839
0.006929345428943634 0.75015562772750854 0.84741115570068359
0.025440530851483345 0.77142655849456787 0.86560845375061035
0.04108816385269165 0.8293071985244751 0.91094034910202026
0.43923529982566833 0.90918546915054321 0.96400034427642822
0.82078593969345093 0.95349574089050293 0.98185569047927856
0.94954651594161987 0.96851843595504761 0.98856860399246216
0.98718202114105225 0.97458142042160034 0.98798227310180664
0.022844277322292328 0.76890784502029419 0.85809326171875
0.021624784916639328 0.80243140459060669 0.88553130626678467
0.024932621046900749 0.85167288780212402 0.9258425235748291
0.46971073746681213 0.92626851797103882 0.96950250864028931
0.81435263156890869 0.97119808197021484 0.98443269729614258
0.94548237323760986 0.98929423093795776 0.98893004655838013
0.98769265413284302 0.99482911825180054 0.9937482476234436
