assets/lut/films colorslide kodak kodachrome 25.cube
# Created by: G'MIC (https://gmic.eu)
TITLE "kodak_kodachrome_25"
# LUT size
LUT_3D_SIZE 7
# Data domain
DOMAIN_MIN 0.0 0.0 0.0
DOMAIN_MAX 1.0 1.0 1.0
# LUT data points
0.0069024031981825829 0.0056974524632096291 0.0087893912568688393
0.081404998898506165 0.01466655358672142 0.011693468317389488
0.20911365747451782 0.014475489966571331 0.0092018125578761101
0.50331312417984009 0.0089468266814947128 0.00038048237911425531
0.89919847249984741 0.024096589535474777 0.0030023164581507444
0.99999099969863892 0.10390040278434753 0.028295179829001427
1 0.3186248242855072 0.20252597332000732
0.078613817691802979 0.14402101933956146 0.068693734705448151
0.16019050776958466 0.15299956500530243 0.067232005298137665
0.33881106972694397 0.16653960943222046 0.061380438506603241
0.6149364709854126 0.17652705311775208 0.050830870866775513
0.85671377182006836 0.23670960962772369 0.072521790862083435
0.94489622116088867 0.3523133397102356 0.13573761284351349
0.99641555547714233 0.4528745710849762 0.24429288506507874
0.13658587634563446 0.42275816202163696 0.20687775313854218
0.26833298802375793 0.41616123914718628 0.19443657994270325
0.45303401350975037 0.43054378032684326 0.18439480662345886
0.62035942077636719 0.44324991106987 0.17681986093521118
0.77265948057174683 0.46756711602210999 0.18017888069152832
0.89368504285812378 0.50293737649917603 0.19888558983802795
0.99171340465545654 0.54862803220748901 0.24669209122657776
0.47186505794525146 0.61125391721725464 0.29012373089790344
0.50290632247924805 0.61250019073486328 0.28921520709991455
0.57211166620254517 0.61349749565124512 0.27867305278778076
0.65987575054168701 0.61391967535018921 0.26830720901489258
0.76413768529891968 0.61849784851074219 0.25526243448257446
0.87621551752090454 0.63134229183197021 0.25470611453056335
0.99094241857528687 0.65484946966171265 0.25848886370658875
0.62541449069976807 0.73986548185348511 0.35180371999740601
0.63927572965621948 0.74285668134689331 0.3557736873626709
0.67355525493621826 0.739299476146698 0.34960693120956421
0.72734683752059937 0.73802226781845093 0.33946418762207031
0.79887974262237549 0.74176317453384399 0.33197343349456787
0.89797401428222656 0.74807202816009521 0.32741841673851013
0.99729549884796143 0.75896775722503662 0.31658431887626648
0.7414429783821106 0.876903235912323 0.4199700653553009
0.75814485549926758 0.87886333465576172 0.41926455497741699
0.77222597599029541 0.8762391209602356 0.4190584123134613
0.81602340936660767 0.87700003385543823 0.41475915908813477
0.86865139007568359 0.87517297267913818 0.40601769089698792
0.94527345895767212 0.87457704544067383 0.39855629205703735
1 0.88732302188873291 0.39367997646331787
0.88754004240036011 0.9962877631187439 0.48942407965660095
0.90534740686416626 0.99779409170150757 0.48704996705055237
0.91063225269317627 0.99626225233078003 0.48651960492134094
0.93731778860092163 0.9961475133895874 0.48294126987457275
0.96380531787872314 0.98855084180831909 0.46919238567352295
0.9906114935874939 0.98669546842575073 0.46331709623336792
1 0.99760913848876953 0.46535283327102661
0.0039009093306958675 0.010119599290192127 0.12375651299953461
0.047304295003414154 0.01347401924431324 0.12874200940132141
0.16189113259315491 0.0062736808322370052 0.12808530032634735
0.43714925646781921 0.0085013443604111671 0.10508099943399429
0.86388987302780151 0.025997236371040344 0.07357393205165863
1 0.11078713834285736 0.14610263705253601
1 0.31079274415969849 0.31878611445426941
0.051760803908109665 0.13259704411029816 0.14841431379318237
0.13228712975978851 0.13817040622234344 0.15058059990406036
0.31081452965736389 0.14818045496940613 0.15143762528896332
0.59408795833587646 0.15797515213489532 0.14427296817302704
0.83322024345397949 0.22771671414375305 0.18882395327091217
0.92546504735946655 0.33663833141326904 0.28423008322715759
0.99357479810714722 0.44688966870307922 0.38271996378898621
0.11000140011310577 0.41525691747665405 0.24922630190849304
0.25705099105834961 0.40944263339042664 0.24043986201286316
0.43634217977523804 0.41884025931358337 0.2406773716211319
0.60908114910125732 0.43563249707221985 0.24210977554321289
0.74846923351287842 0.46370992064476013 0.27855026721954346
0.8682783842086792 0.49712264537811279 0.32174843549728394
0.98519104719161987 0.54382097721099854 0.36712762713432312
0.45976081490516663 0.61051386594772339 0.28936383128166199
0.49977788329124451 0.61036413908004761 0.28947538137435913
0.57004624605178833 0.61160778999328613 0.28696563839912415
0.65528261661529541 0.61037278175354004 0.27978667616844177
0.75824153423309326 0.61760395765304565 0.28027451038360596
0.86849397420883179 0.62664878368377686 0.30647221207618713
0.98646444082260132 0.64985203742980957 0.32558995485305786
0.62139308452606201 0.73796731233596802 0.34855794906616211
0.633858323097229 0.73778146505355835 0.3481006920337677
0.67401891946792603 0.73841720819473267 0.33893170952796936
0.72658896446228027 0.73802942037582397 0.32899627089500427
0.7990424633026123 0.74059176445007324 0.32633435726165771
0.90013712644577026 0.74539351463317871 0.32148826122283936
0.99464935064315796 0.76060014963150024 0.30818653106689453
0.74125766754150391 0.87379664182662964 0.41869264841079712
0.74582207202911377 0.87360680103302002 0.41874787211418152
0.77101403474807739 0.87380880117416382 0.42299604415893555
0.81262463331222534 0.87701785564422607 0.42103049159049988
0.86836081743240356 0.87467926740646362 0.41291683912277222
0.94543945789337158 0.87343192100524902 0.40413787961006165
0.99920326471328735 0.88611441850662231 0.39348942041397095
0.90475004911422729 0.9967988133430481 0.4839177131652832
0.90991842746734619 0.99643415212631226 0.48296073079109192
0.9108661413192749 0.99451065063476562 0.48386868834495544
0.93871200084686279 0.99690616130828857 0.48448288440704346
0.96936911344528198 0.99342161417007446 0.47492921352386475
0.99077785015106201 0.98832535743713379 0.46728688478469849
0.99995046854019165 0.99505776166915894 0.46084827184677124
8.6167283370741643e-06 0.0014722187770530581 0.25013244152069092
0.0091278078034520149 0.0033465966116636992 0.25879666209220886
0.11586535722017288 0.0028189565055072308 0.25502914190292358
0.40576931834220886 0.0054473127238452435 0.21701963245868683
0.85269451141357422 0.017002854496240616 0.16046424210071564
1 0.10408864915370941 0.22318418323993683
0.99974936246871948 0.31012290716171265 0.38038891553878784
0.022256050258874893 0.11296811699867249 0.30430394411087036
0.087012618780136108 0.11223246157169342 0.3012632429599762
0.26439517736434937 0.12348635494709015 0.30131682753562927
0.54869538545608521 0.134028360247612 0.28684073686599731
0.81286805868148804 0.19925650954246521 0.30935472249984741
0.92118465900421143 0.31119260191917419 0.383016437292099
0.98307991027832031 0.45003440976142883 0.47232037782669067
0.072301797568798065 0.39069753885269165 0.41735097765922546
0.16149313747882843 0.39563930034637451 0.41771507263183594
0.3780519962310791 0.40100455284118652 0.4139920175075531
0.56320321559906006 0.41566812992095947 0.42240414023399353
0.71503609418869019 0.44623047113418579 0.44247269630432129
0.83896565437316895 0.48508504033088684 0.46963238716125488
0.96174633502960205 0.54350167512893677 0.50402474403381348
0.42580047249794006 0.60451394319534302 0.40914833545684814
0.45892682671546936 0.60155975818634033 0.41760578751564026
0.52768462896347046 0.60091531276702881 0.42044150829315186
0.61935621500015259 0.60116875171661377 0.42959445714950562
0.72190219163894653 0.60885030031204224 0.44724324345588684
0.82795703411102295 0.61949366331100464 0.48243984580039978
0.95950812101364136 0.6412690281867981 0.52198272943496704
0.61646467447280884 0.73326772451400757 0.37944227457046509
0.63158494234085083 0.73406779766082764 0.35616958141326904
0.66791009902954102 0.73663115501403809 0.35972002148628235
0.72242933511734009 0.73559176921844482 0.35730525851249695
0.79357832670211792 0.74001902341842651 0.37088695168495178
0.88754487037658691 0.74556815624237061 0.38041883707046509
0.98772323131561279 0.7579035758972168 0.41266241669654846
0.73620802164077759 0.87309008836746216 0.41813290119171143
0.74688911437988281 0.87522584199905396 0.41840904951095581
0.77062821388244629 0.87435352802276611 0.41333702206611633
0.81464451551437378 0.87601417303085327 0.39495047926902771
0.87191826105117798 0.87727713584899902 0.40157470107078552
0.94970250129699707 0.87968820333480835 0.38947674632072449
0.99992495775222778 0.88856250047683716 0.37519422173500061
0.89193916320800781 0.9929383397102356 0.48092341423034668
0.90835100412368774 0.9962543249130249 0.48736608028411865
0.90269523859024048 0.98977041244506836 0.47530558705329895
0.92788660526275635 0.99332702159881592 0.47943347692489624
0.9640774130821228 0.99217194318771362 0.4708077609539032
0.99745577573776245 0.99022763967514038 0.4672272801399231
1 0.99523073434829712 0.45934748649597168
0 0 0.31474897265434265
0.0045719519257545471 0.002884838730096817 0.31646484136581421
0.077606469392776489 0.0056027132086455822 0.31549844145774841
0.36201918125152588 0.00015474206884391606 0.2748216986656189
0.82027250528335571 0.0044479817152023315 0.21061466634273529
1 0.063855893909931183 0.25197115540504456
0.99645674228668213 0.27328893542289734 0.40858516097068787
0.0026746713556349277 0.085705414414405823 0.38611611723899841
0.050750315189361572 0.090707726776599884 0.38183367252349854
0.21011020243167877 0.1008191853761673 0.37612399458885193
0.51505118608474731 0.099639758467674255 0.3512343168258667
0.82081097364425659 0.14927838742733002 0.35016530752182007
0.92059016227722168 0.28698521852493286 0.42768308520317078
0.98304885625839233 0.43542000651359558 0.51736247539520264
0.017909076064825058 0.360973060131073 0.52897453308105469
0.086702205240726471 0.36552777886390686 0.52338951826095581
0.32457289099693298 0.36753687262535095 0.51290547847747803
0.53964662551879883 0.39128831028938293 0.51133710145950317
0.69646871089935303 0.42751675844192505 0.52420365810394287
0.82583165168762207 0.47061452269554138 0.54277509450912476
0.9514012336730957 0.52653390169143677 0.57383334636688232
0.3109130859375 0.59151792526245117 0.61493784189224243
0.37518292665481567 0.58697044849395752 0.61080574989318848
0.46291497349739075 0.58867603540420532 0.61153870820999146
0.5663752555847168 0.58916711807250977 0.60602033138275146
0.67935395240783691 0.59611994028091431 0.60815632343292236
0.79377013444900513 0.60935401916503906 0.61340731382369995
0.93576508760452271 0.63485622406005859 0.62670612335205078
0.54804664850234985 0.72414344549179077 0.57746297121047974
0.55549293756484985 0.72364550828933716 0.60067069530487061
0.59466785192489624 0.72371625900268555 0.60988038778305054
0.65206503868103027 0.72483325004577637 0.60784447193145752
0.72751897573471069 0.72701191902160645 0.6205868124961853
0.82356923818588257 0.73195463418960571 0.63218384981155396
0.96060037612915039 0.74616634845733643 0.65711987018585205
0.72660809755325317 0.87383979558944702 0.43464452028274536
0.74263185262680054 0.87683022022247314 0.43320611119270325
0.75814414024353027 0.87449091672897339 0.45104685425758362
0.79985612630844116 0.87640261650085449 0.45313340425491333
0.85491102933883667 0.87766182422637939 0.46741777658462524
0.93400615453720093 0.87836712598800659 0.4626203179359436
0.99560809135437012 0.88390165567398071 0.50564324855804443
0.87976217269897461 0.99096345901489258 0.47475975751876831
0.89283221960067749 0.99491578340530396 0.4847007691860199
0.89766883850097656 0.9921155571937561 0.47833335399627686
0.92703866958618164 0.99641472101211548 0.50037801265716553
0.96388798952102661 0.99604475498199463 0.48110303282737732
0.99777144193649292 0.99548971652984619 0.46925041079521179
0.99738097190856934 0.99912345409393311 0.44124650955200195
0 0 0.36328130960464478
0 0 0.36636844277381897
0.033812399953603745 0 0.36324173212051392
0.29372742772102356 0.0013358471915125847 0.33083644509315491
0.78099650144577026 0 0.25018095970153809
1 0.051679722964763641 0.27281486988067627
0.99904006719589233 0.25811290740966797 0.44837957620620728
0.00072901108069345355 0.058003026992082596 0.43439474701881409
0.022351717576384544 0.054504096508026123 0.42821255326271057
0.15821349620819092 0.046737492084503174 0.41244935989379883
0.46016258001327515 0.050317831337451935 0.38772261142730713
0.81921273469924927 0.082051128149032593 0.36857134103775024
0.94777876138687134 0.22518794238567352 0.44928446412086487
0.99514728784561157 0.39290586113929749 0.54580932855606079
0.0098108928650617599 0.30792373418807983 0.57083070278167725
0.052123304456472397 0.31538781523704529 0.56931889057159424
0.26451948285102844 0.31898537278175354 0.55727452039718628
0.52046555280685425 0.34212267398834229 0.55058425664901733
0.70222663879394531 0.38670128583908081 0.56071007251739502
0.8230661153793335 0.44656682014465332 0.59109240770339966
0.95115464925765991 0.51294934749603271 0.6240580677986145
0.24114932119846344 0.57307606935501099 0.69344264268875122
0.30153754353523254 0.57298523187637329 0.68602055311203003
0.41544544696807861 0.57346725463867188 0.68212610483169556
0.53560620546340942 0.57575720548629761 0.67888349294662476
0.65838146209716797 0.58145153522491455 0.6750984787940979
0.77644044160842896 0.59749221801757812 0.67816656827926636
0.92303735017776489 0.62317389249801636 0.68784964084625244
0.48061355948448181 0.71409076452255249 0.74019330739974976
0.49976620078086853 0.71307981014251709 0.74479144811630249
0.54627037048339844 0.71393376588821411 0.73445504903793335
0.60825663805007935 0.71559351682662964 0.7375328540802002
0.69032114744186401 0.71756947040557861 0.73728585243225098
0.79496753215789795 0.72399359941482544 0.73613768815994263
0.93688887357711792 0.73741859197616577 0.74050527811050415
0.63341045379638672 0.86353921890258789 0.73316586017608643
0.64295321702957153 0.86144512891769409 0.73572421073913574
0.67010951042175293 0.8622286319732666 0.7417723536491394
0.71153128147125244 0.86293786764144897 0.75290584564208984
0.77203929424285889 0.8637077808380127 0.75415158271789551
0.85485488176345825 0.8661959171295166 0.76260936260223389
0.97047609090805054 0.87157732248306274 0.77407091856002808
0.88919013738632202 0.99673652648925781 0.47420907020568848
0.89714246988296509 0.99673867225646973 0.46655982732772827
0.92224788665771484 0.99857944250106812 0.44911763072013855
0.93582618236541748 0.99756771326065063 0.46571630239486694
0.967193603515625 0.99678289890289307 0.47276726365089417
0.99987059831619263 0.99897485971450806 0.44993823766708374
0.99919116497039795 0.99895954132080078 0.45989283919334412
0 0 0.40317663550376892
0 0 0.41434589028358459
0.00042957978439517319 0 0.41364255547523499
0.17964449524879456 0.0022841060999780893 0.38890227675437927
0.66414421796798706 0.00037572524161078036 0.30527403950691223
0.99984639883041382 0.0099305547773838043 0.2597523033618927
0.99859654903411865 0.18082150816917419 0.45060905814170837
0.0035157296806573868 0.016691289842128754 0.46782821416854858
0.014961556531488895 0.01965700089931488 0.46811732649803162
0.076656103134155273 0.015103164128959179 0.45738735795021057
0.3435705304145813 0.015530141070485115 0.4269920289516449
0.77789163589477539 0.048045527189970016 0.38425230979919434
0.97857987880706787 0.16178543865680695 0.44438967108726501
0.99845051765441895 0.33657974004745483 0.57246339321136475
0.00030038869590498507 0.23547570407390594 0.60126578807830811
0.024900758638978004 0.23095045983791351 0.59325242042541504
0.18012326955795288 0.24293802678585052 0.58557367324829102
0.49349164962768555 0.25398355722427368 0.56522899866104126
0.70071488618850708 0.31889656186103821 0.58337640762329102
0.84020853042602539 0.39513948559761047 0.61797314882278442
0.95794987678527832 0.48113051056861877 0.66116499900817871
0.13019219040870667 0.55226528644561768 0.76110255718231201
0.15788605809211731 0.54740220308303833 0.75502496957778931
0.32773178815841675 0.54331976175308228 0.74447965621948242
0.49492597579956055 0.5475383996963501 0.73563289642333984
0.63075196743011475 0.55389571189880371 0.73205101490020752
0.7646518349647522 0.573170006275177 0.73074114322662354
0.91575878858566284 0.60051262378692627 0.73817771673202515
0.41332739591598511 0.69664555788040161 0.81509995460510254
0.43358448147773743 0.69327759742736816 0.81021749973297119
0.48980998992919922 0.69524466991424561 0.81703865528106689
0.56561911106109619 0.6970217227935791 0.81186932325363159
0.65709656476974487 0.70096564292907715 0.80975508689880371
0.77199757099151611 0.70652204751968384 0.80564147233963013
0.92101418972015381 0.71949112415313721 0.80802470445632935
0.56574642658233643 0.85240060091018677 0.87982165813446045
0.57808393239974976 0.84927827119827271 0.87670207023620605
0.60875332355499268 0.852946937084198 0.88821375370025635
0.65349060297012329 0.85085439682006836 0.87980413436889648
0.727103590965271 0.85345715284347534 0.88131457567214966
0.81474590301513672 0.85319453477859497 0.8866155743598938
0.94279342889785767 0.85804742574691772 0.88509464263916016
0.77622801065444946 0.98897206783294678 0.86379635334014893
0.77983444929122925 0.9862857460975647 0.86156988143920898
0.80234122276306152 0.99229425191879272 0.86766773462295532
0.83045250177383423 0.99552464485168457 0.86589837074279785
0.86259728670120239 0.99559259414672852 0.88510406017303467
0.90685486793518066 0.99679732322692871 0.89728105068206787
0.99118298292160034 0.99770879745483398 0.8978232741355896
0 0 0.41935107111930847
0 0 0.43093883991241455
0 0 0.42955094575881958
0.13143031299114227 0 0.40500834584236145
0.59965866804122925 2.0225375919835642e-05 0.32790586352348328
1 0.014173425734043121 0.25396978855133057
1 0.15732471644878387 0.42235541343688965
0.00027373072225600481 0 0.47278866171836853
0.0026086096186190844 0.0020281772594898939 0.47884461283683777
0.045874651521444321 0.003832394490018487 0.47049573063850403
0.28203320503234863 0.0064364415593445301 0.43998962640762329
0.75443357229232788 0.013820558786392212 0.38098365068435669
0.99366384744644165 0.12982766330242157 0.42658969759941101
0.99986565113067627 0.3106113076210022 0.5651131272315979
0.00059735169634222984 0.17550447583198547 0.59681189060211182
0.020510205999016762 0.18040125072002411 0.5902666449546814
0.14924320578575134 0.18642212450504303 0.58323729038238525
0.46300810575485229 0.20243719220161438 0.56181579828262329
0.74146151542663574 0.22628238797187805 0.55621278285980225
0.85519039630889893 0.34699556231498718 0.61639904975891113
0.95939964056015015 0.45627954602241516 0.67067104578018188
0.094863429665565491 0.52706152200698853 0.78315275907516479
0.11802544444799423 0.52676957845687866 0.77568709850311279
0.28252425789833069 0.52078545093536377 0.75964665412902832
0.47189852595329285 0.52755367755889893 0.75335162878036499
0.62934863567352295 0.52523970603942871 0.74457252025604248
0.76395589113235474 0.55651557445526123 0.74759626388549805
0.91588199138641357 0.589150071144104 0.75902509689331055
0.37005114555358887 0.6884695291519165 0.8495030403137207
0.39070338010787964 0.68746095895767212 0.84826803207397461
0.46346786618232727 0.68883359432220459 0.84973853826522827
0.54581165313720703 0.68872737884521484 0.84457945823669434
0.64257228374481201 0.68874609470367432 0.83802348375320435
0.76349496841430664 0.69643920660018921 0.8318372368812561
0.9168168306350708 0.70845651626586914 0.83235764503479004
0.54221659898757935 0.84368550777435303 0.927451491355896
0.55419337749481201 0.84550338983535767 0.93031167984008789
0.59533119201660156 0.85190659761428833 0.92877638339996338
0.64517468214035034 0.85084110498428345 0.92804491519927979
0.71086835861206055 0.84807085990905762 0.92820280790328979
0.79515451192855835 0.84454023838043213 0.92102396488189697
0.92254358530044556 0.84809297323226929 0.91960662603378296
0.73209840059280396 0.98446410894393921 0.97627323865890503
0.748462975025177 0.99207943677902222 0.99000000953674316
0.7816474437713623 0.99556612968444824 0.98833292722702026
0.79776793718338013 0.99566054344177246 0.99057102203369141
0.83185046911239624 0.99627918004989624 0.99498867988586426
0.88549518585205078 0.99725359678268433 0.99565500020980835
0.97172534465789795 0.99588435888290405 0.99853390455245972
