assets/lut/films colorslide fuji sensia 100.cube
# Created by: G'MIC (https://gmic.eu)
TITLE "fuji_sensia_100"
# LUT size
LUT_3D_SIZE 13
# Data domain
DOMAIN_MIN 0.0 0.0 0.0
DOMAIN_MAX 1.0 1.0 1.0
# LUT data points
0.051279943436384201 0.049844134598970413 0.04775938019156456
0.11320120096206665 0.050238918513059616 0.041453208774328232
0.18038937449455261 0.048987910151481628 0.033769376575946808
0.24438045918941498 0.05033792182803154 0.024149412289261818
0.30847802758216858 0.049012068659067154 0.017132194712758064
0.37986618280410767 0.044963911175727844 0.011643682606518269
0.4653942883014679 0.041402719914913177 0.0070987925864756107
0.56417906284332275 0.041370932012796402 0.0036018071696162224
0.66260296106338501 0.042649213224649429 0.0017400255892425776
0.74673336744308472 0.042676635086536407 0.001058421446941793
0.81270277500152588 0.040185187011957169 0.0017220890149474144
0.86625617742538452 0.036383818835020065 0.0071597830392420292
0.91041094064712524 0.033158678561449051 0.024210207164287567
0.099245257675647736 0.14092496037483215 0.085604451596736908
0.14440327882766724 0.14223299920558929 0.080144770443439484
0.20239429175853729 0.14079217612743378 0.072275437414646149
0.26605510711669922 0.13956111669540405 0.061420872807502747
0.33148643374443054 0.13684768974781036 0.050995156168937683
0.40607970952987671 0.1318219006061554 0.041814617812633514
0.49471735954284668 0.12545076012611389 0.034965783357620239
0.5943979024887085 0.12189087271690369 0.028478166088461876
0.69388377666473389 0.12092062085866928 0.023422526195645332
0.77786076068878174 0.11982728540897369 0.02032826654613018
0.8414270281791687 0.11749400943517685 0.021810613572597504
0.89226537942886353 0.11489362269639969 0.033047635108232498
0.93498224020004272 0.11243471503257751 0.05463554710149765
0.13537219166755676 0.2247592955827713 0.1243056058883667
0.17076005041599274 0.22091540694236755 0.1226319819688797
0.22159475088119507 0.21984702348709106 0.11641742289066315
0.28359138965606689 0.21907131373882294 0.10580960661172867
0.3518674373626709 0.21877789497375488 0.09312477707862854
0.43038088083267212 0.21565386652946472 0.081537358462810516
0.52096003293991089 0.20992583036422729 0.072417423129081726
0.62000185251235962 0.20506413280963898 0.064342468976974487
0.7174873948097229 0.20197196304798126 0.058072797954082489
0.80138427019119263 0.20035937428474426 0.054297100752592087
0.86650252342224121 0.19933158159255981 0.055551640689373016
0.91718494892120361 0.19834814965724945 0.066486075520515442
0.95885598659515381 0.19725319743156433 0.089310452342033386
0.14918823540210724 0.31126669049263 0.15995343029499054
0.18504983186721802 0.30571439862251282 0.15892145037651062
0.23636050522327423 0.30242517590522766 0.15547434985637665
0.29900315403938293 0.30179217457771301 0.14796975255012512
0.37066164612770081 0.30291390419006348 0.13686007261276245
0.45238384604454041 0.3008982241153717 0.12493175268173218
0.54473423957824707 0.29698914289474487 0.11304423213005066
0.64365929365158081 0.29254993796348572 0.10236038267612457
0.73985749483108521 0.28880429267883301 0.094512715935707092
0.82478904724121094 0.2871992290019989 0.090634427964687347
0.89319813251495361 0.28694456815719604 0.093775779008865356
0.94535994529724121 0.28694596886634827 0.10639971494674683
0.98338997364044189 0.28738585114479065 0.12925754487514496
0.16364465653896332 0.40709114074707031 0.19706815481185913
0.20143039524555206 0.40107691287994385 0.19508641958236694
0.25311663746833801 0.3979431688785553 0.19292090833187103
0.31668570637702942 0.39856860041618347 0.18780678510665894
0.39103195071220398 0.39930683374404907 0.17881619930267334
0.47565701603889465 0.39678111672401428 0.16723942756652832
0.57018190622329712 0.39327570796012878 0.15374185144901276
0.66966897249221802 0.38890630006790161 0.14049893617630005
0.76551723480224609 0.38451102375984192 0.1314147561788559
0.85073167085647583 0.38365110754966736 0.12832237780094147
0.92010164260864258 0.38428512215614319 0.13363182544708252
0.97178554534912109 0.38399922847747803 0.14849923551082611
0.99815839529037476 0.38553419709205627 0.17249712347984314
0.18200157582759857 0.51248198747634888 0.23566175997257233
0.22039911150932312 0.50801199674606323 0.23295995593070984
0.27188891172409058 0.50590735673904419 0.23082563281059265
0.33646366000175476 0.50745755434036255 0.22611059248447418
0.41400384902954102 0.50812071561813354 0.21757830679416656
0.50273811817169189 0.50554400682449341 0.20514459908008575
0.6003602147102356 0.50156587362289429 0.19021549820899963
0.7009161114692688 0.49679797887802124 0.17622943222522736
0.79658836126327515 0.49249613285064697 0.16667293012142181
0.87969249486923218 0.49226206541061401 0.16447965800762177
0.94394636154174805 0.49263858795166016 0.17145441472530365
0.98724013566970825 0.49237862229347229 0.18902274966239929
1 0.49349862337112427 0.21541649103164673
0.20146726071834564 0.62056028842926025 0.27135595679283142
0.24004022777080536 0.61789071559906006 0.26923078298568726
0.29166692495346069 0.61684203147888184 0.26569253206253052
0.3581550121307373 0.61810511350631714 0.26005500555038452
0.43937090039253235 0.61882328987121582 0.25073078274726868
0.532958984375 0.61586076021194458 0.23668673634529114
0.63405156135559082 0.61153590679168701 0.22089298069477081
0.73690491914749146 0.60793143510818481 0.20674590766429901
0.83286947011947632 0.60576444864273071 0.19785334169864655
0.9111865758895874 0.6043512225151062 0.19659106433391571
0.964385986328125 0.60338336229324341 0.20570461452007294
0.99422401189804077 0.60431712865829468 0.22698365151882172
1 0.60368412733078003 0.25723457336425781
0.22580762207508087 0.71981954574584961 0.29945796728134155
0.26392200589179993 0.71679145097732544 0.29778376221656799
0.3152313232421875 0.71577149629592896 0.29252785444259644
0.38411557674407959 0.71655988693237305 0.28474688529968262
0.46870467066764832 0.71717405319213867 0.27332213521003723
0.56590396165847778 0.71310049295425415 0.2587028443813324
0.66990739107131958 0.70884233713150024 0.24403096735477448
0.77453994750976562 0.70614635944366455 0.23105379939079285
0.8703685998916626 0.70382249355316162 0.22261905670166016
0.94342488050460815 0.70172995328903198 0.22233019769191742
0.9846605658531189 0.69972002506256104 0.23501460254192352
0.99884968996047974 0.70195966958999634 0.26225748658180237
1 0.70195466279983521 0.29720196127891541
0.26183825731277466 0.79683762788772583 0.31198087334632874
0.29754188656806946 0.79501426219940186 0.31200686097145081
0.3473031222820282 0.79330074787139893 0.30600544810295105
0.41775757074356079 0.79275482892990112 0.29441085457801819
0.5042460560798645 0.79141813516616821 0.27998581528663635
0.60187268257141113 0.78878957033157349 0.2672082781791687
0.70618444681167603 0.78551816940307617 0.25693905353546143
0.81114065647125244 0.78252303600311279 0.2467481791973114
0.90530198812484741 0.77894556522369385 0.23816715180873871
0.9720299243927002 0.77535837888717651 0.2385566234588623
0.99832761287689209 0.77488213777542114 0.25626832246780396
1 0.77785778045654297 0.28851139545440674
1 0.77852988243103027 0.32583928108215332
0.31284856796264648 0.85266703367233276 0.29856753349304199
0.34590393304824829 0.85231268405914307 0.30108973383903503
0.39080885052680969 0.85059326887130737 0.29736500978469849
0.46027514338493347 0.84896767139434814 0.28318649530410767
0.54548853635787964 0.84717738628387451 0.26747483015060425
0.63998550176620483 0.84580206871032715 0.25878241658210754
0.74165481328964233 0.84398543834686279 0.25378167629241943
0.84452885389328003 0.84093445539474487 0.24607732892036438
0.93320655822753906 0.83635735511779785 0.23899546265602112
0.99009591341018677 0.83231586217880249 0.24141265451908112
1 0.83236664533615112 0.26298701763153076
1 0.83478087186813354 0.29752084612846375
1 0.8354528546333313 0.3353155255317688
0.37417694926261902 0.89570766687393188 0.25081983208656311
0.40827304124832153 0.89586830139160156 0.2520548403263092
0.44517159461975098 0.89525008201599121 0.25083076953887939
0.51009345054626465 0.8925851583480835 0.23777897655963898
0.59114557504653931 0.89165109395980835 0.22487655282020569
0.68153142929077148 0.89128381013870239 0.21922296285629272
0.78022128343582153 0.88951975107192993 0.21736574172973633
0.8793373703956604 0.88666921854019165 0.21196131408214569
0.95619815587997437 0.88270723819732666 0.20989018678665161
0.99587678909301758 0.87925726175308228 0.21726895868778229
1 0.87885230779647827 0.24045991897583008
0.99999380111694336 0.87968355417251587 0.27428588271141052
0.99998599290847778 0.88050460815429688 0.31470385193824768
0.41552212834358215 0.93419116735458374 0.18468239903450012
0.45028740167617798 0.93419116735458374 0.18277126550674438
0.48299741744995117 0.93279010057449341 0.17560666799545288
0.55346620082855225 0.9300115704536438 0.14942911267280579
0.63457995653152466 0.92881667613983154 0.13557787239551544
0.72632646560668945 0.92752057313919067 0.13012482225894928
0.82783621549606323 0.92512989044189453 0.12834717333316803
0.92312920093536377 0.92217522859573364 0.1264985054731369
0.98414099216461182 0.9195677638053894 0.13002671301364899
0.99975675344467163 0.91770625114440918 0.14185570180416107
0.99998480081558228 0.91779917478561401 0.16673809289932251
0.99729412794113159 0.91846358776092529 0.20273756980895996
0.99724173545837402 0.9197121262550354 0.25311911106109619
0.39067479968070984 0.97163599729537964 0.14379070699214935
0.42754235863685608 0.97134411334991455 0.134759321808815
0.47685033082962036 0.96865111589431763 0.1054464727640152
0.5694350004196167 0.96516877412796021 0.050232622772455215
0.6616065502166748 0.96308302879333496 0.026649938896298409
0.76106363534927368 0.96057599782943726 0.020463606342673302
0.86704707145690918 0.95716744661331177 0.01873709075152874
0.96111816167831421 0.95335233211517334 0.018621213734149933
0.99939900636672974 0.95120197534561157 0.021717909723520279
1 0.95115131139755249 0.030160792171955109
1 0.95230430364608765 0.050294958055019379
0.9988178014755249 0.95456808805465698 0.094924673438072205
0.99822759628295898 0.95774263143539429 0.16125833988189697
0.046840891242027283 0.043797001242637634 0.10131847858428955
0.10599152743816376 0.040826130658388138 0.094442300498485565
0.17193736135959625 0.037999141961336136 0.086092479526996613
0.23507022857666016 0.037563864141702652 0.076377049088478088
0.29807367920875549 0.036008048802614212 0.066189892590045929
0.36963158845901489 0.033103417605161667 0.055407147854566574
0.45557376742362976 0.031806647777557373 0.043223317712545395
0.5538337230682373 0.032553341239690781 0.031884554773569107
0.65058404207229614 0.0336124487221241 0.024187633767724037
0.73390781879425049 0.034040488302707672 0.020187078043818474
0.79987972974777222 0.03373635932803154 0.022368233650922775
0.85272407531738281 0.03149578720331192 0.036000151187181473
0.89669537544250488 0.028823673725128174 0.059454180300235748
0.092472761869430542 0.13266217708587646 0.13819201290607452
0.13462395966053009 0.13215057551860809 0.13191331923007965
0.19222857058048248 0.12945866584777832 0.12399619817733765
0.25613385438919067 0.12635235488414764 0.11391635984182358
0.32107663154602051 0.12363085150718689 0.10070701688528061
0.39544057846069336 0.11880478262901306 0.088149592280387878
0.48398944735527039 0.11414892226457596 0.076241195201873779
0.58299708366394043 0.11079056560993195 0.066157355904579163
0.68056303262710571 0.10882943868637085 0.059093058109283447
0.76341801881790161 0.10813341289758682 0.054338894784450531
0.82759988307952881 0.1081300750374794 0.055094253271818161
0.878376305103302 0.10739579796791077 0.067254416644573212
0.92120862007141113 0.10576023906469345 0.090846054255962372
0.12902984023094177 0.21625781059265137 0.17219208180904388
0.15899805724620819 0.2144831120967865 0.1686202734708786
0.21020296216011047 0.21259230375289917 0.16315442323684692
0.27360936999320984 0.21138034760951996 0.15301702916622162
0.34202864766120911 0.21009807288646698 0.1382688581943512
0.42037287354469299 0.20559835433959961 0.12434335052967072
0.51053756475448608 0.20019243657588959 0.11206681281328201
0.60901355743408203 0.19502916932106018 0.10189077258110046
0.70554959774017334 0.1908206045627594 0.094236679375171661
0.78856736421585083 0.18947510421276093 0.089588090777397156
0.85340368747711182 0.18998831510543823 0.090327322483062744
0.90395039319992065 0.19009806215763092 0.10206065326929092
0.94591838121414185 0.19003318250179291 0.12662345170974731
0.13992643356323242 0.30255863070487976 0.20341159403324127
0.17095573246479034 0.2993868887424469 0.2012067437171936
0.22443081438541412 0.2974952757358551 0.19820000231266022
0.2894795835018158 0.2971784770488739 0.19038419425487518
0.36226937174797058 0.29668015241622925 0.17821025848388672
0.44383120536804199 0.29434281587600708 0.16458456218242645
0.53544527292251587 0.29055583477020264 0.15073142945766449
0.63394284248352051 0.28519698977470398 0.13882799446582794
0.7301594614982605 0.28041070699691772 0.13082844018936157
0.81439739465713501 0.2788868248462677 0.12655186653137207
0.88173913955688477 0.27962571382522583 0.12950612604618073
0.93350553512573242 0.28034284710884094 0.14293810725212097
0.97232425212860107 0.28147932887077332 0.16729533672332764
0.15593092143535614 0.39902886748313904 0.23746155202388763
0.18879519402980804 0.39557927846908569 0.2356770932674408
0.2412128746509552 0.39398837089538574 0.23341275751590729
0.30718010663986206 0.39432656764984131 0.22784815728664398
0.38320708274841309 0.3944113552570343 0.218083456158638
0.46828702092170715 0.39277181029319763 0.20514380931854248
0.56235110759735107 0.38936832547187805 0.19073083996772766
0.66180121898651123 0.38406857848167419 0.17732104659080505
0.75803864002227783 0.37957969307899475 0.16792303323745728
0.84283941984176636 0.37897500395774841 0.16504247486591339
0.91125500202178955 0.37995657324790955 0.16952888667583466
0.96189188957214355 0.38065049052238464 0.18550072610378265
0.99354952573776245 0.38196876645088196 0.21079479157924652
0.17525039613246918 0.50597333908081055 0.27469858527183533
0.20976047217845917 0.50361496210098267 0.27220436930656433
0.26027727127075195 0.50290179252624512 0.26933187246322632
0.32644012570381165 0.50392305850982666 0.26428133249282837
0.40550309419631958 0.50450623035430908 0.25566616654396057
0.49528145790100098 0.50319737195968628 0.24288856983184814
0.59310072660446167 0.49921607971191406 0.22756195068359375
0.69394224882125854 0.49395719170570374 0.21304132044315338
0.79031956195831299 0.48999232053756714 0.20348319411277771
0.87360233068466187 0.48972904682159424 0.20083171129226685
0.93804216384887695 0.49148827791213989 0.20728433132171631
0.98212957382202148 0.49200427532196045 0.2251124382019043
0.99970901012420654 0.49180164933204651 0.25344336032867432
0.19184610247612 0.61648201942443848 0.31074845790863037
0.22817365825176239 0.61509966850280762 0.30652529001235962
0.27932092547416687 0.614238440990448 0.30193671584129333
0.34766995906829834 0.61543744802474976 0.29626783728599548
0.43081438541412354 0.61612188816070557 0.28712552785873413
0.52511399984359741 0.61454123258590698 0.27380532026290894
0.62649202346801758 0.61130666732788086 0.25815555453300476
0.72932809591293335 0.60768008232116699 0.24398963153362274
0.82608211040496826 0.60415774583816528 0.23480828106403351
0.90625596046447754 0.60261720418930054 0.23266810178756714
0.96160352230072021 0.60339462757110596 0.24057048559188843
0.99288898706436157 0.60574615001678467 0.26095366477966309
1 0.60447055101394653 0.29358375072479248
0.21382848918437958 0.71651232242584229 0.33940550684928894
0.25028964877128601 0.7160828709602356 0.33404183387756348
0.3025658130645752 0.71468216180801392 0.32760971784591675
0.37364226579666138 0.71458148956298828 0.32006064057350159
0.46060645580291748 0.71430343389511108 0.30894553661346436
0.55852234363555908 0.71223306655883789 0.29527074098587036
0.66243475675582886 0.70969676971435547 0.28151538968086243
0.76657319068908691 0.70775634050369263 0.26941367983818054
0.86329412460327148 0.70409882068634033 0.2612040638923645
0.93921738862991333 0.70078808069229126 0.25952088832855225
0.9841843843460083 0.70052587985992432 0.27030861377716064
0.99901533126831055 0.70394051074981689 0.29662537574768066
1 0.7039947509765625 0.33310732245445251
0.24954697489738464 0.79583001136779785 0.35475823283195496
0.28493541479110718 0.7956656813621521 0.35084795951843262
0.33636635541915894 0.79397964477539062 0.34403854608535767
0.40867835283279419 0.79226493835449219 0.33369994163513184
0.49714487791061401 0.79027581214904785 0.31836444139480591
0.59547895193099976 0.78804874420166016 0.30593585968017578
0.69922739267349243 0.78639239072799683 0.29712671041488647
0.8030846118927002 0.78467726707458496 0.2885967493057251
0.89708465337753296 0.78075748682022095 0.28180509805679321
0.96695131063461304 0.77662897109985352 0.28115469217300415
0.99823188781738281 0.77596330642700195 0.29520219564437866
1 0.77996820211410522 0.32787296175956726
1 0.78149598836898804 0.36822330951690674
0.30109325051307678 0.85375744104385376 0.34772589802742004
0.33574679493904114 0.85420805215835571 0.34787243604660034
0.38388329744338989 0.85250037908554077 0.34437140822410583
0.45377010107040405 0.84992516040802002 0.33299261331558228
0.53999060392379761 0.84701412916183472 0.31451147794723511
0.63492280244827271 0.84552770853042603 0.30385327339172363
0.73559069633483887 0.84485906362533569 0.29945829510688782
0.83652591705322266 0.84340786933898926 0.29340225458145142
0.92373907566070557 0.83949393033981323 0.28845575451850891
0.98316234350204468 0.83521711826324463 0.29056486487388611
0.99998515844345093 0.83404970169067383 0.30790391564369202
1 0.83698791265487671 0.34295469522476196
1 0.83844435214996338 0.38586187362670898
0.36130467057228088 0.89827138185501099 0.30489495396614075
0.39732983708381653 0.89907592535018921 0.30731242895126343
0.44055727124214172 0.89709210395812988 0.30800536274909973
0.50545966625213623 0.89491909742355347 0.30134588479995728
0.58568859100341797 0.89228945970535278 0.2867358922958374
0.67642390727996826 0.89149850606918335 0.27376645803451538
0.77504813671112061 0.89101344347000122 0.26746642589569092
0.87170791625976562 0.88871282339096069 0.26050961017608643
0.94779098033905029 0.8859708309173584 0.25971773266792297
0.99185001850128174 0.88174760341644287 0.26549580693244934
1 0.87982463836669922 0.28274703025817871
1 0.88030970096588135 0.32021436095237732
1 0.88315844535827637 0.37225323915481567
0.40451204776763916 0.93537658452987671 0.2329578697681427
0.44273656606674194 0.93578207492828369 0.23268279433250427
0.48722025752067566 0.93417531251907349 0.22552336752414703
0.55342185497283936 0.93188893795013428 0.21091647446155548
0.62924033403396606 0.93005925416946411 0.19516752660274506
0.72015100717544556 0.92866629362106323 0.18118713796138763
0.8211560845375061 0.92656785249710083 0.17384304106235504
0.91580146551132202 0.92421382665634155 0.16287468373775482
0.97888123989105225 0.92177665233612061 0.16635094583034515
0.99918174743652344 0.91889107227325439 0.17895172536373138
0.99998873472213745 0.91735631227493286 0.19436900317668915
0.99760580062866211 0.91810178756713867 0.23834586143493652
0.99690526723861694 0.92091703414916992 0.30984091758728027
0.40481919050216675 0.97249346971511841 0.16613940894603729
0.44680535793304443 0.97137051820755005 0.15569847822189331
0.50082153081893921 0.96915769577026367 0.1274467259645462
0.57785356044769287 0.96627861261367798 0.084269553422927856
0.65966486930847168 0.96423441171646118 0.054137449711561203
0.75562834739685059 0.9618108868598938 0.044564459472894669
0.86120426654815674 0.95816272497177124 0.039997458457946777
0.95566320419311523 0.95473587512969971 0.029567614197731018
0.99858462810516357 0.95251733064651489 0.033482316881418228
1 0.95126765966415405 0.04880930483341217
0.99997740983963013 0.95097142457962036 0.063297033309936523
0.99695003032684326 0.95318067073822021 0.1180797815322876
0.9962049126625061 0.95784121751785278 0.21241350471973419
0.044738020747900009 0.03992157056927681 0.1492987722158432
0.1025998443365097 0.033378139138221741 0.1429465115070343
0.16691392660140991 0.028459586203098297 0.13553036749362946
0.22711899876594543 0.027963452041149139 0.12665484845638275
0.29052284359931946 0.026559926569461823 0.11592591553926468
0.36396032571792603 0.025740141049027443 0.10206111520528793
0.45118167996406555 0.026732919737696648 0.085036501288414001
0.54634225368499756 0.027450516819953918 0.070572018623352051
0.63876920938491821 0.026708610355854034 0.0623612180352211
0.71882075071334839 0.027155932039022446 0.057344235479831696
0.78317749500274658 0.028038458898663521 0.058582186698913574
0.83499562740325928 0.0261866245418787 0.074625767767429352
0.87801909446716309 0.023574918508529663 0.10103215277194977
0.08894144743680954 0.12513333559036255 0.18580685555934906
0.13189759850502014 0.12122509628534317 0.17924009263515472
0.18734537065029144 0.11647260934114456 0.17164638638496399
0.24762250483036041 0.11394569277763367 0.16182632744312286
0.31303313374519348 0.11107375472784042 0.14907704293727875
0.38890630006790161 0.10734308511018753 0.13472475111484528
0.47721871733665466 0.10478892922401428 0.1194387823343277
0.57331830263137817 0.10171348601579666 0.10700378566980362
0.667011559009552 0.097823247313499451 0.099860459566116333
0.74718153476715088 0.096773497760295868 0.095022596418857574
0.81014680862426758 0.098294094204902649 0.095229998230934143
0.86065703630447388 0.098101809620857239 0.10916204750537872
0.90269511938095093 0.096754007041454315 0.13424724340438843
0.12776948511600494 0.20713718235492706 0.2193375825881958
0.15607687830924988 0.20626752078533173 0.21381214261054993
0.20440232753753662 0.20428571105003357 0.20754517614841461
0.26591557264328003 0.20244860649108887 0.19746901094913483
0.33533290028572083 0.19950984418392181 0.1839267760515213
0.41405069828033447 0.19502860307693481 0.16944590210914612
0.50315874814987183 0.19070638716220856 0.15526032447814941
0.59918606281280518 0.18521206080913544 0.14377081394195557
0.69257116317749023 0.17997434735298157 0.13642430305480957
0.7729494571685791 0.17841210961341858 0.13228113949298859
0.8368193507194519 0.17949891090393066 0.13408297300338745
0.88713091611862183 0.1803295910358429 0.14680615067481995
0.92807745933532715 0.18038073182106018 0.17088118195533752
0.14074179530143738 0.29431593418121338 0.24963030219078064
0.16968436539173126 0.2933289110660553 0.24620276689529419
0.21952222287654877 0.29231864213943481 0.24221494793891907
0.28396013379096985 0.29042831063270569 0.23395191133022308
0.35771700739860535 0.28804713487625122 0.22198997437953949
0.43910512328147888 0.28641340136528015 0.20785923302173615
0.52888435125350952 0.2834797203540802 0.19331276416778564
0.62538284063339233 0.2771638035774231 0.18129910528659821
0.71891266107559204 0.27155253291130066 0.17385339736938477
0.80033606290817261 0.27026361227035522 0.17089349031448364
0.86584305763244629 0.27105292677879333 0.17433114349842072
0.9168086051940918 0.27247622609138489 0.18826916813850403
0.95583689212799072 0.2730330228805542 0.21242180466651917
0.15454107522964478 0.39129540324211121 0.28276336193084717
0.18615804612636566 0.39020735025405884 0.28053846955299377
0.23591016232967377 0.38981166481971741 0.27772733569145203
0.30197912454605103 0.38886541128158569 0.27152422070503235
0.37914884090423584 0.38803777098655701 0.26164138317108154
0.4645611047744751 0.38758829236030579 0.24862872064113617
0.55734175443649292 0.38440290093421936 0.23383189737796783
0.65476822853088379 0.37765964865684509 0.22103407979011536
0.74835538864135742 0.37276497483253479 0.21264621615409851
0.83057725429534912 0.37284445762634277 0.21040032804012299
0.89716917276382446 0.3742561936378479 0.2157621830701828
0.94769763946533203 0.37432429194450378 0.23167470097541809
0.98257720470428467 0.37460887432098389 0.25706735253334045
