assets/lut/films colorslide fuji astia 100 generic.cube
# Created by: G'MIC (https://gmic.eu)
TITLE "fuji_astia_100_generic"
# LUT size
LUT_3D_SIZE 5
# Data domain
DOMAIN_MIN 0.0 0.0 0.0
DOMAIN_MAX 1.0 1.0 1.0
# LUT data points
0.038739703595638275 0.034614711999893188 0.032933298498392105
0.24747613072395325 0.028616556897759438 0.019317882135510445
0.5153234601020813 0.022083103656768799 0.010124326683580875
0.76320445537567139 0.016556639224290848 0.0048587573692202568
0.98287475109100342 0.016409017145633698 2.5850184101727791e-05
0.08383014053106308 0.2510530948638916 0.05357138067483902
0.24671897292137146 0.25242474675178528 0.049978084862232208
0.52343350648880005 0.25124424695968628 0.037841618061065674
0.77298253774642944 0.24540603160858154 0.026769645512104034
0.98780637979507446 0.24794760346412659 0.011506338603794575
0.025397282093763351 0.52395844459533691 0.071704521775245667
0.23645719885826111 0.52572309970855713 0.077875994145870209
0.51884728670120239 0.52338331937789917 0.064010098576545715
0.76840484142303467 0.52082556486129761 0.07308979332447052
0.98436039686203003 0.51256942749023438 0.036449283361434937
0.054291203618049622 0.76676464080810547 0.050475627183914185
0.25031563639640808 0.76523476839065552 0.069677062332630157
0.52210289239883423 0.76129233837127686 0.049171000719070435
0.76233327388763428 0.76172244548797607 0.053945489227771759
0.97494810819625854 0.75829821825027466 0.031727809458971024
0.1234065368771553 0.98241221904754639 0.050038866698741913
0.32339537143707275 0.98260080814361572 0.07436816394329071
0.54553496837615967 0.98008549213409424 0.052872557193040848
0.75598496198654175 0.97962039709091187 0.038011305034160614
0.96930390596389771 0.97983956336975098 0.05981915071606636
0.029930369928479195 0.033340334892272949 0.25005662441253662
0.24055033922195435 0.033134192228317261 0.23717567324638367
0.51704800128936768 0.026859194040298462 0.22608421742916107
0.77208173274993896 0.023820046335458755 0.22214390337467194
0.98602920770645142 0.02038218267261982 0.19748714566230774
0.091709032654762268 0.25070494413375854 0.25620096921920776
0.25087335705757141 0.25065979361534119 0.2492639422416687
0.52460050582885742 0.25150296092033386 0.23698769509792328
0.77279412746429443 0.25287121534347534 0.22581252455711365
0.98529964685440063 0.2442837655544281 0.22413595020771027
0.026645151898264885 0.52790945768356323 0.26928737759590149
0.25361520051956177 0.52727323770523071 0.26499927043914795
0.52498418092727661 0.52588474750518799 0.25290912389755249
0.76618701219558716 0.52319204807281494 0.24434326589107513
0.98133754730224609 0.5120856761932373 0.23843911290168762
0.039501938968896866 0.76834923028945923 0.28229436278343201
0.26405391097068787 0.76802247762680054 0.26678124070167542
0.5241813063621521 0.76763069629669189 0.27112942934036255
0.76104545593261719 0.76284635066986084 0.24914181232452393
0.97525501251220703 0.75724142789840698 0.23316845297813416
0.11620517820119858 0.98138618469238281 0.30058401823043823
0.32070690393447876 0.98114484548568726 0.29275938868522644
0.5433923602104187 0.98161417245864868 0.28109249472618103
0.7547871470451355 0.98161238431930542 0.27446457743644714
0.97359287738800049 0.97680652141571045 0.28477048873901367
0.049692954868078232 0.026738425716757774 0.51434427499771118
0.24267184734344482 0.031427975744009018 0.50748181343078613
0.51125943660736084 0.023029999807476997 0.49105441570281982
0.77115529775619507 0.018004473298788071 0.48031213879585266
0.9887162446975708 0.011969293467700481 0.45787891745567322
0.073997184634208679 0.24970199167728424 0.52517712116241455
0.24531182646751404 0.2485169917345047 0.51767802238464355
0.52662211656570435 0.24833397567272186 0.50757062435150146
0.77283906936645508 0.24534852802753448 0.49809637665748596
0.98642110824584961 0.24040719866752625 0.48368963599205017
0.0077604707330465317 0.52308034896850586 0.53279298543930054
0.24063532054424286 0.52425491809844971 0.53324484825134277
0.5227893590927124 0.5256081223487854 0.52386009693145752
0.76667493581771851 0.52116018533706665 0.51330912113189697
0.98059672117233276 0.51558130979537964 0.50078678131103516
0.03565521165728569 0.76707965135574341 0.54648029804229736
0.26604157686233521 0.76841181516647339 0.53906136751174927
0.52564215660095215 0.7674262523651123 0.53742009401321411
0.76243996620178223 0.76259326934814453 0.52576488256454468
0.97354346513748169 0.7592395544052124 0.5112227201461792
0.14807967841625214 0.97643226385116577 0.56120127439498901
0.33102381229400635 0.9771878719329834 0.55645513534545898
0.54458987712860107 0.9793359637260437 0.54554504156112671
0.75727450847625732 0.97850233316421509 0.53896182775497437
0.97052407264709473 0.97796541452407837 0.53285926580429077
0.036703266203403473 0.021414544433355331 0.74997782707214355
0.25212204456329346 0.01988544873893261 0.74610620737075806
0.5143551230430603 0.017800694331526756 0.73233360052108765
0.76884204149246216 0.014489581808447838 0.71744132041931152
0.98870635032653809 0.0080307153984904289 0.6974492073059082
0.016368836164474487 0.25971639156341553 0.76143151521682739
0.24589210748672485 0.25014185905456543 0.75778120756149292
0.52493101358413696 0.24178306758403778 0.74637901782989502
0.77279412746429443 0.24295602738857269 0.73579961061477661
0.98726737499237061 0.237047478556633 0.72279661893844604
0.010430354624986649 0.52150774002075195 0.77106058597564697
0.2506060004234314 0.52065396308898926 0.76936817169189453
0.52650189399719238 0.51839518547058105 0.75882542133331299
0.76694273948669434 0.51760029792785645 0.74969935417175293
0.97917145490646362 0.51566565036773682 0.73850840330123901
0.038963302969932556 0.76455730199813843 0.77721548080444336
0.26862877607345581 0.76270103454589844 0.77487140893936157
0.52710169553756714 0.76315879821777344 0.76787757873535156
0.76308220624923706 0.76246774196624756 0.76355451345443726
0.97219562530517578 0.76013278961181641 0.75164103507995605
0.1619032621383667 0.97337621450424194 0.7901909351348877
0.33675843477249146 0.97200798988342285 0.79017192125320435
0.54725700616836548 0.97622907161712646 0.77639544010162354
0.76266682147979736 0.97536766529083252 0.76932400465011597
0.97668129205703735 0.97226202487945557 0.7637518048286438
0.024540187790989876 0.016324825584888458 0.96549922227859497
0.25388643145561218 0.016988178715109825 0.96240192651748657
0.51860141754150391 0.028991788625717163 0.94888961315155029
0.76879417896270752 0.026135209947824478 0.93552607297897339
0.98747539520263672 0.012868245132267475 0.92059028148651123
0.02246418409049511 0.25702035427093506 0.97348374128341675
0.24936254322528839 0.24552406370639801 0.97259408235549927
0.52010178565979004 0.25678461790084839 0.95930194854736328
0.76916706562042236 0.26062226295471191 0.94946658611297607
0.98641049861907959 0.25065118074417114 0.94244349002838135
0.028692014515399933 0.52196812629699707 0.97459661960601807
0.25977492332458496 0.51530551910400391 0.97450149059295654
0.52231329679489136 0.51828670501708984 0.96456575393676758
0.76440727710723877 0.5215686559677124 0.95963126420974731
0.97894895076751709 0.51587021350860596 0.95848762989044189
0.033799637109041214 0.76471447944641113 0.9823949933052063
0.27194392681121826 0.76151847839355469 0.9775625467300415
0.52868306636810303 0.76009887456893921 0.97417169809341431
0.75996261835098267 0.76157832145690918 0.97346359491348267
0.97061717510223389 0.75938451290130615 0.97189825773239136
0.11435434967279434 0.97922796010971069 0.99216353893280029
0.32664531469345093 0.97528016567230225 0.99100100994110107
0.55136352777481079 0.97343391180038452 0.98638314008712769
0.75663650035858154 0.97987592220306396 0.98161762952804565
0.96561533212661743 0.97472333908081055 0.98149627447128296
