assets/lut/films colorslide fuji sensia 100.cube
# Created by: G'MIC (https://gmic.eu)
TITLE "fuji_sensia_100"
# LUT size
LUT_3D_SIZE 7
# Data domain
DOMAIN_MIN 0.0 0.0 0.0
DOMAIN_MAX 1.0 1.0 1.0
# LUT data points
0.051279943436384201 0.049844134598970413 0.04775938019156456
0.18038937449455261 0.048987910151481628 0.033769376575946808
0.30847802758216858 0.049012068659067154 0.017132194712758064
0.4653942883014679 0.041402719914913177 0.0070987925864756107
0.66260296106338501 0.042649213224649429 0.0017400255892425776
0.81270277500152588 0.040185187011957169 0.0017220890149474144
0.91041094064712524 0.033158678561449051 0.024210207164287567
0.13537219166755676 0.2247592955827713 0.1243056058883667
0.22159475088119507 0.21984702348709106 0.11641742289066315
0.3518674373626709 0.21877789497375488 0.09312477707862854
0.52096003293991089 0.20992583036422729 0.072417423129081726
0.7174873948097229 0.20197196304798126 0.058072797954082489
0.86650252342224121 0.19933158159255981 0.055551640689373016
0.95885598659515381 0.19725319743156433 0.089310452342033386
0.16364465653896332 0.40709114074707031 0.19706815481185913
0.25311663746833801 0.3979431688785553 0.19292090833187103
0.39103195071220398 0.39930683374404907 0.17881619930267334
0.57018190622329712 0.39327570796012878 0.15374185144901276
0.76551723480224609 0.38451102375984192 0.1314147561788559
0.92010164260864258 0.38428512215614319 0.13363182544708252
0.99815839529037476 0.38553419709205627 0.17249712347984314
0.20146726071834564 0.62056028842926025 0.27135595679283142
0.29166692495346069 0.61684203147888184 0.26569253206253052
0.43937090039253235 0.61882328987121582 0.25073078274726868
0.63405156135559082 0.61153590679168701 0.22089298069477081
0.83286947011947632 0.60576444864273071 0.19785334169864655
0.964385986328125 0.60338336229324341 0.20570461452007294
1 0.60368412733078003 0.25723457336425781
0.26183825731277466 0.79683762788772583 0.31198087334632874
0.3473031222820282 0.79330074787139893 0.30600544810295105
0.5042460560798645 0.79141813516616821 0.27998581528663635
0.70618444681167603 0.78551816940307617 0.25693905353546143
0.90530198812484741 0.77894556522369385 0.23816715180873871
0.99832761287689209 0.77488213777542114 0.25626832246780396
1 0.77852988243103027 0.32583928108215332
0.37417694926261902 0.89570766687393188 0.25081983208656311
0.44517159461975098 0.89525008201599121 0.25083076953887939
0.59114557504653931 0.89165109395980835 0.22487655282020569
0.78022128343582153 0.88951975107192993 0.21736574172973633
0.95619815587997437 0.88270723819732666 0.20989018678665161
1 0.87885230779647827 0.24045991897583008
0.99998599290847778 0.88050460815429688 0.31470385193824768
0.39067479968070984 0.97163599729537964 0.14379070699214935
0.47685033082962036 0.96865111589431763 0.1054464727640152
0.6616065502166748 0.96308302879333496 0.026649938896298409
0.86704707145690918 0.95716744661331177 0.01873709075152874
0.99939900636672974 0.95120197534561157 0.021717909723520279
1 0.95230430364608765 0.050294958055019379
0.99822759628295898 0.95774263143539429 0.16125833988189697
0.044738020747900009 0.03992157056927681 0.1492987722158432
0.16691392660140991 0.028459586203098297 0.13553036749362946
0.29052284359931946 0.026559926569461823 0.11592591553926468
0.45118167996406555 0.026732919737696648 0.085036501288414001
0.63876920938491821 0.026708610355854034 0.0623612180352211
0.78317749500274658 0.028038458898663521 0.058582186698913574
0.87801909446716309 0.023574918508529663 0.10103215277194977
0.12776948511600494 0.20713718235492706 0.2193375825881958
0.20440232753753662 0.20428571105003357 0.20754517614841461
0.33533290028572083 0.19950984418392181 0.1839267760515213
0.50315874814987183 0.19070638716220856 0.15526032447814941
0.69257116317749023 0.17997434735298157 0.13642430305480957
0.8368193507194519 0.17949891090393066 0.13408297300338745
0.92807745933532715 0.18038073182106018 0.17088118195533752
0.15454107522964478 0.39129540324211121 0.28276336193084717
0.23591016232967377 0.38981166481971741 0.27772733569145203
0.37914884090423584 0.38803777098655701 0.26164138317108154
0.55734175443649292 0.38440290093421936 0.23383189737796783
0.74835538864135742 0.37276497483253479 0.21264621615409851
0.89716917276382446 0.3742561936378479 0.2157621830701828
0.98257720470428467 0.37460887432098389 0.25706735253334045
0.18033523857593536 0.61273527145385742 0.35493534803390503
0.26903310418128967 0.61195641756057739 0.3452741801738739
0.42436754703521729 0.61364185810089111 0.3321533203125
0.61952334642410278 0.60878723859786987 0.30536186695098877
0.81519383192062378 0.60081756114959717 0.28393223881721497
0.9519646167755127 0.60163432359695435 0.28981971740722656
0.99984079599380493 0.59995043277740479 0.34095194935798645
0.23313111066818237 0.79528731107711792 0.40094488859176636
0.32296261191368103 0.79455780982971191 0.39023274183273315
0.48937550187110901 0.79003739356994629 0.37100672721862793
0.69037461280822754 0.78546535968780518 0.34701821208000183
0.88217556476593018 0.78091639280319214 0.3373522162437439
0.99327796697616577 0.77667689323425293 0.34816271066665649
1 0.78242164850234985 0.41651925444602966
0.34250199794769287 0.89982062578201294 0.36016324162483215
0.42249870300292969 0.90031379461288452 0.37986883521080017
0.5738217830657959 0.89550119638442993 0.36309173703193665
0.76355397701263428 0.89131361246109009 0.33918783068656921
0.93400365114212036 0.88733851909637451 0.32837322354316711
0.99979698657989502 0.88106715679168701 0.35114052891731262
1 0.8844420313835144 0.4363199770450592
0.40984204411506653 0.97304630279541016 0.2010246068239212
0.49487975239753723 0.97257089614868164 0.19261835515499115
0.64143359661102295 0.9680180549621582 0.12331625074148178
0.8423272967338562 0.96069347858428955 0.11601199209690094
0.99449950456619263 0.95480430126190186 0.094535589218139648
0.99999850988388062 0.95241141319274902 0.14481417834758759
0.99751925468444824 0.95929348468780518 0.29852679371833801
0.044090121984481812 0.023293290287256241 0.24729043245315552
0.14947172999382019 0.018018729984760284 0.23493440449237823
0.27914464473724365 0.016585361212491989 0.21592371165752411
0.44265419244766235 0.021497644484043121 0.1844036728143692
0.61432737112045288 0.02338065393269062 0.16049899160861969
0.74539214372634888 0.01801534928381443 0.16193659603595734
0.83419269323348999 0.0093370778486132622 0.20512999594211578
0.11050467193126678 0.18329450488090515 0.31761994957923889
0.19364830851554871 0.18206323683261871 0.30678585171699524
0.32262891530990601 0.17556473612785339 0.28727716207504272
0.49050605297088623 0.17026741802692413 0.25940552353858948
0.66389280557632446 0.16238062083721161 0.23920685052871704
0.79428970813751221 0.15605111420154572 0.24055561423301697
0.88211959600448608 0.15158289670944214 0.27500477433204651
0.14297381043434143 0.37344792485237122 0.39233636856079102
0.22881579399108887 0.3748486340045929 0.38723421096801758
0.36942762136459351 0.37236496806144714 0.37170019745826721
0.54661738872528076 0.36508628726005554 0.34635484218597412
0.72222989797592163 0.35566473007202148 0.32732000946998596
0.85528898239135742 0.35554248094558716 0.33160233497619629
0.94098246097564697 0.35328692197799683 0.36498740315437317
0.1543479710817337 0.60943043231964111 0.47601091861724854
0.2516140341758728 0.60678333044052124 0.46863099932670593
0.41177046298980713 0.60646915435791016 0.45616978406906128
0.60261648893356323 0.59984958171844482 0.43357610702514648
0.78264939785003662 0.59378373622894287 0.41679710149765015
0.91470718383789062 0.59324467182159424 0.42233538627624512
0.98521804809570312 0.58757972717285156 0.45995709300041199
0.19954833388328552 0.79797983169555664 0.5351683497428894
0.29595887660980225 0.79630362987518311 0.52854400873184204
0.46845033764839172 0.79472470283508301 0.51534295082092285
0.66370874643325806 0.78587579727172852 0.49173039197921753
0.84024447202682495 0.78238981962203979 0.48563048243522644
0.96261429786682129 0.77942228317260742 0.49122095108032227
0.99969667196273804 0.78015154600143433 0.53932446241378784
0.29973360896110535 0.90616035461425781 0.5242571234703064
0.37867027521133423 0.90675121545791626 0.53173673152923584
0.53928744792938232 0.90447729825973511 0.52448666095733643
0.72394037246704102 0.89784824848175049 0.51117086410522461
0.8910486102104187 0.89314687252044678 0.50179749727249146
0.99173176288604736 0.88752728700637817 0.52023714780807495
1 0.89141499996185303 0.57737725973129272
0.35177510976791382 0.98290550708770752 0.39722031354904175
0.43651846051216125 0.98282986879348755 0.400409996509552
0.59209775924682617 0.97882586717605591 0.37773120403289795
0.78707516193389893 0.97128891944885254 0.36763274669647217
0.95933729410171509 0.96470612287521362 0.352987140417099
1 0.96263253688812256 0.40690147876739502
1 0.96911954879760742 0.50320535898208618
0.04108651727437973 0.0035012636799365282 0.36296877264976501
0.13337354362010956 0.0032409667037427425 0.35119697451591492
0.2610095739364624 0.0037113265134394169 0.33372437953948975
0.42426308989524841 0.0098245656117796898 0.30641549825668335
0.58871746063232422 0.018655499443411827 0.28306877613067627
0.70782327651977539 0.0062086964026093483 0.28214108943939209
0.79250794649124146 0.00019854377023875713 0.30753108859062195
0.099605187773704529 0.14316274225711823 0.43666800856590271
0.17519226670265198 0.1403115838766098 0.42499667406082153
0.30045962333679199 0.13777613639831543 0.40904372930526733
0.46548736095428467 0.13617999851703644 0.38254526257514954
0.62718433141708374 0.13301372528076172 0.35940930247306824
0.74596798419952393 0.1156042069196701 0.35651668906211853
0.83166253566741943 0.10225539654493332 0.37898761034011841
0.14693425595760345 0.34259000420570374 0.52416092157363892
0.21950103342533112 0.34267240762710571 0.51608371734619141
0.35568097233772278 0.33845925331115723 0.50271403789520264
0.52263182401657104 0.33263489603996277 0.4783993661403656
0.68274873495101929 0.32458332180976868 0.45759326219558716
0.80449837446212769 0.31511074304580688 0.45488849282264709
0.89166891574859619 0.31338244676589966 0.47343629598617554
0.15282633900642395 0.59004378318786621 0.6260949969291687
0.2453492134809494 0.58936625719070435 0.61864054203033447
0.40107667446136475 0.58459234237670898 0.60464620590209961
0.58005958795547485 0.57956725358963013 0.58107024431228638
0.74264746904373169 0.57354187965393066 0.56308674812316895
0.86737972497940063 0.57065373659133911 0.56102043390274048
0.95328634977340698 0.56959158182144165 0.57934534549713135
0.19614496827125549 0.79632699489593506 0.70662480592727661
0.28861361742019653 0.79535025358200073 0.69735634326934814
0.45332744717597961 0.79119056463241577 0.68137770891189575
0.63690173625946045 0.7842983603477478 0.66186881065368652
0.79383718967437744 0.78060829639434814 0.64969587326049805
0.91425436735153198 0.78026068210601807 0.64612710475921631
0.99205392599105835 0.77865207195281982 0.66791373491287231
0.26990854740142822 0.91438955068588257 0.73745274543762207
0.34575566649436951 0.91347587108612061 0.72400200366973877
0.5041695237159729 0.90842187404632568 0.7055172324180603
0.68371433019638062 0.90241843461990356 0.69038772583007812
0.83187466859817505 0.89960050582885742 0.68576270341873169
0.94763493537902832 0.89699035882949829 0.68637514114379883
0.99978011846542358 0.8981890082359314 0.71019667387008667
0.2513483464717865 0.99231702089309692 0.67048949003219604
0.35832211375236511 0.99192500114440918 0.66014039516448975
0.53065007925033569 0.98807418346405029 0.63552403450012207
0.72298437356948853 0.98214918375015259 0.61494684219360352
0.88769161701202393 0.97710347175598145 0.60470306873321533
0.98965460062026978 0.97481417655944824 0.62856566905975342
1 0.97973215579986572 0.67340254783630371
0.041575800627470016 0 0.48077100515365601
0.12635654211044312 0 0.47274705767631531
0.25141194462776184 0 0.45662519335746765
0.4065704345703125 4.1288487409474328e-05 0.4289393424987793
0.55639767646789551 0.0015623803483322263 0.40132817625999451
0.6672552227973938 0 0.3911774754524231
0.75223714113235474 0 0.40151408314704895
0.10276070237159729 0.084262996912002563 0.5573006272315979
0.16963277757167816 0.079244635999202728 0.54429751634597778
0.28589075803756714 0.071542493999004364 0.52675431966781616
0.43809899687767029 0.0715499147772789 0.49545574188232422
0.5828825831413269 0.073089495301246643 0.46528482437133789
0.69270414113998413 0.056144099682569504 0.45333760976791382
0.77951788902282715 0.043833892792463303 0.46322169899940491
0.17579326033592224 0.29261612892150879 0.64913487434387207
0.23843176662921906 0.29165834188461304 0.63772392272949219
0.35848945379257202 0.28612187504768372 0.61952793598175049
0.50708931684494019 0.2735196053981781 0.58907592296600342
0.64470040798187256 0.2635807991027832 0.56149023771286011
0.75391870737075806 0.25247931480407715 0.5494389533996582
0.84140002727508545 0.25157973170280457 0.55433529615402222
0.20012132823467255 0.55388462543487549 0.75388485193252563
0.28371718525886536 0.5538901686668396 0.7443886399269104
0.41801309585571289 0.55190610885620117 0.72617477178573608
0.57622921466827393 0.5422331690788269 0.69806414842605591
0.71569311618804932 0.53676444292068481 0.67399090528488159
0.8282201886177063 0.53273051977157593 0.66306370496749878
0.91578352451324463 0.53206419944763184 0.66537362337112427
0.25672939419746399 0.78316569328308105 0.83892977237701416
0.33469957113265991 0.78041732311248779 0.83030194044113159
0.47612717747688293 0.77680480480194092 0.81181281805038452
0.63486504554748535 0.77115648984909058 0.78785490989685059
0.76807290315628052 0.76764029264450073 0.76682019233703613
0.87812352180480957 0.76286768913269043 0.75584316253662109
0.9663962721824646 0.76239210367202759 0.76027053594589233
0.33143118023872375 0.91437608003616333 0.88285791873931885
0.38574150204658508 0.91309618949890137 0.87457454204559326
0.51688778400421143 0.90644782781600952 0.85605961084365845
0.67039614915847778 0.90111929178237915 0.83751612901687622
0.80038714408874512 0.90005677938461304 0.82084363698959351
0.90717828273773193 0.89807724952697754 0.81120604276657104
0.99095213413238525 0.89781409502029419 0.81365597248077393
0.27298834919929504 0.99529612064361572 0.87332439422607422
0.3709430992603302 0.99546569585800171 0.86498183012008667
0.52018004655838013 0.99275141954421997 0.84280133247375488
0.68116229772567749 0.98899751901626587 0.82649362087249756
0.82748895883560181 0.98771756887435913 0.80829077959060669
0.94257384538650513 0.98567157983779907 0.80232435464859009
0.99994540214538574 0.98498702049255371 0.8105165958404541
0.076051957905292511 0 0.57452690601348877
0.16484065353870392 0 0.57597804069519043
0.28431841731071472 0 0.5619354248046875
0.41910746693611145 0 0.53226280212402344
0.54195362329483032 0 0.50111687183380127
0.64069539308547974 0 0.48371654748916626
0.72697228193283081 0 0.48550686240196228
0.12832887470722198 0.010754948481917381 0.63448077440261841
0.19989395141601562 0.014599011279642582 0.62338352203369141
0.30767571926116943 0.01380106620490551 0.602181077003479
0.43673640489578247 0.010035854764282703 0.56948888301849365
0.55268281698226929 0.0058899223804473877 0.53768151998519897
0.650951087474823 0.0039525949396193027 0.52190637588500977
0.74094086885452271 0.0084318872541189194 0.52562302350997925
0.23023496568202972 0.20363554358482361 0.7132602334022522
0.28259798884391785 0.19561728835105896 0.69822311401367188
0.38288047909736633 0.18808157742023468 0.67471122741699219
0.51072472333908081 0.18032261729240417 0.64503306150436401
0.616507887840271 0.16133062541484833 0.61641156673431396
0.70986467599868774 0.157024085521698 0.60107135772705078
0.79106366634368896 0.15735076367855072 0.59651648998260498
0.32298332452774048 0.48724249005317688 0.81471860408782959
0.37256819009780884 0.48730263113975525 0.80353742837905884
0.47382509708404541 0.48362007737159729 0.78332507610321045
0.60148721933364868 0.48149460554122925 0.759815514087677
0.70604234933853149 0.46586567163467407 0.7356751561164856
0.79945623874664307 0.46301081776618958 0.72107833623886108
0.87606966495513916 0.45462536811828613 0.70958983898162842
0.39352437853813171 0.74745780229568481 0.904296875
0.44506949186325073 0.74957370758056641 0.89602255821228027
0.54698187112808228 0.74664175510406494 0.88079667091369629
0.66488778591156006 0.7434203028678894 0.85938173532485962
0.76673692464828491 0.73821985721588135 0.84007459878921509
0.86015516519546509 0.73360580205917358 0.8253929615020752
0.94135481119155884 0.73109334707260132 0.81878244876861572
0.4702422022819519 0.90317320823669434 0.96161699295043945
0.51045316457748413 0.90447968244552612 0.95008999109268188
0.59260278940200806 0.90108186006546021 0.94092851877212524
0.7005690336227417 0.89470666646957397 0.92123335599899292
0.80186343193054199 0.89300215244293213 0.90452080965042114
0.8918839693069458 0.88871568441390991 0.89174634218215942
0.9738890528678894 0.88991183042526245 0.88802719116210938
0.44553431868553162 0.99447190761566162 0.98905372619628906
0.51121252775192261 0.99543410539627075 0.97202640771865845
0.60171157121658325 0.99462383985519409 0.95906895399093628
0.7113838791847229 0.99271649122238159 0.94598948955535889
0.82043564319610596 0.99114185571670532 0.93004626035690308
0.91772681474685669 0.9893379807472229 0.91648358106613159
0.99457019567489624 0.98578453063964844 0.91295814514160156
0.14894646406173706 0 0.63556402921676636
0.23735745251178741 0 0.6466372013092041
0.34491893649101257 0.00063476560171693563 0.63827508687973022
0.45682311058044434 0 0.60911482572555542
0.55693590641021729 0 0.57967138290405273
0.63874393701553345 0 0.55985748767852783
0.7182309627532959 0 0.55825173854827881
0.2039337158203125 0 0.66626864671707153
0.26436713337898254 0 0.65983748435974121
0.35397571325302124 0 0.64274877309799194
0.45555514097213745 0 0.6129223108291626
0.55261325836181641 0 0.58831202983856201
0.6378973126411438 0 0.57465767860412598
0.71975231170654297 0 0.57530796527862549
0.30742272734642029 0.053839247673749924 0.71402698755264282
0.34205543994903564 0.051866702735424042 0.70304208993911743
0.41724684834480286 0.055600631982088089 0.68546885251998901
0.50706976652145386 0.036954917013645172 0.65559631586074829
0.59442579746246338 0.028524884954094887 0.63525736331939697
0.67696106433868408 0.040791679173707962 0.62567138671875
0.74743032455444336 0.039165332913398743 0.61676543951034546
0.43900543451309204 0.3588222861289978 0.8166770339012146
0.47169378399848938 0.36466529965400696 0.80968731641769409
0.53278267383575439 0.36041095852851868 0.79363149404525757
0.61948674917221069 0.35351580381393433 0.77345758676528931
0.69201594591140747 0.33157643675804138 0.75219261646270752
0.76549696922302246 0.33092626929283142 0.7379491925239563
0.82850641012191772 0.31292065978050232 0.72099763154983521
0.54919219017028809 0.67724251747131348 0.92268383502960205
0.57856261730194092 0.67609900236129761 0.91728538274765015
0.63224506378173828 0.6726524829864502 0.90529626607894897
0.70437127351760864 0.6680188775062561 0.88842076063156128
0.77369594573974609 0.66035276651382446 0.87312591075897217
0.84411102533340454 0.6543993353843689 0.85814118385314941
0.91298592090606689 0.65158551931381226 0.84905546903610229
0.62592434883117676 0.86970013380050659 0.98392617702484131
0.65316283702850342 0.87256890535354614 0.98560070991516113
0.69409418106079102 0.87202984094619751 0.98034214973449707
0.75605762004852295 0.86999303102493286 0.96687865257263184
0.82189661264419556 0.8655092716217041 0.95531779527664185
0.88780725002288818 0.85998880863189697 0.94225746393203735
0.95714741945266724 0.8569340705871582 0.9369930624961853
0.65068531036376953 0.99053108692169189 1
0.67621505260467529 0.99013316631317139 1
0.71708542108535767 0.98885506391525269 1
0.77799880504608154 0.98852461576461792 0.99977344274520874
0.84605956077575684 0.98551058769226074 0.99713379144668579
0.91659319400787354 0.98511546850204468 0.98874187469482422
0.98597466945648193 0.98357462882995605 0.98487275838851929
