assets/lut/films print fuji 3513 cuspclip.cube
# Created by: G'MIC (https://gmic.eu)
TITLE "fuji_3513_cuspclip"
# LUT size
LUT_3D_SIZE 5
# Data domain
DOMAIN_MIN 0.0 0.0 0.0
DOMAIN_MAX 1.0 1.0 1.0
# LUT data points
0.0069656521081924438 0.01894034631550312 0.023030748590826988
0.074265815317630768 0.038062360137701035 0.02570667676627636
0.31601658463478088 0.031063288450241089 0.0013845555949956179
0.54594069719314575 0.0062867407687008381 0
0.59843927621841431 0.034717828035354614 0
1.3463637515087612e-05 0.1120714396238327 0.052680309861898422
0.093978777527809143 0.12525741755962372 0.037008620798587799
0.42176759243011475 0.18305708467960358 0.0057436474598944187
0.65022456645965576 0.1976933479309082 0.0010380464373156428
0.72165846824645996 0.22453023493289948 0.003942572046071291
0.008057822473347187 0.35150769352912903 0.15514874458312988
0.045164745301008224 0.35068151354789734 0.01422412320971489
0.52963465452194214 0.4661828875541687 0.0033059513662010431
0.77403753995895386 0.50340324640274048 0.01356404647231102
0.83817273378372192 0.52541571855545044 0.0094158397987484932
0.018554972484707832 0.53663355112075806 0.23621934652328491
0.020424980670213699 0.56586962938308716 0.092193514108657837
0.60020118951797485 0.7002251148223877 0.0092578958719968796
0.880970299243927 0.76074039936065674 0.05142618715763092
0.93430310487747192 0.76405274868011475 0.060397516936063766
0.023132847622036934 0.60787558555603027 0.28442734479904175
0.072470135986804962 0.65161043405532837 0.039234563708305359
0.65709233283996582 0.77842748165130615 0.016098650172352791
0.94045042991638184 0.83041602373123169 0.062169991433620453
0.98252713680267334 0.83438229560852051 0.1061001643538475
0.0084954351186752319 0.036008797585964203 0.10231181234121323
0.095496669411659241 0.034565616399049759 0.10880812257528305
0.37968054413795471 0.018966764211654663 0.089841417968273163
0.5840868353843689 0.0037640589289367199 0.087219953536987305
0.65340399742126465 0.00019562664965633303 0.091937333345413208
0.00061205693054944277 0.15406197309494019 0.16298714280128479
0.091865479946136475 0.14551347494125366 0.14270222187042236
0.47293534874916077 0.16847465932369232 0.1292700469493866
0.71555757522583008 0.13166305422782898 0.081571109592914581
0.78016620874404907 0.13461868464946747 0.074271976947784424
0.010743668302893639 0.42967939376831055 0.30371519923210144
0.023142017424106598 0.42466965317726135 0.22215896844863892
0.5606464147567749 0.48944970965385437 0.10941234230995178
0.86343741416931152 0.49923640489578247 0.051732290536165237
0.9268767237663269 0.53511530160903931 0.06241443008184433
0.021648945286870003 0.60586506128311157 0.39622235298156738
0.031483609229326248 0.64615803956985474 0.3288690447807312
0.62019842863082886 0.75834512710571289 0.081704817712306976
0.96467965841293335 0.81836181879043579 0.056785013526678085
0.99822831153869629 0.82680439949035645 0.080109871923923492
0.017032831907272339 0.68068611621856689 0.51835012435913086
0.007805543951690197 0.7244916558265686 0.43758282065391541
0.63765186071395874 0.83175158500671387 0.36012151837348938
0.97227460145950317 0.88737303018569946 0.31255769729614258
1 0.89076292514801025 0.38474485278129578
0.0041549382731318474 0.15150079131126404 0.34721720218658447
0.10318633168935776 0.012471113353967667 0.33455833792686462
0.40315285325050354 0.0026876262854784727 0.36698395013809204
0.62607336044311523 0.0019291298231109977 0.37594181299209595
0.69068211317062378 0 0.39396244287490845
0.0052136587910354137 0.28639951348304749 0.45489940047264099
0.037340022623538971 0.210205078125 0.44334003329277039
0.48396453261375427 0.19070988893508911 0.46366780996322632
0.74358135461807251 0.14275103807449341 0.46852880716323853
0.80181080102920532 0.17156006395816803 0.48706468939781189
0.019921919330954552 0.53552860021591187 0.59210580587387085
0.010446151718497276 0.53248065710067749 0.58752405643463135
0.56370240449905396 0.57191163301467896 0.57023674249649048
0.87001305818557739 0.57897603511810303 0.56686067581176758
0.93876618146896362 0.62147235870361328 0.58939510583877563
0.0045765596441924572 0.70075243711471558 0.68312883377075195
0.0054929694160819054 0.7329832911491394 0.67595648765563965
0.5587533712387085 0.84103626012802124 0.6424562931060791
0.95234912633895874 0.89337426424026489 0.64505356550216675
0.99619680643081665 0.89423263072967529 0.65386641025543213
0.0028905530925840139 0.76000332832336426 0.76053744554519653
0.0083467522636055946 0.80811339616775513 0.76263010501861572
0.57722955942153931 0.89574676752090454 0.76009988784790039
0.94097369909286499 0.95049667358398438 0.76010137796401978
0.99778902530670166 0.9560314416885376 0.76699012517929077
0.0088006714358925819 0.24930687248706818 0.50750017166137695
0.10297045111656189 0.027544314041733742 0.5251462459564209
0.42759016156196594 0.0030082552693784237 0.58628815412521362
0.65522158145904541 0.0010744581231847405 0.59938228130340576
0.71422439813613892 0.00040877098217606544 0.61419588327407837
0.0039215688593685627 0.3512968122959137 0.61039310693740845
0.023977974429726601 0.28683295845985413 0.64659029245376587
0.49478942155838013 0.18727061152458191 0.71604263782501221
0.75805068016052246 0.14590764045715332 0.73347288370132446
0.81639271974563599 0.16610260307788849 0.74234849214553833
0.023590700700879097 0.56790447235107422 0.73583203554153442
0.01321010198444128 0.58412128686904907 0.78008806705474854
0.52473592758178711 0.60130220651626587 0.84405803680419922
0.86695420742034912 0.61901521682739258 0.85423487424850464
0.9261012077331543 0.62794953584671021 0.86385506391525269
0.013189009390771389 0.72118115425109863 0.80605143308639526
0.021367734298110008 0.77517282962799072 0.85097867250442505
0.49877440929412842 0.8866773247718811 0.91254311800003052
0.9340476393699646 0.93994152545928955 0.92508727312088013
0.99154472351074219 0.94063794612884521 0.92783606052398682
0.025160441175103188 0.76757681369781494 0.84710872173309326
0.014653987251222134 0.8212430477142334 0.88272249698638916
0.52033662796020508 0.92495989799499512 0.941661536693573
0.92083132266998291 0.97864741086959839 0.94754922389984131
0.99605906009674072 0.9876401424407959 0.94872486591339111
0.0028420393355190754 0.28772702813148499 0.5749935507774353
0.080903038382530212 0.068262197077274323 0.61925297975540161
0.44769832491874695 0.011861240491271019 0.68232506513595581
0.70651543140411377 0.0088365739211440086 0.71699362993240356
0.7517775297164917 0.007811826653778553 0.71871352195739746
0.0040055816061794758 0.40537464618682861 0.6731564998626709
0.0038172104395925999 0.3333737850189209 0.71095854043960571
0.48179221153259277 0.24777860939502716 0.79542964696884155
0.77582043409347534 0.21704724431037903 0.82145041227340698
0.83397209644317627 0.24465538561344147 0.83082354068756104
0.024669662117958069 0.58347433805465698 0.76818168163299561
0.021692013368010521 0.59869205951690674 0.8106306791305542
0.51073282957077026 0.6258925199508667 0.90677928924560547
0.86710989475250244 0.6449701189994812 0.92561417818069458
0.93052130937576294 0.66954213380813599 0.9318464994430542
0.031594116240739822 0.72799766063690186 0.83414328098297119
0.013271466828882694 0.78177088499069214 0.88197702169418335
0.4565417468547821 0.89311301708221436 0.96257674694061279
0.91151970624923706 0.93573707342147827 0.98174601793289185
0.98366415500640869 0.94780033826828003 0.98817801475524902
0.026157902553677559 0.76695400476455688 0.85927838087081909
0.030881484970450401 0.82133638858795166 0.90025681257247925
0.50057870149612427 0.929412841796875 0.97150647640228271
0.90444803237915039 0.98398584127426147 0.98954528570175171
0.98951280117034912 0.99038350582122803 0.99443966150283813
