assets/lut/films colorslide kodak kodachrome 64.cube
# Created by: G'MIC (https://gmic.eu)
TITLE "kodak_kodachrome_64"
# LUT size
LUT_3D_SIZE 7
# Data domain
DOMAIN_MIN 0.0 0.0 0.0
DOMAIN_MAX 1.0 1.0 1.0
# LUT data points
0.018864694982767105 0.018112482503056526 0.016627084463834763
0.12185028940439224 0.02367980033159256 0.01515121478587389
0.33785897493362427 0.047799892723560333 0.011518635787069798
0.5729479193687439 0.070968568325042725 0.0074981837533414364
0.73048663139343262 0.085361599922180176 0.0014722637133672833
0.87009537220001221 0.095965005457401276 0.00029278924921527505
0.98515087366104126 0.12125341594219208 0.00030629776301793754
0.083773970603942871 0.14253146946430206 0.074326790869235992
0.1700720489025116 0.14923559129238129 0.070547334849834442
0.38960886001586914 0.17305265367031097 0.065370313823223114
0.60145807266235352 0.18665701150894165 0.056221291422843933
0.75369179248809814 0.18464754521846771 0.042451895773410797
0.88967716693878174 0.16638286411762238 0.023301577195525169
0.98273956775665283 0.15564262866973877 0.0084086544811725616
0.10986307263374329 0.38266301155090332 0.16662013530731201
0.23796124756336212 0.38063991069793701 0.16616411507129669
0.47219985723495483 0.41077166795730591 0.15875911712646484
0.65025991201400757 0.41211134195327759 0.14645685255527496
0.79997360706329346 0.40193203091621399 0.13048583269119263
0.93629199266433716 0.37113091349601746 0.10128696262836456
0.99970591068267822 0.32967707514762878 0.07930532842874527
0.22887469828128815 0.56945854425430298 0.27917325496673584
0.3536132276058197 0.5766599178314209 0.27549856901168823
0.53597819805145264 0.59594434499740601 0.27069666981697083
0.6912497878074646 0.61128443479537964 0.26192581653594971
0.83462250232696533 0.62140011787414551 0.2462259978055954
0.96948361396789551 0.62105327844619751 0.21902705729007721
1 0.61951196193695068 0.19847223162651062
0.40830785036087036 0.71210664510726929 0.40489855408668518
0.47000151872634888 0.7166559100151062 0.4084516167640686
0.5787588357925415 0.72746396064758301 0.41024225950241089
0.7074158787727356 0.74016684293746948 0.40342220664024353
0.83912599086761475 0.75395411252975464 0.39000925421714783
0.96805679798126221 0.7651703953742981 0.36377310752868652
1 0.77129107713699341 0.34923338890075684
0.5086250901222229 0.83769124746322632 0.5312570333480835
0.54414397478103638 0.84009748697280884 0.53797274827957153
0.62554931640625 0.84897607564926147 0.53617000579833984
0.73339235782623291 0.86127632856369019 0.52972233295440674
0.8550756573677063 0.87463915348052979 0.51813715696334839
0.97319698333740234 0.8851589560508728 0.50336092710494995
1 0.89601296186447144 0.49123141169548035
0.59604018926620483 0.96454280614852905 0.64615792036056519
0.62861180305480957 0.96780526638031006 0.64571762084960938
0.68947947025299072 0.97543603181838989 0.64366072416305542
0.77483892440795898 0.98404133319854736 0.63879454135894775
0.87527096271514893 0.99052923917770386 0.63192403316497803
0.97122573852539062 0.99300068616867065 0.62559801340103149
0.99903231859207153 0.99465882778167725 0.61717230081558228
0.0073558581061661243 0.0089049991220235825 0.077673546969890594
0.1005147323012352 0.013830806128680706 0.076714970171451569
0.31742396950721741 0.035030215978622437 0.073341190814971924
0.55194354057312012 0.054014857858419418 0.059616629034280777
0.71134626865386963 0.068717285990715027 0.049907159060239792
0.85564565658569336 0.081692084670066833 0.03709055483341217
0.97234511375427246 0.10508198291063309 0.024619473144412041
0.056746449321508408 0.1268349289894104 0.15144863724708557
0.14943253993988037 0.13406625390052795 0.1473550945520401
0.36891156435012817 0.15397413074970245 0.14219993352890015
0.57248187065124512 0.16866509616374969 0.13277813792228699
0.72699862718582153 0.17151901125907898 0.11468894779682159
0.86904227733612061 0.1544957160949707 0.090883828699588776
0.9689217209815979 0.14371638000011444 0.070418335497379303
0.067308850586414337 0.36757770180702209 0.25778511166572571
0.19687341153621674 0.37550830841064453 0.25848105549812317
0.44153168797492981 0.39410102367401123 0.25289204716682434
0.61618673801422119 0.40168538689613342 0.24174609780311584
0.76485741138458252 0.39066994190216064 0.22544249892234802
0.90357846021652222 0.36237773299217224 0.19772034883499146
0.98982876539230347 0.33137166500091553 0.17114870250225067
0.17480218410491943 0.54833412170410156 0.36639869213104248
0.31030750274658203 0.55609697103500366 0.37142923474311829
0.49714383482933044 0.57320821285247803 0.37373954057693481
0.6532861590385437 0.58829373121261597 0.36271733045578003
0.79220449924468994 0.59726428985595703 0.35359767079353333
0.93328076601028442 0.60118311643600464 0.33464092016220093
0.99990612268447876 0.59247362613677979 0.30463278293609619
0.36863833665847778 0.69784629344940186 0.47622469067573547
0.43641403317451477 0.70241522789001465 0.48408681154251099
0.54556560516357422 0.71281689405441284 0.4863857626914978
0.67867058515548706 0.72432065010070801 0.47445344924926758
0.80745959281921387 0.73684227466583252 0.46546974778175354
0.94324797391891479 0.7462155818939209 0.45358964800834656
1 0.74743664264678955 0.43830829858779907
0.48771736025810242 0.82968509197235107 0.57783132791519165
0.52834451198577881 0.83241027593612671 0.58281266689300537
0.60819751024246216 0.84058213233947754 0.58251821994781494
0.71669203042984009 0.85278046131134033 0.57497704029083252
0.83878082036972046 0.86532503366470337 0.56875920295715332
0.97021925449371338 0.87378793954849243 0.5585821270942688
1 0.88513147830963135 0.546783447265625
0.57681936025619507 0.95978444814682007 0.67822206020355225
0.6124798059463501 0.96270525455474854 0.67758703231811523
0.67547458410263062 0.97022879123687744 0.67746603488922119
0.76183116436004639 0.97973287105560303 0.67551344633102417
0.86848300695419312 0.98791307210922241 0.67203450202941895
0.98600751161575317 0.99107688665390015 0.66687864065170288
1 0.99821794033050537 0.65330904722213745
0.00077496696030721068 0.004284967202693224 0.19264617562294006
0.061437211930751801 0.0050649754703044891 0.19558155536651611
0.2719511091709137 0.013151968829333782 0.19375826418399811
0.49942171573638916 0.023819718509912491 0.18312107026576996
0.65913605690002441 0.034612737596035004 0.17026539146900177
0.80249857902526855 0.046032026410102844 0.15451963245868683
0.91770529747009277 0.07031327486038208 0.13298279047012329
0.027039576321840286 0.093021228909492493 0.28542092442512512
0.11059839278459549 0.11178017407655716 0.28305810689926147
0.32456514239311218 0.12360533326864243 0.27777650952339172
0.51807653903961182 0.13212636113166809 0.26973968744277954
0.66855144500732422 0.13198196887969971 0.25521239638328552
0.80596154928207397 0.11657490581274033 0.23433384299278259
0.90717887878417969 0.10436729341745377 0.21041522920131683
0.02859141118824482 0.33661934733390808 0.39828100800514221
0.13142593204975128 0.35021433234214783 0.4011167585849762
0.38788250088691711 0.36619862914085388 0.39564263820648193
0.55799371004104614 0.36741626262664795 0.38827237486839294
0.70507776737213135 0.36263895034790039 0.37441956996917725
0.83466207981109619 0.32345438003540039 0.35418897867202759
0.92782121896743774 0.28000953793525696 0.32506150007247925
0.13231095671653748 0.52945625782012939 0.48538309335708618
0.27022847533226013 0.53632724285125732 0.4882601797580719
0.447183758020401 0.55122101306915283 0.4881591796875
0.60197657346725464 0.56152951717376709 0.48364204168319702
0.74072438478469849 0.5736425518989563 0.47918480634689331
0.88412868976593018 0.57142400741577148 0.46487855911254883
0.98273688554763794 0.55026829242706299 0.43849614262580872
0.3326728343963623 0.68150055408477783 0.56674844026565552
0.40281486511230469 0.68571394681930542 0.57181555032730103
0.51236808300018311 0.69569188356399536 0.56855571269989014
0.6416085958480835 0.70679712295532227 0.56249666213989258
0.76825046539306641 0.71832668781280518 0.55957686901092529
0.90626263618469238 0.72798293828964233 0.55347460508346558
0.99733930826187134 0.72603696584701538 0.53784716129302979
0.46452170610427856 0.81696116924285889 0.64521747827529907
0.50390702486038208 0.81879311800003052 0.64654040336608887
0.58315777778625488 0.82675796747207642 0.64496225118637085
0.68985968828201294 0.83862727880477905 0.63946974277496338
0.80798661708831787 0.85115838050842285 0.63834923505783081
0.93834143877029419 0.86118036508560181 0.63306480646133423
1 0.86811470985412598 0.62324798107147217
0.5583794116973877 0.95217341184616089 0.72916418313980103
0.59262949228286743 0.9529644250869751 0.72789615392684937
0.65488654375076294 0.9596250057220459 0.72794443368911743
0.74176180362701416 0.9708867073059082 0.72705078125
0.84588801860809326 0.98088067770004272 0.72748643159866333
0.95841020345687866 0.98793119192123413 0.72451341152191162
1 0.9938468337059021 0.71621966361999512
0 0 0.33900386095046997
0.036580778658390045 0 0.33620011806488037
0.22238180041313171 0.0012204637750983238 0.33397281169891357
0.43132606148719788 0.0070537789724767208 0.33397883176803589
0.58738505840301514 0.0040258071385324001 0.32932525873184204
0.72630959749221802 0.0055985394865274429 0.31994375586509705
0.83394944667816162 0.017651725560426712 0.30784726142883301
0.004244576208293438 0.068594746291637421 0.41134241223335266
0.067395411431789398 0.078522011637687683 0.40916943550109863
0.27288836240768433 0.097594484686851501 0.40611782670021057
0.46282288432121277 0.10874643921852112 0.40336209535598755
0.60999929904937744 0.10056831687688828 0.39623749256134033
0.74263405799865723 0.076615698635578156 0.37819916009902954
0.83705043792724609 0.055334053933620453 0.35861843824386597
0.018925027921795845 0.31654086709022522 0.50157123804092407
0.11704926192760468 0.33019113540649414 0.50287854671478271
0.35347795486450195 0.34365114569664001 0.49879029393196106
0.51959538459777832 0.35245159268379211 0.49190950393676758
0.66277921199798584 0.34187787771224976 0.48293459415435791
0.79088950157165527 0.30101209878921509 0.46505901217460632
0.88017934560775757 0.2541300356388092 0.44332486391067505
0.092659071087837219 0.51067155599594116 0.57916939258575439
0.24627877771854401 0.51993757486343384 0.57871818542480469
0.4191741943359375 0.5320199728012085 0.57676714658737183
0.56842672824859619 0.54642421007156372 0.5752723217010498
0.70844799280166626 0.55466377735137939 0.5690428614616394
0.84855157136917114 0.55232447385787964 0.55880641937255859
0.95147234201431274 0.53218787908554077 0.54490023851394653
0.29884231090545654 0.66547113656997681 0.64791667461395264
0.37791898846626282 0.67071139812469482 0.64841514825820923
0.48761424422264099 0.68102335929870605 0.64817279577255249
0.61209934949874878 0.69255763292312622 0.64520126581192017
0.73946851491928101 0.69981974363327026 0.64253205060958862
0.87327390909194946 0.70816266536712646 0.63594675064086914
0.97740453481674194 0.70576125383377075 0.6255420446395874
0.44027945399284363 0.80381256341934204 0.71640223264694214
0.47674140334129333 0.80426889657974243 0.7168692946434021
0.55661630630493164 0.8119196891784668 0.71647566556930542
0.66104549169540405 0.82346540689468384 0.71307170391082764
0.77739065885543823 0.83482873439788818 0.71118581295013428
0.90791803598403931 0.84624236822128296 0.70714020729064941
0.99688500165939331 0.85158008337020874 0.69965928792953491
0.53892791271209717 0.9435884952545166 0.79129981994628906
0.57079964876174927 0.94230824708938599 0.79057401418685913
0.63125360012054443 0.94742220640182495 0.79086434841156006
0.71674239635467529 0.95969408750534058 0.78936660289764404
0.82030332088470459 0.97229599952697754 0.78933238983154297
0.93839806318283081 0.98221039772033691 0.78796690702438354
1 0.98755890130996704 0.78334730863571167
0 0 0.44082239270210266
0.01220595370978117 0 0.44150522351264954
0.18822388350963593 1.1488970812933985e-05 0.43829268217086792
0.38805249333381653 0.001332391519099474 0.43850123882293701
0.54257643222808838 0 0.4411068856716156
0.68398463726043701 0 0.43041175603866577
0.78916561603546143 0.00015421849093399942 0.41583758592605591
0.00020105698786210269 0.049606457352638245 0.50842869281768799
0.034895967692136765 0.061542198061943054 0.50486510992050171
0.24627411365509033 0.088016867637634277 0.50249570608139038
0.43009176850318909 0.091991767287254333 0.50040626525878906
0.57163393497467041 0.076416313648223877 0.49626314640045166
0.70781731605529785 0.053604304790496826 0.47647896409034729
0.80233472585678101 0.033336129039525986 0.45746645331382751
0.027360638603568077 0.30951833724975586 0.59184145927429199
0.11631572991609573 0.32241970300674438 0.59046810865402222
0.32680842280387878 0.3363991379737854 0.58865302801132202
0.48817768692970276 0.33285269141197205 0.58079725503921509
0.62717080116271973 0.31868600845336914 0.57269686460494995
0.75060462951660156 0.28326940536499023 0.55584454536437988
0.83814477920532227 0.24621525406837463 0.54061639308929443
0.096995413303375244 0.4982897937297821 0.66126257181167603
0.23330420255661011 0.50872516632080078 0.66277009248733521
0.39299723505973816 0.52058738470077515 0.66152405738830566
0.53931862115859985 0.53009313344955444 0.65733432769775391
0.67709797620773315 0.5395238995552063 0.65415042638778687
0.80774539709091187 0.53564536571502686 0.64601939916610718
0.90603154897689819 0.52052563428878784 0.63508623838424683
0.27103108167648315 0.65321105718612671 0.72367715835571289
0.35122182965278625 0.65867835283279419 0.72310662269592285
0.46043714880943298 0.6667780876159668 0.72309434413909912
0.58370077610015869 0.67659002542495728 0.71984356641769409
0.70889425277709961 0.68436247110366821 0.72025597095489502
0.83989626169204712 0.69289422035217285 0.7133217453956604
0.94903421401977539 0.69068187475204468 0.70691573619842529
0.41394895315170288 0.79424083232879639 0.78534555435180664
0.45609375834465027 0.79645907878875732 0.78610223531723022
0.53307253122329712 0.80246275663375854 0.78543150424957275
0.63470536470413208 0.81127047538757324 0.7836759090423584
0.74803054332733154 0.81812840700149536 0.78300309181213379
0.87527561187744141 0.83255469799041748 0.77890664339065552
0.97446262836456299 0.83600759506225586 0.77418667078018188
0.51786047220230103 0.93695211410522461 0.85570740699768066
0.54903322458267212 0.93747919797897339 0.85589522123336792
0.6081739068031311 0.94142597913742065 0.85632240772247314
0.69188785552978516 0.9524531364440918 0.85508871078491211
0.79469871520996094 0.96338456869125366 0.85421055555343628
0.91482555866241455 0.97619414329528809 0.8547898530960083
0.99999135732650757 0.98008817434310913 0.85049700736999512
0 0 0.5222657322883606
0.0011985329911112785 0 0.53068739175796509
0.15106111764907837 0 0.52403050661087036
0.35234341025352478 0 0.5185127854347229
0.50585693120956421 0 0.52556067705154419
0.64059412479400635 0 0.51841837167739868
0.74089294672012329 0 0.50509464740753174
0.00012057435378665105 0.038245946168899536 0.59141707420349121
0.034618765115737915 0.052155978977680206 0.58625149726867676
0.23726032674312592 0.071110576391220093 0.58112800121307373
0.40735962986946106 0.075257621705532074 0.58060431480407715
0.54018056392669678 0.061599984765052795 0.58150947093963623
0.66904479265213013 0.037216905504465103 0.56422168016433716
0.75564056634902954 0.022698555141687393 0.54879909753799438
0.039750311523675919 0.30061572790145874 0.67637848854064941
0.13112995028495789 0.31021803617477417 0.67379915714263916
0.31519842147827148 0.32387697696685791 0.6707262396812439
0.46709591150283813 0.31492692232131958 0.6633150577545166
0.59771084785461426 0.29953810572624207 0.65716171264648438
0.71911191940307617 0.27153101563453674 0.64531898498535156
0.80345445871353149 0.23061496019363403 0.62836241722106934
0.11674680560827255 0.48971655964851379 0.73804175853729248
0.22930149734020233 0.49620321393013 0.74162662029266357
0.37280040979385376 0.50506746768951416 0.74579083919525146
0.51347094774246216 0.51442569494247437 0.74209940433502197
0.64644366502761841 0.52421307563781738 0.73583698272705078
0.77510958909988403 0.52316522598266602 0.73472040891647339
0.87299823760986328 0.50770330429077148 0.72119134664535522
0.25888127088546753 0.64007329940795898 0.8011096715927124
0.3318827748298645 0.64515846967697144 0.79977715015411377
0.43725624680519104 0.6502571702003479 0.79993933439254761
0.55896025896072388 0.66070616245269775 0.80083763599395752
0.68024885654449463 0.67055404186248779 0.7995915412902832
0.80839866399765015 0.67647725343704224 0.79875540733337402
0.91423821449279785 0.67666381597518921 0.79193943738937378
0.39456385374069214 0.77890932559967041 0.86043822765350342
0.43462511897087097 0.78243505954742432 0.86297297477722168
0.51097410917282104 0.78881174325942993 0.85918933153152466
0.61166763305664062 0.79852139949798584 0.86052548885345459
0.72284930944442749 0.80430537462234497 0.85936039686203003
0.8467833399772644 0.81446212530136108 0.85598880052566528
0.95101243257522583 0.81957900524139404 0.85424762964248657
0.50164729356765747 0.92449080944061279 0.92544412612915039
0.52891969680786133 0.92650878429412842 0.92880451679229736
0.58688557147979736 0.93342757225036621 0.92638391256332397
0.66923218965530396 0.94026869535446167 0.92843842506408691
0.77034646272659302 0.95304709672927856 0.92648077011108398
0.88787001371383667 0.96639525890350342 0.92799073457717896
0.99425321817398071 0.97380155324935913 0.92448180913925171
0.00032866233959794044 0.00023006364062894136 0.57327806949615479
0.01067721750587225 0 0.5817868709564209
0.15142595767974854 1.0112687959917821e-05 0.57349896430969238
0.34620720148086548 0.00066393683664500713 0.56348025798797607
0.49463692307472229 0.0029659345746040344 0.57172697782516479
0.62319374084472656 0 0.56575441360473633
0.72667950391769409 3.2866235414985567e-05 0.55403995513916016
0.0019746068865060806 0.039788249880075455 0.63263964653015137
0.050168715417385101 0.051493730396032333 0.63294827938079834
0.21609289944171906 0.06954173743724823 0.62895846366882324
0.39358741044998169 0.069029413163661957 0.62555539608001709
0.53228569030761719 0.075372509658336639 0.62814956903457642
0.65664303302764893 0.039719376713037491 0.60967981815338135
0.74491918087005615 0.018072135746479034 0.59467041492462158
0.03712361678481102 0.29085984826087952 0.71563911437988281
0.14520300924777985 0.30412966012954712 0.71450889110565186
0.30354613065719604 0.31488648056983948 0.71248817443847656
0.45674917101860046 0.31680339574813843 0.70756900310516357
0.58855712413787842 0.30738380551338196 0.70186108350753784
0.70831632614135742 0.27083441615104675 0.68792378902435303
0.78892707824707031 0.20529773831367493 0.66952031850814819
0.12082578241825104 0.48136544227600098 0.78482824563980103
0.22905391454696655 0.49190050363540649 0.78370589017868042
0.3646489679813385 0.5015949010848999 0.78931248188018799
0.50107711553573608 0.51135343313217163 0.78635585308074951
0.63087445497512817 0.51646727323532104 0.77549773454666138
0.76352649927139282 0.51146799325942993 0.77323645353317261
0.86307144165039062 0.47760266065597534 0.75976991653442383
0.25553780794143677 0.63297551870346069 0.84713912010192871
0.32490631937980652 0.63814061880111694 0.84416383504867554
0.42803823947906494 0.64565783739089966 0.84343558549880981
0.54611265659332275 0.65499037504196167 0.84723120927810669
0.66654700040817261 0.66373622417449951 0.84136772155761719
0.79501044750213623 0.66573488712310791 0.84066867828369141
0.90438956022262573 0.66202467679977417 0.83257520198822021
0.3848426342010498 0.77306073904037476 0.9026300311088562
0.42556479573249817 0.77530097961425781 0.90263873338699341
0.50167369842529297 0.78127813339233398 0.89878982305526733
0.60030561685562134 0.78930854797363281 0.90282738208770752
0.70886826515197754 0.79775816202163696 0.89943879842758179
0.82927274703979492 0.80209577083587646 0.89842158555984497
0.93850922584533691 0.80743038654327393 0.90014827251434326
0.49871644377708435 0.92063802480697632 0.97025054693222046
0.52499556541442871 0.92022204399108887 0.97406774759292603
0.58117437362670898 0.92808473110198975 0.97071290016174316
0.66021871566772461 0.93239313364028931 0.97490042448043823
0.75610411167144775 0.94218152761459351 0.9771038293838501
0.86582773923873901 0.95630735158920288 0.97831100225448608
0.98576688766479492 0.96713614463806152 0.98137372732162476
