assets/lut/films colorslide fuji provia 400x.cube
# Created by: G'MIC (https://gmic.eu)
TITLE "fuji_provia_400x"
# LUT size
LUT_3D_SIZE 13
# Data domain
DOMAIN_MIN 0.0 0.0 0.0
DOMAIN_MAX 1.0 1.0 1.0
# LUT data points
0.044027261435985565 0.039701364934444427 0.036773756146430969
0.12206494063138962 0.03897717222571373 0.034804534167051315
0.20344007015228271 0.037265434861183167 0.03309318795800209
0.28962764143943787 0.032519754022359848 0.033888887614011765
0.38281029462814331 0.028792437165975571 0.033827360719442368
0.48230093717575073 0.028098881244659424 0.032607942819595337
0.58529090881347656 0.028532169759273529 0.031132178381085396
0.68670099973678589 0.028019266203045845 0.030557924881577492
0.78151720762252808 0.025120066478848457 0.028920147567987442
0.86646509170532227 0.020396452397108078 0.024067088961601257
0.93951469659805298 0.016041833907365799 0.01038462296128273
0.99330872297286987 0.013304302468895912 0.00072429882129654288
1 0.012950941920280457 0
0.065388806164264679 0.12067652493715286 0.058817125856876373
0.12609973549842834 0.12065658718347549 0.055423513054847717
0.19922260940074921 0.11562338471412659 0.053360778838396072
0.28509014844894409 0.10791196674108505 0.054262004792690277
0.37946704030036926 0.10256331413984299 0.054239910095930099
0.48124286532402039 0.099572606384754181 0.053246382623910904
0.58770275115966797 0.096755698323249817 0.051983419805765152
0.69253557920455933 0.09249279648065567 0.050519395619630814
0.7899014949798584 0.086170122027397156 0.048137139528989792
0.87533515691757202 0.077860847115516663 0.040819805115461349
0.94617640972137451 0.070057138800621033 0.024897182360291481
0.99456501007080078 0.064485497772693634 0.0062067518010735512
1 0.062508329749107361 0.00010106703848578036
0.092649735510349274 0.20073318481445312 0.084853559732437134
0.13840369880199432 0.19947412610054016 0.082544945180416107
0.20131810009479523 0.19424994289875031 0.080331869423389435
0.28401410579681396 0.18882626295089722 0.079351671040058136
0.37920185923576355 0.18446080386638641 0.077945679426193237
0.48321777582168579 0.18048422038555145 0.075970292091369629
0.59253966808319092 0.17547956109046936 0.074366487562656403
0.70023602247238159 0.16920956969261169 0.071931935846805573
0.80017262697219849 0.16054190695285797 0.066942639648914337
0.88702595233917236 0.14991429448127747 0.057683773338794708
0.95561331510543823 0.1392534077167511 0.042086776345968246
0.99654030799865723 0.13099579513072968 0.020239138975739479
1 0.12753601372241974 0.0033536574337631464
0.099605977535247803 0.28584623336791992 0.11187892407178879
0.13699682056903839 0.2841794490814209 0.11033763736486435
0.19406974315643311 0.28016829490661621 0.10804767906665802
0.27908274531364441 0.27628904581069946 0.10639521479606628
0.3801320493221283 0.27172335982322693 0.10439391434192657
0.48902365565299988 0.26699048280715942 0.10165362060070038
0.60058903694152832 0.2631477415561676 0.097551040351390839
0.70942264795303345 0.25746369361877441 0.092331871390342712
0.81114566326141357 0.2488114982843399 0.085313029587268829
0.90083658695220947 0.2376137375831604 0.075212739408016205
0.96923291683197021 0.22506269812583923 0.060123875737190247
0.99905961751937866 0.21457217633724213 0.039311323314905167
1 0.20848801732063293 0.016026455909013748
0.074425972998142242 0.37917327880859375 0.13482026755809784
0.11352425068616867 0.3774627149105072 0.13210150599479675
0.17451827228069305 0.374217689037323 0.12919542193412781
0.26698324084281921 0.37166869640350342 0.12727203965187073
0.37883481383323669 0.36746090650558472 0.12681841850280762
0.49526733160018921 0.36233171820640564 0.12406770139932632
0.60916566848754883 0.35884362459182739 0.11805973201990128
0.7174418568611145 0.35441499948501587 0.11066938191652298
0.81965047121047974 0.34750109910964966 0.10196694731712341
0.91189414262771606 0.3371545672416687 0.091617792844772339
0.98118329048156738 0.32486182451248169 0.077999874949455261
0.99999207258224487 0.31364873051643372 0.058992795646190643
1 0.30514228343963623 0.035577438771724701
0.038253352046012878 0.47390362620353699 0.14995422959327698
0.081163473427295685 0.47326576709747314 0.14512236416339874
0.15086881816387177 0.4706074595451355 0.13952721655368805
0.25437864661216736 0.46888801455497742 0.13874855637550354
0.37736630439758301 0.46611198782920837 0.14043530821800232
0.50161594152450562 0.46104934811592102 0.13875144720077515
0.61723428964614868 0.45623055100440979 0.13321717083454132
0.72343951463699341 0.45282024145126343 0.12540797889232635
0.82377779483795166 0.44833812117576599 0.11625653505325317
0.91721546649932861 0.4404805600643158 0.10596008598804474
0.98521196842193604 0.4302515983581543 0.093209408223628998
1 0.41962066292762756 0.076153457164764404
1 0.40942814946174622 0.054117735475301743
0.010445942170917988 0.56242281198501587 0.15277397632598877
0.054127097129821777 0.56165617704391479 0.14761810004711151
0.13140825927257538 0.55952626466751099 0.14166733622550964
0.24647587537765503 0.55695420503616333 0.1407712996006012
0.38091051578521729 0.55409395694732666 0.14296126365661621
0.51074403524398804 0.55000895261764526 0.14389365911483765
0.62698030471801758 0.54620689153671265 0.14139895141124725
0.73103529214859009 0.54346805810928345 0.13570770621299744
0.82903569936752319 0.54150295257568359 0.12787316739559174
0.9236299991607666 0.53600162267684937 0.11732598394155502
0.98922884464263916 0.52821779251098633 0.10464532673358917
1 0.51932626962661743 0.088918440043926239
1 0.50950175523757935 0.067529074847698212
0.0018683340167626739 0.63921797275543213 0.13917773962020874
0.038576088845729828 0.63818758726119995 0.13966955244541168
0.11999902129173279 0.63588231801986694 0.13741055130958557
0.2442251443862915 0.63257712125778198 0.1365739107131958
0.38799148797988892 0.62939745187759399 0.13816504180431366
0.52185541391372681 0.62634235620498657 0.14120198786258698
0.63887077569961548 0.62399405241012573 0.14162167906761169
0.74297893047332764 0.62182551622390747 0.13834522664546967
0.84165900945663452 0.62054902315139771 0.13197575509548187
0.93535840511322021 0.61658293008804321 0.1220889538526535
0.99433803558349609 0.61111354827880859 0.10939416289329529
1 0.60410887002944946 0.09350152313709259
0.99943971633911133 0.59633392095565796 0.071596033871173859
0.00029637952684424818 0.70739030838012695 0.11256527155637741
0.028364203870296478 0.70526862144470215 0.12042325735092163
0.10918187350034714 0.70232850313186646 0.12471248954534531
0.23852568864822388 0.69921594858169556 0.12627540528774261
0.3899783194065094 0.69647765159606934 0.12763001024723053
0.52966022491455078 0.69408595561981201 0.13050006330013275
0.64966166019439697 0.69186276197433472 0.13088199496269226
0.75523799657821655 0.68987780809402466 0.12859323620796204
0.85504579544067383 0.68786996603012085 0.12486816197633743
0.94441413879394531 0.68458288908004761 0.11683430522680283
0.99592071771621704 0.6801835298538208 0.10425382107496262
1 0.67461085319519043 0.087690912187099457
0.99851906299591064 0.66886359453201294 0.06433289498090744
2.1003274014219642e-05 0.77225935459136963 0.072096027433872223
0.022513983771204948 0.76841247081756592 0.086602799594402313
0.10160995274782181 0.76485884189605713 0.097403369843959808
0.23612767457962036 0.76172024011611938 0.10234452784061432
0.39355617761611938 0.75972640514373779 0.10516293346881866
0.53767764568328857 0.75811344385147095 0.10549028962850571
0.66083598136901855 0.75563424825668335 0.10320057719945908
0.76682847738265991 0.75319254398345947 0.10316768288612366
0.86750459671020508 0.75040429830551147 0.10422839224338531
0.9545367956161499 0.74753552675247192 0.099691681563854218
0.99819779396057129 0.74393379688262939 0.086784809827804565
1 0.73976153135299683 0.069056056439876556
0.99909341335296631 0.73601913452148438 0.0446929931640625
0 0.83948588371276855 0.019968833774328232
0.020547635853290558 0.8338463306427002 0.035086657851934433
0.10186073184013367 0.8297581672668457 0.051028560847043991
0.24432337284088135 0.82625275850296021 0.059218864887952805
0.41135603189468384 0.8238987922668457 0.062280017882585526
0.56035131216049194 0.82288885116577148 0.061724942177534103
0.68150448799133301 0.82151871919631958 0.058150243014097214
0.78421211242675781 0.81909310817718506 0.062743179500102997
0.88599413633346558 0.81586945056915283 0.070672236382961273
0.97157710790634155 0.81298017501831055 0.068321213126182556
0.99994313716888428 0.81112891435623169 0.051903218030929565
1 0.80941551923751831 0.02897205762565136
1 0.8088948130607605 0.0087968716397881508
0 0.91459280252456665 0.00014810000720899552
0.0099754631519317627 0.90808659791946411 0.0015233207959681749
0.078356817364692688 0.90410590171813965 0.0061758151277899742
0.20917202532291412 0.90026217699050903 0.011403282172977924
0.38510769605636597 0.89588034152984619 0.012610686011612415
0.5664253830909729 0.89436990022659302 0.011270695365965366
0.69256317615509033 0.89663404226303101 0.013982092030346394
0.79764103889465332 0.89458727836608887 0.018685853108763695
0.90179991722106934 0.89029157161712646 0.024610122665762901
0.98433023691177368 0.88705986738204956 0.020531762391328812
1 0.88695114850997925 0.0068274554796516895
1 0.88894295692443848 0.00035856658359989524
1 0.89161491394042969 0
0 0.98896390199661255 0
7.5037336500827223e-05 0.98561668395996094 0
0.016580440104007721 0.98346716165542603 0
0.086864292621612549 0.98174214363098145 0
0.21253582835197449 0.9799734354019165 3.2866235414985567e-05
0.42815318703651428 0.9790911078453064 0
0.62307095527648926 0.97947186231613159 0
0.76362931728363037 0.9778977632522583 0
0.88076043128967285 0.97430497407913208 0
0.96878397464752197 0.97165566682815552 0
0.99910134077072144 0.97263437509536743 0
1 0.97517246007919312 0
1 0.97824627161026001 0
0.03280576691031456 0.029972270131111145 0.087827466428279877
0.10566322505474091 0.032382562756538391 0.085834518074989319
0.18718117475509644 0.029117869213223457 0.083633005619049072
0.27425393462181091 0.022079586982727051 0.083305984735488892
0.36781933903694153 0.016902174800634384 0.082568764686584473
0.46817094087600708 0.017304694280028343 0.079049862921237946
0.57177829742431641 0.019889608025550842 0.073779374361038208
0.67294108867645264 0.021203359588980675 0.06865423172712326
0.76608055830001831 0.019735120236873627 0.065552592277526855
0.84963482618331909 0.015944596379995346 0.059252165257930756
0.92478388547897339 0.011207445524632931 0.043346524238586426
0.98680025339126587 0.0077534397132694721 0.019839612767100334
1 0.0071934121660888195 0.0036384132690727711
0.052201755344867706 0.10985532402992249 0.10790683329105377
0.11061547696590424 0.10887819528579712 0.10591869056224823
0.18531927466392517 0.10306552052497864 0.10317013412714005
0.27161350846290588 0.094165921211242676 0.10226333886384964
0.36592891812324524 0.086551547050476074 0.10156194865703583
0.46803534030914307 0.084409512579441071 0.098448611795902252
0.57433933019638062 0.083816468715667725 0.094053573906421661
0.67793899774551392 0.080998271703720093 0.089682318270206451
0.77349132299423218 0.074589811265468597 0.084815055131912231
0.8578217625617981 0.065795227885246277 0.076413802802562714
0.92973500490188599 0.056599859148263931 0.059926170855760574
0.98604696989059448 0.049845196306705475 0.036159157752990723
1 0.048348832875490189 0.014142533764243126
0.078569851815700531 0.19126443564891815 0.13101747632026672
0.12607981264591217 0.18893133103847504 0.12837591767311096
0.19058641791343689 0.18400114774703979 0.12542432546615601
0.27345073223114014 0.17818209528923035 0.1238076463341713
0.36801302433013916 0.17143391072750092 0.12221440672874451
0.4712977409362793 0.1669003814458847 0.11922977119684219
0.57979774475097656 0.16241730749607086 0.11515107750892639
0.68575412034988403 0.15609022974967957 0.11046349257230759
0.78372251987457275 0.14629174768924713 0.10387815535068512
0.86918950080871582 0.13411159813404083 0.093481026589870453
0.93762731552124023 0.1216549426317215 0.076268531382083893
0.98537647724151611 0.11149735003709793 0.05458444356918335
0.99998027086257935 0.10719652473926544 0.031092848628759384
0.085842311382293701 0.2790394127368927 0.15507405996322632
0.12711869180202484 0.27708885073661804 0.15187065303325653
0.18654142320156097 0.27374753355979919 0.14848016202449799
0.27051502466201782 0.26945096254348755 0.14637584984302521
0.36979502439498901 0.26389041543006897 0.14432892203330994
0.47783291339874268 0.25854867696762085 0.14090834558010101
0.58875024318695068 0.25321227312088013 0.13594980537891388
0.69595175981521606 0.2464364767074585 0.12966804206371307
0.79554218053817749 0.23646864295005798 0.1213335245847702
0.88329476118087769 0.22349743545055389 0.11008977144956589
0.95049917697906494 0.20901921391487122 0.094930835068225861
0.99008232355117798 0.19554184377193451 0.073360249400138855
0.99991708993911743 0.18674696981906891 0.050640523433685303
0.065138764679431915 0.37393930554389954 0.17606040835380554
0.10325402766466141 0.37299907207489014 0.1715288907289505
0.16433589160442352 0.37066894769668579 0.16657470166683197
0.25614956021308899 0.3670826256275177 0.164751335978508
0.36772221326828003 0.36223956942558289 0.16333931684494019
0.48518219590187073 0.35674691200256348 0.16019865870475769
0.59897959232330322 0.35216736793518066 0.15420146286487579
0.70550787448883057 0.34714630246162415 0.14624154567718506
0.80524003505706787 0.33951881527900696 0.13647249341011047
0.89629584550857544 0.32821139693260193 0.1253858208656311
0.965484619140625 0.31476214528083801 0.1111442893743515
0.99752867221832275 0.30023032426834106 0.092146463692188263
1 0.28836539387702942 0.071902498602867126
0.032109174877405167 0.46986851096153259 0.19033564627170563
0.067656420171260834 0.47040918469429016 0.1831195056438446
0.13255427777767181 0.46909743547439575 0.17587293684482574
0.23764006793498993 0.46534734964370728 0.17478381097316742
0.36464440822601318 0.46097365021705627 0.17578604817390442
0.49185144901275635 0.45605924725532532 0.17402000725269318
0.60810261964797974 0.45214077830314636 0.16868139803409576
0.71247309446334839 0.44912680983543396 0.16015420854091644
0.81067699193954468 0.44460713863372803 0.1488814651966095
0.90423047542572021 0.43658283352851868 0.1383083164691925
0.97703200578689575 0.42606571316719055 0.12615647912025452
0.99994766712188721 0.41289907693862915 0.10996890813112259
1 0.39898085594177246 0.090468265116214752
0.0071560577489435673 0.55866420269012451 0.19503960013389587
0.037665229290723801 0.55988490581512451 0.18780466914176941
0.10631093382835388 0.55897164344787598 0.17948158085346222
0.22437067329883575 0.55511981248855591 0.17846333980560303
0.36562025547027588 0.55073410272598267 0.18066026270389557
0.49990025162696838 0.54663866758346558 0.18122364580631256
0.61705225706100464 0.54374086856842041 0.17881011962890625
0.71979886293411255 0.54228883981704712 0.17171913385391235
0.81677138805389404 0.53994190692901611 0.16100247204303741
0.91095465421676636 0.53459745645523071 0.14984633028507233
0.98299020528793335 0.52668827772140503 0.13761293888092041
1 0.51610070466995239 0.12192285805940628
1 0.50303566455841064 0.10230962932109833
0.00024406582815572619 0.63606321811676025 0.18928876519203186
0.02070961706340313 0.63651108741760254 0.18694840371608734
0.091590464115142822 0.63500005006790161 0.18259674310684204
0.21811816096305847 0.63129043579101562 0.18006676435470581
0.37158915400505066 0.62744706869125366 0.18013030290603638
0.51078671216964722 0.62452429533004761 0.18243589997291565
0.62800675630569458 0.6225544810295105 0.1828266829252243
0.73033875226974487 0.62132388353347778 0.17821833491325378
0.82741641998291016 0.61983960866928101 0.16904675960540771
0.92022514343261719 0.61568069458007812 0.15690372884273529
0.98727023601531982 0.60933476686477661 0.14244163036346436
1 0.60151118040084839 0.12475189566612244
0.99999904632568359 0.59166228771209717 0.10349585115909576
0 0.70402008295059204 0.17348998785018921
0.0086314035579562187 0.70287823677062988 0.17812666296958923
0.071413211524486542 0.70048540830612183 0.17937931418418884
0.20365540683269501 0.69718736410140991 0.17672111093997955
0.37103599309921265 0.69430071115493774 0.17416772246360779
0.51937782764434814 0.69222122430801392 0.17590753734111786
0.6388511061668396 0.69078642129898071 0.1766895204782486
0.74152606725692749 0.68929421901702881 0.17417347431182861
0.83966326713562012 0.68751484155654907 0.16698786616325378
0.93111616373062134 0.68393576145172119 0.15422812104225159
0.99193042516708374 0.67871665954589844 0.13693304359912872
1 0.67265021800994873 0.11677778512239456
0.99923396110534668 0.66583418846130371 0.092896647751331329
0 0.76710766553878784 0.144733726978302
0.002649838337674737 0.76439613103866577 0.15527288615703583
0.049875296652317047 0.76158982515335083 0.16176505386829376
0.18809626996517181 0.75898796319961548 0.15914143621921539
0.37081059813499451 0.7567821741104126 0.1535482257604599
0.52894484996795654 0.75529462099075317 0.15228840708732605
0.64942836761474609 0.75407934188842773 0.1524309366941452
0.75200831890106201 0.75285029411315918 0.15247805416584015
0.85182207822799683 0.75057393312454224 0.1494879275560379
0.94323050975799561 0.74753987789154053 0.13804565370082855
0.99648648500442505 0.74316734075546265 0.1184825524687767
1 0.73833769559860229 0.096681453287601471
0.99825006723403931 0.73400861024856567 0.071697935461997986
0 0.83234435319900513 0.09431852400302887
0.004747981671243906 0.82804018259048462 0.10989155620336533
0.056689631193876266 0.8256714940071106 0.1181124672293663
0.19537228345870972 0.82317060232162476 0.114190973341465
0.38342985510826111 0.8211933970451355 0.10411571711301804
0.54643696546554565 0.82033342123031616 0.099728435277938843
0.66307991743087769 0.82010167837142944 0.1008615717291832
0.7662469744682312 0.81910037994384766 0.10722427070140839
0.86962288618087769 0.81698840856552124 0.11153658479452133
0.96028000116348267 0.81438708305358887 0.10201755911111832
0.99947571754455566 0.81136977672576904 0.081256628036499023
1 0.80778324604034424 0.057173933833837509
0.9998774528503418 0.80687910318374634 0.030613364651799202
0 0.90695637464523315 0.02601776085793972
0.0067231422290205956 0.90176844596862793 0.041618764400482178
0.059644121676683426 0.90033012628555298 0.052052754908800125
0.18337005376815796 0.89761519432067871 0.050246085971593857
0.36552917957305908 0.89460408687591553 0.035253323614597321
0.54401171207427979 0.89361327886581421 0.026824172586202621
0.67062842845916748 0.89619392156600952 0.033545162528753281
0.7812885046005249 0.89489305019378662 0.045200422406196594
0.88927227258682251 0.89258372783660889 0.050651833415031433
0.97710305452346802 0.89038509130477905 0.039780724793672562
1 0.88917768001556396 0.020275235176086426
1 0.88808244466781616 0.0061304429545998573
1 0.8892098069190979 0.00052822334691882133
0 0.98516333103179932 0.0001974666811292991
0.00035813276190310717 0.98233407735824585 0.00174713134765625
0.021966762840747833 0.98164349794387817 0.0035114663187414408
0.10879220068454742 0.98008954524993896 0.0036814671475440264
0.26041889190673828 0.97916185855865479 0.0010370890377089381
0.45346164703369141 0.97876548767089844 0.00011058134259656072
0.62398898601531982 0.9793505072593689 0.00046781651326455176
0.7622605562210083 0.97859430313110352 0.0016191520262509584
0.88151425123214722 0.97645586729049683 0.0016689973417669535
0.97297185659408569 0.97500550746917725 0.00024611529079265893
0.99994552135467529 0.97488784790039062 0
1 0.97593647241592407 0
1 0.97725170850753784 0
0.028598500415682793 0.021058609709143639 0.13970789313316345
0.095776304602622986 0.025970758870244026 0.13730490207672119
0.17397134006023407 0.023849561810493469 0.13607072830200195
0.25861221551895142 0.01520061120390892 0.13617898523807526
0.35141122341156006 0.0095765357837080956 0.13484489917755127
0.45201840996742249 0.010784074664115906 0.12959845364093781
0.55482012033462524 0.014093137346208096 0.12247087061405182
0.65403813123703003 0.016317928209900856 0.11532619595527649
0.74404633045196533 0.015602994710206985 0.11038028448820114
0.82561463117599487 0.012609399855136871 0.10300932079553604
0.90334218740463257 0.0078463982790708542 0.086026944220066071
0.97455042600631714 0.0044136494398117065 0.06148841604590416
1 0.0039909961633384228 0.039373256266117096
0.046876061707735062 0.096205003559589386 0.15783880650997162
0.10155561566352844 0.097214028239250183 0.15610122680664062
0.17290332913398743 0.093119993805885315 0.15405550599098206
0.25684860348701477 0.082851484417915344 0.15361715853214264
0.35048425197601318 0.073270373046398163 0.15304158627986908
0.45253327488899231 0.071683503687381744 0.1489495187997818
0.55754846334457397 0.072298608720302582 0.14271941781044006
0.65870338678359985 0.06951490044593811 0.13631436228752136
0.75113874673843384 0.062285896390676498 0.12978832423686981
0.83366239070892334 0.052335940301418304 0.12018043547868729
0.90750730037689209 0.043287944048643112 0.10258378833532333
0.970714271068573 0.037578344345092773 0.079228915274143219
0.99980878829956055 0.037270698696374893 0.057295899838209152
0.07070218026638031 0.17956845462322235 0.1778988242149353
0.11827072501182556 0.17776606976985931 0.17555414140224457
0.18018446862697601 0.1748976856470108 0.17296525835990906
0.25984972715377808 0.1688086986541748 0.17170491814613342
0.35364595055580139 0.15998242795467377 0.1713477224111557
0.45679435133934021 0.1542581170797348 0.16844679415225983
0.56367033720016479 0.14936421811580658 0.16319993138313293
0.66689431667327881 0.14186593890190125 0.15698716044425964
0.76148933172225952 0.13003261387348175 0.14925917983055115
0.84503793716430664 0.11571731418371201 0.13789889216423035
0.91474175453186035 0.10286078602075577 0.12040017545223236
0.96767818927764893 0.093838155269622803 0.098445072770118713
0.99829649925231934 0.090593971312046051 0.076510831713676453
0.076641112565994263 0.2697397768497467 0.20032557845115662
0.11979997158050537 0.26823723316192627 0.19655801355838776
0.17795495688915253 0.26604428887367249 0.19344109296798706
0.25865879654884338 0.2617088258266449 0.19229306280612946
0.35673385858535767 0.25514096021652222 0.1910758763551712
0.46389749646186829 0.24880050122737885 0.18821728229522705
0.57354986667633057 0.24212642014026642 0.18309751152992249
0.6778215765953064 0.23355820775032043 0.17609377205371857
0.77418977022171021 0.22155329585075378 0.1673286110162735
0.85950756072998047 0.20691889524459839 0.15538769960403442
0.92779421806335449 0.19182655215263367 0.13886405527591705
0.97267872095108032 0.1779637485742569 0.11810455471277237
0.99708050489425659 0.16832628846168518 0.096032656729221344
0.057422127574682236 0.36662778258323669 0.22057232260704041
0.095553018152713776 0.36636286973953247 0.21576409041881561
0.15598292648792267 0.364349365234375 0.21159513294696808
0.24576415121555328 0.36046984791755676 0.2102668434381485
0.35618177056312561 0.35503095388412476 0.20941425859928131
0.47286060452461243 0.34933161735534668 0.20614717900753021
0.58513832092285156 0.34400913119316101 0.20066440105438232
0.6886364221572876 0.33789655566215515 0.19320803880691528
0.78505241870880127 0.32893770933151245 0.18344423174858093
0.87375509738922119 0.31712135672569275 0.17161303758621216
0.94494974613189697 0.30303576588630676 0.15692791342735291
0.98757010698318481 0.28756928443908691 0.13814964890480042
0.99971026182174683 0.2739003598690033 0.11838751286268234
0.0274631567299366 0.46374163031578064 0.23546043038368225
0.059729214757680893 0.46480819582939148 0.22924788296222687
0.12243300676345825 0.46346437931060791 0.22369040548801422
0.22470381855964661 0.45953112840652466 0.22256310284137726
0.35080796480178833 0.45455780625343323 0.22325080633163452
0.47863027453422546 0.44983258843421936 0.22102963924407959
0.59419959783554077 0.44650349020957947 0.21641696989536285
0.6963767409324646 0.44351136684417725 0.20862546563148499
