assets/lut/films negative color fuji superia 200.cube
# Created by: G'MIC (https://gmic.eu)
TITLE "fuji_superia_200"
# LUT size
LUT_3D_SIZE 13
# Data domain
DOMAIN_MIN 0.0 0.0 0.0
DOMAIN_MAX 1.0 1.0 1.0
# LUT data points
0.032023157924413681 0.031293697655200958 0.02922547236084938
0.080657958984375 0.018711330369114876 0.017214830964803696
0.13921025395393372 0.012436900287866592 0.0099260816350579262
0.21534144878387451 0.0061530917882919312 0.0007164300768636167
0.30650126934051514 0.0014966030139476061 0
0.39943176507949829 5.3675033996114507e-05 0
0.4871675968170166 0 0
0.56588280200958252 0 0
0.63060933351516724 0.00049318798119202256 0.0010478299809619784
0.67911821603775024 0.0037928861565887928 0.0049789878539741039
0.72196048498153687 0.0066138473339378834 0.0061356336809694767
0.76518452167510986 0.0044355802237987518 0.0020569595508277416
0.80694669485092163 0.0011740440968424082 3.0338062060764059e-05
0.074725374579429626 0.11350799351930618 0.055660352110862732
0.1084979921579361 0.098693132400512695 0.038477908819913864
0.16465254127979279 0.079594001173973083 0.023539254441857338
0.24530878663063049 0.05438627302646637 0.0069172428920865059
0.33793377876281738 0.035114768892526627 0.00022264367726165801
0.42938369512557983 0.020567771047353745 0
0.5143008828163147 0.0064671384170651436 0
0.58840066194534302 0.00020594877423718572 0
0.64789003133773804 0 0.0013173720799386501
0.69235235452651978 5.3854552106713527e-07 0.0049901776947081089
0.73024278879165649 6.4625460254319478e-06 0.0040888767689466476
0.76857060194015503 0 0.00021586698130704463
0.80629563331604004 0 0
0.10545860975980759 0.21725106239318848 0.096445001661777496
0.13447567820549011 0.20768493413925171 0.080267272889614105
0.19152280688285828 0.18668699264526367 0.057480216026306152
0.27710762619972229 0.15396919846534729 0.031572572886943817
0.3715912401676178 0.12300452589988708 0.010453317314386368
0.46244367957115173 0.098638333380222321 0.00089660345111042261
0.54573363065719604 0.067052982747554779 1.077091019396903e-05
0.61789047718048096 0.028686793521046638 0
0.67499071359634399 0.0084522916004061699 0.001215078285895288
0.71720314025878906 0.00092264811974018812 0.0020433464087545872
0.75057268142700195 0 0.00033410763717256486
0.78135061264038086 0 0
0.81277883052825928 0 0
0.10431107133626938 0.34186047315597534 0.13816685974597931
0.14972719550132751 0.33360511064529419 0.12348504364490509
0.22122007608413696 0.3128180205821991 0.095669828355312347
0.31308037042617798 0.28309133648872375 0.062743678689002991
0.40758663415908813 0.25454011559486389 0.03254229947924614
0.49826985597610474 0.22787095606327057 0.0095431311056017876
0.58303260803222656 0.18988113105297089 0.0014129638439044356
0.65744692087173462 0.14482681453227997 0.00020805807434953749
0.71511894464492798 0.10278920084238052 0.0002749274717643857
0.75513607263565063 0.055995043367147446 0.00037801405414938927
0.78470760583877563 0.021258844062685966 0
0.80821353197097778 0.0033480026759207249 0
0.83268314599990845 0 0
0.1136743575334549 0.46356895565986633 0.16537214815616608
0.17650847136974335 0.45516425371170044 0.14958561956882477
0.25936686992645264 0.4380127489566803 0.12314529716968536
0.35410481691360474 0.41560262441635132 0.091113433241844177
0.44748973846435547 0.3937726616859436 0.059214439243078232
0.53717344999313354 0.36913469433784485 0.030333993956446648
0.62368935346603394 0.33426177501678467 0.011457270942628384
0.70064765214920044 0.2996273934841156 0.0051204455085098743
0.76031875610351562 0.25935512781143188 0.0049678278155624866
0.80127429962158203 0.20225933194160461 0.0032429713755846024
0.83087289333343506 0.14953465759754181 0.00062607409199699759
0.85178565979003906 0.091038048267364502 0.00013535443576984107
0.86911994218826294 0.033599000424146652 0.0017964082071557641
0.16524378955364227 0.5702211856842041 0.1702176034450531
0.22855596244335175 0.56396913528442383 0.15807302296161652
0.30967634916305542 0.55134397745132446 0.13828276097774506
0.39922431111335754 0.53551030158996582 0.11363688111305237
0.48844814300537109 0.51797962188720703 0.087752170860767365
0.57639580965042114 0.4948335587978363 0.060396604239940643
0.66207784414291382 0.46528038382530212 0.035767573863267899
0.73822420835494995 0.43920677900314331 0.023159550502896309
0.79909271001815796 0.40960973501205444 0.01894613541662693
0.84478813409805298 0.36977973580360413 0.016082718968391418
0.87945848703384399 0.32677155733108521 0.012135823257267475
0.90451675653457642 0.27027708292007446 0.014461682178080082
0.92358887195587158 0.20380854606628418 0.026689087972044945
0.25024160742759705 0.66037476062774658 0.15776929259300232
0.30343875288963318 0.65640592575073242 0.1510695219039917
0.37213194370269775 0.64763540029525757 0.13883605599403381
0.45041343569755554 0.63621598482131958 0.12269461899995804
0.5324329137802124 0.62234097719192505 0.10484956949949265
0.61562651395797729 0.60315215587615967 0.083401821553707123
0.69739556312561035 0.57957959175109863 0.059583224356174469
0.7708585262298584 0.55812513828277588 0.044152621179819107
0.83172321319580078 0.5369916558265686 0.037696808576583862
0.88032227754592896 0.51289808750152588 0.036407127976417542
0.9192926287651062 0.48453104496002197 0.038744173943996429
0.95071429014205933 0.44535791873931885 0.047988608479499817
0.97632521390914917 0.39796668291091919 0.061980977654457092
0.34275898337364197 0.73468309640884399 0.13554656505584717
0.38679865002632141 0.73201745748519897 0.13072054088115692
0.44284763932228088 0.7256852388381958 0.12155216932296753
0.51000702381134033 0.71661388874053955 0.11036232113838196
0.58387446403503418 0.70509159564971924 0.09793294221162796
0.66035950183868408 0.68947172164916992 0.082370191812515259
0.73538964986801147 0.67073738574981689 0.064790062606334686
0.80345559120178223 0.65302520990371704 0.05277334526181221
0.86141836643218994 0.63644558191299438 0.049096964299678802
0.90932142734527588 0.61849135160446167 0.052952457219362259
0.94896769523620605 0.59662324190139771 0.062399934977293015
0.98291361331939697 0.57090973854064941 0.075124479830265045
0.99908369779586792 0.53677374124526978 0.088872544467449188
0.43417149782180786 0.79649358987808228 0.1008671447634697
0.4705900251865387 0.79407095909118652 0.094528838992118835
0.51704663038253784 0.78874200582504272 0.085928641259670258
0.5747864842414856 0.78092384338378906 0.077897600829601288
0.64112567901611328 0.77020061016082764 0.069678120315074921
0.7102731466293335 0.75671201944351196 0.059780631214380264
0.77719604969024658 0.74172681570053101 0.049567442387342453
0.83842158317565918 0.72670507431030273 0.043369818478822708
0.89164412021636963 0.71179085969924927 0.045684844255447388
0.9364432692527771 0.69651508331298828 0.056057456880807877
0.97455030679702759 0.67971211671829224 0.070293113589286804
0.99824380874633789 0.66118037700653076 0.084765203297138214
1 0.63497519493103027 0.099861383438110352
0.52259963750839233 0.84994041919708252 0.049011364579200745
0.55263888835906982 0.84736424684524536 0.041718099266290665
0.59092003107070923 0.84234589338302612 0.035842448472976685
0.64060711860656738 0.83522027730941772 0.03525969386100769
0.69942408800125122 0.82535779476165771 0.034331962466239929
0.76172524690628052 0.81356430053710938 0.031237524002790451
0.82176637649536133 0.80045533180236816 0.026603983715176582
0.87679785490036011 0.78696358203887939 0.023902054876089096
0.9247429370880127 0.77305328845977783 0.029208224266767502
0.96524661779403687 0.75977540016174316 0.042062424123287201
0.99478012323379517 0.74682402610778809 0.057460993528366089
1 0.73276472091674805 0.073709107935428619
1 0.71308422088623047 0.09168369323015213
0.60888946056365967 0.90002429485321045 0.0034070333931595087
0.63366454839706421 0.89712351560592651 0.0014472812181338668
0.66448056697845459 0.89260721206665039 0.00095068238442763686
0.70550072193145752 0.88617295026779175 0.0042968452908098698
0.75667393207550049 0.87731492519378662 0.010034957900643349
0.81302714347839355 0.86626702547073364 0.012078693136572838
0.868324875831604 0.85421895980834961 0.011805066838860512
0.91838377714157104 0.84174305200576782 0.00832341518253088
0.96100807189941406 0.82942295074462891 0.0079399561509490013
0.9925457239151001 0.81844431161880493 0.013625918887555599
0.99998205900192261 0.80879354476928711 0.023789754137396812
1 0.79783827066421509 0.039459303021430969
1 0.78258532285690308 0.062161974608898163
0.69614690542221069 0.94966065883636475 0
0.71601384878158569 0.94688516855239868 0
0.73904746770858765 0.94307541847229004 0
0.77028536796569824 0.93772387504577637 0.00089283363195136189
0.81401360034942627 0.9298054575920105 0.0062158023938536644
0.86624264717102051 0.91947454214096069 0.0066730123944580555
0.91819900274276733 0.90791493654251099 0.0064668692648410797
0.96378058195114136 0.89695119857788086 0.0022629082668572664
0.99407821893692017 0.88722819089889526 1.7113779904320836e-05
0.99998223781585693 0.87877881526947021 5.9240005612082314e-06
1 0.87108230590820312 0.00036504407762549818
1 0.86218857765197754 0.0032553728669881821
1 0.85001540184020996 0.017167288810014725
0.78414052724838257 0.99403572082519531 0
0.79992884397506714 0.99270367622375488 0
0.81695300340652466 0.99091660976409912 0
0.8397526741027832 0.98823773860931396 0.00013885498628951609
0.87607049942016602 0.98325115442276001 0.0015042623272165656
0.92411690950393677 0.97498029470443726 0.00064215564634650946
0.97108936309814453 0.96509468555450439 0.00028471104451455176
0.99728763103485107 0.95596176385879517 1.6335879990947433e-05
1 0.94841891527175903 0
1 0.94184225797653198 0
1 0.93551939725875854 0
1 0.9279026985168457 0
1 0.9179038405418396 0.00011201746383449063
0.021189251914620399 0.032151106745004654 0.087022669613361359
0.069576680660247803 0.018501326441764832 0.069091498851776123
0.13405561447143555 0.0086141098290681839 0.047418273985385895
0.21340031921863556 0.0038307488430291414 0.015894541516900063
0.30222043395042419 0.0018044266616925597 0.0008901708060875535
0.3905886709690094 0.00010088752605952322 0
0.47359296679496765 0 0
0.54769158363342285 0 0
0.60922414064407349 0.00092297722585499287 0
0.65770000219345093 0.007741980254650116 6.5672629716573283e-06
0.69961374998092651 0.014883916825056076 3.7967456592014059e-05
0.74113363027572632 0.011559265665709972 0
0.78142482042312622 0.0051615545526146889 0
0.065093517303466797 0.11212213337421417 0.11493439227342606
0.10254575312137604 0.096065729856491089 0.096342138946056366
0.1606438010931015 0.075424522161483765 0.072845548391342163
0.24381555616855621 0.050968125462532043 0.039313506335020065
0.33447179198265076 0.034368298947811127 0.012003566138446331
0.42127206921577454 0.018851455301046371 0.0027049344498664141
0.50107163190841675 0.004269962664693594 0.00039427515002898872
0.57079929113388062 1.2670779142354149e-05 0
0.6272396445274353 0 0
0.67044699192047119 5.3734871471533552e-05 7.0459700509672984e-06
0.70744025707244873 0.00060891546308994293 2.1736294002039358e-05
0.74389618635177612 2.4040073185460642e-05 0
0.78009045124053955 0 0
0.10007078945636749 0.21641002595424652 0.15333689749240875
0.1348712146282196 0.20384795963764191 0.13529223203659058
0.19107680022716522 0.18429353833198547 0.10771778970956802
0.27655449509620667 0.15303495526313782 0.071720495820045471
0.3692207932472229 0.12372338026762009 0.039423968642950058
0.4551236629486084 0.095975272357463837 0.019886495545506477
0.53376984596252441 0.061585757881402969 0.0089993793517351151
0.6025165319442749 0.025955155491828918 0.0025213651824742556
0.65694576501846313 0.0099642584100365639 0.00021905338508076966
0.69789940118789673 0.0029794580768793821 0
0.72932404279708862 9.3198286776896566e-05 0
0.75814723968505859 0 0
0.78795915842056274 0 0
0.105213463306427 0.34228602051734924 0.19291345775127411
0.15238136053085327 0.33133754134178162 0.17555901408195496
0.22275152802467346 0.31190609931945801 0.14635945856571198
0.31345897912979126 0.28392785787582397 0.10952521115541458
0.40581610798835754 0.25574555993080139 0.075258873403072357
0.49173596501350403 0.22669306397438049 0.048462361097335815
0.57248592376708984 0.1870754063129425 0.028391221538186073
0.64389759302139282 0.1431160569190979 0.013807454146444798
0.69947642087936401 0.10455907136201859 0.0071690427139401436
0.73881417512893677 0.067092522978782654 0.0052880081348121166
0.76731359958648682 0.033331435173749924 0.0016431621043011546
0.78907907009124756 0.0084032099694013596 5.1835002523148432e-05
0.81170308589935303 0.00011632582754828036 0
0.11607537418603897 0.46521559357643127 0.22186994552612305
0.175874263048172 0.45628932118415833 0.2058173269033432
0.25836929678916931 0.43980011343955994 0.1788998544216156
0.35400566458702087 0.41826549172401428 0.14568395912647247
0.44479328393936157 0.3959563672542572 0.11352407187223434
0.5304490327835083 0.37076348066329956 0.08343932032585144
0.6138383150100708 0.33466383814811707 0.056453973054885864
0.68819314241409302 0.29831686615943909 0.036559879779815674
0.74584472179412842 0.25741732120513916 0.028175594285130501
0.78695976734161377 0.20839019119739532 0.02534891851246357
0.81684929132461548 0.16209745407104492 0.016919424757361412
0.83784991502761841 0.10859295725822449 0.0097757074981927872
0.85472387075424194 0.049429889768362045 0.012268934398889542
0.16343925893306732 0.57425570487976074 0.23198133707046509
0.22337017953395844 0.56788736581802368 0.22009268403053284
0.30367359519004822 0.55557960271835327 0.19996772706508636
0.39418387413024902 0.5395200252532959 0.17483237385749817
0.48197871446609497 0.52115535736083984 0.14886161684989929
0.56789791584014893 0.49749210476875305 0.12077344954013824
0.65186524391174316 0.46728157997131348 0.092279978096485138
0.72626572847366333 0.43988493084907532 0.071222253143787384
0.78580480813980103 0.40989109873771667 0.060919038951396942
0.83078962564468384 0.37276294827461243 0.055829606950283051
0.86628097295761108 0.3334597647190094 0.050926625728607178
0.89217323064804077 0.28072050213813782 0.050510019063949585
0.9108167290687561 0.21202345192432404 0.061345238238573074
0.2436433881521225 0.66627645492553711 0.22542083263397217
0.29351520538330078 0.66188156604766846 0.21893322467803955
0.36094844341278076 0.65266627073287964 0.20562587678432465
0.43967986106872559 0.64059770107269287 0.18745514750480652
0.52169442176818848 0.62557876110076904 0.1676865816116333
0.60473465919494629 0.60537320375442505 0.1444016695022583
0.68592804670333862 0.58203423023223877 0.11992640793323517
0.75824868679046631 0.56112456321716309 0.10097745805978775
0.81812888383865356 0.54002690315246582 0.091048955917358398
0.86601990461349487 0.51540154218673706 0.088620193302631378
0.90474188327789307 0.48467868566513062 0.091391108930110931
0.9364544153213501 0.44663947820663452 0.099483847618103027
0.96182107925415039 0.39706552028656006 0.11206961423158646
0.33156991004943848 0.74020808935165405 0.21086159348487854
0.37320396304130554 0.73701292276382446 0.20391014218330383
0.4288145899772644 0.72993558645248413 0.19060184061527252
0.49635040760040283 0.72012370824813843 0.17409390211105347
0.57091909646987915 0.7072901725769043 0.15765570104122162
0.64771497249603271 0.6903001070022583 0.13971124589443207
0.72216176986694336 0.67254793643951416 0.12269448488950729
0.78937160968780518 0.65607589483261108 0.11056908965110779
0.84665405750274658 0.64006978273391724 0.10657008737325668
0.89429527521133423 0.62136107683181763 0.11098294705152512
0.93387138843536377 0.59792995452880859 0.12142685800790787
0.96870982646942139 0.57309198379516602 0.13442434370517731
0.99401074647903442 0.54021340608596802 0.14796119928359985
0.4194539487361908 0.79970455169677734 0.1820342093706131
0.4547421932220459 0.79685103893280029 0.16984136402606964
0.50126326084136963 0.79098594188690186 0.15137052536010742
0.56022089719772339 0.78230071067810059 0.13408814370632172
0.62792456150054932 0.77105319499969482 0.11862854659557343
0.69717264175415039 0.75704747438430786 0.10581277310848236
0.76290905475616455 0.7427862286567688 0.096877440810203552
0.82279306650161743 0.72892123460769653 0.09344126284122467
0.87526464462280273 0.71536266803741455 0.10001660883426666
0.92039787769317627 0.70012938976287842 0.11468441784381866
0.95954054594039917 0.68304085731506348 0.13089972734451294
0.99153178930282593 0.66491961479187012 0.1473306268453598
0.99996554851531982 0.63990533351898193 0.16375505924224854
0.50773632526397705 0.85086452960968018 0.12722572684288025
0.53711152076721191 0.84747809171676636 0.10764706134796143
0.57615333795547485 0.84230190515518188 0.084710031747817993
0.62719261646270752 0.8349946141242981 0.071416176855564117
0.68769669532775879 0.82481014728546143 0.061029665172100067
0.74918103218078613 0.81302827596664429 0.055089868605136871
0.80676949024200439 0.80097270011901855 0.052485223859548569
0.85971987247467041 0.78883707523345947 0.054130807518959045
0.90660375356674194 0.77622145414352417 0.073544822633266449
0.9478142261505127 0.76338309049606323 0.098193258047103882
0.9833451509475708 0.75018507242202759 0.11819127202033997
0.99955272674560547 0.73593604564666748 0.13669988512992859
1 0.71688258647918701 0.15829169750213623
0.59696507453918457 0.89861553907394409 0.047861617058515549
0.62117213010787964 0.89521318674087524 0.028932308778166771
0.65292453765869141 0.89050239324569702 0.013176293112337589
0.6962580680847168 0.88432079553604126 0.010390801355242729
0.7485467791557312 0.8757585883140564 0.0070811850018799305
0.80268013477325439 0.86542242765426636 0.0081779332831501961
0.85372179746627808 0.85472148656845093 0.012022265233099461
0.90067100524902344 0.84368354082107544 0.016626529395580292
0.94147276878356934 0.83218061923980713 0.037523649632930756
0.97715061902999878 0.821311354637146 0.060539785772562027
0.99794340133666992 0.81103527545928955 0.079148776829242706
1 0.79994827508926392 0.10008586943149567
1 0.78539580106735229 0.12909002602100372
0.6903536319732666 0.94649070501327515 0.0012595083098858595
0.70975965261459351 0.94360899925231934 0.00019730212807189673
0.73466974496841431 0.94007158279418945 0
0.76905673742294312 0.9351661205291748 0
0.81285804510116577 0.92789727449417114 0
0.8602595329284668 0.91875672340393066 0
0.90586245059967041 0.90874552726745605 0.00012670778960455209
0.94760298728942871 0.89885181188583374 0.00092905084602534771
0.98169010877609253 0.88951569795608521 0.0039665522053837776
0.99814057350158691 0.88104742765426636 0.0087895262986421585
1 0.87302076816558838 0.016084767878055573
1 0.86421281099319458 0.034711215645074844
1 0.85235351324081421 0.073235698044300079
0.78478538990020752 0.99177652597427368 0
0.80094832181930542 0.99045610427856445 0
0.82007265090942383 0.98896294832229614 0
0.8465685248374939 0.98662203550338745 0
0.88212227821350098 0.9819035530090332 0
0.92303693294525146 0.97501099109649658 0
0.96352404356002808 0.96653872728347778 0
0.99214094877243042 0.95817661285400391 0
0.99979782104492188 0.95092988014221191 0
1 0.94435524940490723 0
1 0.93803262710571289 0
1 0.93062394857406616 0.00042072372161783278
1 0.92064547538757324 0.012278478592634201
0.014437282457947731 0.033813923597335815 0.16042532026767731
0.058449897915124893 0.02204081229865551 0.14176571369171143
0.12408871948719025 0.0096417441964149475 0.1170380562543869
0.20634546875953674 0.003555103437975049 0.078260026872158051
0.29276973009109497 0.0033079260028898716 0.040887840092182159
0.37705937027931213 0.00026708864606916904 0.017892785370349884
0.45631352066993713 0 0.0049591362476348877
0.52727252244949341 0 0.00068612192990258336
0.58835458755493164 0.00080143049126490951 0
0.63948529958724976 0.0052716424688696861 0
0.68230032920837402 0.012004882097244263 0
0.72070819139480591 0.015174791216850281 0.00071629544254392385
0.75805914402008057 0.011424524709582329 0.0042546740733087063
0.054479457437992096 0.11201950907707214 0.18950097262859344
0.094661012291908264 0.096472717821598053 0.17218595743179321
0.15596054494380951 0.073191985487937927 0.14843505620956421
0.23819786310195923 0.049915134906768799 0.11156981438398361
0.32472872734069824 0.034555830061435699 0.072504468262195587
0.40680599212646484 0.017560113221406937 0.044935848563909531
0.48293691873550415 0.004021079745143652 0.024029077962040901
0.55046206712722778 9.5113115094136447e-05 0.0085093928501009941
0.6066136360168457 0 0.00094589532818645239
0.65215212106704712 8.9308796304976568e-06 0.00029231052030809224
0.68946772813796997 0.0002909791364800185 0.00041153852362185717
0.72301435470581055 0.00033787745633162558 0.00046165316598489881
0.75663238763809204 0.00014400108193513006 0.00087090284796431661
0.086154237389564514 0.21796569228172302 0.22566090524196625
0.12625719606876373 0.20304040610790253 0.20883062481880188
0.18626022338867188 0.18205654621124268 0.18259157240390778
0.26995614171028137 0.15210197865962982 0.14514592289924622
0.35903719067573547 0.12250176072120667 0.10695133358240128
0.44051256775856018 0.092158116400241852 0.079916901886463165
0.51610207557678223 0.059003852307796478 0.056698024272918701
0.58315074443817139 0.032024070620536804 0.032514594495296478
0.63684451580047607 0.017718849703669548 0.013867920264601707
0.67888760566711426 0.0059056300669908524 0.0092666177079081535
0.71064883470535278 0.00028153962921351194 0.006640999112278223
0.73725885152816772 0 0.002236594446003437
0.76506441831588745 0 0.00090759876184165478
0.091775469481945038 0.34411174058914185 0.26382920145988464
0.14196839928627014 0.33043044805526733 0.24740590155124664
0.21430176496505737 0.31120303273200989 0.2207769900560379
0.30441358685493469 0.28471320867538452 0.18599800765514374
0.39536342024803162 0.25582784414291382 0.15117976069450378
0.47834658622741699 0.22380921244621277 0.12160361558198929
0.55591374635696411 0.18387298285961151 0.093855611979961395
0.62526458501815796 0.14478974044322968 0.065350629389286041
0.68015319108963013 0.10802959650754929 0.047376938164234161
0.71995800733566284 0.069161929190158844 0.040292449295520782
0.74833005666732788 0.035589687526226044 0.029584398493170738
0.76898419857025146 0.011137629859149456 0.015569694340229034
0.79064995050430298 0.00058073154650628567 0.0084695704281330109
0.10045076161623001 0.46485793590545654 0.2962287962436676
0.16097316145896912 0.45591083168983459 0.28126245737075806
0.24515518546104431 0.44092151522636414 0.25709813833236694
0.34111493825912476 0.42074394226074219 0.22759519517421722
0.43205216526985168 0.39792916178703308 0.19782264530658722
0.51692527532577515 0.37038636207580566 0.16836762428283691
0.59783673286437988 0.33369696140289307 0.13853789865970612
0.66940855979919434 0.29609227180480957 0.10770051181316376
0.72600424289703369 0.25367254018783569 0.089144885540008545
0.76772582530975342 0.20549069344997406 0.081197164952754974
0.79789060354232788 0.15963022410869598 0.070713132619857788
0.81920731067657471 0.10817652940750122 0.058437947183847427
0.83664441108703613 0.052014250308275223 0.053434766829013824
0.14301395416259766 0.57448828220367432 0.31360483169555664
0.20326447486877441 0.56903350353240967 0.30255845189094543
0.28560706973075867 0.55781394243240356 0.28419780731201172
0.37707400321960449 0.54271268844604492 0.26120656728744507
0.46579781174659729 0.52409142255783081 0.23802922666072845
0.55168873071670532 0.49954321980476379 0.21159146726131439
0.63454645872116089 0.46942529082298279 0.18368139863014221
0.70720875263214111 0.44047316908836365 0.1554405689239502
0.76577681303024292 0.40901938080787659 0.13591881096363068
0.81121349334716797 0.37164047360420227 0.12666976451873779
0.84714871644973755 0.33167782425880432 0.12146033346652985
0.87379616498947144 0.27734386920928955 0.12008873373270035
0.8939204216003418 0.20567823946475983 0.12474827468395233
0.21768268942832947 0.66858416795730591 0.31705015897750854
0.26938965916633606 0.66428834199905396 0.31013470888137817
0.33930540084838867 0.65556925535202026 0.29608392715454102
