assets/lut/films colorslide fuji astia 100 generic.cube
# Created by: G'MIC (https://gmic.eu)
TITLE "fuji_astia_100_generic"
# LUT size
LUT_3D_SIZE 7
# Data domain
DOMAIN_MIN 0.0 0.0 0.0
DOMAIN_MAX 1.0 1.0 1.0
# LUT data points
0.038739703595638275 0.034614711999893188 0.032933298498392105
0.16552524268627167 0.030534496530890465 0.023871807381510735
0.33703839778900146 0.027228396385908127 0.015011611394584179
0.5153234601020813 0.022083103656768799 0.010124326683580875
0.68322443962097168 0.017069857567548752 0.0068608899600803852
0.84010958671569824 0.016718471422791481 0.0026241077575832605
0.98287475109100342 0.016409017145633698 2.5850184101727791e-05
0.091020338237285614 0.16895323991775513 0.046283107250928879
0.16608160734176636 0.16771979629993439 0.04311516135931015
0.33991712331771851 0.16695697605609894 0.036879148334264755
0.52145302295684814 0.16543188691139221 0.027172043919563293
0.690193772315979 0.16153347492218018 0.019429480656981468
0.84894818067550659 0.16259753704071045 0.012857130728662014
0.98724275827407837 0.16568627953529358 0.005201422143727541
0.054532337933778763 0.3427586555480957 0.059831071645021439
0.15025506913661957 0.34557858109474182 0.06061776727437973
0.34410494565963745 0.34567111730575562 0.058236666023731232
0.52387875318527222 0.34320530295372009 0.048241797834634781
0.69175523519515991 0.33794292807579041 0.04256795346736908
0.85017228126525879 0.33557111024856567 0.036749761551618576
0.98770678043365479 0.33443659543991089 0.020174497738480568
0.025397282093763351 0.52395844459533691 0.071704521775245667
0.1437552273273468 0.52658456563949585 0.082117192447185516
0.33442363142967224 0.52500247955322266 0.072133146226406097
0.51884728670120239 0.52338331937789917 0.064010098576545715
0.68801242113113403 0.52170759439468384 0.070866569876670837
0.84526866674423218 0.5193524956703186 0.06806684285402298
0.98436039686203003 0.51256942749023438 0.036449283361434937
0.035168293863534927 0.69064176082611084 0.064946837723255157
0.14434435963630676 0.69166666269302368 0.093010097742080688
0.32992440462112427 0.68838983774185181 0.069904088973999023
0.51711392402648926 0.68747943639755249 0.059266574680805206
0.68525463342666626 0.68763434886932373 0.07370159775018692
0.8376309871673584 0.68739330768585205 0.068025104701519012
0.97737312316894531 0.68090337514877319 0.033013675361871719
0.077998638153076172 0.83987700939178467 0.039323650300502777
0.20364494621753693 0.83638894557952881 0.043410476297140121
0.35953962802886963 0.83790022134780884 0.059502322226762772
0.53037422895431519 0.83406543731689453 0.03981514647603035
0.69083845615386963 0.83119279146194458 0.022336188703775406
0.83165663480758667 0.83544790744781494 0.04090455174446106
0.97331124544143677 0.83313572406768799 0.03704008087515831
0.1234065368771553 0.98241221904754639 0.050038866698741913
0.25460144877433777 0.98161762952804565 0.05829886719584465
0.39481052756309509 0.98378735780715942 0.084027834236621857
0.54553496837615967 0.98008549213409424 0.052872557193040848
0.69048476219177246 0.97836428880691528 0.026719950139522552
0.82279378175735474 0.98161762952804565 0.052734777331352234
0.96930390596389771 0.97983956336975098 0.05981915071606636
0.031768441200256348 0.033737257122993469 0.16766388714313507
0.16060921549797058 0.032646253705024719 0.16031749546527863
0.33757922053337097 0.031819704920053482 0.14854714274406433
0.51917040348052979 0.025393212214112282 0.14393085241317749
0.68915587663650513 0.021346103399991989 0.14136897027492523
0.84627199172973633 0.022443719208240509 0.13271263241767883
0.98474341630935669 0.021023664623498917 0.11352052539587021
0.088405027985572815 0.16580882668495178 0.1698421835899353
0.1675388365983963 0.1654433012008667 0.16591286659240723
0.34152209758758545 0.16380895674228668 0.16040568053722382
0.52348506450653076 0.16406166553497314 0.15286032855510712
0.69326013326644897 0.16351200640201569 0.14788433909416199
0.84988772869110107 0.16775137186050415 0.14234118163585663
0.98688089847564697 0.1658368855714798 0.13453072309494019
0.052028685808181763 0.34722548723220825 0.17990770936012268
0.15269869565963745 0.3466438353061676 0.17633832991123199
0.35010102391242981 0.34626287221908569 0.16750495135784149
0.52541297674179077 0.34260427951812744 0.15821667015552521
0.69247376918792725 0.3417474627494812 0.15238669514656067
0.84865832328796387 0.34153079986572266 0.14856792986392975
0.98591035604476929 0.33436906337738037 0.14973269402980804
0.023998754099011421 0.52873164415359497 0.19056001305580139
0.15515223145484924 0.52918976545333862 0.18803934752941132
0.3487389087677002 0.52740716934204102 0.17532238364219666
0.52563345432281494 0.525748610496521 0.16744917631149292
0.68993192911148071 0.52458709478378296 0.1635848730802536
0.84324061870574951 0.52198755741119385 0.16790741682052612
0.98176771402359009 0.51370030641555786 0.156394362449646
0.034419428557157516 0.69259333610534668 0.1887662410736084
0.16467638313770294 0.69166666269302368 0.18659089505672455
0.34633651375770569 0.69166666269302368 0.17215102910995483
0.52332359552383423 0.69028586149215698 0.1727021187543869
0.68774509429931641 0.68774509429931641 0.16247415542602539
0.83645755052566528 0.68772011995315552 0.16672863066196442
0.97391813993453979 0.68289279937744141 0.14113911986351013
0.066723689436912537 0.84098494052886963 0.19148951768875122
0.20117506384849548 0.83866828680038452 0.18250788748264313
0.36477068066596985 0.83942019939422607 0.18401855230331421
0.53138524293899536 0.83760672807693481 0.17716041207313538
0.68827444314956665 0.83511257171630859 0.16207349300384521
0.83288657665252686 0.8355371356010437 0.16895917057991028
0.97653090953826904 0.8311275839805603 0.16642077267169952
0.11804010719060898 0.98192805051803589 0.2077135443687439
0.25050035119056702 0.98099255561828613 0.20387601852416992
0.39622575044631958 0.98161762952804565 0.2089034765958786
0.54504549503326416 0.98111641407012939 0.19448179006576538
0.68813294172286987 0.97928041219711304 0.18109168112277985
0.82638680934906006 0.98148351907730103 0.19555211067199707
0.97375345230102539 0.97748470306396484 0.20426139235496521
0.032069876790046692 0.033147804439067841 0.33981239795684814
0.15891227126121521 0.033330220729112625 0.33194106817245483
0.32864418625831604 0.032411135733127594 0.32184979319572449
0.51430219411849976 0.026997270062565804 0.31404143571853638
0.6904178261756897 0.024203551933169365 0.3108983039855957
0.85138225555419922 0.02372538298368454 0.30551278591156006
0.98745399713516235 0.01759655587375164 0.2856161892414093
0.089942634105682373 0.16606669127941132 0.34596672654151917
0.17209817469120026 0.16646429896354675 0.34052065014839172
0.33832967281341553 0.16593392193317413 0.33156031370162964
0.52255624532699585 0.16912457346916199 0.32316139340400696
0.69429367780685425 0.16937603056430817 0.31777670979499817
0.85035204887390137 0.16783811151981354 0.31208795309066772
0.98614984750747681 0.15994332730770111 0.30419677495956421
0.063899591565132141 0.34433791041374207 0.34824216365814209
0.15719011425971985 0.34566235542297363 0.35002648830413818
0.34398743510246277 0.34271150827407837 0.34260106086730957
0.52550655603408813 0.34206202626228333 0.33732512593269348
0.69143402576446533 0.34107288718223572 0.32751274108886719
0.84598261117935181 0.33959236741065979 0.31720274686813354
0.98444944620132446 0.32998695969581604 0.31653386354446411
0.024170715361833572 0.52597677707672119 0.35649582743644714
0.15780428051948547 0.52602428197860718 0.36123207211494446
0.34550321102142334 0.52675700187683105 0.35317334532737732
0.52347290515899658 0.52571189403533936 0.34802091121673584
0.68726587295532227 0.52289652824401855 0.34110790491104126
0.84157437086105347 0.5196540355682373 0.3341648280620575
0.98157459497451782 0.51109492778778076 0.32874614000320435
0.02373078279197216 0.69163399934768677 0.36658301949501038
0.16500435769557953 0.69166666269302368 0.36226466298103333
0.34650698304176331 0.69221723079681396 0.35602876543998718
0.52120006084442139 0.691730797290802 0.36052927374839783
0.68409627676010132 0.68837064504623413 0.34621265530586243
0.83622473478317261 0.68483549356460571 0.33744919300079346
0.97665488719940186 0.67944371700286865 0.32517749071121216
0.056647807359695435 0.84026753902435303 0.38505145907402039
0.19557304680347443 0.84044116735458374 0.37415173649787903
0.36331751942634583 0.8413928747177124 0.36531397700309753
0.5283387303352356 0.8405722975730896 0.3641907274723053
0.68384039402008057 0.8375365138053894 0.35180479288101196
0.83127248287200928 0.83470940589904785 0.34552592039108276
0.97563022375106812 0.83025389909744263 0.33922293782234192
0.12087009102106094 0.98024266958236694 0.39186012744903564
0.249433234333992 0.98013246059417725 0.3865986168384552
0.39475750923156738 0.98098039627075195 0.37912759184837341
0.54254353046417236 0.98158806562423706 0.37113124132156372
0.68419170379638672 0.98161762952804565 0.36434122920036316
0.82210659980773926 0.98161762952804565 0.36756730079650879
0.9709581732749939 0.97805678844451904 0.36765381693840027
0.049692954868078232 0.026738425716757774 0.51434427499771118
0.16911952197551727 0.030203366652131081 0.5112038254737854
0.32799649238586426 0.02927715890109539 0.50197595357894897
0.51125943660736084 0.023029999807476997 0.49105441570281982
0.68813431262969971 0.019324492663145065 0.48399156332015991
0.84985470771789551 0.016374789178371429 0.47513934969902039
0.9887162446975708 0.011969293467700481 0.45787891745567322
0.090291313827037811 0.16572271287441254 0.52355730533599854
0.17669714987277985 0.16641588509082794 0.51854944229125977
0.34144362807273865 0.16458851099014282 0.50975185632705688
0.52301144599914551 0.16468606889247894 0.50217622518539429
0.6940118670463562 0.16323171555995941 0.49619093537330627
0.85040795803070068 0.16099382936954498 0.48876619338989258
0.98776918649673462 0.15645419061183929 0.47634768486022949
0.039026714861392975 0.34214270114898682 0.52671188116073608
0.14186869561672211 0.34429901838302612 0.52613580226898193
0.34350243210792542 0.34141802787780762 0.51904010772705078
0.52754682302474976 0.33971652388572693 0.51302164793014526
0.69302225112915039 0.33648243546485901 0.50786709785461426
0.84686315059661865 0.33483389019966125 0.49917170405387878
0.98489528894424438 0.33064544200897217 0.48975437879562378
0.0077604707330465317 0.52308034896850586 0.53279298543930054
0.14247819781303406 0.52321213483810425 0.53559654951095581
0.34212327003479004 0.52586632966995239 0.52924567461013794
0.5227893590927124 0.5256081223487854 0.52386009693145752
0.68818205595016479 0.52132123708724976 0.5186576247215271
0.84132450819015503 0.52097147703170776 0.50941890478134155
0.98059672117233276 0.51558130979537964 0.50078678131103516
0.013878078199923038 0.69087660312652588 0.54080986976623535
0.15977109968662262 0.69128310680389404 0.53897643089294434
0.34617596864700317 0.69172149896621704 0.53454780578613281
0.52256888151168823 0.69166666269302368 0.53405237197875977
0.68703418970108032 0.68811827898025513 0.52676784992218018
0.83604812622070312 0.68761885166168213 0.51819157600402832
0.97513711452484131 0.68289107084274292 0.50744998455047607
0.073208875954151154 0.83807730674743652 0.55270463228225708
0.20495462417602539 0.83947908878326416 0.54900223016738892
0.36729297041893005 0.83978128433227539 0.54276376962661743
0.53065431118011475 0.83940970897674561 0.53979480266571045
0.68766766786575317 0.83618909120559692 0.53294026851654053
0.83371573686599731 0.83241349458694458 0.52634334564208984
0.97307127714157104 0.83237761259078979 0.5173642635345459
0.14807967841625214 0.97643226385116577 0.56120127439498901
0.26543429493904114 0.97686159610748291 0.55965739488601685
0.40067777037620544 0.97787511348724365 0.55292981863021851
0.54458987712860107 0.9793359637260437 0.54554504156112671
0.68740594387054443 0.97874480485916138 0.5400310754776001
0.82647299766540527 0.9784926176071167 0.53823727369308472
0.97052407264709473 0.97796541452407837 0.53285926580429077
0.044274304062128067 0.02268664725124836 0.67433416843414307
0.17430670559406281 0.022899927571415901 0.67337751388549805
0.33496770262718201 0.021260878071188927 0.66558283567428589
0.51279228925704956 0.017759270966053009 0.6555902361869812
0.6866878867149353 0.015061532147228718 0.64612847566604614
0.84766894578933716 0.012190216220915318 0.63535022735595703
0.98878979682922363 0.0081899901852011681 0.62003350257873535
0.04433707520365715 0.17214567959308624 0.68367600440979004
0.1685900092124939 0.16751259565353394 0.68140608072280884
0.3436005711555481 0.16196118295192719 0.67407751083374023
0.52247083187103271 0.15791806578636169 0.66657012701034546
0.69229280948638916 0.15784314274787903 0.65927219390869141
0.84996253252029419 0.15634807944297791 0.65111148357391357
0.98845827579498291 0.1522664874792099 0.63857263326644897
0.0059418021701276302 0.34742447733879089 0.6891322135925293
0.1349223256111145 0.34485325217247009 0.688690185546875
0.3477567732334137 0.33861857652664185 0.68130511045455933
0.52945882081985474 0.33447673916816711 0.67449647188186646
0.69401443004608154 0.3323502242565155 0.6685674786567688
0.84660375118255615 0.33272650837898254 0.6617584228515625
0.98542815446853638 0.3300725519657135 0.6517646312713623
0.0041734282858669758 0.52152895927429199 0.69602936506271362
0.14374950528144836 0.51969283819198608 0.69747310876846313
0.34573441743850708 0.52227276563644409 0.69113105535507202
0.52594077587127686 0.52071952819824219 0.68445974588394165
0.69068485498428345 0.51801484823226929 0.67855244874954224
0.84025752544403076 0.52008295059204102 0.67174369096755981
0.97937393188476562 0.51712298393249512 0.66186463832855225
0.013219945132732391 0.68887102603912354 0.70033597946166992
0.16269223392009735 0.68699485063552856 0.70009481906890869
0.34797796607017517 0.68773072957992554 0.69608509540557861
0.5244220495223999 0.68768310546875 0.69308555126190186
0.68774509429931641 0.6874358057975769 0.68796819448471069
0.83447420597076416 0.68774509429931641 0.68299400806427002
0.97277176380157471 0.6859697699546814 0.67163139581680298
0.089098088443279266 0.83481675386428833 0.70820146799087524
0.21250134706497192 0.83513927459716797 0.70781338214874268
0.36971607804298401 0.83441448211669922 0.70372307300567627
0.53294491767883301 0.83601081371307373 0.69801032543182373
0.69096928834915161 0.83532685041427612 0.69321131706237793
0.83473199605941772 0.83220326900482178 0.68970614671707153
0.9732816219329834 0.83232724666595459 0.68046247959136963
0.17044360935688019 0.97273522615432739 0.71684831380844116
0.27699023485183716 0.97302210330963135 0.71792197227478027
0.40477511286735535 0.97320222854614258 0.71326947212219238
0.54702597856521606 0.97665655612945557 0.70356649160385132
0.69131779670715332 0.97625797986984253 0.69760102033615112
0.83322727680206299 0.97536766529083252 0.69459038972854614
0.97590410709381104 0.97430366277694702 0.68957078456878662
0.030574290081858635 0.01939595490694046 0.82308667898178101
0.1731257438659668 0.018344206735491753 0.82251960039138794
0.33829692006111145 0.01888580247759819 0.81591957807540894
0.51615792512893677 0.020500257611274719 0.80616915225982666
0.6883544921875 0.019569890573620796 0.79620093107223511
0.84697610139846802 0.014501250348985195 0.78629219532012939
0.98860293626785278 0.0087796682491898537 0.77333223819732666
0.02366168424487114 0.17452496290206909 0.83133035898208618
0.16407927870750427 0.1672465056180954 0.83106040954589844
0.33965632319450378 0.16321864724159241 0.82466095685958862
0.52063900232315063 0.16280558705329895 0.81585836410522461
0.69149196147918701 0.16430208086967468 0.80754595994949341
0.84960639476776123 0.16153775155544281 0.80035817623138428
0.98847854137420654 0.15478341281414032 0.79072111845016479
0.013238674961030483 0.34801048040390015 0.83559560775756836
0.15594108402729034 0.34190270304679871 0.83640974760055542
0.34435287117958069 0.33800432085990906 0.83012741804122925
0.5259779691696167 0.3356316089630127 0.82135093212127686
0.69344967603683472 0.33662575483322144 0.81360369920730591
0.84595441818237305 0.33548876643180847 0.8096003532409668
0.98533624410629272 0.33063971996307373 0.80299001932144165
0.018539009615778923 0.52246713638305664 0.84074157476425171
0.1663091778755188 0.51953035593032837 0.84214800596237183
0.34829610586166382 0.5194699764251709 0.83666032552719116
0.52587723731994629 0.51769512891769409 0.82852113246917725
0.6905895471572876 0.51779365539550781 0.8219306468963623
0.83944910764694214 0.51880168914794922 0.81875085830688477
0.97917145490646362 0.51517045497894287 0.81284737586975098
0.020326726138591766 0.68779474496841431 0.84504711627960205
0.17235367000102997 0.68658804893493652 0.84466445446014404
0.34894034266471863 0.68665087223052979 0.83972316980361938
0.52328264713287354 0.68686091899871826 0.8340873122215271
0.68658661842346191 0.68456882238388062 0.83189386129379272
0.83270460367202759 0.68753868341445923 0.82826966047286987
0.97302258014678955 0.68426793813705444 0.82125735282897949
0.063929490745067596 0.83780503273010254 0.8513486385345459
0.20553803443908691 0.83584415912628174 0.85025840997695923
0.3689015805721283 0.83396321535110474 0.84542667865753174
0.53316152095794678 0.83509892225265503 0.83976495265960693
0.68960964679718018 0.83308976888656616 0.83763009309768677
0.8318634033203125 0.83055263757705688 0.83274775743484497
0.97321850061416626 0.829692542552948 0.82718902826309204
0.14328375458717346 0.97577196359634399 0.8614007830619812
0.2659950852394104 0.97409379482269287 0.86174893379211426
0.40410721302032471 0.9733394980430603 0.85698026418685913
0.54759460687637329 0.97641336917877197 0.8469083309173584
0.68929284811019897 0.9777941107749939 0.83940666913986206
0.82968056201934814 0.97557926177978516 0.83800840377807617
0.97370988130569458 0.97321897745132446 0.8357728123664856
0.024540187790989876 0.016324825584888458 0.96549922227859497
0.17255797982215881 0.016053922474384308 0.96484017372131348
0.34015166759490967 0.020226422697305679 0.95860165357589722
0.51860141754150391 0.028991788625717163 0.94888961315155029
0.68920433521270752 0.03014272078871727 0.93956023454666138
0.84588384628295898 0.02130076102912426 0.9312434196472168
0.98747539520263672 0.012868245132267475 0.92059028148651123
0.022890307009220123 0.17201267182826996 0.97218483686447144
0.16660292446613312 0.16347256302833557 0.97255474328994751
0.33843091130256653 0.16652649641036987 0.96672385931015015
0.519234299659729 0.17632254958152771 0.95717167854309082
0.69039273262023926 0.18006783723831177 0.94881141185760498
0.84643411636352539 0.17509466409683228 0.94340205192565918
0.98758798837661743 0.16615897417068481 0.93617832660675049
0.023935310542583466 0.34519472718238831 0.97369861602783203
0.16898448765277863 0.33649334311485291 0.97466439008712769
0.34163004159927368 0.33623063564300537 0.97009313106536865
0.52144652605056763 0.34245043992996216 0.96076059341430664
0.69069534540176392 0.34675264358520508 0.95328694581985474
0.84410345554351807 0.34477716684341431 0.95154035091400146
0.98474210500717163 0.33817186951637268 0.94808328151702881
0.028692014515399933 0.52196812629699707 0.97459661960601807
0.1763543039560318 0.51661759614944458 0.97565233707427979
0.34708341956138611 0.51547122001647949 0.97208243608474731
0.52231329679489136 0.51828670501708984 0.96456575393676758
0.68772941827774048 0.52152818441390991 0.95960855484008789
0.8378259539604187 0.52105444669723511 0.96018773317337036
0.97894895076751709 0.51587021350860596 0.95848762989044189
0.027018243446946144 0.68727195262908936 0.97937107086181641
0.17944048345088959 0.68485194444656372 0.97764283418655396
0.35148465633392334 0.68348413705825806 0.97378766536712646
0.52351784706115723 0.68466931581497192 0.97029006481170654
0.68382352590560913 0.68673539161682129 0.96897923946380615
0.83192068338394165 0.68662399053573608 0.96988546848297119
0.97242850065231323 0.68398386240005493 0.96813678741455078
0.053868714720010757 0.83846664428710938 0.98565751314163208
0.20367774367332458 0.83634042739868164 0.9837573766708374
0.37175852060317993 0.83239370584487915 0.98074460029602051
0.53777122497558594 0.82959127426147461 0.98002052307128906
0.68968838453292847 0.83355218172073364 0.97774356603622437
0.8325728178024292 0.82773721218109131 0.97745370864868164
0.97029036283493042 0.82796460390090942 0.97512578964233398
0.11435434967279434 0.97922796010971069 0.99216353893280029
0.25237193703651428 0.97683531045913696 0.99169665575027466
0.4036509096622467 0.97342699766159058 0.98996239900588989
0.55136352777481079 0.97343391180038452 0.98638314008712769
0.68868643045425415 0.97863984107971191 0.98163634538650513
0.82335370779037476 0.97975438833236694 0.98161762952804565
0.96561533212661743 0.97472333908081055 0.98149627447128296
