assets/lut/films colorslide fuji velvia 100 generic.cube
# Created by: G'MIC (https://gmic.eu)
TITLE "fuji_velvia_100_generic"
# LUT size
LUT_3D_SIZE 7
# Data domain
DOMAIN_MIN 0.0 0.0 0.0
DOMAIN_MAX 1.0 1.0 1.0
# LUT data points
0.025558860972523689 0.020527634769678116 0.020998068153858185
0.13912953436374664 0.018448714166879654 0.020283777266740799
0.33072912693023682 0.017363350838422775 0.020497489720582962
0.57257091999053955 0.016176965087652206 0.018924204632639885
0.82177984714508057 0.01240641251206398 0.017910601571202278
0.99214404821395874 0.015426785685122013 0.013629809021949768
1 0.013784835115075111 0.0071454965509474277
0.050553459674119949 0.14155283570289612 0.022560883313417435
0.12639480829238892 0.13789409399032593 0.017343947663903236
0.32822582125663757 0.13684220612049103 0.019954921677708626
0.56554955244064331 0.13439325988292694 0.019729914143681526
0.80663573741912842 0.11762019246816635 0.01937052421271801
0.98284703493118286 0.12149678915739059 0.013945052400231361
1 0.13003125786781311 0.010501891374588013
0.01695677824318409 0.3476126492023468 0.018062368035316467
0.064313195645809174 0.344564288854599 0.018627451732754707
0.30172812938690186 0.34228092432022095 0.01807619072496891
0.55217546224594116 0.33645641803741455 0.01824207603931427
0.79195612668991089 0.32635492086410522 0.018551874905824661
0.98292833566665649 0.32367661595344543 0.017096126452088356
0.99974209070205688 0.32114210724830627 0.016238074749708176
0 0.58598774671554565 0.016244282945990562
0 0.58606183528900146 0.019673066213726997
0.19662857055664062 0.58353281021118164 0.018716055899858475
0.51143068075180054 0.57677006721496582 0.01225591916590929
0.74374806880950928 0.57253116369247437 0.0096618654206395149
0.93850862979888916 0.56826686859130859 0.018236825242638588
0.99985063076019287 0.56396454572677612 0.017290346324443817
0 0.80390268564224243 0.0088021373376250267
0.0020303763449192047 0.80156922340393066 0.01300837192684412
0.15173190832138062 0.8018416166305542 0.01225439365953207
0.42534366250038147 0.79857146739959717 0.00039470897172577679
0.68500036001205444 0.79051429033279419 0
0.89546531438827515 0.78051275014877319 2.8722427032334963e-06
0.99734169244766235 0.76996898651123047 3.5903034586226568e-05
0 0.97018259763717651 0
0.0083664841949939728 0.97183036804199219 0.0005665050121024251
0.16579070687294006 0.96088427305221558 0
0.40531334280967712 0.95995062589645386 0
0.65346819162368774 0.94873309135437012 0
0.85023009777069092 0.93912845849990845 0
0.97272747755050659 0.93053174018859863 0
0.027844822034239769 1 0
0.11002761125564575 1 0
0.29833140969276428 1 0
0.50325417518615723 1 0
0.6938316822052002 1 0
0.85020911693572998 1 0
0.96295350790023804 1 0
0.024222640320658684 0.01418781653046608 0.13645255565643311
0.14035296440124512 0.012651092372834682 0.14035046100616455
0.33317553997039795 0.014840219169855118 0.13715623319149017
0.57313495874404907 0.014773484319448471 0.13145105540752411
0.81595194339752197 0.013946099206805229 0.1293862909078598
0.99090611934661865 0.011268495582044125 0.12543840706348419
0.99978899955749512 0.0061294557526707649 0.12175692617893219
0.045363213866949081 0.13161134719848633 0.13184797763824463
0.12971967458724976 0.12750841677188873 0.12801744043827057
0.33407866954803467 0.12861360609531403 0.12990055978298187
0.57236278057098389 0.12469823658466339 0.12994995713233948
0.81579077243804932 0.11623146384954453 0.12843938171863556
0.98597759008407593 0.1136423721909523 0.12344508618116379
0.99965929985046387 0.10853244364261627 0.12356595695018768
0.024824898689985275 0.33978250622749329 0.1221814751625061
0.088272824883460999 0.338081955909729 0.11942816525697708
0.3032052218914032 0.3342878520488739 0.11547314375638962
0.55828195810317993 0.32781782746315002 0.11508111655712128
0.79316812753677368 0.32123878598213196 0.11358488351106644
0.97610217332839966 0.31599622964859009 0.10943029075860977
0.99984771013259888 0.30926597118377686 0.10761731863021851
0 0.58329397439956665 0.099884688854217529
0.014613865874707699 0.57808887958526611 0.099547214806079865
0.22718773782253265 0.5724913477897644 0.096899859607219696
0.51858723163604736 0.56918168067932129 0.090850546956062317
0.74710285663604736 0.5679779052734375 0.088796563446521759
0.94330763816833496 0.56290799379348755 0.093025490641593933
1 0.55469471216201782 0.09583938866853714
0 0.80418628454208374 0.058324042707681656
0.00056855444563552737 0.79838341474533081 0.050393123179674149
0.15672309696674347 0.79415285587310791 0.050326060503721237
0.45401689410209656 0.79019057750701904 0.038130022585391998
0.70190250873565674 0.78688126802444458 0.036980155855417252
0.90354800224304199 0.78023135662078857 0.03370990976691246
0.99942588806152344 0.7708013653755188 0.061543900519609451
0 0.9683569073677063 0.0061425450257956982
0.0031482323538511992 0.96088266372680664 0.00756861362606287
0.16887295246124268 0.95300781726837158 0.013547246344387531
0.4326092004776001 0.96091932058334351 0.026084331795573235
0.6715816855430603 0.95279026031494141 0.010025413706898689
0.85701209306716919 0.94651550054550171 0.00057923560962080956
0.97698652744293213 0.94000279903411865 0.0071333642117679119
0.019792264327406883 1 0.032072689384222031
0.097482509911060333 1 0.033110301941633224
0.32946544885635376 0.99928009510040283 0.016504131257534027
0.54127347469329834 1 0.019615922123193741
0.72484415769577026 0.99988329410552979 0.011261315084993839
0.86381137371063232 1 0.0089672310277819633
0.96799510717391968 1 0.0044841691851615906
0.036087546497583389 0.0065738903358578682 0.3395075798034668
0.14554047584533691 0.0058496664278209209 0.34148016571998596
0.33058106899261475 0.006142724771052599 0.33618426322937012
0.56957888603210449 0.0035352220293134451 0.32920634746551514
0.80531907081604004 0.0031516880262643099 0.3271540105342865
0.96946138143539429 0.0033043057192116976 0.32164904475212097
0.99992066621780396 0.0010341869201511145 0.3198515772819519
0.060881268233060837 0.11805306375026703 0.33375793695449829
0.15233220160007477 0.11767539381980896 0.33292111754417419
0.33892631530761719 0.11609011143445969 0.3294675350189209
0.57218247652053833 0.10416404902935028 0.32568380236625671
0.81120437383651733 0.09743182361125946 0.32417705655097961
0.98307865858078003 0.098652184009552002 0.32157915830612183
0.99969583749771118 0.088209308683872223 0.32145127654075623
0.023859810084104538 0.32739603519439697 0.3211309015750885
0.10920146852731705 0.32498994469642639 0.32034176588058472
0.31652635335922241 0.32108196616172791 0.31849581003189087
0.5630803108215332 0.31234365701675415 0.314321368932724
0.79636293649673462 0.30318582057952881 0.31079459190368652
0.98210769891738892 0.29800647497177124 0.30950400233268738
1 0.28808373212814331 0.30645754933357239
0 0.56961452960968018 0.29475805163383484
0.013450847007334232 0.5641404390335083 0.29924437403678894
0.23290577530860901 0.55709421634674072 0.30406668782234192
0.53263908624649048 0.55410546064376831 0.29897040128707886
0.7566227912902832 0.54855889081954956 0.29633045196533203
0.95350325107574463 0.54205822944641113 0.29254484176635742
1 0.5333370566368103 0.29192522168159485
0 0.79105836153030396 0.26486456394195557
0 0.78685998916625977 0.2625311017036438
0.13281361758708954 0.77901941537857056 0.26016148924827576
0.46578717231750488 0.77301275730133057 0.25332009792327881
0.70939153432846069 0.76680773496627808 0.26748591661453247
0.90832710266113281 0.76352280378341675 0.25643458962440491
0.99996912479400635 0.75721198320388794 0.27543461322784424
0.0045115300454199314 0.94284927845001221 0.24858897924423218
0.00027917599072679877 0.94380706548690796 0.24284340441226959
0.14810755848884583 0.94687086343765259 0.24001060426235199
0.44474542140960693 0.94631445407867432 0.24430222809314728
0.68333113193511963 0.9391290545463562 0.23886169493198395
0.8624686598777771 0.93481177091598511 0.22753648459911346
0.98147177696228027 0.93065613508224487 0.2425590455532074
0.0096785305067896843 0.99713349342346191 0.27824905514717102
0.05758088082075119 0.99932664632797241 0.27767634391784668
0.26381543278694153 1 0.26440843939781189
0.525765061378479 1 0.256632000207901
0.72739714384078979 0.9992988109588623 0.2588391900062561
0.87012672424316406 0.99973201751708984 0.26144960522651672
0.97102290391921997 1 0.23440185189247131
0.041419174522161484 0.0036519069690257311 0.57913702726364136
0.15622468292713165 0.00040247300057671964 0.57392233610153198
0.34046408534049988 3.2312731491401792e-05 0.56747704744338989
0.57583653926849365 0 0.56470590829849243
0.81566846370697021 0 0.56297165155410767
0.98460471630096436 0.0023737440351396799 0.55858296155929565
1 0.0031313877552747726 0.55575060844421387
0.0664992555975914 0.097269646823406219 0.5703924298286438
0.16275721788406372 0.096471793949604034 0.56652230024337769
0.34527662396430969 0.093514248728752136 0.56308114528656006
0.57582110166549683 0.081143654882907867 0.55934566259384155
0.80826956033706665 0.072656251490116119 0.55534213781356812
0.9863816499710083 0.087303996086120605 0.55738526582717896
1 0.092805378139019012 0.55663049221038818
0.030390048399567604 0.30520132184028625 0.55234158039093018
0.12143777310848236 0.30388751626014709 0.5532950758934021
0.33518040180206299 0.29972797632217407 0.55294865369796753
0.57521778345108032 0.29211938381195068 0.54965043067932129
0.80102598667144775 0.28044641017913818 0.54544579982757568
0.98199641704559326 0.27921363711357117 0.54583501815795898
1 0.27771452069282532 0.54506707191467285
0 0.55012816190719604 0.53437334299087524
0.021438179537653923 0.54623293876647949 0.54074877500534058
0.2513502836227417 0.54160457849502563 0.54203015565872192
0.54020321369171143 0.53844434022903442 0.53805536031723022
0.76699411869049072 0.52949619293212891 0.53451424837112427
0.95434266328811646 0.52365505695343018 0.53246474266052246
1 0.51711243391036987 0.5319938063621521
0 0.77232098579406738 0.52206194400787354
0 0.76798224449157715 0.52915912866592407
0.1575077623128891 0.76296371221542358 0.52542543411254883
0.47443372011184692 0.75833481550216675 0.51896816492080688
0.72021192312240601 0.75161749124526978 0.51763796806335449
0.91358441114425659 0.74586957693099976 0.51745396852493286
0.9998820424079895 0.74238711595535278 0.52227210998535156
0.0030272239819169044 0.930927574634552 0.5183948278427124
0.0090514691546559334 0.92908811569213867 0.523540198802948
0.17754723131656647 0.93410921096801758 0.51629769802093506
0.45911484956741333 0.93247413635253906 0.51129025220870972
0.69628226757049561 0.9240868091583252 0.50554502010345459
0.87292760610580444 0.9187624454498291 0.5094372034072876
0.98089897632598877 0.91614228487014771 0.51164168119430542
0.018431002274155617 0.99753618240356445 0.51792973279953003
0.078478224575519562 0.99866199493408203 0.52221351861953735
0.2731626033782959 1 0.51732128858566284
0.52527093887329102 1 0.51260948181152344
0.72774344682693481 0.99998170137405396 0.51037919521331787
0.87322998046875 0.99995189905166626 0.51388061046600342
0.97413283586502075 1 0.49898549914360046
0.037716001272201538 0.0055200764909386635 0.79436361789703369
0.15967051684856415 0 0.78340113162994385
0.34937751293182373 0 0.77825111150741577
0.58528023958206177 0 0.78263336420059204
0.82844793796539307 4.0211398300016299e-05 0.78544312715530396
0.99561911821365356 0.0093610426411032677 0.78151345252990723
1 0.0079035740345716476 0.78010571002960205
0.071829311549663544 0.078722469508647919 0.7809101939201355
0.16058391332626343 0.071810163557529449 0.77875292301177979
0.34749481081962585 0.069280348718166351 0.78091335296630859
0.58148038387298584 0.062018509954214096 0.78251612186431885
0.81862360239028931 0.061994962394237518 0.78067445755004883
0.9912947416305542 0.077447794377803802 0.77918523550033569
1 0.08243841677904129 0.7795034646987915
0.04309329017996788 0.28907889127731323 0.76904237270355225
0.11941716820001602 0.28818568587303162 0.77093666791915894
0.33062297105789185 0.28258556127548218 0.77102887630462646
0.57964545488357544 0.27217957377433777 0.76777929067611694
0.80728751420974731 0.26259210705757141 0.76333886384963989
0.98671770095825195 0.26165884733200073 0.76144951581954956
1 0.26110747456550598 0.7652314305305481
4.3083641685370822e-06 0.53194594383239746 0.75604623556137085
0.019323207437992096 0.53114020824432373 0.75634169578552246
0.26065868139266968 0.52905786037445068 0.75247281789779663
0.55824142694473267 0.52208930253982544 0.75004738569259644
0.78040403127670288 0.51676499843597412 0.74798744916915894
0.96815240383148193 0.51214957237243652 0.74569845199584961
1 0.50619012117385864 0.74884819984436035
0 0.75000286102294922 0.74175500869750977
0.007380511611700058 0.74866068363189697 0.74494272470474243
0.20349591970443726 0.74514734745025635 0.74157077074050903
0.5062900185585022 0.74099373817443848 0.73710590600967407
0.7392963171005249 0.73807656764984131 0.73477542400360107
0.92614990472793579 0.73153746128082275 0.73327898979187012
0.99984616041183472 0.72924309968948364 0.73207849264144897
0 0.92128247022628784 0.72891479730606079
0.0022153367754071951 0.91672438383102417 0.73583567142486572
0.19222509860992432 0.91561621427536011 0.73189985752105713
0.48462602496147156 0.91524457931518555 0.72779625654220581
0.71032959222793579 0.91147106885910034 0.72439181804656982
0.8846733570098877 0.90535956621170044 0.72408002614974976
0.98755574226379395 0.89892089366912842 0.72128474712371826
0.0022767160553485155 1 0.71692889928817749
0.052648864686489105 0.99976593255996704 0.72489267587661743
0.27954491972923279 0.99980467557907104 0.72339797019958496
0.55378401279449463 0.99960935115814209 0.72283339500427246
0.73880809545516968 0.99980467557907104 0.72040814161300659
0.87902867794036865 0.99973934888839722 0.71924221515655518
0.98279255628585815 0.99903297424316406 0.70929741859436035
0.049386266618967056 0 0.93264460563659668
0.17220403254032135 0 0.92824870347976685
0.36242809891700745 0 0.93012106418609619
0.59380948543548584 0 0.94243389368057251
0.82080703973770142 0.00097918044775724411 0.95280969142913818
0.98191159963607788 0.0095092328265309334 0.94074994325637817
1 0.0034335716627538204 0.94181257486343384
0.079263634979724884 0.065711483359336853 0.93858295679092407
0.17405526340007782 0.057698927819728851 0.93592381477355957
0.35923594236373901 0.054783482104539871 0.940257728099823
0.58702218532562256 0.046721648424863815 0.94796419143676758
0.81909561157226562 0.050199173390865326 0.95186853408813477
0.98335540294647217 0.062421280890703201 0.94227522611618042
1 0.051708266139030457 0.94561123847961426
0.067551285028457642 0.27267974615097046 0.94661927223205566
0.14523032307624817 0.27315780520439148 0.93938142061233521
0.3426278829574585 0.26559388637542725 0.93781685829162598
0.57886546850204468 0.25045794248580933 0.93235939741134644
0.81174886226654053 0.24197785556316376 0.92867213487625122
0.98161059617996216 0.23976856470108032 0.92288768291473389
1 0.23443283140659332 0.9321359395980835
0.017052968963980675 0.5167163610458374 0.92912662029266357
0.069648012518882751 0.51699060201644897 0.9237600564956665
0.28530704975128174 0.50945508480072021 0.92300033569335938
0.55652165412902832 0.50342279672622681 0.92114353179931641
0.78342127799987793 0.50089412927627563 0.91678428649902344
0.96410888433456421 0.49417492747306824 0.9114571213722229
1 0.49482578039169312 0.91674900054931641
0.00016210219473578036 0.735515296459198 0.91049206256866455
0.032778512686491013 0.73591262102127075 0.90834558010101318
0.23785211145877838 0.72988224029541016 0.90828883647918701
0.52570599317550659 0.72510612010955811 0.90803492069244385
0.7486342191696167 0.72534185647964478 0.90519207715988159
0.93659049272537231 0.71655255556106567 0.90416592359542847
1 0.71133488416671753 0.89939171075820923
0 0.90372365713119507 0.89046531915664673
0.0011959150433540344 0.90476620197296143 0.89625459909439087
0.19964148104190826 0.90001320838928223 0.89462107419967651
0.50657409429550171 0.89568108320236206 0.89268821477890015
0.72222262620925903 0.89610546827316284 0.89173650741577148
0.89075630903244019 0.89403396844863892 0.88971894979476929
0.9934459924697876 0.88052201271057129 0.88795197010040283
0.00047335156705230474 0.99871158599853516 0.87797433137893677
0.040089178830385208 0.99878740310668945 0.88671523332595825
0.28313779830932617 0.99658703804016113 0.88794738054275513
0.58346784114837646 0.99376940727233887 0.88716018199920654
0.75310802459716797 0.99626386165618896 0.88489788770675659
0.88738977909088135 0.99718624353408813 0.8845331072807312
0.98968124389648438 0.99396973848342896 0.87650978565216064
0.066498763859272003 0 0.99705356359481812
0.18912220001220703 0 0.99773281812667847
0.38041377067565918 0 0.999622642993927
0.61419999599456787 0 1
0.84625977277755737 0.001079125446267426 0.99999064207077026
0.99556785821914673 0.0083139007911086082 0.99924153089523315
1 0.0017358518671244383 1
0.076058149337768555 0.043995428830385208 0.99708753824234009
0.17153984308242798 0.044921126216650009 0.99675428867340088
0.36477205157279968 0.052403870970010757 0.9998093843460083
0.60112130641937256 0.056813288480043411 1
0.83223068714141846 0.06668427586555481 1
0.98587214946746826 0.074539259076118469 1
1 0.066897481679916382 1
0.06662604957818985 0.26324331760406494 1
0.15875765681266785 0.26538977026939392 0.99778139591217041
0.35318991541862488 0.25806230306625366 0.99802196025848389
0.58782285451889038 0.24893103539943695 0.99972766637802124
0.82100337743759155 0.24478848278522491 0.9998134970664978
0.98426002264022827 0.24341818690299988 0.9983973503112793
1 0.23986344039440155 1
0.038111340254545212 0.50680249929428101 1
0.12848681211471558 0.50719243288040161 0.99926471710205078
0.3252929151058197 0.49741554260253906 0.99992173910140991
0.56254994869232178 0.49146410822868347 0.99999356269836426
0.79014104604721069 0.48907884955406189 0.9992523193359375
0.96200180053710938 0.48438829183578491 0.99638020992279053
1 0.48273047804832458 0.99901843070983887
0.0098347980529069901 0.72803235054016113 0.99609410762786865
0.086342848837375641 0.72768300771713257 0.99767524003982544
0.27556133270263672 0.72218674421310425 0.99835443496704102
0.52690881490707397 0.71514087915420532 0.99885928630828857
0.7538902759552002 0.71286553144454956 0.99779117107391357
0.93335235118865967 0.70855265855789185 0.99540704488754272
0.99804675579071045 0.70281833410263062 0.99386358261108398
0.0015293494798243046 0.88936519622802734 0.99374985694885254
0.060089573264122009 0.89520305395126343 0.99546569585800171
0.24813075363636017 0.89475351572036743 0.99344217777252197
0.51180684566497803 0.88494867086410522 0.99456572532653809
0.73041540384292603 0.8826478123664856 0.9940178394317627
0.89793175458908081 0.88228940963745117 0.99322903156280518
0.99255514144897461 0.86900526285171509 0.99290138483047485
0.029525114223361015 0.99411779642105103 0.99318504333496094
0.11197710037231445 0.99692970514297485 0.99501293897628784
0.31294962763786316 0.99569076299667358 0.99473041296005249
0.56160855293273926 0.99200010299682617 0.99388951063156128
0.75008243322372437 0.99186235666275024 0.99240195751190186
0.89105844497680664 0.99413681030273438 0.99282723665237427
0.99126142263412476 0.98934036493301392 0.98945337533950806
