assets/lut/films colorslide kodak elite chrome 200.cube
# Created by: G'MIC (https://gmic.eu)
TITLE "kodak_elite_chrome_200"
# LUT size
LUT_3D_SIZE 5
# Data domain
DOMAIN_MIN 0.0 0.0 0.0
DOMAIN_MAX 1.0 1.0 1.0
# LUT data points
0.025812067091464996 0.024270674213767052 0.022653810679912567
0.18257144093513489 0.010272545740008354 0.0035937291104346514
0.41415128111839294 0.0010726031614467502 0
0.6621362566947937 0 0
0.89668989181518555 0 0
0.13824206590652466 0.25942745804786682 0.11027476191520691
0.2779618501663208 0.23922194540500641 0.085428185760974884
0.51026457548141479 0.20191703736782074 0.037924792617559433
0.72934770584106445 0.1269335001707077 0.010946446098387241
0.92009550333023071 0.033401008695363998 0.00010340073640691116
0.27041620016098022 0.54331696033477783 0.21147137880325317
0.40732315182685852 0.53648823499679565 0.19047757983207703
0.62712216377258301 0.51720398664474487 0.15480607748031616
0.84990733861923218 0.4814268946647644 0.11008165776729584
0.98613065481185913 0.39632612466812134 0.078400000929832458
0.48027762770652771 0.78856605291366577 0.30095279216766357
0.57769888639450073 0.78243976831436157 0.28825899958610535
0.74727022647857666 0.77156561613082886 0.25517967343330383
0.93809753656387329 0.7564653754234314 0.22250795364379883
1 0.71918624639511108 0.19421502947807312
0.6851649284362793 0.98815757036209106 0.36968827247619629
0.76383703947067261 0.9835277795791626 0.35314929485321045
0.8876500129699707 0.97821599245071411 0.3424232006072998
0.999980628490448 0.97211736440658569 0.32333534955978394
1 0.95708960294723511 0.30535140633583069
0.008933347649872303 0.019815273582935333 0.15743324160575867
0.1407429575920105 0.0052679022774100304 0.13029660284519196
0.38121548295021057 0.0040952344425022602 0.079713739454746246
0.61878317594528198 0 0.03911755234003067
0.84186100959777832 0 0.0087054381147027016
0.085756815969944 0.24959051609039307 0.25279673933982849
0.22954262793064117 0.22714044153690338 0.22836557030677795
0.46105203032493591 0.18559841811656952 0.18079967796802521
0.67442512512207031 0.11252157390117645 0.12542359530925751
0.85893887281417847 0.021522058174014091 0.075488463044166565
0.18876060843467712 0.54252415895462036 0.35610482096672058
0.34885749220848083 0.5350068211555481 0.34221771359443665
0.57978492975234985 0.51721090078353882 0.30328512191772461
0.80022400617599487 0.48119860887527466 0.26385095715522766
0.98021280765533447 0.39684301614761353 0.21643586456775665
0.4218870997428894 0.78661298751831055 0.44194778800010681
0.51763147115707397 0.78429973125457764 0.4418034553527832
0.69187378883361816 0.77688688039779663 0.41434672474861145
0.89281284809112549 0.76278316974639893 0.38473424315452576
1 0.72041398286819458 0.35095781087875366
0.64293241500854492 0.98513591289520264 0.51654309034347534
0.70563739538192749 0.98494058847427368 0.51001656055450439
0.82923120260238647 0.98396164178848267 0.4991723895072937
0.9874875545501709 0.97597825527191162 0.47364801168441772
1 0.96261322498321533 0.45611009001731873
0.001636071247048676 0.0056823729537427425 0.3419189453125
0.089067079126834869 0.0053019803017377853 0.31588006019592285
0.31558388471603394 0.0012263878015801311 0.27391406893730164
0.55592507123947144 0.00065187941072508693 0.23478019237518311
0.77692902088165283 0.0032271142117679119 0.19227738678455353
0.065411552786827087 0.22085148096084595 0.44277560710906982
0.16377273201942444 0.20084145665168762 0.42197099328041077
0.38927736878395081 0.15282745659351349 0.37648624181747437
0.60474210977554321 0.095569148659706116 0.32774588465690613
0.78355604410171509 0.0078528160229325294 0.26696872711181641
0.080229021608829498 0.53342896699905396 0.55229336023330688
0.26525986194610596 0.52774441242218018 0.54022997617721558
0.50776845216751099 0.50637805461883545 0.50675684213638306
0.72310864925384521 0.46951964497566223 0.46506029367446899
0.90456229448318481 0.37603160738945007 0.41151022911071777
0.31285539269447327 0.78608286380767822 0.63599961996078491
0.43413636088371277 0.78705877065658569 0.6359790563583374
0.61868190765380859 0.7780030369758606 0.61259061098098755
0.81709885597229004 0.76129138469696045 0.5800325870513916
0.9925234317779541 0.71975219249725342 0.54013395309448242
0.56362593173980713 0.98905426263809204 0.70306330919265747
0.63233554363250732 0.99142622947692871 0.70360881090164185
0.75977855920791626 0.99124646186828613 0.68918192386627197
0.92444252967834473 0.98623818159103394 0.66326504945755005
1 0.97173440456390381 0.63597327470779419
0 0 0.51498812437057495
0.048466477543115616 0.00032837811158969998 0.50449556112289429
0.26606875658035278 0.01136443205177784 0.47254511713981628
0.49822714924812317 0.0027879453264176846 0.4327007532119751
0.689716637134552 0 0.38209390640258789
0.018709639087319374 0.17084741592407227 0.61394548416137695
0.10430443286895752 0.14345185458660126 0.59414452314376831
0.33049783110618591 0.10518573224544525 0.55318689346313477
0.53456974029541016 0.055569548159837723 0.50573301315307617
0.69851309061050415 0 0.44421300292015076
0.059209682047367096 0.51197671890258789 0.7227482795715332
0.21281835436820984 0.5026361346244812 0.7097928524017334
0.4475422203540802 0.48268169164657593 0.6810152530670166
0.65259402990341187 0.4255622923374176 0.63817965984344482
0.82534229755401611 0.32748252153396606 0.58171391487121582
0.24658749997615814 0.78940540552139282 0.81269198656082153
0.37253221869468689 0.78384429216384888 0.80687344074249268
0.56140357255935669 0.7746463418006897 0.78670805692672729
0.75458621978759766 0.7535824179649353 0.75605839490890503
0.94351857900619507 0.71119868755340576 0.71393835544586182
0.49860271811485291 0.99276036024093628 0.87936675548553467
0.57045954465866089 0.99393010139465332 0.87797665596008301
0.70288348197937012 0.99552696943283081 0.86607122421264648
0.86548918485641479 0.99321115016937256 0.84475302696228027
0.99995905160903931 0.97818255424499512 0.81431466341018677
0 0 0.66172605752944946
0.045425191521644592 0 0.6519274115562439
0.23140080273151398 0 0.62749546766281128
0.43511074781417847 0 0.58591759204864502
0.61261969804763794 0 0.53516918420791626
0.015908215194940567 0.065485380589962006 0.74832969903945923
0.091316431760787964 0.058752350509166718 0.73146313428878784
0.28309690952301025 0.045311827212572098 0.69891357421875
0.46186926960945129 8.0377918493468314e-05 0.64582651853561401
0.63451272249221802 0 0.59704196453094482
0.082442082464694977 0.4495905339717865 0.85951310396194458
0.1987135112285614 0.43547791242599487 0.84661221504211426
0.41111749410629272 0.41333216428756714 0.81795662641525269
0.59688633680343628 0.34171825647354126 0.77441126108169556
0.74418336153030396 0.20609678328037262 0.71599709987640381
0.26038089394569397 0.76281183958053589 0.95747268199920654
0.36051356792449951 0.75482696294784546 0.94882601499557495
0.53055310249328613 0.74563837051391602 0.93164044618606567
0.7071833610534668 0.72022551298141479 0.90499407052993774
0.88094353675842285 0.66406404972076416 0.86465346813201904
0.48277390003204346 0.98507225513458252 1
0.54519814252853394 0.98702120780944824 1
0.66845989227294922 0.99017137289047241 0.99947798252105713
0.81616193056106567 0.98786115646362305 0.99550044536590576
0.97906208038330078 0.97550910711288452 0.9789963960647583
