assets/lut/films colorslide fuji provia 100f.cube
# Created by: G'MIC (https://gmic.eu)
TITLE "fuji_provia_100f"
# LUT size
LUT_3D_SIZE 13
# Data domain
DOMAIN_MIN 0.0 0.0 0.0
DOMAIN_MAX 1.0 1.0 1.0
# LUT data points
0.03630002960562706 0.031280666589736938 0.027555113658308983
0.098937511444091797 0.027801543474197388 0.027097903192043304
0.17238536477088928 0.028563240543007851 0.027251973748207092
0.25065708160400391 0.029380260035395622 0.023723063990473747
0.33340555429458618 0.0292497668415308 0.018057534471154213
0.42105653882026672 0.025352088734507561 0.012307948432862759
0.51507371664047241 0.018717164173722267 0.0076524773612618446
0.61655956506729126 0.012869935482740402 0.0042748991400003433
0.72494238615036011 0.011496390216052532 0.0021485721226781607
0.83650851249694824 0.013155573979020119 0.0013469023397192359
0.9419485330581665 0.016996227204799652 0.0021227968391031027
0.99911826848983765 0.01758970320224762 0
1 0.01371638011187315 0
0.067437566816806793 0.10754876583814621 0.058821912854909897
0.1143183559179306 0.10497408360242844 0.056215234100818634
0.1805589348077774 0.10282859206199646 0.056876957416534424
0.25728005170822144 0.10115846991539001 0.054486680775880814
0.33870255947113037 0.098946228623390198 0.049131881445646286
0.42485502362251282 0.093759573996067047 0.04205569252371788
0.51691979169845581 0.084381192922592163 0.033762030303478241
0.61678707599639893 0.074340984225273132 0.024835400283336639
0.72337770462036133 0.067686520516872406 0.015405423007905483
0.83405917882919312 0.065444409847259521 0.0083351284265518188
0.94071727991104126 0.067503921687602997 0.0052522248588502407
0.99865198135375977 0.067569106817245483 0.00055199419148266315
1 0.063843190670013428 0
0.097486324608325958 0.18768671154975891 0.096440605819225311
0.13395588099956512 0.18550878763198853 0.092918694019317627
0.19158056378364563 0.18244974315166473 0.091662310063838959
0.26527208089828491 0.17958457767963409 0.088616497814655304
0.345836341381073 0.17679110169410706 0.083690986037254333
0.43107789754867554 0.17254678905010223 0.076834537088871002
0.5224987268447876 0.16455057263374329 0.067507080733776093
0.62207150459289551 0.15342359244823456 0.055576473474502563
0.72887665033340454 0.14316852390766144 0.041491638869047165
0.84006893634796143 0.13636180758476257 0.028514906764030457
0.94508808851242065 0.13376449048519135 0.018176164478063583
0.99922579526901245 0.13120453059673309 0.0066504683345556259
1 0.12797686457633972 0.00037461821921169758
0.10843177884817123 0.2679755687713623 0.13828076422214508
0.14456892013549805 0.26534482836723328 0.13502256572246552
0.20074878633022308 0.2628876268863678 0.13133127987384796
0.27435111999511719 0.26066631078720093 0.12666857242584229
0.3550228476524353 0.2587788999080658 0.1216173991560936
0.43954947590827942 0.25664582848548889 0.11548841744661331
0.53026926517486572 0.25161486864089966 0.10641041398048401
0.62973940372467041 0.24157314002513885 0.093213953077793121
0.73668533563613892 0.23126375675201416 0.077410228550434113
0.84694921970367432 0.22267745435237885 0.061103567481040955
0.94828975200653076 0.21641533076763153 0.04511401429772377
0.9991905689239502 0.21127940714359283 0.02848784439265728
1 0.2072148323059082 0.012348429299890995
0.10984913259744644 0.35059240460395813 0.18189381062984467
0.14818403124809265 0.34754639863967896 0.17887073755264282
0.20737238228321075 0.34572687745094299 0.17416664958000183
0.28346413373947144 0.34420663118362427 0.16820062696933746
0.36497175693511963 0.34307688474655151 0.1629493236541748
0.44872367382049561 0.34173256158828735 0.15760046243667603
0.5393567681312561 0.33859574794769287 0.14885419607162476
0.63794189691543579 0.33251583576202393 0.13582441210746765
0.74294722080230713 0.32499977946281433 0.11990233510732651
0.85052621364593506 0.31756460666656494 0.10258277505636215
0.94759184122085571 0.30997487902641296 0.084069393575191498
0.99848639965057373 0.30360576510429382 0.063844196498394012
1 0.2985541820526123 0.042730711400508881
0.1135454848408699 0.43762147426605225 0.22644460201263428
0.15455442667007446 0.43531501293182373 0.22339235246181488
0.21456995606422424 0.43407532572746277 0.21911449730396271
0.28965592384338379 0.4336579442024231 0.21371449530124664
0.37172192335128784 0.43245464563369751 0.20846164226531982
0.45707044005393982 0.42981424927711487 0.20284596085548401
0.54834175109863281 0.4275912344455719 0.19421288371086121
0.64610224962234497 0.42521935701370239 0.18205498158931732
0.74943727254867554 0.42139807343482971 0.16728478670120239
0.85568815469741821 0.41572469472885132 0.15042155981063843
0.9502183198928833 0.40846598148345947 0.13088265061378479
0.99833732843399048 0.40192043781280518 0.10647636651992798
1 0.39682227373123169 0.080638065934181213
0.12229174375534058 0.52852600812911987 0.27209341526031494
0.16356007754802704 0.52776819467544556 0.2696576714515686
0.22186709940433502 0.52784985303878784 0.26642435789108276
0.29509821534156799 0.52925127744674683 0.26214456558227539
0.37739637494087219 0.52849406003952026 0.25718796253204346
0.46576860547065735 0.52482432126998901 0.2506219744682312
0.55837315320968628 0.52238911390304565 0.24171122908592224
0.65519368648529053 0.52140188217163086 0.23050859570503235
0.75655651092529297 0.51983165740966797 0.21752125024795532
0.86163914203643799 0.51562434434890747 0.2022324800491333
0.95489132404327393 0.50880205631256104 0.18256726861000061
0.9984203577041626 0.50255447626113892 0.15498439967632294
1 0.4982793927192688 0.12499760836362839
0.13978597521781921 0.62252885103225708 0.31956511735916138
0.17776556313037872 0.62245279550552368 0.31789478659629822
0.23404225707054138 0.62403887510299683 0.31566354632377625
0.30599543452262878 0.62720733880996704 0.3123442530632019
0.3886972963809967 0.62723803520202637 0.30708745121955872
0.47862792015075684 0.62336742877960205 0.29958328604698181
0.571544349193573 0.62048369646072388 0.29051855206489563
0.66594916582107544 0.62050515413284302 0.2805074155330658
0.76308637857437134 0.6205899715423584 0.26920878887176514
0.86326217651367188 0.61730968952178955 0.25536724925041199
0.95224159955978394 0.61058026552200317 0.23586969077587128
0.99659448862075806 0.60437357425689697 0.20847192406654358
1 0.60038745403289795 0.17862942814826965
0.17193733155727386 0.71639865636825562 0.3685055673122406
0.20496088266372681 0.71727257966995239 0.36783948540687561
0.2581372857093811 0.72004777193069458 0.36655950546264648
0.32799258828163147 0.72354257106781006 0.36326009035110474
0.40965241193771362 0.72270536422729492 0.35764873027801514
0.49858266115188599 0.71906495094299316 0.34989330172538757
0.58913290500640869 0.71755868196487427 0.34131032228469849
0.67947745323181152 0.71989810466766357 0.33226323127746582
0.77253466844558716 0.72187274694442749 0.32233408093452454
0.86892920732498169 0.71904629468917847 0.30987969040870667
0.95378899574279785 0.7113988995552063 0.29180532693862915
0.99653458595275879 0.7051118016242981 0.26691985130310059
1 0.70199847221374512 0.23913460969924927
0.22543378174304962 0.81044948101043701 0.41891247034072876
0.25431397557258606 0.81251901388168335 0.41954207420349121
0.30101326107978821 0.81506520509719849 0.41916635632514954
0.36490681767463684 0.8163256049156189 0.41632801294326782
0.44182923436164856 0.81484657526016235 0.41073900461196899
0.52633345127105713 0.8114321231842041 0.40315419435501099
0.61101174354553223 0.81187939643859863 0.39512857794761658
0.695465087890625 0.81693351268768311 0.38733914494514465
0.78366625308990479 0.82085871696472168 0.37814384698867798
0.8777846097946167 0.81874763965606689 0.36768019199371338
0.96306359767913818 0.80919194221496582 0.35280826687812805
0.99922919273376465 0.80353927612304688 0.32999333739280701
1 0.80191570520401001 0.30306661128997803
0.30084413290023804 0.89855903387069702 0.47110015153884888
0.32548689842224121 0.9023091197013855 0.47269079089164734
0.36410507559776306 0.90487110614776611 0.47313800454139709
0.41883215308189392 0.90526008605957031 0.47227585315704346
0.48687729239463806 0.90269637107849121 0.46738079190254211
0.56243079900741577 0.89987552165985107 0.46079659461975098
0.63917446136474609 0.90060245990753174 0.45395150780677795
0.71580684185028076 0.90619301795959473 0.44688108563423157
0.79559111595153809 0.9125974178314209 0.43908774852752686
0.8820757269859314 0.91201406717300415 0.43016597628593445
0.96535563468933105 0.90274137258529663 0.41794282197952271
0.99944126605987549 0.8997001051902771 0.39696955680847168
1 0.89784407615661621 0.37092515826225281
0.39555257558822632 0.97530323266983032 0.5264015793800354
0.41554391384124756 0.97916644811630249 0.52797544002532959
0.4465993344783783 0.98147213459014893 0.53057479858398438
0.49130553007125854 0.98175650835037231 0.53041118383407593
0.54900056123733521 0.97921544313430786 0.52649599313735962
0.61389780044555664 0.9764360785484314 0.52170395851135254
0.68157029151916504 0.97595244646072388 0.51664096117019653
0.75016903877258301 0.97829443216323853 0.51151752471923828
0.82055222988128662 0.98128575086593628 0.50598657131195068
0.8960498571395874 0.9790111780166626 0.49988019466400146
0.96782100200653076 0.97299838066101074 0.48940011858940125
0.99899232387542725 0.97837674617767334 0.46835747361183167
1 0.97685867547988892 0.4434933066368103
0.50444728136062622 1 0.58271074295043945
0.52145159244537354 1 0.58460569381713867
0.54666709899902344 1 0.58820247650146484
0.5828697681427002 1 0.58848041296005249
0.62975078821182251 1 0.5870322585105896
0.68408608436584473 1 0.58411300182342529
0.7430310845375061 1 0.58166766166687012
0.8053322434425354 1 0.5793260931968689
0.87117242813110352 1 0.57726895809173584
0.94089657068252563 0.99972790479660034 0.57480311393737793
0.99292492866516113 0.99904316663742065 0.56532233953475952
1 1 0.54353249073028564
1 1 0.51835227012634277
0.025646599009633064 0.026390824466943741 0.06372050940990448
0.086100712418556213 0.022997463122010231 0.062847122550010681
0.15976899862289429 0.022465994581580162 0.061974558979272842
0.2394975870847702 0.023556968197226524 0.057323068380355835
0.32264763116836548 0.026049401611089706 0.049523476511240005
0.41044414043426514 0.024916704744100571 0.041231505572795868
0.50516647100448608 0.018623622134327888 0.034306172281503677
0.6079862117767334 0.012306198477745056 0.028044920414686203
0.71845978498458862 0.0099666817113757133 0.021392073482275009
0.83304566144943237 0.011477481573820114 0.014484943822026253
0.94060814380645752 0.01593811996281147 0.0065367454662919044
0.99867093563079834 0.014204840175807476 0.00025347541668452322
1 0.0067838332615792751 0
0.053880296647548676 0.099515877664089203 0.099022269248962402
0.10197779536247253 0.097726292908191681 0.09785730391740799
0.17045325040817261 0.094817206263542175 0.095120236277580261
0.24822710454463959 0.093701347708702087 0.090132512152194977
0.32947638630867004 0.093781627714633942 0.082774430513381958
0.41524407267570496 0.090800359845161438 0.073826193809509277
0.50759482383728027 0.082216359674930573 0.064472988247871399
0.60828614234924316 0.071629241108894348 0.054016817361116409
0.71686404943466187 0.063214018940925598 0.042040850967168808
0.83034402132034302 0.059871971607208252 0.029791723936796188
0.93932884931564331 0.060670830309391022 0.019477065652608871
0.99834352731704712 0.057035662233829498 0.0059152492322027683
1 0.047997597604990005 0.00011831545270979404
0.079860135912895203 0.179891437292099 0.13490547239780426
0.12063742429018021 0.17916546761989594 0.13217596709728241
0.18162235617637634 0.17666281759738922 0.12881571054458618
0.25607821345329285 0.1741643100976944 0.12430442124605179
0.33668214082717896 0.17212037742137909 0.11805980652570724
0.42171689867973328 0.16834889352321625 0.10984791815280914
0.51322156190872192 0.16058705747127533 0.099789626896381378
0.61330407857894897 0.14905397593975067 0.086766459047794342
0.72195273637771606 0.13757935166358948 0.071614779531955719
0.83605748414993286 0.12960226833820343 0.055881261825561523
0.9429936408996582 0.12471860647201538 0.041249863803386688
0.99865216016769409 0.1183905228972435 0.024318665266036987
1 0.11024510860443115 0.0075429282151162624
0.094251818954944611 0.26152205467224121 0.17333175241947174
0.13467945158481598 0.26006206870079041 0.16981840133666992
0.19244644045829773 0.258402019739151 0.16569031774997711
0.26543450355529785 0.25646111369132996 0.16060583293437958
0.3457636833190918 0.25470790266990662 0.15526010096073151
0.43044325709342957 0.25258409976959229 0.14859922230243683
0.52093708515167236 0.24738353490829468 0.13908734917640686
0.62054991722106934 0.23727136850357056 0.12562736868858337
0.72813588380813599 0.22623080015182495 0.109432652592659
0.84065741300582886 0.21702331304550171 0.092268146574497223
0.94394588470458984 0.20926405489444733 0.074998117983341217
0.99841153621673584 0.20085969567298889 0.055065829306840897
1 0.19267617166042328 0.034747615456581116
0.099305354058742523 0.34546378254890442 0.21381944417953491
0.14175444841384888 0.34326854348182678 0.21033099293708801
0.20116607844829559 0.34152370691299438 0.20567390322685242
0.27530395984649658 0.34019464254379272 0.20001955330371857
0.35596844553947449 0.33922982215881348 0.19505487382411957
0.44003105163574219 0.33832642436027527 0.189581498503685
0.52997118234634399 0.33549132943153381 0.18098784983158112
0.62766170501708984 0.32928097248077393 0.1682782769203186
0.73175632953643799 0.3214990496635437 0.15239404141902924
0.8404620885848999 0.31377863883972168 0.13483633100986481
0.94189631938934326 0.30547532439231873 0.11607899516820908
0.99794226884841919 0.29677268862724304 0.094145894050598145
1 0.2882237434387207 0.070723451673984528
0.10254565626382828 0.43359684944152832 0.25588959455490112
0.14695607125759125 0.43132928013801575 0.25241008400917053
0.20773977041244507 0.42996397614479065 0.2480795830488205
0.28193455934524536 0.42941734194755554 0.24294881522655487
0.36309334635734558 0.42884781956672668 0.23823545873165131
0.44820350408554077 0.4277191162109375 0.23277522623538971
0.53883439302444458 0.42552611231803894 0.22473786771297455
0.63492429256439209 0.42265471816062927 0.21327994763851166
0.73607981204986572 0.41838976740837097 0.19887219369411469
0.84313380718231201 0.41284021735191345 0.18252936005592346
0.94474625587463379 0.40508842468261719 0.16363026201725006
0.99798786640167236 0.39707526564598083 0.13833968341350555
1 0.38983702659606934 0.11086166650056839
0.10879410058259964 0.52649396657943726 0.2997167706489563
0.15294238924980164 0.52446156740188599 0.29665365815162659
0.21306639909744263 0.52437871694564819 0.29311597347259521
0.28641912341117859 0.52514028549194336 0.28898942470550537
0.368875652551651 0.52478927373886108 0.28423181176185608
0.45679947733879089 0.52323812246322632 0.27816149592399597
0.54884183406829834 0.51983487606048584 0.2699647843837738
0.64383542537689209 0.51885998249053955 0.25990989804267883
0.74259465932846069 0.51674401760101318 0.24768759310245514
0.848743736743927 0.51299548149108887 0.23327937722206116
0.94841867685317993 0.50590789318084717 0.21415632963180542
0.99750161170959473 0.49899756908416748 0.18615002930164337
1 0.49319177865982056 0.15467125177383423
0.12343759089708328 0.62330478429794312 0.34540733695030212
0.16452112793922424 0.62186259031295776 0.34309878945350647
0.22257417440414429 0.6228908896446228 0.34032067656517029
0.29540577530860901 0.62390667200088501 0.33677709102630615
0.37918311357498169 0.62356197834014893 0.33176743984222412
0.46939879655838013 0.62056392431259155 0.32487779855728149
0.56239026784896851 0.61758458614349365 0.31693488359451294
0.65525561571121216 0.61697632074356079 0.30765387415885925
0.74879372119903564 0.61743813753128052 0.29724115133285522
0.84860152006149292 0.6153748631477356 0.28441748023033142
0.94499629735946655 0.6083875298500061 0.26575243473052979
0.99568003416061401 0.60142576694488525 0.23864200711250305
1 0.59665489196777344 0.20842210948467255
0.15464825928211212 0.72039896249771118 0.39268255233764648
0.19086366891860962 0.72046124935150146 0.39129525423049927
0.24527285993099213 0.7207295298576355 0.38930734992027283
0.31571343541145325 0.72235941886901855 0.38597697019577026
0.39855414628982544 0.72053283452987671 0.38061428070068359
0.48867389559745789 0.71680206060409546 0.37336951494216919
0.58034384250640869 0.71432852745056152 0.36547458171844482
0.67055833339691162 0.71571117639541626 0.35690471529960632
0.76101040840148926 0.71861225366592407 0.34768474102020264
0.8578258752822876 0.71703565120697021 0.3362019956111908
0.95119744539260864 0.70915490388870239 0.31954869627952576
0.99792176485061646 0.70238000154495239 0.29578077793121338
1 0.69892972707748413 0.26892831921577454
0.20853501558303833 0.81589037179946899 0.44158062338829041
0.23989742994308472 0.81701278686523438 0.44105410575866699
0.2878689169883728 0.81774616241455078 0.44015717506408691
0.35225400328636169 0.81752032041549683 0.43728169798851013
0.42976498603820801 0.81515175104141235 0.43209394812583923
0.51496315002441406 0.81076216697692871 0.42507684230804443
0.601581871509552 0.80976539850234985 0.41750824451446533
0.6869242787361145 0.81411844491958618 0.40952101349830627
0.77558380365371704 0.81883507966995239 0.40070348978042603
0.87197196483612061 0.81681364774703979 0.39045977592468262
0.96281158924102783 0.80757540464401245 0.37680137157440186
0.99989759922027588 0.80120545625686646 0.35623711347579956
1 0.8001592755317688 0.33195632696151733
0.28750553727149963 0.90509521961212158 0.49263867735862732
0.31338846683502197 0.90715968608856201 0.4932752251625061
0.35309457778930664 0.90813261270523071 0.49337971210479736
0.40788966417312622 0.90721327066421509 0.49168616533279419
0.47538051009178162 0.90434473752975464 0.48710709810256958
0.5508236289024353 0.90080231428146362 0.48129451274871826
0.62835580110549927 0.90088164806365967 0.47453412413597107
0.70640403032302856 0.90564310550689697 0.46686509251594543
0.78872466087341309 0.91141414642333984 0.4581795334815979
0.87817227840423584 0.91039639711380005 0.44882747530937195
0.96210700273513794 0.90189403295516968 0.43791964650154114
0.99922651052474976 0.89707112312316895 0.41998302936553955
1 0.89640331268310547 0.39770597219467163
0.38837403059005737 0.97933661937713623 0.54701244831085205
0.40892255306243896 0.98193454742431641 0.54889512062072754
0.44000333547592163 0.98328030109405518 0.54987746477127075
0.48378956317901611 0.98269617557525635 0.54931318759918213
0.53952705860137939 0.98059737682342529 0.54554545879364014
0.60323125123977661 0.97823476791381836 0.54129600524902344
0.67033791542053223 0.97755759954452515 0.5362057089805603
0.7400011420249939 0.9792104959487915 0.53012961149215698
0.8134123682975769 0.98180097341537476 0.52273780107498169
0.89168572425842285 0.98017024993896484 0.51476806402206421
0.96330267190933228 0.97408676147460938 0.50565284490585327
0.99849921464920044 0.97546088695526123 0.48893857002258301
1 0.97605770826339722 0.46766334772109985
0.50464195013046265 1 0.6047896146774292
0.52140754461288452 1 0.60628986358642578
0.54522693157196045 1 0.60778027772903442
0.57916265726089478 1 0.60778188705444336
0.62343579530715942 1 0.60635095834732056
0.67557942867279053 1 0.60380768775939941
0.73307913541793823 1 0.60093802213668823
0.79551213979721069 1 0.59778058528900146
0.86259543895721436 1 0.59381890296936035
0.93181395530700684 1 0.58919578790664673
0.9873967170715332 0.99999767541885376 0.58002316951751709
0.99997830390930176 1 0.56261622905731201
1 1 0.54094475507736206
0.017968002706766129 0.023634172976016998 0.10574713349342346
0.072389982640743256 0.024309329688549042 0.10111736506223679
0.14727219939231873 0.018895393237471581 0.10013823956251144
0.22916349768638611 0.016518447548151016 0.096231810748577118
0.31285446882247925 0.020247979089617729 0.087062031030654907
0.40080776810646057 0.022515226155519485 0.077060669660568237
0.49649283289909363 0.01755891740322113 0.070281684398651123
0.60020476579666138 0.011142775416374207 0.063619039952754974
0.71071279048919678 0.0074720047414302826 0.055152580142021179
0.82534599304199219 0.0076561872847378254 0.042190462350845337
0.9318084716796875 0.010906503535807133 0.02371959388256073
0.99557989835739136 0.0068627898581326008 0.0059506134130060673
1 0.00091476441593840718 0.00021305457630660385
0.044588889926671982 0.092829927802085876 0.14133477210998535
0.092888608574867249 0.092286035418510437 0.13839967548847198
0.16153506934642792 0.086429163813591003 0.13567258417606354
0.23965561389923096 0.083565548062324524 0.1310831755399704
0.32079190015792847 0.084938928484916687 0.12240729480981827
0.406678706407547 0.084975659847259521 0.11231445521116257
0.49984201788902283 0.078361928462982178 0.10276900976896286
0.60137015581130981 0.067813009023666382 0.093026027083396912
0.71083372831344604 0.058085571974515915 0.081533052027225494
0.82528537511825562 0.052792344242334366 0.066588021814823151
0.93027573823928833 0.050319790840148926 0.046888373792171478
0.99317252635955811 0.040966004133224487 0.024291498586535454
1 0.026619197800755501 0.0057205497287213802
0.06790267676115036 0.17183868587017059 0.1755003035068512
0.11075137555599213 0.1714736670255661 0.17288880050182343
0.17176732420921326 0.16895438730716705 0.16955062747001648
0.24612925946712494 0.16687504947185516 0.16513018310070038
0.32705208659172058 0.16437092423439026 0.15806302428245544
0.41300234198570251 0.16086187958717346 0.14919622242450714
0.50557994842529297 0.1539144366979599 0.13909222185611725
0.60654693841934204 0.14326034486293793 0.12725207209587097
0.71594500541687012 0.13177129626274109 0.1135072261095047
0.83090221881866455 0.12250243872404099 0.097287632524967194
0.93645846843719482 0.11431270092725754 0.07750479131937027
0.99547296762466431 0.10235073417425156 0.053603064268827438
1 0.088265679776668549 0.029599208384752274
0.083126664161682129 0.25412747263908386 0.21165789663791656
0.12557244300842285 0.2535158097743988 0.20843842625617981
0.18279625475406647 0.25259336829185486 0.20472320914268494
0.25452810525894165 0.25106167793273926 0.20023722946643829
0.33491396903991699 0.24822650849819183 0.1947208046913147
0.420991450548172 0.24472260475158691 0.18758203089237213
0.5134766697883606 0.23964087665081024 0.1781996488571167
0.61362063884735107 0.23110838234424591 0.16610023379325867
0.72164005041122437 0.2208026647567749 0.15146706998348236
0.83493667840957642 0.21131148934364319 0.13513548672199249
0.93802249431610107 0.20229528844356537 0.11606615781784058
0.99642443656921387 0.19046895205974579 0.092830955982208252
1 0.17700745165348053 0.067877583205699921
0.090176962316036224 0.3394349217414856 0.24921311438083649
0.13475103676319122 0.33790510892868042 0.24597646296024323
0.19286876916885376 0.3368346095085144 0.24185578525066376
0.26410701870918274 0.33569225668907166 0.23755499720573425
0.34409371018409729 0.33397096395492554 0.23311628401279449
0.43029648065567017 0.33228260278701782 0.22735229134559631
0.52229982614517212 0.32964956760406494 0.21910083293914795
0.62064832448959351 0.32415345311164856 0.20784491300582886
0.72488903999328613 0.31631171703338623 0.19381843507289886
0.83472204208374023 0.30892390012741089 0.17796178162097931
0.93768179416656494 0.30155447125434875 0.15997883677482605
0.9966050386428833 0.29165995121002197 0.13696978986263275
1 0.27889683842658997 0.11076632887125015
0.092469081282615662 0.42901152372360229 0.28859147429466248
0.13951879739761353 0.42678835988044739 0.28530704975128174
0.20018523931503296 0.42541873455047607 0.28154492378234863
0.27166131138801575 0.42519012093544006 0.2776494026184082
0.35212323069572449 0.42483896017074585 0.27364674210548401
0.43896880745887756 0.42399698495864868 0.26848962903022766
0.53118181228637695 0.42212733626365662 0.26112359762191772
0.62743133306503296 0.41831445693969727 0.25120490789413452
0.72796797752380371 0.41273593902587891 0.23857071995735168
0.83601510524749756 0.4077279269695282 0.22418937087059021
