assets/lut/films negative color fuji superia hg 1600.cube
# Created by: G'MIC (https://gmic.eu)
TITLE "fuji_superia_hg_1600"
# LUT size
LUT_3D_SIZE 5
# Data domain
DOMAIN_MIN 0.0 0.0 0.0
DOMAIN_MAX 1.0 1.0 1.0
# LUT data points
0.10125157982110977 0.092122741043567657 0.089543841779232025
0.27105244994163513 0.080890417098999023 0.099196188151836395
0.46614742279052734 0.044025078415870667 0.098756678402423859
0.69123321771621704 0.063185885548591614 0.077302433550357819
0.88890451192855835 0.11344372481107712 0.057922378182411194
0.19655612111091614 0.28219479322433472 0.18149039149284363
0.31964385509490967 0.28130972385406494 0.18399617075920105
0.52486562728881836 0.27698758244514465 0.18395534157752991
0.71820962429046631 0.2245672345161438 0.17863787710666656
0.85798650979995728 0.081030689179897308 0.14424262940883636
0.28882637619972229 0.50350064039230347 0.26874914765357971
0.3946898877620697 0.507080078125 0.27172490954399109
0.59309083223342896 0.51202261447906494 0.27044478058815002
0.78142678737640381 0.48729664087295532 0.26719534397125244
0.93518590927124023 0.38140749931335449 0.23843121528625488
0.41090202331542969 0.71036094427108765 0.38810279965400696
0.49788045883178711 0.71752959489822388 0.38865944743156433
0.66366297006607056 0.72663438320159912 0.38759523630142212
0.83465772867202759 0.7340582013130188 0.38065400719642639
0.99514555931091309 0.70952898263931274 0.36111009120941162
0.53988015651702881 0.90533852577209473 0.54363232851028442
0.61827588081359863 0.91499179601669312 0.53427112102508545
0.73494690656661987 0.92770838737487793 0.53023034334182739
0.87562465667724609 0.93927156925201416 0.5314452052116394
1 0.93895548582077026 0.52591204643249512
0.07614242285490036 0.10573559999465942 0.2184048593044281
0.23925134539604187 0.098400160670280457 0.22159713506698608
0.43563273549079895 0.060006041079759598 0.22264593839645386
0.64719933271408081 0.05309765413403511 0.21558065712451935
0.84186393022537231 0.084081418812274933 0.19618424773216248
0.15517431497573853 0.28667598962783813 0.28374916315078735
0.28376772999763489 0.28351268172264099 0.28601375222206116
0.49867552518844604 0.28026273846626282 0.28874474763870239
0.69132447242736816 0.22877353429794312 0.2810729444026947
0.82136040925979614 0.060318440198898315 0.25529637932777405
0.24461300671100616 0.50210815668106079 0.36463996767997742
0.36017662286758423 0.50898629426956177 0.36706447601318359
0.56586629152297974 0.51327037811279297 0.3702663779258728
0.75301635265350342 0.49130278825759888 0.36837664246559143
0.91305786371231079 0.39716348052024841 0.34587377309799194
0.38222649693489075 0.70502793788909912 0.46808046102523804
0.4735291600227356 0.70730966329574585 0.47059684991836548
0.63435328006744385 0.7176482081413269 0.47126466035842896
0.80578291416168213 0.72735852003097534 0.47228822112083435
0.98143714666366577 0.69964367151260376 0.4562230110168457
0.52041482925415039 0.90006124973297119 0.59861916303634644
0.59083718061447144 0.90329146385192871 0.59851139783859253
0.70165467262268066 0.91650712490081787 0.60049152374267578
0.84666460752487183 0.93415635824203491 0.60132169723510742
0.99988418817520142 0.93108457326889038 0.59121614694595337
0.042997024953365326 0.11298394203186035 0.35335302352905273
0.20051731169223785 0.11876790970563889 0.36329221725463867
0.41250967979431152 0.10306897759437561 0.36687460541725159
0.59683394432067871 0.028273668140172958 0.35947373509407043
0.78666800260543823 0.043400976806879044 0.34682676196098328
0.10615910589694977 0.29667383432388306 0.42886483669281006
0.23045668005943298 0.29705992341041565 0.43279531598091125
0.45604971051216125 0.29516920447349548 0.43900856375694275
0.65098613500595093 0.24745319783687592 0.43670225143432617
0.78492134809494019 0.093990728259086609 0.41606152057647705
0.16757054626941681 0.50524348020553589 0.50845283269882202
0.30080950260162354 0.50655853748321533 0.51122182607650757
0.51551729440689087 0.51426559686660767 0.51434206962585449
0.70723056793212891 0.49773013591766357 0.51958906650543213
0.86746501922607422 0.4097907543182373 0.50712388753890991
0.31626072525978088 0.69747966527938843 0.59413725137710571
0.42016085982322693 0.69884377717971802 0.5951385498046875
0.58928978443145752 0.71161293983459473 0.59737169742584229
0.76040053367614746 0.71959143877029419 0.602253258228302
0.94156408309936523 0.69467777013778687 0.59428054094314575
0.47956061363220215 0.90218532085418701 0.68830579519271851
0.54463982582092285 0.9035603404045105 0.68830722570419312
0.66097527742385864 0.91255944967269897 0.6936456561088562
0.81185221672058105 0.92936402559280396 0.69638437032699585
0.99216616153717041 0.92703783512115479 0.68994593620300293
0.031021537259221077 0.15076357126235962 0.51484668254852295
0.15204107761383057 0.13947264850139618 0.52240997552871704
0.37215930223464966 0.13210968673229218 0.52919214963912964
0.55808430910110474 0.073636405169963837 0.53209400177001953
0.71902012825012207 0.0047507639974355698 0.52297180891036987
0.061198141425848007 0.32112747430801392 0.58076316118240356
0.1579970121383667 0.32604163885116577 0.58614742755889893
0.40676683187484741 0.32157576084136963 0.59099173545837402
0.60960179567337036 0.2768804132938385 0.59460556507110596
0.74096441268920898 0.11432073265314102 0.58230942487716675
0.093090608716011047 0.51377326250076294 0.64067775011062622
0.23796452581882477 0.52284693717956543 0.64649856090545654
0.47143244743347168 0.53187501430511475 0.65134847164154053
0.66562497615814209 0.52020585536956787 0.6578059196472168
0.83218514919281006 0.44663578271865845 0.65145671367645264
0.26195624470710754 0.69430732727050781 0.70966994762420654
0.37127542495727539 0.70333033800125122 0.71041464805603027
0.54733836650848389 0.71392613649368286 0.71610742807388306
0.72188156843185425 0.72078526020050049 0.720794677734375
0.9095873236656189 0.70110869407653809 0.71694213151931763
0.41611191630363464 0.90280115604400635 0.79275256395339966
0.49662318825721741 0.9051213264465332 0.7879907488822937
0.62104547023773193 0.91479301452636719 0.79468250274658203
0.77735507488250732 0.92923009395599365 0.79863846302032471
0.97737377882003784 0.9381023645401001 0.79827678203582764
0.012753939256072044 0.19834280014038086 0.65505987405776978
0.12167888134717941 0.2108568400144577 0.66412216424942017
0.34180137515068054 0.19950850307941437 0.67322438955307007
0.54201036691665649 0.1517205685377121 0.67946702241897583
0.66244524717330933 0.0005719353212043643 0.66865831613540649
0.00085347495041787624 0.36754855513572693 0.70947396755218506
0.12877659499645233 0.38157108426094055 0.71682244539260864
0.3703015148639679 0.3831498920917511 0.7252306342124939
0.58728760480880737 0.35049334168434143 0.7292788028717041
0.72836154699325562 0.20418114960193634 0.72593438625335693
0.0049490984529256821 0.54325670003890991 0.76575678586959839
0.18551759421825409 0.55034464597702026 0.77203452587127686
0.42657607793807983 0.56173938512802124 0.77982825040817261
0.62874013185501099 0.55947631597518921 0.7875935435295105
0.80635535717010498 0.49969300627708435 0.78784430027008057
0.17587549984455109 0.70258373022079468 0.8357207179069519
0.31685155630111694 0.70736181735992432 0.8359106183052063
0.50216329097747803 0.72525078058242798 0.84109187126159668
0.67723572254180908 0.73449611663818359 0.8499072790145874
0.86983692646026611 0.72609919309616089 0.85454463958740234
0.34532827138900757 0.9018855094909668 0.92033970355987549
0.44104251265525818 0.90469932556152344 0.91619044542312622
0.56983989477157593 0.9215470552444458 0.92365121841430664
0.73160374164581299 0.94109988212585449 0.92978358268737793
0.9492945671081543 0.95409005880355835 0.95105797052383423
