assets/lut/films colorslide kodak kodachrome 200.cube
# Created by: G'MIC (https://gmic.eu)
TITLE "kodak_kodachrome_200"
# LUT size
LUT_3D_SIZE 13
# Data domain
DOMAIN_MIN 0.0 0.0 0.0
DOMAIN_MAX 1.0 1.0 1.0
# LUT data points
0.019736509770154953 0.0096767647191882133 0.0047102686949074268
0.057902630418539047 0.010725537315011024 0.0074603063985705376
0.12052237987518311 0.013222024776041508 0.013030571863055229
0.20537205040454865 0.017832512035965919 0.021803073585033417
0.30291634798049927 0.021138090640306473 0.029069054871797562
0.40401643514633179 0.019542424008250237 0.028734423220157623
0.50141388177871704 0.016153223812580109 0.024749740958213806
0.59116429090499878 0.01219355221837759 0.019639557227492332
0.67295902967453003 0.0075725479982793331 0.014264633879065514
0.74727195501327515 0.0033437840174883604 0.0084263673052191734
0.81529831886291504 0.00061483943136408925 0.0032389771658927202
0.87651467323303223 0 0.00053818646119907498
0.9286574125289917 0 0
0.044977765530347824 0.06589265912771225 0.036119978874921799
0.076272957026958466 0.067003972828388214 0.039376679807901382
0.13777823746204376 0.068331807851791382 0.044044449925422668
0.22551256418228149 0.072242304682731628 0.05154813826084137
0.32563218474388123 0.075149551033973694 0.05814259871840477
0.42697381973266602 0.075227655470371246 0.060517597943544388
0.52254146337509155 0.073367208242416382 0.05922342836856842
0.60959064960479736 0.069772548973560333 0.055767208337783813
0.68819689750671387 0.062889337539672852 0.050591636449098587
0.76043260097503662 0.052164878696203232 0.042635254561901093
0.82764089107513428 0.039399869740009308 0.03191090002655983
0.88796138763427734 0.028474291786551476 0.019244862720370293
0.93801140785217285 0.024532407522201538 0.0092228604480624199
0.075487487018108368 0.14636963605880737 0.07738737016916275
0.10730820894241333 0.14689524471759796 0.079141341149806976
0.16229961812496185 0.14686000347137451 0.080599993467330933
0.24852249026298523 0.14698974788188934 0.084625422954559326
0.35017740726470947 0.14674130082130432 0.089467145502567291
0.44971171021461487 0.14665186405181885 0.093217365443706512
0.54234510660171509 0.14670868217945099 0.094340316951274872
0.62497180700302124 0.14519776403903961 0.092124626040458679
0.69987004995346069 0.13978619873523712 0.087486162781715393
0.76909375190734863 0.12883743643760681 0.080151304602622986
0.8341367244720459 0.1145862489938736 0.069478549063205719
0.89355158805847168 0.10230663418769836 0.056163083761930466
0.9410024881362915 0.097585909068584442 0.043567042797803879
0.078729994595050812 0.24685297906398773 0.1222488135099411
0.11704116314649582 0.2471078634262085 0.12303468585014343
0.17806792259216309 0.24598029255867004 0.12320854514837265
0.26866742968559265 0.24345205724239349 0.12441933155059814
0.37130594253540039 0.24010893702507019 0.12679462134838104
0.46818768978118896 0.23893140256404877 0.13010530173778534
0.55725270509719849 0.23815368115901947 0.13182482123374939
0.63591134548187256 0.2381490021944046 0.12993308901786804
0.70728671550750732 0.2339787632226944 0.12447609752416611
0.77339798212051392 0.22392281889915466 0.11683409661054611
0.83584481477737427 0.2099764496088028 0.10639563202857971
0.89183813333511353 0.19767971336841583 0.093455232679843903
0.93934381008148193 0.19065821170806885 0.081671908497810364
0.066152162849903107 0.35484904050827026 0.17134431004524231
0.11044824868440628 0.35467830300331116 0.17103393375873566
0.18913236260414124 0.35281762480735779 0.17095360159873962
0.28894832730293274 0.35011675953865051 0.17076107859611511
0.38862597942352295 0.34767282009124756 0.1712411493062973
0.48036602139472961 0.34647026658058167 0.17246784269809723
0.5655134916305542 0.34410578012466431 0.17355106770992279
0.64259016513824463 0.34294196963310242 0.170912966132164
0.71196073293685913 0.34030294418334961 0.16378724575042725
0.77566838264465332 0.33256387710571289 0.15399561822414398
0.83698409795761108 0.32110109925270081 0.14239971339702606
0.89130526781082153 0.30997323989868164 0.12945559620857239
0.93863707780838013 0.30173662304878235 0.11835701018571854
0.086199171841144562 0.45670297741889954 0.22603742778301239
0.13954484462738037 0.45562893152236938 0.22560453414916992
0.22247128188610077 0.45385992527008057 0.22543863952159882
0.31983655691146851 0.45241221785545349 0.22416308522224426
0.41069164872169495 0.45146727561950684 0.22341947257518768
0.49381318688392639 0.45135834813117981 0.22282247245311737
0.57353252172470093 0.44862639904022217 0.2225276380777359
0.64793533086776733 0.44696402549743652 0.21910688281059265
0.71601474285125732 0.44526186585426331 0.21057011187076569
0.77894669771194458 0.43981298804283142 0.19846116006374359
0.83788841962814331 0.43207910656929016 0.18443246185779572
0.8923766016960144 0.4254404604434967 0.16929897665977478
0.9393305778503418 0.41904082894325256 0.1565350741147995
0.15365561842918396 0.54221886396408081 0.28673848509788513
0.20443776249885559 0.54195940494537354 0.2863830029964447
0.27620992064476013 0.54063183069229126 0.28555861115455627
0.35823908448219299 0.54004901647567749 0.28398898243904114
0.43808162212371826 0.53972363471984863 0.28254431486129761
0.51316958665847778 0.53947508335113525 0.28153008222579956
0.58537131547927856 0.53831601142883301 0.27996450662612915
0.6546364426612854 0.53709286451339722 0.27564907073974609
0.72035032510757446 0.53580915927886963 0.26674500107765198
0.78283560276031494 0.53275799751281738 0.25370997190475464
0.84210580587387085 0.52910059690475464 0.23686446249485016
0.89562404155731201 0.52742189168930054 0.21825823187828064
0.94177502393722534 0.52415865659713745 0.20330736041069031
0.25073841214179993 0.6132504940032959 0.35089901089668274
0.28888735175132751 0.61382442712783813 0.35043984651565552
0.3411371111869812 0.61342144012451172 0.34933388233184814
0.40361177921295166 0.61307996511459351 0.34762239456176758
0.46967330574989319 0.61333787441253662 0.34566470980644226
0.53528308868408203 0.61337113380432129 0.34394353628158569
0.59978002309799194 0.61321407556533813 0.34196740388870239
0.66313767433166504 0.61251837015151978 0.33795621991157532
0.72532916069030762 0.61141723394393921 0.3297731876373291
0.78710091114044189 0.60959011316299438 0.31611314415931702
0.848014235496521 0.60799205303192139 0.29704999923706055
0.90433955192565918 0.60771316289901733 0.27547380328178406
0.95065933465957642 0.60579502582550049 0.25923490524291992
0.34921145439147949 0.67638248205184937 0.41460543870925903
0.37338635325431824 0.67709040641784668 0.41480574011802673
0.40651050209999084 0.67663025856018066 0.41401189565658569
0.45128217339515686 0.67667829990386963 0.41194763779640198
0.50369822978973389 0.67734062671661377 0.40951964259147644
0.55932003259658813 0.67781221866607666 0.40734317898750305
0.61579388380050659 0.67789775133132935 0.40516051650047302
0.67302733659744263 0.67767781019210815 0.40193578600883484
0.73108214139938354 0.67699390649795532 0.39530074596405029
0.79122257232666016 0.67556005716323853 0.38213261961936951
0.85405313968658447 0.67387646436691284 0.36137038469314575
0.91440743207931519 0.67242109775543213 0.33815398812294006
0.96047419309616089 0.67041563987731934 0.32155996561050415
0.42678964138031006 0.73775726556777954 0.47523263096809387
0.44276013970375061 0.73692357540130615 0.47661253809928894
0.46373265981674194 0.73646759986877441 0.47693470120429993
0.4960634708404541 0.73645836114883423 0.47539684176445007
0.53796762228012085 0.73653382062911987 0.47238194942474365
0.58470398187637329 0.73707443475723267 0.46965256333351135
0.63414639234542847 0.73752433061599731 0.46782591938972473
0.6850777268409729 0.73725992441177368 0.46528661251068115
0.7378915548324585 0.73700934648513794 0.46096205711364746
0.79474890232086182 0.73658686876296997 0.44915997982025146
0.8564799427986145 0.73496681451797485 0.42920991778373718
0.91659814119338989 0.73228949308395386 0.40763422846794128
0.95966809988021851 0.73116004467010498 0.39296096563339233
0.4840272068977356 0.80137425661087036 0.53226733207702637
0.49741858243942261 0.79973161220550537 0.53533023595809937
0.51246535778045654 0.79787003993988037 0.53649067878723145
0.53736358880996704 0.79727077484130859 0.53544831275939941
0.57118135690689087 0.79830360412597656 0.53324431180953979
0.61103522777557373 0.79889225959777832 0.53095746040344238
0.65407663583755493 0.79870009422302246 0.52851712703704834
0.69951039552688599 0.79861962795257568 0.52751070261001587
0.74733603000640869 0.79903155565261841 0.52457898855209351
0.80011254549026489 0.79906678199768066 0.5160212516784668
0.86004257202148438 0.79696786403656006 0.49961698055267334
0.92124146223068237 0.7936822772026062 0.48114192485809326
0.96386784315109253 0.79263705015182495 0.46740099787712097
0.53055059909820557 0.86850672960281372 0.58681768178939819
0.54310274124145508 0.86646056175231934 0.59050834178924561
0.55679816007614136 0.86453640460968018 0.59285807609558105
0.57720732688903809 0.86348462104797363 0.59327501058578491
0.60498356819152832 0.86343812942504883 0.5921940803527832
0.63861697912216187 0.86322951316833496 0.58978593349456787
0.67591512203216553 0.86276125907897949 0.58941102027893066
0.71661949157714844 0.86298036575317383 0.58931982517242432
0.75981265306472778 0.86414837837219238 0.58927285671234131
0.80895483493804932 0.86536270380020142 0.58470344543457031
0.86710602045059204 0.86459058523178101 0.57146948575973511
0.93087846040725708 0.86155843734741211 0.55354386568069458
0.98052644729614258 0.86055648326873779 0.53778654336929321
0.57157242298126221 0.93945378065109253 0.63945299386978149
0.58403056859970093 0.93731111288070679 0.64342653751373291
0.59721291065216064 0.93547570705413818 0.64613956212997437
0.61503857374191284 0.93448227643966675 0.64771836996078491
0.6387706995010376 0.93326479196548462 0.64791029691696167
0.66758573055267334 0.93259090185165405 0.64844709634780884
0.7003854513168335 0.93244016170501709 0.64939761161804199
0.73668563365936279 0.93322265148162842 0.65129804611206055
0.77587628364562988 0.9350314736366272 0.65383923053741455
0.82111924886703491 0.93733322620391846 0.65204828977584839
0.87532675266265869 0.93774509429931641 0.64081436395645142
0.93571656942367554 0.93627291917800903 0.62415462732315063
0.98833143711090088 0.93391704559326172 0.60683542490005493
0.018555885180830956 0.012682536616921425 0.03061676025390625
0.055866450071334839 0.012076194398105145 0.035276930779218674
0.11722417920827866 0.012874304316937923 0.040398046374320984
0.20180055499076843 0.014896183274686337 0.047008439898490906
0.30107727646827698 0.016606738790869713 0.052721839398145676
0.40523073077201843 0.016618331894278526 0.053947865962982178
0.5053134560585022 0.015481911599636078 0.05150127038359642
0.59630715847015381 0.013407269492745399 0.047774370759725571
0.67698317766189575 0.0095882043242454529 0.043140321969985962
0.74930131435394287 0.0049636242911219597 0.036142941564321518
0.81555241346359253 0.0014142055297270417 0.025266505777835846
0.87483483552932739 4.7392004489665851e-05 0.013551420532166958
0.92655855417251587 0 0.0056860083714127541
0.042969062924385071 0.06848406046628952 0.066843472421169281
0.073219984769821167 0.066640667617321014 0.069730170071125031
0.13509231805801392 0.063950665295124054 0.072611443698406219
0.22204861044883728 0.066566765308380127 0.078314900398254395
0.3233758807182312 0.068594448268413544 0.084167718887329102
0.42720666527748108 0.070421136915683746 0.087059050798416138
0.52517658472061157 0.071642614901065826 0.086970999836921692
0.61260151863098145 0.070518165826797485 0.084606051445007324
0.69052523374557495 0.064945012331008911 0.080445878207683563
0.76103723049163818 0.05485866591334343 0.073008596897125244
0.82544159889221191 0.042047314345836639 0.061094906181097031
0.8833422064781189 0.03054758720099926 0.047294825315475464
0.93249952793121338 0.025766290724277496 0.03479766845703125
0.076805278658866882 0.14705982804298401 0.10710696130990982
0.1028168648481369 0.14510469138622284 0.10839352756738663
0.15921662747859955 0.14196771383285522 0.10959632694721222
0.24462504684925079 0.14176152646541595 0.11366347968578339
0.34697738289833069 0.14151057600975037 0.11840835213661194
0.44852697849273682 0.14378379285335541 0.12217627465724945
0.54199004173278809 0.14633695781230927 0.12414872646331787
0.62580960988998413 0.14623455703258514 0.12234389036893845
0.70034921169281006 0.14145654439926147 0.11717396229505539
0.76867097616195679 0.13063642382621765 0.10807292908430099
0.83219891786575317 0.11613152921199799 0.095350734889507294
0.8888964056968689 0.10228861123323441 0.080807916820049286
0.93613940477371216 0.095868758857250214 0.06829477846622467
0.078996457159519196 0.24661915004253387 0.15303866565227509
0.11968672275543213 0.24393202364444733 0.15353943407535553
0.17871569097042084 0.24229736626148224 0.15468691289424896
0.26485905051231384 0.24048063158988953 0.1563517302274704
0.3672027587890625 0.2383689284324646 0.15894365310668945
0.4652649462223053 0.23950965702533722 0.16200830042362213
0.55467849969863892 0.24039646983146667 0.16382233798503876
0.63472563028335571 0.24008560180664062 0.16183628141880035
0.70642071962356567 0.23645567893981934 0.1549018919467926
0.772835373878479 0.2267693430185318 0.14357751607894897
0.83591920137405396 0.21276669204235077 0.12960982322692871
0.8926892876625061 0.19830545783042908 0.11506320536136627
0.93962794542312622 0.18940548598766327 0.10337639600038528
0.057487517595291138 0.35533136129379272 0.20427197217941284
0.11225089430809021 0.35320410132408142 0.20425252616405487
0.18982489407062531 0.35075175762176514 0.20484508574008942
0.28448793292045593 0.34892535209655762 0.20523898303508759
0.38374954462051392 0.34798851609230042 0.20595262944698334
0.47722110152244568 0.34861832857131958 0.20744918286800385
0.56300902366638184 0.34793192148208618 0.20868910849094391
0.64041048288345337 0.34621968865394592 0.20542731881141663
0.71005737781524658 0.34317269921302795 0.19625547528266907
0.77451980113983154 0.33663454651832581 0.18202283978462219
0.83801126480102539 0.32545799016952515 0.16670718789100647
0.89696699380874634 0.31296208500862122 0.15189144015312195
0.94496268033981323 0.3030238151550293 0.14038607478141785
0.073798537254333496 0.45771661400794983 0.2608456015586853
0.13343125581741333 0.45587584376335144 0.2608456015586853
0.21690334379673004 0.45392408967018127 0.2608456015586853
0.31169548630714417 0.45289742946624756 0.2608456015586853
0.40474587678909302 0.45341867208480835 0.25988909602165222
0.49082502722740173 0.45401310920715332 0.25985279679298401
0.57137769460678101 0.45194864273071289 0.2598787248134613
0.64550173282623291 0.45007419586181641 0.25605809688568115
0.71336561441421509 0.44741842150688171 0.24590671062469482
0.7771344780921936 0.44340762495994568 0.23082117736339569
0.83938056230545044 0.43630656599998474 0.21402880549430847
0.89744901657104492 0.42910748720169067 0.19637289643287659
0.94523805379867554 0.42123544216156006 0.1823628842830658
0.14262916147708893 0.54364299774169922 0.31971973180770874
0.19553764164447784 0.54389220476150513 0.31961372494697571
0.26832756400108337 0.5412868857383728 0.31934213638305664
0.35078936815261841 0.54080879688262939 0.31883975863456726
0.43260949850082397 0.54098284244537354 0.31853377819061279
0.50975322723388672 0.54193753004074097 0.31819409132003784
0.58303189277648926 0.54083359241485596 0.31700685620307922
0.65208745002746582 0.53996020555496216 0.31274297833442688
0.71722316741943359 0.53806686401367188 0.30338016152381897
0.7798084020614624 0.53529173135757446 0.2894255518913269
0.84113603830337524 0.5315936803817749 0.27168098092079163
0.89664733409881592 0.52963519096374512 0.25172567367553711
0.94311642646789551 0.52514350414276123 0.23412702977657318
0.24121932685375214 0.61482864618301392 0.38154858350753784
0.28116598725318909 0.6155584454536438 0.3816123902797699
0.33498498797416687 0.61490720510482788 0.38118430972099304
0.39866635203361511 0.61445409059524536 0.37980422377586365
0.46604380011558533 0.61490386724472046 0.37788841128349304
0.53262543678283691 0.61538207530975342 0.37708431482315063
0.59748131036758423 0.61521345376968384 0.37635388970375061
0.66041165590286255 0.61452186107635498 0.37203052639961243
0.72182893753051758 0.61301136016845703 0.36452651023864746
0.7832791805267334 0.61136388778686523 0.35200980305671692
0.84396672248840332 0.6092606782913208 0.33450794219970703
0.90084242820739746 0.60881584882736206 0.31260025501251221
0.94794940948486328 0.60646659135818481 0.29464045166969299
0.34209170937538147 0.6779751181602478 0.44170808792114258
0.3685709536075592 0.67854470014572144 0.44194862246513367
0.40370512008666992 0.67843425273895264 0.44167870283126831
0.44919231534004211 0.67834711074829102 0.440145343542099
0.50206464529037476 0.67849338054656982 0.43790465593338013
0.55776512622833252 0.67855334281921387 0.43631437420845032
0.61440688371658325 0.67855393886566162 0.43466928601264954
0.67063659429550171 0.67843317985534668 0.43144810199737549
0.72772866487503052 0.67768174409866333 0.42534980177879333
0.78691637516021729 0.67628639936447144 0.41399756073951721
0.84885191917419434 0.67450553178787231 0.39668059349060059
0.90809911489486694 0.67403095960617065 0.3755592405796051
0.95461875200271606 0.67199069261550903 0.3589293360710144
0.42404806613922119 0.73823297023773193 0.4992777407169342
0.44175833463668823 0.73787683248519897 0.5009382963180542
0.46382135152816772 0.73702734708786011 0.50109899044036865
0.49649825692176819 0.73657840490341187 0.49916398525238037
0.53781110048294067 0.73646998405456543 0.4964480996131897
0.58390551805496216 0.73649156093597412 0.49403244256973267
0.63255614042282104 0.73646038770675659 0.49163508415222168
0.68297028541564941 0.73645836114883423 0.48903855681419373
0.73512095212936401 0.73645853996276855 0.48466929793357849
0.79072517156600952 0.73645931482315063 0.47518286108970642
0.85155528783798218 0.73554462194442749 0.45907816290855408
0.91213154792785645 0.73282915353775024 0.44069206714630127
0.95668131113052368 0.73254489898681641 0.42624396085739136
0.48497042059898376 0.80105561017990112 0.55463325977325439
0.49869233369827271 0.80007565021514893 0.55689722299575806
0.51447021961212158 0.79930615425109863 0.55810487270355225
0.53853052854537964 0.79854333400726318 0.55630213022232056
0.57138669490814209 0.79784148931503296 0.55392426252365112
0.61027175188064575 0.79760110378265381 0.55095386505126953
0.65294146537780762 0.79644709825515747 0.54767429828643799
0.69802665710449219 0.7956499457359314 0.54530751705169678
0.74528682231903076 0.79648160934448242 0.54275333881378174
0.79682093858718872 0.79769021272659302 0.53669565916061401
0.85554343461990356 0.79690408706665039 0.52399253845214844
0.91665244102478027 0.79490643739700317 0.50833940505981445
0.96000188589096069 0.79442542791366577 0.49516648054122925
0.53239578008651733 0.86777102947235107 0.60758501291275024
0.54455554485321045 0.86659973859786987 0.61045187711715698
0.55776387453079224 0.86508911848068237 0.61170893907546997
0.57729023694992065 0.86377596855163574 0.61160701513290405
0.60441607236862183 0.86319166421890259 0.6094551682472229
0.63738828897476196 0.86158126592636108 0.60759806632995605
0.67482823133468628 0.86029738187789917 0.60468083620071411
0.71508693695068359 0.85979968309402466 0.60267442464828491
0.75834184885025024 0.86134982109069824 0.60273593664169312
0.80663442611694336 0.86376267671585083 0.60060679912567139
0.8641355037689209 0.86407119035720825 0.59117430448532104
0.92620676755905151 0.86197197437286377 0.57682472467422485
0.97423911094665527 0.86107891798019409 0.56300920248031616
0.57329446077346802 0.9387812614440918 0.65922468900680542
0.5850675106048584 0.93698525428771973 0.66218572854995728
0.59730392694473267 0.9356732964515686 0.66445624828338623
0.61486351490020752 0.93451917171478271 0.66510695219039917
0.63750296831130981 0.93244051933288574 0.66493302583694458
0.66581779718399048 0.93124282360076904 0.66390025615692139
0.69855666160583496 0.93052023649215698 0.66345202922821045
0.73407214879989624 0.93056821823120117 0.66371244192123413
0.77441978454589844 0.93304187059402466 0.66551297903060913
0.81981581449508667 0.93620830774307251 0.66495388746261597
0.87399137020111084 0.93774509429931641 0.65754592418670654
0.9358941912651062 0.93572896718978882 0.64419186115264893
0.98848313093185425 0.93382352590560913 0.62930405139923096
0.018454696983098984 0.016471458598971367 0.070458009839057922
0.056282296776771545 0.014468653127551079 0.075176522135734558
0.11435868591070175 0.015201643109321594 0.076548978686332703
0.19711627066135406 0.014943066984415054 0.079645775258541107
0.29842415452003479 0.013508052565157413 0.083830259740352631
0.40564718842506409 0.014199290424585342 0.085105881094932556
0.50894784927368164 0.015486982651054859 0.083371676504611969
0.60115379095077515 0.015258893370628357 0.080892972648143768
0.68065637350082397 0.012098574079573154 0.078169502317905426
0.75062805414199829 0.0075280880555510521 0.071743026375770569
0.81495457887649536 0.0033252192661166191 0.059600215405225754
0.87296128273010254 0.0008564968011341989 0.045043796300888062
0.92342758178710938 0.00017323213978670537 0.033191066235303879
0.038185972720384598 0.06822650134563446 0.10764598101377487
0.072091557085514069 0.066448792815208435 0.11072389036417007
0.13213509321212769 0.065738052129745483 0.11205100268125534
0.21739232540130615 0.065392918884754181 0.11471737176179886
0.31959214806556702 0.064017124474048615 0.11847952753305435
0.4254184365272522 0.066544458270072937 0.12085125595331192
0.52599906921386719 0.070526152849197388 0.12098897248506546
0.61449164152145386 0.071155235171318054 0.11955002695322037
0.69142776727676392 0.066622070968151093 0.11635184288024902
0.75969225168228149 0.057701289653778076 0.1086605116724968
0.82217186689376831 0.045761510729789734 0.095011860132217407
0.87750434875488281 0.034664753824472427 0.079764269292354584
0.92532968521118164 0.029340228065848351 0.067734375596046448
0.064639084041118622 0.14404375851154327 0.14783500134944916
0.095029078423976898 0.14298699796199799 0.14807233214378357
0.15301132202148438 0.14093062281608582 0.14996904134750366
0.23917816579341888 0.13947950303554535 0.15335173904895782
0.34105345606803894 0.13886229693889618 0.15705987811088562
0.44413432478904724 0.14167080819606781 0.1601317822933197
0.53974765539169312 0.14564235508441925 0.1621212363243103
0.6245112419128418 0.14646704494953156 0.16022250056266785
0.69932073354721069 0.14153768122196198 0.15477605164051056
0.76668059825897217 0.13106882572174072 0.144094318151474
0.82864964008331299 0.1166682094335556 0.12816886603832245
0.88292896747589111 0.10251767188310623 0.11073907464742661
0.92938113212585449 0.095109887421131134 0.097283370792865753
0.066000081598758698 0.24375841021537781 0.19467419385910034
0.10955674201250076 0.24133220314979553 0.19454428553581238
0.17300106585025787 0.23955781757831573 0.19630211591720581
0.25966301560401917 0.23817281424999237 0.19883783161640167
0.36048996448516846 0.23801322281360626 0.20142687857151031
0.45989155769348145 0.23998852074146271 0.20402403175830841
0.55092000961303711 0.24190402030944824 0.20556120574474335
0.63198113441467285 0.24071672558784485 0.20329801738262177
0.70444047451019287 0.23592551052570343 0.19515718519687653
0.77137696743011475 0.22620035707950592 0.1812615841627121
0.83482688665390015 0.21256227791309357 0.16371208429336548
0.89170807600021362 0.19818715751171112 0.14512687921524048
0.93814349174499512 0.18825444579124451 0.13047108054161072
0.044628862291574478 0.35388389229774475 0.24657553434371948
0.10630017518997192 0.35075023770332336 0.24708856642246246
0.18587182462215424 0.34819525480270386 0.24854737520217896
0.27934038639068604 0.34735733270645142 0.25005766749382019
0.37840121984481812 0.34813806414604187 0.2513631284236908
0.47312769293785095 0.35023590922355652 0.25277924537658691
