assets/lut/films colorslide fuji superia 200 xpro.cube
# Created by: G'MIC (https://gmic.eu)
TITLE "fuji_superia_200_xpro"
# LUT size
LUT_3D_SIZE 5
# Data domain
DOMAIN_MIN 0.0 0.0 0.0
DOMAIN_MAX 1.0 1.0 1.0
# LUT data points
0.00039984012255445123 0.033237967640161514 0.21420636773109436
0.001438140869140625 0.063556253910064697 0.24852088093757629
0.018859399482607841 0.076221615076065063 0.26503109931945801
0.13991124927997589 0.056045591831207275 0.2726266086101532
0.35056072473526001 0.084970064461231232 0.28338813781738281
0.0065053603611886501 0.31307855248451233 0.41752350330352783
0.012838161550462246 0.31420883536338806 0.42626979947090149
0.058396074920892715 0.30394315719604492 0.4196641743183136
0.23048330843448639 0.25910776853561401 0.39728787541389465
0.42916595935821533 0.24437299370765686 0.38323870301246643
0 0.64507323503494263 0.59305071830749512
6.8574794568121433e-05 0.64139866828918457 0.59212851524353027
0.059588070958852768 0.61473953723907471 0.57841295003890991
0.35312998294830322 0.51898801326751709 0.52602255344390869
0.5449213981628418 0.43695792555809021 0.48336347937583923
0.19744554162025452 0.98709630966186523 0.78340160846710205
0.17172852158546448 0.99365377426147461 0.78684878349304199
0.26872545480728149 0.98921716213226318 0.77725684642791748
0.4904380738735199 0.90631121397018433 0.70063287019729614
0.71017152070999146 0.73188287019729614 0.61932629346847534
0.95037466287612915 1 0.98767411708831787
0.95799291133880615 1 0.98542773723602295
0.97232019901275635 0.99919813871383667 0.99985295534133911
0.98232567310333252 0.99781769514083862 0.99758505821228027
0.99171727895736694 0.99978744983673096 0.84935295581817627
0 0.08370690792798996 0.42961025238037109
0 0.099365085363388062 0.43705323338508606
0.00097011489560827613 0.073578551411628723 0.41946384310722351
0.10622266680002213 0.07165960967540741 0.39799392223358154
0.32894137501716614 0.11819405853748322 0.39482885599136353
0.00011103013093816116 0.32415178418159485 0.54743689298629761
0.0038219376001507044 0.31907331943511963 0.54419583082199097
0.049427751451730728 0.29729434847831726 0.52100461721420288
0.1962597519159317 0.26075619459152222 0.48341527581214905
0.40015822649002075 0.24763087928295135 0.4625084400177002
0.005500374361872673 0.64326322078704834 0.68159258365631104
0.00016304464952554554 0.63794797658920288 0.67798328399658203
0.051369175314903259 0.59015083312988281 0.6489601731300354
0.31129983067512512 0.50282126665115356 0.59737467765808105
0.51374870538711548 0.43679240345954895 0.55215811729431152
0.1049201637506485 0.99799728393554688 0.87655133008956909
0.12297657877206802 0.99140554666519165 0.87144595384597778
0.19518749415874481 0.9614861011505127 0.83814698457717896
0.46290355920791626 0.86343628168106079 0.7562364935874939
0.68906360864639282 0.71663784980773926 0.67126500606536865
0.91422903537750244 1 0.99981033802032471
0.92607086896896362 0.99953228235244751 1
0.94729840755462646 0.99986261129379272 0.99874997138977051
0.95751935243606567 0.9987683892250061 0.99666464328765869
0.97003507614135742 0.999897301197052 0.88056784868240356
9.9271885119378567e-05 0.12593258917331696 0.56627267599105835
0 0.11350413411855698 0.55172502994537354
0.005108268465846777 0.091777846217155457 0.5301252007484436
0.10240906476974487 0.1091160923242569 0.51632452011108398
0.30727922916412354 0.14232049882411957 0.49802291393280029
0 0.34203878045082092 0.66718572378158569
0.00069062475813552737 0.32757735252380371 0.65185797214508057
0.048919945955276489 0.29724395275115967 0.62573862075805664
0.17604176700115204 0.2730194628238678 0.59162980318069458
0.38646715879440308 0.27010568976402283 0.56165826320648193
0.0019129883730784059 0.62961041927337646 0.7858588695526123
3.8371366827050224e-05 0.60462731122970581 0.77246642112731934
0.077579349279403687 0.55095475912094116 0.73403745889663696
0.29057225584983826 0.48584040999412537 0.68767774105072021
0.49997219443321228 0.44813206791877747 0.64231818914413452
0.034935612231492996 0.98473972082138062 0.94936680793762207
0.050698239356279373 0.97377699613571167 0.93761450052261353
0.19284695386886597 0.92077845335006714 0.88832587003707886
0.46078053116798401 0.81473207473754883 0.82034647464752197
0.66576707363128662 0.70593273639678955 0.74787002801895142
0.87227129936218262 1 1
0.88667327165603638 0.99918478727340698 0.99889051914215088
0.90378046035766602 0.99920344352722168 0.99880266189575195
0.91707533597946167 0.99643957614898682 0.99992120265960693
0.94352936744689941 0.99655342102050781 0.92917168140411377
0 0.16180506348609924 0.67496407032012939
0.0013493257574737072 0.15516118705272675 0.66223698854446411
0.028918022289872169 0.16019202768802643 0.64680296182632446
0.14006835222244263 0.16650430858135223 0.6277233362197876
0.33388486504554749 0.21206383407115936 0.61101377010345459
0 0.34268051385879517 0.75619322061538696
0.01763419434428215 0.33044677972793579 0.73877108097076416
0.08249211311340332 0.31447041034698486 0.72284722328186035
0.20761969685554504 0.30015444755554199 0.69527488946914673
0.40575632452964783 0.32580697536468506 0.67307204008102417
0.0024865693412721157 0.57597124576568604 0.84986692667007446
0.020516414195299149 0.55717086791992188 0.83530277013778687
0.16430437564849854 0.52641183137893677 0.81160622835159302
0.32775625586509705 0.49211478233337402 0.7796751856803894
0.50946640968322754 0.47969529032707214 0.74364805221557617
0.093163929879665375 0.9051506519317627 0.98252981901168823
0.17757967114448547 0.88285607099533081 0.9719359278678894
0.34729567170143127 0.83339458703994751 0.9399070143699646
0.49603551626205444 0.76642477512359619 0.89161002635955811
0.66039258241653442 0.69658440351486206 0.83383339643478394
0.82477265596389771 0.99857765436172485 1
0.82489264011383057 0.99920344352722168 0.9998430609703064
0.84264904260635376 0.99707686901092529 0.99952179193496704
0.83733665943145752 1 0.99996554851531982
0.90674084424972534 0.99224507808685303 0.97081708908081055
0.011519862338900566 0.22360400855541229 0.77373963594436646
0.031668391078710556 0.22149379551410675 0.76342260837554932
0.088062793016433716 0.22410587966442108 0.75138008594512939
0.20491752028465271 0.24647212028503418 0.74119842052459717
0.38784763216972351 0.29821407794952393 0.7287832498550415
0.03309326246380806 0.36663597822189331 0.83408814668655396
0.060859367251396179 0.36570662260055542 0.82771384716033936
0.16532805562019348 0.36534819006919861 0.81506824493408203
0.28601223230361938 0.37049859762191772 0.80220073461532593
0.46026557683944702 0.39937219023704529 0.78247416019439697
0.16262774169445038 0.55952179431915283 0.91010618209838867
0.20426364243030548 0.54860985279083252 0.9028695821762085
0.30215144157409668 0.53911793231964111 0.88787740468978882
0.4147399365901947 0.52897846698760986 0.87030720710754395
0.56491738557815552 0.53722351789474487 0.84494751691818237
0.41727462410926819 0.8139234185218811 0.98932379484176636
0.45566901564598083 0.78933405876159668 0.98867183923721313
0.51075452566146851 0.77274036407470703 0.97765171527862549
0.58723545074462891 0.74390882253646851 0.95446103811264038
0.71035963296890259 0.71908533573150635 0.91712015867233276
0.78997600078582764 1 1
0.80088549852371216 1 1
0.80914807319641113 1 0.99875211715698242
0.84012705087661743 0.9978983998298645 1
0.9347882866859436 0.97030258178710938 0.99579298496246338
