assets/lut/films colorslide kodak e-100 gx ektachrome 100.cube
# Created by: G'MIC (https://gmic.eu)
TITLE "kodak_e-100_gx_ektachrome_100"
# LUT size
LUT_3D_SIZE 5
# Data domain
DOMAIN_MIN 0.0 0.0 0.0
DOMAIN_MAX 1.0 1.0 1.0
# LUT data points
0.028569689020514488 0.029592057690024376 0.028447559103369713
0.18999165296554565 0.010735710151493549 0.011231261305510998
0.40675845742225647 0.00075297633884474635 0.0020167331676930189
0.62286734580993652 0 0
0.8153347373008728 0 0
0.14918424189090729 0.24936647713184357 0.11349879205226898
0.27021089196205139 0.23417112231254578 0.097513355314731598
0.47778233885765076 0.18299044668674469 0.078004412353038788
0.67360121011734009 0.087405472993850708 0.037757948040962219
0.84503746032714844 0.0028820859733968973 0.0040725409053266048
0.28187686204910278 0.51932907104492188 0.21796593070030212
0.38843575119972229 0.5127187967300415 0.20907826721668243
0.57161122560501099 0.49070799350738525 0.19413849711418152
0.76237905025482178 0.43526265025138855 0.16687504947185516
0.92055612802505493 0.286661297082901 0.1261657178401947
0.48718166351318359 0.76465845108032227 0.34660130739212036
0.54340064525604248 0.76473671197891235 0.34281918406486511
0.67943155765533447 0.75411230325698853 0.33467766642570496
0.83746224641799927 0.73682111501693726 0.31675714254379272
0.99332088232040405 0.67956501245498657 0.28580382466316223
0.70177853107452393 0.97087174654006958 0.51196765899658203
0.73297607898712158 0.9721946120262146 0.50406891107559204
0.81708747148513794 0.97161829471588135 0.49939903616905212
0.93231439590454102 0.97120004892349243 0.48347729444503784
0.99918657541275024 0.95705282688140869 0.47521871328353882
0.022179726511240005 0.034942314028739929 0.18621189892292023
0.17083410918712616 0.020701659843325615 0.17022603750228882
0.38976681232452393 0.0045730140991508961 0.14649586379528046
0.62393724918365479 0.0044872211292386055 0.11596176773309708
0.82447272539138794 0.0019678303506225348 0.081364214420318604
0.10672077536582947 0.26315575838088989 0.27416142821311951
0.24812754988670349 0.24729198217391968 0.26173260807991028
0.46189385652542114 0.19640837609767914 0.23965342342853546
0.66277283430099487 0.10118146240711212 0.20674668252468109
0.8337058424949646 0.014983637258410454 0.16637946665287018
0.24276344478130341 0.52565604448318481 0.36744284629821777
0.36530444025993347 0.52005606889724731 0.3600342869758606
0.55590778589248657 0.49778696894645691 0.34542953968048096
0.74955058097839355 0.44706308841705322 0.32241529226303101
0.90324372053146362 0.29255408048629761 0.28576391935348511
0.4541839063167572 0.76526498794555664 0.47681644558906555
0.52479487657546997 0.76527011394500732 0.4692133367061615
0.66138535737991333 0.75729179382324219 0.46264013648033142
0.82355684041976929 0.74187946319580078 0.44730883836746216
0.98209273815155029 0.68456810712814331 0.42484137415885925
0.68546271324157715 0.97082740068435669 0.61055535078048706
0.72018909454345703 0.972037672996521 0.60162758827209473
0.80173414945602417 0.97260630130767822 0.59790205955505371
0.9159284234046936 0.97369664907455444 0.5825992226600647
1 0.95417410135269165 0.57551079988479614
0.0067825019359588623 0.055954832583665848 0.39099356532096863
0.14554423093795776 0.033993307501077652 0.37851926684379578
0.36568552255630493 0.0093264263123273849 0.35794991254806519
0.59406197071075439 0 0.33481970429420471
0.80071568489074707 0.00018727919086813927 0.31082329154014587
0.069553345441818237 0.28358429670333862 0.48007833957672119
0.19739292562007904 0.26818960905075073 0.47186461091041565
0.43480017781257629 0.22338007390499115 0.44664764404296875
0.63793361186981201 0.11253325641155243 0.41847673058509827
0.80615568161010742 0.0013566858833655715 0.3835713267326355
0.16866324841976166 0.53591418266296387 0.56458860635757446
0.31214728951454163 0.53151422739028931 0.56071645021438599
0.52259957790374756 0.51505535840988159 0.54618966579437256
0.72573286294937134 0.46415823698043823 0.52447599172592163
0.88375651836395264 0.30969697237014771 0.4905693531036377
0.39371305704116821 0.77003318071365356 0.65286397933959961
0.48108232021331787 0.77044868469238281 0.65022820234298706
0.6299206018447876 0.76392078399658203 0.63930267095565796
0.79954355955123901 0.74827784299850464 0.62868750095367432
0.96557343006134033 0.68990105390548706 0.60614442825317383
0.66776823997497559 0.97010719776153564 0.74870526790618896
0.7018132209777832 0.97114211320877075 0.74460005760192871
0.78543710708618164 0.971568763256073 0.7415652871131897
0.8954235315322876 0.97689950466156006 0.73451262712478638
0.99969053268432617 0.95898675918579102 0.7196083664894104
0.00086732750060036778 0.07680453360080719 0.60802286863327026
0.097294256091117859 0.061574600636959076 0.59338593482971191
0.32471325993537903 0.024710606783628464 0.56749230623245239
0.56341290473937988 0.0001100427980418317 0.54897266626358032
0.77339494228363037 0 0.5198509693145752
0.012789572589099407 0.3158021867275238 0.68773496150970459
0.1344490647315979 0.30258956551551819 0.68102502822875977
0.39735633134841919 0.26296675205230713 0.66010278463363647
0.61590778827667236 0.16166651248931885 0.63353198766708374
0.78516161441802979 0.0064942152239382267 0.58898645639419556
0.059118308126926422 0.5582956075668335 0.76073002815246582
0.21249304711818695 0.55431222915649414 0.75514596700668335
0.48096087574958801 0.53811568021774292 0.73847711086273193
0.69954895973205566 0.49636566638946533 0.71860581636428833
0.87274432182312012 0.35934549570083618 0.68898212909698486
0.29383784532546997 0.78750216960906982 0.83548027276992798
0.41076201200485229 0.78701967000961304 0.83123022317886353
0.58535689115524292 0.78162461519241333 0.81914758682250977
0.77146363258361816 0.76301991939544678 0.80468159914016724
0.94940644502639771 0.70613175630569458 0.78341275453567505
0.62788122892379761 0.97859030961990356 0.90591418743133545
0.66267067193984985 0.97683823108673096 0.89934819936752319
0.75705540180206299 0.9766572117805481 0.89163649082183838
0.87227421998977661 0.97857260704040527 0.89233928918838501
0.99569636583328247 0.96601545810699463 0.87392395734786987
0 0.12277598679065704 0.76421618461608887
0.049925021827220917 0.099229000508785248 0.75892746448516846
0.28901281952857971 0.052983377128839493 0.72326892614364624
0.54239815473556519 0.016318317502737045 0.7079271674156189
0.75893276929855347 0.0013358471915125847 0.67211723327636719
0 0.36126449704170227 0.84509813785552979
0.051869217306375504 0.35166236758232117 0.84359562397003174
0.35786861181259155 0.30985435843467712 0.81094670295715332
0.59724313020706177 0.21870662271976471 0.79489707946777344
0.77775865793228149 0.040447760373353958 0.73681181669235229
0.004267329815775156 0.5852774977684021 0.89736074209213257
0.08823896199464798 0.57900285720825195 0.88871639966964722
0.41658493876457214 0.5621829628944397 0.87698233127593994
0.66953319311141968 0.53336292505264282 0.86780565977096558
0.86024922132492065 0.3943665623664856 0.8194388747215271
0.19970211386680603 0.79627317190170288 0.96171218156814575
0.32609295845031738 0.79874545335769653 0.95758795738220215
0.53023463487625122 0.79613703489303589 0.9556700587272644
0.73684000968933105 0.78379732370376587 0.94133245944976807
0.92445588111877441 0.72735649347305298 0.91045075654983521
0.58379626274108887 0.97699499130249023 0.99880343675613403
0.61517739295959473 0.97988444566726685 0.99996554851531982
0.70833057165145874 0.98098486661911011 0.99977576732635498
0.84732091426849365 0.98321056365966797 0.99600940942764282
0.98627805709838867 0.97568118572235107 0.99039071798324585
