assets/lut/films negative color agfa ultra color 100.cube
# Created by: G'MIC (https://gmic.eu)
TITLE "agfa_ultra_color_100"
# LUT size
LUT_3D_SIZE 5
# Data domain
DOMAIN_MIN 0.0 0.0 0.0
DOMAIN_MAX 1.0 1.0 1.0
# LUT data points
0.033487223088741302 0.024473331868648529 0.015675503760576248
0.14025206863880157 0.0044994279742240906 0.010541444644331932
0.34807190299034119 0 0.0044053620658814907
0.63983476161956787 0.0017796385800465941 0.0026404287200421095
0.83145290613174438 0.0034738876856863499 8.6346793978009373e-05
0.12109045684337616 0.23154608905315399 0.065643623471260071
0.21509188413619995 0.19754885137081146 0.058008469641208649
0.4405805766582489 0.11750806868076324 0.040776871144771576
0.71785056591033936 0.01323121041059494 0.018417747691273689
0.90701395273208618 0.0017238243017345667 0.02758229523897171
0.10433781892061234 0.60332584381103516 0.091139249503612518
0.29369118809700012 0.57573843002319336 0.08769487589597702
0.58592730760574341 0.50709152221679688 0.079809106886386871
0.86043334007263184 0.40386143326759338 0.069194942712783813
0.99839907884597778 0.27129635214805603 0.10780180245637894
0.3607490062713623 0.91038787364959717 0.0072524873539805412
0.50899934768676758 0.89106446504592896 0.027844956144690514
0.76148921251296997 0.83322447538375854 0.039303664118051529
0.97075796127319336 0.76785570383071899 0.053518183529376984
1 0.70293515920639038 0.13842473924160004
0.77238994836807251 1 0
0.85400968790054321 1 0
0.97401529550552368 0.99911403656005859 0
1 0.98091918230056763 0
1 0.94385212659835815 0.037174612283706665
0.0045031080953776836 0.012883310206234455 0.13993334770202637
0.10244589298963547 0.00050552969332784414 0.13096050918102264
0.31330224871635437 0.00078665040200576186 0.11060640215873718
0.60793370008468628 0.0013967177364975214 0.087014935910701752
0.79363483190536499 0.019579913467168808 0.10986479371786118
0.08989531546831131 0.21330653131008148 0.18041267991065979
0.17976130545139313 0.1797463446855545 0.17690062522888184
0.40778523683547974 0.086876645684242249 0.16033002734184265
0.67882311344146729 0.012026214972138405 0.14560705423355103
0.85873383283615112 0 0.17226140201091766
0.033359363675117493 0.59477853775024414 0.21910677850246429
0.24125568568706512 0.57187122106552124 0.21449525654315948
0.55232524871826172 0.4982181191444397 0.20234325528144836
0.81881392002105713 0.39168089628219604 0.20458267629146576
0.98059737682342529 0.25479209423065186 0.25530269742012024
0.25246924161911011 0.91614490747451782 0.19437596201896667
0.44779041409492493 0.88722550868988037 0.20032581686973572
0.71177822351455688 0.8349042534828186 0.2005545049905777
0.94444555044174194 0.77111577987670898 0.23893691599369049
1 0.69878983497619629 0.32945698499679565
0.76038211584091187 1 0.072509765625
0.82053536176681519 1 0.073808051645755768
0.93695712089538574 0.99858683347702026 0.080964796245098114
0.99992889165878296 0.98527383804321289 0.14362239837646484
0.99910056591033936 0.94666570425033569 0.26832166314125061
0.0001962250389624387 0.0048269233666360378 0.32288926839828491
0.042543929070234299 0 0.32542979717254639
0.26343327760696411 0 0.31348919868469238
0.54409784078598022 0 0.29639789462089539
0.73022419214248657 0.024288956075906754 0.31320157647132874
0.035209506750106812 0.18444058299064636 0.40203607082366943
0.1109791174530983 0.13685928285121918 0.39587485790252686
0.34055885672569275 0.053862087428569794 0.3819795548915863
0.59543502330780029 0.00053692987421527505 0.37242206931114197
0.76680970191955566 0 0.39274695515632629
0.0036389369051903486 0.57578581571578979 0.48664942383766174
0.13625846803188324 0.53850722312927246 0.47944298386573792
0.46747231483459473 0.46614578366279602 0.4685291051864624
0.72717905044555664 0.3597453236579895 0.461710125207901
0.90289843082427979 0.21172033250331879 0.48526078462600708
0.086034916341304779 0.9073101282119751 0.54821032285690308
0.2790873646736145 0.88324081897735596 0.5389333963394165
0.60836219787597656 0.82966625690460205 0.52942466735839844
0.83586865663528442 0.77273327112197876 0.53917402029037476
0.99706780910491943 0.69841229915618896 0.57078295946121216
0.64603894948959351 1 0.50337731838226318
0.69550198316574097 1 0.50245171785354614
0.80448991060256958 1 0.50416409969329834
0.95263451337814331 0.99439889192581177 0.51436573266983032
1 0.9565892219543457 0.57027959823608398
0 0 0.58080095052719116
0.0025814580731093884 0 0.57653272151947021
0.18671827018260956 0.00015207925753202289 0.56440210342407227
0.46719002723693848 0.0057357638143002987 0.53110510110855103
0.66822445392608643 0.020300323143601418 0.52215868234634399
0.0040728249587118626 0.10939646512269974 0.66110050678253174
0.029218396171927452 0.067065730690956116 0.65368211269378662
0.24936453998088837 0.012565013952553272 0.62449151277542114
0.5019528865814209 0 0.59376353025436401
0.68647712469100952 0 0.58977031707763672
7.0010914896556642e-06 0.50210613012313843 0.73717743158340454
0.067861668765544891 0.48260807991027832 0.7297741174697876
0.39829334616661072 0.39706403017044067 0.70621269941329956
0.6456487774848938 0.29480350017547607 0.67953068017959595
0.81752520799636841 0.15848134458065033 0.66983872652053833
1.1848001122416463e-05 0.89241039752960205 0.79330277442932129
0.17008456587791443 0.86613345146179199 0.78718346357345581
0.52312088012695312 0.81373041868209839 0.76971840858459473
0.75716233253479004 0.75895166397094727 0.75743788480758667
0.95068705081939697 0.6801639199256897 0.75366061925888062
0.50415498018264771 0.99995505809783936 0.80093264579772949
0.57651185989379883 1 0.7927318811416626
0.69835811853408813 1 0.78314703702926636
0.86878091096878052 0.99752712249755859 0.78075838088989258
0.99960070848464966 0.968669593334198 0.79084330797195435
0 0 0.78301358222961426
0.01118017453700304 0 0.77436906099319458
0.1735147088766098 0 0.75102674961090088
0.42673864960670471 0.0063247233629226685 0.71848946809768677
0.62854111194610596 0.001273420755751431 0.7014087438583374
0.0088784312829375267 0.0017512751510366797 0.84324699640274048
0.033992588520050049 0.00016681446868460625 0.82962977886199951
0.19778339564800262 0 0.795829176902771
0.41977819800376892 0.0010478749172762036 0.76301407814025879
0.61804884672164917 0 0.74796640872955322
0.0090955700725317001 0.35228648781776428 0.907573401927948
0.093403324484825134 0.31910237669944763 0.8962327241897583
0.37909415364265442 0.24029025435447693 0.8683236837387085
0.56737816333770752 0.12406575679779053 0.83819729089736938
0.72118651866912842 0.017120540142059326 0.81209421157836914
0.058126814663410187 0.82402908802032471 0.9702373743057251
0.21711736917495728 0.80098050832748413 0.96296048164367676
0.50738358497619629 0.75028425455093384 0.94492882490158081
0.70716005563735962 0.69482922554016113 0.92713809013366699
0.8925091028213501 0.60974907875061035 0.90627467632293701
0.46242406964302063 1 0.98780345916748047
0.52702921628952026 1 0.98615199327468872
0.65149205923080444 0.99995565414428711 0.97981727123260498
0.80809354782104492 0.99251073598861694 0.97794961929321289
0.97345972061157227 0.96930879354476929 0.9727175235748291
