assets/lut/films colorslide fuji provia 100f.cube
# Created by: G'MIC (https://gmic.eu)
TITLE "fuji_provia_100f"
# LUT size
LUT_3D_SIZE 7
# Data domain
DOMAIN_MIN 0.0 0.0 0.0
DOMAIN_MAX 1.0 1.0 1.0
# LUT data points
0.03630002960562706 0.031280666589736938 0.027555113658308983
0.17238536477088928 0.028563240543007851 0.027251973748207092
0.33340555429458618 0.0292497668415308 0.018057534471154213
0.51507371664047241 0.018717164173722267 0.0076524773612618446
0.72494238615036011 0.011496390216052532 0.0021485721226781607
0.9419485330581665 0.016996227204799652 0.0021227968391031027
1 0.01371638011187315 0
0.097486324608325958 0.18768671154975891 0.096440605819225311
0.19158056378364563 0.18244974315166473 0.091662310063838959
0.345836341381073 0.17679110169410706 0.083690986037254333
0.5224987268447876 0.16455057263374329 0.067507080733776093
0.72887665033340454 0.14316852390766144 0.041491638869047165
0.94508808851242065 0.13376449048519135 0.018176164478063583
1 0.12797686457633972 0.00037461821921169758
0.10984913259744644 0.35059240460395813 0.18189381062984467
0.20737238228321075 0.34572687745094299 0.17416664958000183
0.36497175693511963 0.34307688474655151 0.1629493236541748
0.5393567681312561 0.33859574794769287 0.14885419607162476
0.74294722080230713 0.32499977946281433 0.11990233510732651
0.94759184122085571 0.30997487902641296 0.084069393575191498
1 0.2985541820526123 0.042730711400508881
0.12229174375534058 0.52852600812911987 0.27209341526031494
0.22186709940433502 0.52784985303878784 0.26642435789108276
0.37739637494087219 0.52849406003952026 0.25718796253204346
0.55837315320968628 0.52238911390304565 0.24171122908592224
0.75655651092529297 0.51983165740966797 0.21752125024795532
0.95489132404327393 0.50880205631256104 0.18256726861000061
1 0.4982793927192688 0.12499760836362839
0.17193733155727386 0.71639865636825562 0.3685055673122406
0.2581372857093811 0.72004777193069458 0.36655950546264648
0.40965241193771362 0.72270536422729492 0.35764873027801514
0.58913290500640869 0.71755868196487427 0.34131032228469849
0.77253466844558716 0.72187274694442749 0.32233408093452454
0.95378899574279785 0.7113988995552063 0.29180532693862915
1 0.70199847221374512 0.23913460969924927
0.30084413290023804 0.89855903387069702 0.47110015153884888
0.36410507559776306 0.90487110614776611 0.47313800454139709
0.48687729239463806 0.90269637107849121 0.46738079190254211
0.63917446136474609 0.90060245990753174 0.45395150780677795
0.79559111595153809 0.9125974178314209 0.43908774852752686
0.96535563468933105 0.90274137258529663 0.41794282197952271
1 0.89784407615661621 0.37092515826225281
0.50444728136062622 1 0.58271074295043945
0.54666709899902344 1 0.58820247650146484
0.62975078821182251 1 0.5870322585105896
0.7430310845375061 1 0.58166766166687012
0.87117242813110352 1 0.57726895809173584
0.99292492866516113 0.99904316663742065 0.56532233953475952
1 1 0.51835227012634277
0.017968002706766129 0.023634172976016998 0.10574713349342346
0.14727219939231873 0.018895393237471581 0.10013823956251144
0.31285446882247925 0.020247979089617729 0.087062031030654907
0.49649283289909363 0.01755891740322113 0.070281684398651123
0.71071279048919678 0.0074720047414302826 0.055152580142021179
0.9318084716796875 0.010906503535807133 0.02371959388256073
1 0.00091476441593840718 0.00021305457630660385
0.06790267676115036 0.17183868587017059 0.1755003035068512
0.17176732420921326 0.16895438730716705 0.16955062747001648
0.32705208659172058 0.16437092423439026 0.15806302428245544
0.50557994842529297 0.1539144366979599 0.13909222185611725
0.71594500541687012 0.13177129626274109 0.1135072261095047
0.93645846843719482 0.11431270092725754 0.07750479131937027
1 0.088265679776668549 0.029599208384752274
0.090176962316036224 0.3394349217414856 0.24921311438083649
0.19286876916885376 0.3368346095085144 0.24185578525066376
0.34409371018409729 0.33397096395492554 0.23311628401279449
0.52229982614517212 0.32964956760406494 0.21910083293914795
0.72488903999328613 0.31631171703338623 0.19381843507289886
0.93768179416656494 0.30155447125434875 0.15997883677482605
1 0.27889683842658997 0.11076632887125015
0.095648698508739471 0.52309811115264893 0.33057704567909241
0.20376963913440704 0.52042365074157715 0.32387813925743103
0.35886597633361816 0.52132350206375122 0.31651732325553894
0.54089617729187012 0.51803374290466309 0.3040904700756073
0.7327226996421814 0.51126617193222046 0.28471776843070984
0.94301682710647583 0.50297254323959351 0.25503155589103699
1 0.48799240589141846 0.20068013668060303
0.13589130342006683 0.72016507387161255 0.42085728049278259
0.23185916244983673 0.72023147344589233 0.41652721166610718
0.38656187057495117 0.71831351518630981 0.408802330493927
0.57122397422790527 0.71092003583908081 0.39602336287498474
0.75243335962295532 0.71328359842300415 0.37935528159141541
0.94688123464584351 0.70754331350326538 0.35462662577629089
1 0.69607913494110107 0.30905768275260925
0.27452906966209412 0.90736287832260132 0.51819384098052979
0.34286743402481079 0.9076349139213562 0.51770418882369995
0.46385514736175537 0.90425795316696167 0.51168560981750488
0.61649543046951294 0.89921915531158447 0.50136899948120117
0.78071767091751099 0.90618419647216797 0.48501518368721008
0.95167940855026245 0.8994484543800354 0.4652073085308075
1 0.89539587497711182 0.43047365546226501
0.50954490900039673 1 0.6306806206703186
0.54790925979614258 1 0.63117891550064087
0.61978268623352051 1 0.62890303134918213
0.7242622971534729 1 0.62448865175247192
0.85571318864822388 1 0.61662876605987549
0.98312497138977051 0.999828040599823 0.60222893953323364
1 1 0.56767177581787109
0.010046372190117836 0.014311187900602818 0.19905206561088562
0.11831819266080856 0.015452500432729721 0.18816736340522766
0.28841367363929749 0.0056055104359984398 0.17833437025547028
0.47602441906929016 0.0059282341971993446 0.1620962917804718
0.68684905767440796 0.00099804450292140245 0.14589717984199524
0.89293783903121948 0 0.10934121906757355
0.9999159574508667 0 0.063189759850502014
0.051766414195299149 0.15419726073741913 0.26338925957679749
0.14788784086704254 0.15122233331203461 0.25821760296821594
0.30195319652557373 0.14023749530315399 0.2483530193567276
0.48530358076095581 0.13325439393520355 0.23183487355709076
0.69494873285293579 0.11503998935222626 0.2131197601556778
0.90781062841415405 0.091194525361061096 0.17840196192264557
0.99957734346389771 0.058725200593471527 0.1230626106262207
0.072424791753292084 0.32509896159172058 0.32906493544578552
0.16782955825328827 0.32479661703109741 0.32606762647628784
0.31739014387130737 0.31691044569015503 0.31986349821090698
0.50206959247589111 0.31179916858673096 0.30828049778938293
0.70527166128158569 0.30326202511787415 0.28995227813720703
0.92077964544296265 0.2880711555480957 0.26386886835098267
1 0.25801730155944824 0.21658113598823547
0.062206283211708069 0.51274615526199341 0.40549346804618835
0.17059524357318878 0.51241129636764526 0.40065577626228333
0.33081567287445068 0.50987392663955688 0.39742547273635864
0.5231020450592041 0.50535780191421509 0.38982591032981873
0.71624362468719482 0.50015413761138916 0.37446597218513489
0.9202805757522583 0.49462810158729553 0.35131353139877319
1 0.47322195768356323 0.30966350436210632
0.080296188592910767 0.70832443237304688 0.49544966220855713
0.18827104568481445 0.71036863327026367 0.49054601788520813
0.35361307859420776 0.70964157581329346 0.4863685667514801
0.54488682746887207 0.70378464460372925 0.47960576415061951
0.7319716215133667 0.70498216152191162 0.46502876281738281
0.93039458990097046 0.69999879598617554 0.44485735893249512
1 0.68430596590042114 0.40953415632247925
0.22792717814445496 0.89351248741149902 0.59104949235916138
0.30796098709106445 0.89542055130004883 0.58774268627166748
0.43527257442474365 0.89489239454269409 0.58334815502166748
0.59050685167312622 0.89181071519851685 0.57776188850402832
0.76037108898162842 0.89477306604385376 0.56666815280914307
0.93605202436447144 0.89269959926605225 0.54981881380081177
1 0.88765466213226318 0.51879668235778809
0.52170425653457642 0.9979284405708313 0.69955146312713623
0.55071401596069336 1 0.69496339559555054
0.61149883270263672 1 0.69158053398132324
0.70775818824768066 1 0.68817341327667236
0.84107822179794312 0.9998897910118103 0.68467158079147339
0.97708404064178467 0.99779993295669556 0.67393249273300171
1 1 0.64160835742950439
0.003687944496050477 0.0025986167602241039 0.2922346293926239
0.097587183117866516 0.0017097622621804476 0.283701092004776
0.25774392485618591 7.8268611105158925e-05 0.27604877948760986
0.4469616711139679 6.247127748792991e-05 0.26563668251037598
0.65907567739486694 0 0.25046822428703308
0.87412095069885254 0 0.22362983226776123
1 0 0.18672426044940948
0.0313442163169384 0.13141991198062897 0.35558444261550903
0.11990974098443985 0.12648454308509827 0.35106831789016724
0.27275097370147705 0.11472329497337341 0.34383630752563477
0.45592483878135681 0.1084183007478714 0.33267503976821899
0.66583549976348877 0.089777179062366486 0.31783604621887207
0.89166319370269775 0.070660486817359924 0.29368951916694641
1 0.052227769047021866 0.25385916233062744
0.054299388080835342 0.30542236566543579 0.42238727211952209
0.14315165579319 0.30442464351654053 0.42201969027519226
0.2888738214969635 0.29888623952865601 0.41586625576019287
0.4703100323677063 0.2943667471408844 0.40676382184028625
0.67505329847335815 0.28074392676353455 0.39357104897499084
0.89775842428207397 0.26070016622543335 0.37295436859130859
1 0.23052339255809784 0.33590430021286011
0.03182779997587204 0.49745070934295654 0.49949336051940918
0.1338970959186554 0.49685156345367432 0.4976753294467926
0.29491940140724182 0.4949469268321991 0.49595105648040771
0.49255838990211487 0.49183341860771179 0.49108338356018066
0.6918567419052124 0.4841035008430481 0.47831395268440247
0.89569211006164551 0.47419834136962891 0.4576663076877594
1 0.44798386096954346 0.42502108216285706
0.019268229603767395 0.69744384288787842 0.58781296014785767
0.13290628790855408 0.69517457485198975 0.58693617582321167
0.31148657202720642 0.6951671838760376 0.58462816476821899
0.51467525959014893 0.69319683313369751 0.57969659566879272
0.70762366056442261 0.69113928079605103 0.56717085838317871
0.90725541114807129 0.68633955717086792 0.54859739542007446
1 0.66843903064727783 0.5200464129447937
0.14587336778640747 0.89345908164978027 0.67845010757446289
0.24627894163131714 0.88675183057785034 0.67712771892547607
0.3934074342250824 0.88373845815658569 0.67438942193984985
0.56047707796096802 0.8813745379447937 0.66975861787796021
0.73302054405212402 0.886280357837677 0.66079938411712646
0.91898387670516968 0.88766312599182129 0.64722806215286255
1 0.87713336944580078 0.62189477682113647
0.50334793329238892 0.99585378170013428 0.77714675664901733
0.52827697992324829 0.99960362911224365 0.77286064624786377
0.59038156270980835 1 0.76997250318527222
0.6874508261680603 1 0.76710790395736694
0.81780731678009033 1 0.76345884799957275
0.95394718647003174 1 0.75300782918930054
1 1 0.73018485307693481
0.00015815286315046251 0 0.39360871911048889
0.064723387360572815 0 0.38708239793777466
0.21680346131324768 0 0.38237646222114563
0.40795597434043884 0 0.37762117385864258
0.6229407787322998 0 0.36669102311134338
0.85166287422180176 0 0.34688559174537659
1 0 0.31667217612266541
0.012300962582230568 0.093143448233604431 0.45700562000274658
0.072859548032283783 0.088413864374160767 0.45245960354804993
0.23150867223739624 0.076796241104602814 0.44813153147697449
0.41974127292633057 0.077015697956085205 0.44216468930244446
0.62960666418075562 0.060693133622407913 0.43053355813026428
0.85125458240509033 0.044116165488958359 0.41093766689300537
0.99879163503646851 0.024048464372754097 0.38048431277275085
0.036352075636386871 0.27587035298347473 0.52737712860107422
0.10401982069015503 0.27443656325340271 0.52697300910949707
0.24690182507038116 0.26713111996650696 0.52375549077987671
0.43790349364280701 0.25755897164344788 0.51626235246658325
0.64310789108276367 0.23998454213142395 0.50516557693481445
0.8603442907333374 0.21634690463542938 0.48707252740859985
0.99948281049728394 0.1801140159368515 0.4579901397228241
0.018164211884140968 0.47744888067245483 0.60459846258163452
0.095497637987136841 0.47503951191902161 0.60378181934356689
0.24656063318252563 0.47086498141288757 0.60247480869293213
0.45454323291778564 0.46931111812591553 0.5972292423248291
0.65856271982192993 0.4591621458530426 0.58759027719497681
0.86942845582962036 0.44369277358055115 0.57155174016952515
1 0.41487607359886169 0.54540491104125977
0.00097740022465586662 0.68335628509521484 0.68713492155075073
0.085980601608753204 0.68125760555267334 0.68653804063796997
0.26086539030075073 0.68051499128341675 0.68428820371627808
0.48023393750190735 0.67716264724731445 0.68020433187484741
0.67489433288574219 0.66974353790283203 0.67174071073532104
0.8816152811050415 0.6664244532585144 0.6582915186882019
1 0.64714139699935913 0.63501590490341187
0.049704711884260178 0.88274067640304565 0.7727857232093811
0.17240606248378754 0.88119292259216309 0.77075076103210449
0.33892613649368286 0.87795180082321167 0.76977980136871338
0.51849335432052612 0.87613087892532349 0.76435118913650513
0.70001184940338135 0.87527871131896973 0.757976233959198
0.88942766189575195 0.87419426441192627 0.74750065803527832
0.99985945224761963 0.86226612329483032 0.72781902551651001
0.40338960289955139 0.99704694747924805 0.85865104198455811
0.4725545346736908 0.99897587299346924 0.85713303089141846
0.55777734518051147 0.9996337890625 0.85636556148529053
0.6559673547744751 0.99969536066055298 0.85367614030838013
0.79187709093093872 0.99944132566452026 0.85033595561981201
0.93739598989486694 0.99873745441436768 0.84226518869400024
0.99999135732650757 0.99848037958145142 0.82703757286071777
0 0 0.49854528903961182
0.027811327949166298 0 0.49553355574607849
0.16615357995033264 0 0.49515566229820251
0.35951173305511475 0 0.49527934193611145
0.57921266555786133 0.00081398157635703683 0.48850354552268982
0.81512641906738281 0.0011352389119565487 0.47017425298690796
0.99771600961685181 0 0.43977314233779907
0.00088478537509217858 0.040392391383647919 0.56279504299163818
0.01845092698931694 0.036416519433259964 0.56019324064254761
0.17401136457920074 0.039645776152610779 0.55889570713043213
0.37265434861183167 0.050359237939119339 0.55597966909408569
0.58950096368789673 0.040000766515731812 0.54688811302185059
0.81543231010437012 0.022241793572902679 0.52854692935943604
0.99341779947280884 0.0047206506133079529 0.50060248374938965
0.020176082849502563 0.23632800579071045 0.63252860307693481
0.054159216582775116 0.23303669691085815 0.6309739351272583
0.1972789466381073 0.22638420760631561 0.63023585081100464
0.39860987663269043 0.21470482647418976 0.62550467252731323
0.60945785045623779 0.18980309367179871 0.61504781246185303
0.82737910747528076 0.16730450093746185 0.60035842657089233
0.99440062046051025 0.14379152655601501 0.57812952995300293
0.012462092563509941 0.4504387378692627 0.7105671763420105
0.04539388045668602 0.44704559445381165 0.70850193500518799
0.17986452579498291 0.4439970850944519 0.70559078454971313
0.41800734400749207 0.437042236328125 0.70401102304458618
0.62529581785202026 0.42864012718200684 0.69591653347015381
0.84138435125350952 0.41236698627471924 0.68531864881515503
0.99970418214797974 0.38535913825035095 0.66567659378051758
0.00018370385805610567 0.66088521480560303 0.79122591018676758
0.040791351348161697 0.65809088945388794 0.79020267724990845
0.1813475638628006 0.66023409366607666 0.78624171018600464
0.42577609419822693 0.65675431489944458 0.78574663400650024
0.63660871982574463 0.65241676568984985 0.78111332654953003
0.85022652149200439 0.6414865255355835 0.77334868907928467
0.9999924898147583 0.61876797676086426 0.75388950109481812
0.01235535554587841 0.86416125297546387 0.86695915460586548
0.097902126610279083 0.85964095592498779 0.8690531849861145
0.25572708249092102 0.86302715539932251 0.86847388744354248
0.46556425094604492 0.86296755075454712 0.86522620916366577
0.66133874654769897 0.8589547872543335 0.85989826917648315
0.86253857612609863 0.85685104131698608 0.85649865865707397
0.99810117483139038 0.84437209367752075 0.84004342555999756
0.30548197031021118 0.99648308753967285 0.93628501892089844
0.41425114870071411 0.99415886402130127 0.93862003087997437
0.51500171422958374 0.99558836221694946 0.9386482834815979
0.62409055233001709 0.99442851543426514 0.94113266468048096
0.76228898763656616 0.99478840827941895 0.93735098838806152
0.90971380472183228 0.99567681550979614 0.93420159816741943
0.99713766574859619 0.99426448345184326 0.92706704139709473
0 0 0.60141247510910034
0.013694015331566334 0 0.60178762674331665
0.13077977299690247 0 0.60526561737060547
0.31591862440109253 0 0.60920697450637817
0.53414976596832275 0.0037495780270546675 0.60327577590942383
0.77047568559646606 0 0.58331882953643799
0.98446863889694214 0 0.55269110202789307
0 0.0039754831232130527 0.66514021158218384
0.0012982686748728156 0.0016266467282548547 0.66414779424667358
0.11646752804517746 0.0070142708718776703 0.66635704040527344
0.31787720322608948 0.024698086082935333 0.66663545370101929
0.54445993900299072 0.011422849260270596 0.65752488374710083
0.78349918127059937 0.0037325690500438213 0.63937783241271973
0.98985046148300171 0.0072694364935159683 0.61320358514785767
0.00063865509582683444 0.18120878934860229 0.73583191633224487
0.0052053565159440041 0.17020411789417267 0.73436939716339111
0.12127832323312759 0.17110210657119751 0.73555892705917358
0.33271443843841553 0.16693539917469025 0.73229867219924927
0.56222563982009888 0.12508566677570343 0.72090411186218262
0.79436188936233521 0.12075906246900558 0.70796900987625122
0.98953765630722046 0.13501131534576416 0.68924063444137573
0.00080560421338304877 0.40485081076622009 0.81450831890106201
0.002201080322265625 0.39996695518493652 0.81382197141647339
0.099564313888549805 0.3989156186580658 0.81342095136642456
0.33917558193206787 0.39129170775413513 0.80970299243927002
0.57303887605667114 0.37320283055305481 0.80167615413665771
0.79855918884277344 0.36039498448371887 0.79272139072418213
0.99163568019866943 0.35195982456207275 0.77610284090042114
0.0015366647858172655 0.62486594915390015 0.89258748292922974
0.0017662796890363097 0.62188351154327393 0.89223688840866089
0.10009734332561493 0.62191569805145264 0.89005392789840698
0.35944077372550964 0.61727005243301392 0.88763338327407837
0.58518558740615845 0.61239391565322876 0.88283079862594604
0.80161815881729126 0.60228794813156128 0.87846386432647705
0.99445629119873047 0.58421313762664795 0.86271262168884277
0.00090532487956807017 0.84162437915802002 0.9533199667930603
0.0013668284518644214 0.83927559852600098 0.95375049114227295
0.14159446954727173 0.83439689874649048 0.95089727640151978
0.41462239623069763 0.82991838455200195 0.94856756925582886
0.6131097674369812 0.83041095733642578 0.94516897201538086
0.82104969024658203 0.82980352640151978 0.94421923160552979
0.99002504348754883 0.82022148370742798 0.93478268384933472
0.26804551482200623 0.9900507926940918 0.99705207347869873
0.33322462439537048 0.98796451091766357 0.99447643756866455
0.44288486242294312 0.98700147867202759 0.99280828237533569
0.59156322479248047 0.98766243457794189 0.99551355838775635
0.71790808439254761 0.99266910552978516 0.99554967880249023
0.88019078969955444 0.99147641658782959 0.99546432495117188
0.99557793140411377 0.98902219533920288 0.99472320079803467
