assets/lut/films print fuji 3513 constlmap.cube
# Created by: G'MIC (https://gmic.eu)
TITLE "fuji_3513_constlmap"
# LUT size
LUT_3D_SIZE 5
# Data domain
DOMAIN_MIN 0.0 0.0 0.0
DOMAIN_MAX 1.0 1.0 1.0
# LUT data points
0.012019049376249313 0.018113080412149429 0.021519111469388008
0.080843411386013031 0.036190945655107498 0.020012963563203812
0.30432048439979553 0.070500798523426056 0.0068293404765427113
0.46956762671470642 0.091018721461296082 0.012404393404722214
0.53200149536132812 0.10254050046205521 0.018766365945339203
0.016040980815887451 0.095993593335151672 0.055616237223148346
0.10286585241556168 0.13291025161743164 0.035077832639217377
0.40072917938232422 0.18020124733448029 0.0082162143662571907
0.59368044137954712 0.20572564005851746 0.0045813317410647869
0.65463858842849731 0.22550345957279205 0.0059581534005701542
0.0043137194588780403 0.26509955525398254 0.12649551033973694
0.054050266742706299 0.32563847303390503 0.073913902044296265
0.50935614109039307 0.43852630257606506 0.0094780568033456802
0.73629659414291382 0.47371238470077515 0.0081314835697412491
0.79431343078613281 0.498890221118927 0.016449304297566414
0.01008161623030901 0.41360655426979065 0.18334528803825378
0.065420664846897125 0.5076490044593811 0.10564079880714417
0.59074139595031738 0.66789650917053223 0.0048706801608204842
0.84999293088912964 0.73010540008544922 0.056901071220636368
0.92326396703720093 0.75361436605453491 0.064795896410942078
0.015440577641129494 0.49932736158370972 0.23601849377155304
0.13555522263050079 0.62550204992294312 0.074409171938896179
0.65162700414657593 0.75234580039978027 0.012012152932584286
0.91749203205108643 0.81536591053009033 0.082360275089740753
0.97335666418075562 0.82735782861709595 0.12311258912086487
0.0098042506724596024 0.041331436485052109 0.079428531229496002
0.095079682767391205 0.040029473602771759 0.09571569412946701
0.35229632258415222 0.049818269908428192 0.10707253962755203
0.5478559136390686 0.037140041589736938 0.11345201730728149
0.60454481840133667 0.032038372009992599 0.12276994436979294
0.013374747708439827 0.12028178572654724 0.12857303023338318
0.12704959511756897 0.14613452553749084 0.13960611820220947
0.4518120288848877 0.20087318122386932 0.15352895855903625
0.69756525754928589 0.16558890044689178 0.10851825028657913
0.7713313102722168 0.1433931440114975 0.089615389704704285
0.019191278144717216 0.31689751148223877 0.22498844563961029
0.17238466441631317 0.37786421179771423 0.23293963074684143
0.55581176280975342 0.49766463041305542 0.2380840927362442
0.84252643585205078 0.52763611078262329 0.15291479229927063
0.91565161943435669 0.54478901624679565 0.080284416675567627
0.026368549093604088 0.46900227665901184 0.30860808491706848
0.090485095977783203 0.57277411222457886 0.30082544684410095
0.6206328272819519 0.75179040431976318 0.2033393383026123
0.93104368448257446 0.80757522583007812 0.24378569424152374
0.99484944343566895 0.82404559850692749 0.19054654240608215
0.0099728154018521309 0.56543129682540894 0.43096885085105896
0.020130950957536697 0.69097733497619629 0.42555344104766846
0.64646780490875244 0.83327555656433105 0.36439630389213562
0.96978026628494263 0.88857239484786987 0.33919605612754822
0.99897587299346924 0.88898736238479614 0.44310110807418823
0.0072807162068784237 0.11152684688568115 0.22659273445606232
0.083930298686027527 0.050557304173707962 0.31010416150093079
0.38255476951599121 0.061786022037267685 0.34889256954193115
0.58953213691711426 0.037130303680896759 0.36326047778129578
0.64520716667175293 0.042862176895141602 0.38460996747016907
0.012520180083811283 0.21309545636177063 0.32548865675926208
0.11835663765668869 0.20956848561763763 0.37411877512931824
0.47864153981208801 0.23535585403442383 0.46100160479545593
0.74337482452392578 0.1632365882396698 0.47311308979988098
0.80050194263458252 0.18325497210025787 0.49465513229370117
0.021913191303610802 0.40860578417778015 0.45564630627632141
0.21804735064506531 0.47149103879928589 0.50644844770431519
0.58091533184051514 0.57138609886169434 0.58942091464996338
0.88088321685791016 0.59426730871200562 0.58158367872238159
0.94079631567001343 0.61889386177062988 0.59192943572998047
0.0038256626576185226 0.56548845767974854 0.55486452579498291
0.12364190816879272 0.66079974174499512 0.61540776491165161
0.57326430082321167 0.84527510404586792 0.65710455179214478
0.9419018030166626 0.89297181367874146 0.68138599395751953
0.99989348649978638 0.90448218584060669 0.68353986740112305
0 0.64879459142684937 0.65203166007995605
0.0027222428470849991 0.75833362340927124 0.72464072704315186
0.58366340398788452 0.89855217933654785 0.76660197973251343
0.94937986135482788 0.95271176099777222 0.76000750064849854
0.99987274408340454 0.9584813117980957 0.79983842372894287
0.0052857492119073868 0.16904807090759277 0.33419451117515564
0.07443566620349884 0.071824856102466583 0.46699962019920349
0.40164324641227722 0.06585191935300827 0.5340694785118103
0.61012649536132812 0.07538934051990509 0.55442988872528076
0.66844028234481812 0.045045427978038788 0.57602202892303467
0.00086087995441630483 0.27457061409950256 0.46284186840057373
0.05380718782544136 0.24809958040714264 0.55350470542907715
0.49929583072662354 0.206635981798172 0.70917469263076782
0.74598562717437744 0.20279909670352936 0.71701341867446899
0.81146663427352905 0.1799897700548172 0.74204295873641968
0.0048853554762899876 0.47861021757125854 0.61170655488967896
0.15940268337726593 0.52298611402511597 0.68186050653457642
0.53759574890136719 0.6147194504737854 0.8468824028968811
0.87556654214859009 0.63127106428146362 0.85792475938796997
0.93573343753814697 0.64908277988433838 0.87188029289245605
0.01105600968003273 0.62201249599456787 0.69600743055343628
0.13919228315353394 0.71462076902389526 0.78039634227752686
0.52847254276275635 0.88250339031219482 0.90930855274200439
0.93516528606414795 0.93901616334915161 0.93144011497497559
0.99496197700500488 0.9470292329788208 0.93558651208877563
0.00090647680917754769 0.68148642778396606 0.7528526782989502
0.017287833616137505 0.78614765405654907 0.84584873914718628
0.53398454189300537 0.92766088247299194 0.94146478176116943
0.93295419216156006 0.98289614915847778 0.95664137601852417
0.99622607231140137 0.99025768041610718 0.9594956636428833
0 0.21038392186164856 0.4059329628944397
0.052647445350885391 0.11268462985754013 0.55592197179794312
0.45035716891288757 0.043694932013750076 0.66290628910064697
0.66597837209701538 0.07877080887556076 0.66795641183853149
0.7288021445274353 0.079299494624137878 0.69928014278411865
0 0.29732546210289001 0.50030076503753662
0.0062673380598425865 0.29162943363189697 0.62240588665008545
0.50642460584640503 0.25659725069999695 0.79777610301971436
0.78110641241073608 0.229582279920578 0.82022631168365479
0.83407241106033325 0.24391444027423859 0.83029520511627197
0.0019795435946434736 0.4951569139957428 0.63966673612594604
0.017317783087491989 0.54696261882781982 0.7385486364364624
0.51573073863983154 0.6267363429069519 0.90783381462097168
0.87015968561172485 0.6468813419342041 0.9312477707862854
0.93406492471694946 0.67133808135986328 0.93774962425231934
0.0087611628696322441 0.63749945163726807 0.73032677173614502
0.070097438991069794 0.72754472494125366 0.81539738178253174
0.46332290768623352 0.89117610454559326 0.96202534437179565
0.92689138650894165 0.9462704062461853 0.98629206418991089
0.98962485790252686 0.94627588987350464 0.9841848611831665
0.010143968276679516 0.68956071138381958 0.77270013093948364
0.020101854577660561 0.80571645498275757 0.87953275442123413
0.50565856695175171 0.93062442541122437 0.97209751605987549
0.91762202978134155 0.98876750469207764 0.99357062578201294
0.99360197782516479 0.99460726976394653 0.99755489826202393
