assets/lut/films colorslide polaroid polachrome.cube
# Created by: G'MIC (https://gmic.eu)
TITLE "polaroid_polachrome"
# LUT size
LUT_3D_SIZE 5
# Data domain
DOMAIN_MIN 0.0 0.0 0.0
DOMAIN_MAX 1.0 1.0 1.0
# LUT data points
0.0080241039395332336 0.0061272117309272289 0.0067559336312115192
0.14223736524581909 0.035273801535367966 0.040630191564559937
0.42320024967193604 0.097084075212478638 0.099781140685081482
0.70024138689041138 0.15494745969772339 0.15337921679019928
0.86980694532394409 0.19162222743034363 0.18139171600341797
0.099678546190261841 0.18465839326381683 0.06532694399356842
0.20146551728248596 0.20646071434020996 0.093501009047031403
0.47413527965545654 0.25906318426132202 0.14398816227912903
0.72008401155471802 0.29678535461425781 0.18409581482410431
0.88412350416183472 0.30205753445625305 0.20492641627788544
0.10234478116035461 0.46471834182739258 0.14108957350254059
0.27505141496658325 0.4864804744720459 0.15901325643062592
0.53849518299102783 0.53555607795715332 0.19590167701244354
0.74747520685195923 0.57012671232223511 0.21981866657733917
0.90799462795257568 0.58076494932174683 0.2206929475069046
0.31690165400505066 0.67607647180557251 0.25902825593948364
0.42574474215507507 0.69048100709915161 0.27074769139289856
0.59290784597396851 0.72049921751022339 0.29913774132728577
0.77346020936965942 0.75230389833450317 0.30685549974441528
0.93626552820205688 0.78034013509750366 0.28865715861320496
0.49897664785385132 0.84261316061019897 0.41642042994499207
0.55497878789901733 0.85323637723922729 0.41106107831001282
0.65720200538635254 0.86969530582427979 0.43033754825592041
0.80079400539398193 0.89617913961410522 0.43566465377807617
0.96111947298049927 0.93286705017089844 0.39246371388435364
0.050285577774047852 0.037429254502058029 0.16380448639392853
0.21192871034145355 0.065831996500492096 0.20477038621902466
0.47701147198677063 0.12337283045053482 0.25327247381210327
0.709850013256073 0.17120926082134247 0.28535494208335876
0.88441258668899536 0.19494669139385223 0.28966858983039856
0.1365467756986618 0.22641696035861969 0.23612502217292786
0.26108881831169128 0.25247550010681152 0.26521474123001099
0.51201581954956055 0.29648387432098389 0.31066226959228516
0.72398823499679565 0.32941094040870667 0.34257864952087402
0.88097566366195679 0.33150652050971985 0.34633710980415344
0.20084987580776215 0.49013799428939819 0.33093085885047913
0.33872100710868835 0.51070535182952881 0.34680700302124023
0.55544847249984741 0.54962241649627686 0.38508588075637817
0.74303096532821655 0.581065833568573 0.4070204496383667
0.8966367244720459 0.5964505672454834 0.40013965964317322
0.38717889785766602 0.68110710382461548 0.44217339158058167
0.46570023894309998 0.69275772571563721 0.44820433855056763
0.60358911752700806 0.7156490683555603 0.47282141447067261
0.76075440645217896 0.74717205762863159 0.49532711505889893
0.90477985143661499 0.76941758394241333 0.4851287305355072
0.52628505229949951 0.84419721364974976 0.54437822103500366
0.56188720464706421 0.85025227069854736 0.54029136896133423
0.66040521860122681 0.86377859115600586 0.55944269895553589
0.79516357183456421 0.88949137926101685 0.57394462823867798
0.9343377947807312 0.91812849044799805 0.56767421960830688
0.12277055531740189 0.077328972518444061 0.39820009469985962
0.29566332697868347 0.11323998868465424 0.44494503736495972
0.52432537078857422 0.16461502015590668 0.48593106865882874
0.70214790105819702 0.19031138718128204 0.52509695291519165
0.86015301942825317 0.20618157088756561 0.52561783790588379
0.22882822155952454 0.3052428662776947 0.47291693091392517
0.36022558808326721 0.32654500007629395 0.50510287284851074
0.55336147546768188 0.36316046118736267 0.54641932249069214
0.72062385082244873 0.38285499811172485 0.57740312814712524
0.85721224546432495 0.3776203989982605 0.59641218185424805
0.3635125458240509 0.53588032722473145 0.55132484436035156
0.44821524620056152 0.54999184608459473 0.56501692533493042
0.59235310554504395 0.57646584510803223 0.59389722347259521
0.74290186166763306 0.60019820928573608 0.6199343204498291
0.87116348743438721 0.6129612922668457 0.63704466819763184
0.48674562573432922 0.70659244060516357 0.61481297016143799
0.53400593996047974 0.71246761083602905 0.62436223030090332
0.63732755184173584 0.73254263401031494 0.64327019453048706
0.76618087291717529 0.75522267818450928 0.66556817293167114
0.89185911417007446 0.77501648664474487 0.68148660659790039
0.58445292711257935 0.85189539194107056 0.67912346124649048
0.61361134052276611 0.85605359077453613 0.68124306201934814
0.69034880399703979 0.86992955207824707 0.69667512178421021
0.79916036128997803 0.89146631956100464 0.71364951133728027
0.92940455675125122 0.91764730215072632 0.72796493768692017
0.29838263988494873 0.20161397755146027 0.60394531488418579
0.4520018994808197 0.23263289034366608 0.63754332065582275
0.58870816230773926 0.26648834347724915 0.67071187496185303
0.72936975955963135 0.27973261475563049 0.70411139726638794
0.84639066457748413 0.27280691266059875 0.72779953479766846
0.42196229100227356 0.43094068765640259 0.6583397388458252
0.50215202569961548 0.4461539089679718 0.67508721351623535
0.61888754367828369 0.46559110283851624 0.69981688261032104
0.74934095144271851 0.48117733001708984 0.72690558433532715
0.86421847343444824 0.4831964373588562 0.75865888595581055
0.51748913526535034 0.60179471969604492 0.7084469199180603
0.55947685241699219 0.61005115509033203 0.71488547325134277
0.65357762575149536 0.62409675121307373 0.73671644926071167
0.77088212966918945 0.64894455671310425 0.76178431510925293
0.87958830595016479 0.65854078531265259 0.78187382221221924
0.5927431583404541 0.74173402786254883 0.75093066692352295
0.62779694795608521 0.74676251411437988 0.75943285226821899
0.69757050275802612 0.75898748636245728 0.77354228496551514
0.79179489612579346 0.77722430229187012 0.79291683435440063
0.90005099773406982 0.79236865043640137 0.81109243631362915
0.67043626308441162 0.87600022554397583 0.79953455924987793
0.69143033027648926 0.88005572557449341 0.80195647478103638
0.74131840467453003 0.89246189594268799 0.8092949390411377
0.817330002784729 0.90873563289642334 0.82527691125869751
0.94170582294464111 0.93387669324874878 0.84645771980285645
0.49343305826187134 0.37610426545143127 0.74301314353942871
0.56150835752487183 0.38469424843788147 0.75575262308120728
0.65721791982650757 0.40039128065109253 0.78164041042327881
0.76901668310165405 0.41529574990272522 0.80686551332473755
0.8666534423828125 0.41698664426803589 0.83367651700973511
0.5531165599822998 0.53257185220718384 0.77165842056274414
0.60257649421691895 0.54425019025802612 0.78513830900192261
0.68849068880081177 0.5661805272102356 0.80731618404388428
0.78791695833206177 0.57550179958343506 0.8252871036529541
0.87386220693588257 0.58938956260681152 0.85208499431610107
0.62225353717803955 0.66029441356658936 0.81178724765777588
0.65341812372207642 0.66473746299743652 0.81518566608428955
0.72276145219802856 0.68222212791442871 0.833823561668396
0.80491703748703003 0.69967877864837646 0.85317867994308472
0.88648498058319092 0.70845037698745728 0.86844086647033691
0.6979529857635498 0.782662034034729 0.85681611299514771
0.71859419345855713 0.78710508346557617 0.85829567909240723
0.76353681087493896 0.79632091522216797 0.87049955129623413
0.82928693294525146 0.80942273139953613 0.88789445161819458
0.916084885597229 0.82580298185348511 0.91723138093948364
0.76255673170089722 0.91722673177719116 0.91368085145950317
0.77518594264984131 0.91871309280395508 0.9179682731628418
0.80741924047470093 0.92816746234893799 0.92684876918792725
0.86370229721069336 0.94153213500976562 0.94876033067703247
0.98264050483703613 0.96844673156738281 0.98024708032608032
