assets/lut/films print fuji 3513 constlmap.cube
# Created by: G'MIC (https://gmic.eu)
TITLE "fuji_3513_constlmap"
# LUT size
LUT_3D_SIZE 7
# Data domain
DOMAIN_MIN 0.0 0.0 0.0
DOMAIN_MAX 1.0 1.0 1.0
# LUT data points
0.012019049376249313 0.018113080412149429 0.021519111469388008
0.052854664623737335 0.03267211839556694 0.023886647075414658
0.14504647254943848 0.045514274388551712 0.01322441827505827
0.30432048439979553 0.070500798523426056 0.0068293404765427113
0.42740967869758606 0.085729889571666718 0.011315289884805679
0.50579619407653809 0.096566051244735718 0.010542821139097214
0.53200149536132812 0.10254050046205521 0.018766365945339203
0.018782522529363632 0.065266974270343781 0.04190494492650032
0.055445816367864609 0.076285481452941895 0.039620343595743179
0.18405714631080627 0.10162347555160522 0.023552943021059036
0.3637450635433197 0.13436603546142578 0.011734576895833015
0.4990132749080658 0.14679506421089172 0.0065530664287507534
0.57810938358306885 0.16374796628952026 0.0052085276693105698
0.60937678813934326 0.17395107448101044 0.01035753171890974
0.013313353061676025 0.14119702577590942 0.074684217572212219
0.019777784124016762 0.16109059751033783 0.064434975385665894
0.21426263451576233 0.21104192733764648 0.010529132559895515
0.43405050039291382 0.245674729347229 0.0052875741384923458
0.59022581577301025 0.27021190524101257 0.012692544609308243
0.66781747341156006 0.28637790679931641 0.014058161526918411
0.70739829540252686 0.30823752284049988 0.0079375924542546272
0.0043137194588780403 0.26509955525398254 0.12649551033973694
0.020726386457681656 0.29190391302108765 0.11489374190568924
0.22125747799873352 0.36686506867408752 0.025840967893600464
0.50935614109039307 0.43852630257606506 0.0094780568033456802
0.68461805582046509 0.47371262311935425 0.016722794622182846
0.76502335071563721 0.48182743787765503 0.012146998196840286
0.79431343078613281 0.498890221118927 0.016449304297566414
0.014309393242001534 0.38232848048210144 0.16908401250839233
0.0077915266156196594 0.42166447639465332 0.15449999272823334
0.23982009291648865 0.52453994750976562 0.023833556100726128
0.57004743814468384 0.61495840549468994 0.0059099085628986359
0.76203179359436035 0.65738558769226074 0.024452269077301025
0.8508152961730957 0.67357957363128662 0.027753477916121483
0.89523416757583618 0.69993793964385986 0.036153126507997513
0.010811271145939827 0.43791678547859192 0.19788520038127899
0.026956295594573021 0.48608165979385376 0.16941969096660614
0.27176448702812195 0.60304862260818481 0.039715155959129333
0.60467785596847534 0.69776368141174316 0.011338267475366592
0.81302928924560547 0.75586211681365967 0.057920988649129868
0.90735113620758057 0.77193838357925415 0.070760540664196014
0.93732666969299316 0.78253024816513062 0.07665570080280304
0.015440577641129494 0.49932736158370972 0.23601849377155304
0.029384538531303406 0.58273947238922119 0.17347675561904907
0.33964872360229492 0.67666250467300415 0.022141983732581139
0.65162700414657593 0.75234580039978027 0.012012152932584286
0.8630104660987854 0.80595660209655762 0.065796151757240295
0.95534259080886841 0.82379180192947388 0.091408871114253998
0.97335666418075562 0.82735782861709595 0.12311258912086487
0.012557175941765308 0.032529734075069427 0.051443524658679962
0.052258078008890152 0.034242205321788788 0.055832028388977051
0.160047248005867 0.04559122771024704 0.053341329097747803
0.33592283725738525 0.061146814376115799 0.051637403666973114
0.47843214869499207 0.051390301436185837 0.04568544402718544
0.55470865964889526 0.045459955930709839 0.047025598585605621
0.58417671918869019 0.039018876850605011 0.058242257684469223
0.020370662212371826 0.074193082749843597 0.071698777377605438
0.062854304909706116 0.082591034471988678 0.074124202132225037
0.2006555050611496 0.10742130875587463 0.075057022273540497
0.3983248770236969 0.13997761905193329 0.074815727770328522
0.55635964870452881 0.14005683362483978 0.057213697582483292
0.6436992883682251 0.11807728558778763 0.019949864596128464
0.67761540412902832 0.10775293409824371 0.043347153812646866
0.017940117046236992 0.15810540318489075 0.11356981843709946
0.061138257384300232 0.17935274541378021 0.11585050076246262
0.22684155404567719 0.22899487614631653 0.089536137878894806
0.47002345323562622 0.27056998014450073 0.095841534435749054
0.65449017286300659 0.28255963325500488 0.067181937396526337
0.74594146013259888 0.28154173493385315 0.023324105888605118
0.77440184354782104 0.29200035333633423 0.01834799163043499
0.012715388089418411 0.29731857776641846 0.17847253382205963
0.078953027725219727 0.32373476028442383 0.17533496022224426
0.24732311069965363 0.40386667847633362 0.13534484803676605
0.54026132822036743 0.46984022855758667 0.13199968636035919
0.73926115036010742 0.50522172451019287 0.11840308457612991
0.84213268756866455 0.51429492235183716 0.041637688875198364
0.87607681751251221 0.53217107057571411 0.016199149191379547
0.015556320548057556 0.41151419281959534 0.22854647040367126
0.061924263834953308 0.45386609435081482 0.22426025569438934
0.25241979956626892 0.57175326347351074 0.14235900342464447
0.59724217653274536 0.65935158729553223 0.15007658302783966
0.8138306736946106 0.70631301403045654 0.16676956415176392
0.92201805114746094 0.72567224502563477 0.082013152539730072
0.94930458068847656 0.7387382984161377 0.062380965799093246
0.02676461823284626 0.47453153133392334 0.27759149670600891
0.018453709781169891 0.52689522504806519 0.26531341671943665
0.16719226539134979 0.65185141563415527 0.12994088232517242
0.63140904903411865 0.7537950873374939 0.067999653518199921
0.87103784084320068 0.80409938097000122 0.11266560107469559
0.96568912267684937 0.82208859920501709 0.13882523775100708
0.98830461502075195 0.82817763090133667 0.13690938055515289
0.012485324405133724 0.54685503244400024 0.36558225750923157
0.019719367846846581 0.61995476484298706 0.35264280438423157
0.22863134741783142 0.72963953018188477 0.26102948188781738
0.65765213966369629 0.81109428405761719 0.21498443186283112
0.90330857038497925 0.856059730052948 0.16526253521442413
0.99024254083633423 0.86799585819244385 0.24921543896198273
0.996684730052948 0.86960834264755249 0.32109248638153076
0.0043997070752084255 0.056004468351602554 0.12112425267696381
0.038632292300462723 0.04314524307847023 0.1554359495639801
0.16676625609397888 0.048389509320259094 0.16592557728290558
0.36335736513137817 0.049652833491563797 0.18351967632770538
0.51246196031570435 0.05102996900677681 0.18595145642757416
0.58514070510864258 0.046389829367399216 0.19891273975372314
0.61876934766769409 0.03979555144906044 0.20830695331096649
0.0079769808799028397 0.10347719490528107 0.16464699804782867
0.060603991150856018 0.10605306923389435 0.17965167760848999
0.20955875515937805 0.12317810207605362 0.21478042006492615
0.42906403541564941 0.14987592399120331 0.22552300989627838
0.60337531566619873 0.13034135103225708 0.226689413189888
0.69414162635803223 0.070132553577423096 0.21350665390491486
0.7283596396446228 0.054519832134246826 0.22586585581302643
0.021349828690290451 0.20133765041828156 0.22308872640132904
0.08871721476316452 0.21686446666717529 0.23326049745082855
0.24832326173782349 0.2647196352481842 0.27523785829544067
0.50428915023803711 0.28928402066230774 0.27615728974342346
0.72174292802810669 0.26998192071914673 0.24126020073890686
0.81009715795516968 0.26670515537261963 0.22833473980426788
0.8416329026222229 0.29652819037437439 0.23559810221195221
0.02947235107421875 0.34619677066802979 0.29746893048286438
0.11642620712518692 0.37225282192230225 0.31319782137870789
0.29712322354316711 0.45021209120750427 0.33747276663780212
0.56654351949691772 0.52303183078765869 0.34848412871360779
0.8095245361328125 0.54367524385452271 0.29791182279586792
0.91343051195144653 0.55003362894058228 0.2450878918170929
0.93562042713165283 0.56710833311080933 0.26270949840545654
0.019981773570179939 0.46639978885650635 0.35883235931396484
0.10924446582794189 0.50948053598403931 0.3755355179309845
0.24291816353797913 0.63211584091186523 0.36917987465858459
0.61130392551422119 0.73258727788925171 0.34334039688110352
0.86001187562942505 0.77192580699920654 0.38409221172332764
0.97598743438720703 0.78659045696258545 0.30481350421905518
0.99669140577316284 0.7982330322265625 0.3089720606803894
0.019920200109481812 0.52610617876052856 0.42012029886245728
0.026455359533429146 0.5799328088760376 0.44483652710914612
0.11347099393606186 0.71037411689758301 0.42371827363967896
0.61181926727294922 0.81925845146179199 0.37847799062728882
0.89959603548049927 0.8676760196685791 0.35752874612808228
0.98618131875991821 0.87546122074127197 0.42434290051460266
0.99929559230804443 0.87991821765899658 0.4407857358455658
0.014174248091876507 0.59463310241699219 0.51314938068389893
0.022163406014442444 0.66514283418655396 0.53771066665649414
0.13097196817398071 0.77204698324203491 0.52667832374572754
0.626930832862854 0.85693240165710449 0.51873010396957397
0.89655864238739014 0.90173041820526123 0.50495487451553345
0.99255025386810303 0.91219937801361084 0.52814340591430664
1 0.91342043876647949 0.57751882076263428
0.0072807162068784237 0.11152684688568115 0.22659273445606232
0.017875835299491882 0.067025952041149139 0.28625300526618958
0.17755085229873657 0.043696444481611252 0.3271479606628418
0.38255476951599121 0.061786022037267685 0.34889256954193115
0.53650236129760742 0.05086599662899971 0.35902026295661926
0.61396145820617676 0.041067279875278473 0.36990571022033691
0.64520716667175293 0.042862176895141602 0.38460996747016907
0.0061028124764561653 0.16149964928627014 0.28378954529762268
0.05926373228430748 0.15917663276195526 0.30081698298454285
0.19369831681251526 0.14795933663845062 0.38905835151672363
0.44477629661560059 0.1701827198266983 0.41580644249916077
0.62201100587844849 0.15482775866985321 0.42814463376998901
0.71465253829956055 0.074804387986660004 0.43708175420761108
0.74813592433929443 0.063035808503627777 0.45432126522064209
0.016913291066884995 0.26356428861618042 0.3634149432182312
0.095336303114891052 0.27476459741592407 0.38481861352920532
0.23061569035053253 0.28945404291152954 0.47452300786972046
0.51714098453521729 0.32330295443534851 0.50951981544494629
0.73620802164077759 0.30064636468887329 0.5129198431968689
0.8228345513343811 0.29910331964492798 0.51772511005401611
0.85134303569793701 0.32719185948371887 0.53110688924789429
0.021913191303610802 0.40860578417778015 0.45564630627632141
0.13138353824615479 0.43841037154197693 0.48019209504127502
0.32831621170043945 0.51217436790466309 0.53990983963012695
0.58091533184051514 0.57138609886169434 0.58942091464996338
0.82215499877929688 0.59147608280181885 0.58253800868988037
0.91152572631835938 0.59562009572982788 0.58237498998641968
0.94079631567001343 0.61889386177062988 0.59192943572998047
0.007269496563822031 0.53289568424224854 0.52904582023620605
0.11956246942281723 0.57767963409423828 0.56016522645950317
0.27626276016235352 0.68373125791549683 0.61441409587860107
0.58916664123535156 0.79208260774612427 0.63154906034469604
0.87481188774108887 0.8335910439491272 0.64206463098526001
0.97193342447280884 0.83716112375259399 0.63805282115936279
0.99668502807617188 0.85227221250534058 0.63962733745574951
0.0019000035244971514 0.582389235496521 0.57783955335617065
0.023408284410834312 0.64149105548858643 0.61689311265945435
0.094738289713859558 0.76402729749679565 0.67415136098861694
0.56961244344711304 0.87120836973190308 0.69022625684738159
0.87861186265945435 0.91701430082321167 0.69855165481567383
0.9823114275932312 0.92928189039230347 0.71559464931488037
0.9995114803314209 0.93280965089797974 0.72625410556793213
0 0.64879459142684937 0.65203166007995605
0.004155521746724844 0.71394878625869751 0.70159989595413208
0.036163870245218277 0.8130955696105957 0.74691110849380493
0.58366340398788452 0.89855217933654785 0.76660197973251343
0.87619531154632568 0.94249796867370605 0.76178598403930664
0.99126100540161133 0.95791482925415039 0.76189219951629639
0.99987274408340454 0.9584813117980957 0.79983842372894287
0.0055605871602892876 0.15464325249195099 0.30661693215370178
0.011514700949192047 0.13489522039890289 0.3570617139339447
0.18662208318710327 0.062786340713500977 0.45833554863929749
0.39561617374420166 0.073603309690952301 0.48600879311561584
0.55288702249526978 0.076076820492744446 0.49978524446487427
0.62908262014389038 0.060669992119073868 0.51230978965759277
0.66162580251693726 0.03623281791806221 0.52884799242019653
0.0053372699767351151 0.2178625762462616 0.3847234845161438
0.028173498809337616 0.20100864768028259 0.4183993935585022
0.19152697920799255 0.14386466145515442 0.55636370182037354
0.46076011657714844 0.16647545993328094 0.58136278390884399
0.63562160730361938 0.17685577273368835 0.59565216302871704
0.72722917795181274 0.09305882453918457 0.61457246541976929
0.7636406421661377 0.060820575803518295 0.63500553369522095
0.0056239557452499866 0.31314107775688171 0.4763103723526001
0.030391214415431023 0.31465315818786621 0.50133079290390015
0.16382984817028046 0.30437371134757996 0.65271449089050293
0.52164065837860107 0.3331904411315918 0.70012021064758301
0.7372087836265564 0.3359924852848053 0.70847404003143311
0.82946407794952393 0.31106412410736084 0.7208898663520813
0.85263419151306152 0.32749274373054504 0.72898972034454346
0.010859575122594833 0.46127089858055115 0.57298159599304199
0.11283573508262634 0.48178526759147644 0.60251736640930176
0.28063228726387024 0.54749852418899536 0.70411401987075806
0.55045729875564575 0.60341715812683105 0.78829997777938843
0.81802958250045776 0.61872351169586182 0.79761254787445068
0.91255104541778564 0.62049573659896851 0.79989993572235107
0.93641883134841919 0.64559662342071533 0.80759173631668091
0.012074878439307213 0.57957202196121216 0.64618515968322754
0.10729799419641495 0.62057453393936157 0.6837342381477356
0.29629546403884888 0.72707509994506836 0.76810109615325928
0.56593954563140869 0.82512813806533813 0.83698242902755737
0.85778075456619263 0.86357331275939941 0.85190039873123169
0.96656882762908936 0.87392657995223999 0.85240083932876587
0.98982542753219604 0.8863639235496521 0.85874032974243164
0.00571467075496912 0.62481957674026489 0.68209034204483032
0.02874075248837471 0.67799949645996094 0.72829949855804443
0.098996870219707489 0.79514443874359131 0.82046818733215332
0.519459068775177 0.9012024998664856 0.87863820791244507
0.86519229412078857 0.95006078481674194 0.88820010423660278
0.97640079259872437 0.96265387535095215 0.89514577388763428
0.99887824058532715 0.96485751867294312 0.90050369501113892
8.5628736997023225e-05 0.67200911045074463 0.73308545351028442
0.0022257636301219463 0.7443467378616333 0.79454022645950317
0.032326478511095047 0.83784657716751099 0.86926078796386719
0.54218989610671997 0.92161762714385986 0.90852242708206177
0.85857194662094116 0.96707624197006226 0.91978490352630615
0.97838008403778076 0.9834555983543396 0.92516118288040161
0.99828940629959106 0.98477363586425781 0.93400019407272339
0.0013840319588780403 0.17963065207004547 0.3558584451675415
0.0088903391733765602 0.16499099135398865 0.3996143639087677
0.1845717579126358 0.04758206382393837 0.53691273927688599
0.40691211819648743 0.049402948468923569 0.57137477397918701
0.57165682315826416 0.069888517260551453 0.59297627210617065
0.65011441707611084 0.074298053979873657 0.59844505786895752
0.67715609073638916 0.058887794613838196 0.61177796125411987
0.0010613385820761323 0.24129067361354828 0.43660810589790344
0.0032908569555729628 0.23533660173416138 0.48047113418579102
0.18057583272457123 0.1176355704665184 0.65842247009277344
0.47461029887199402 0.12100466340780258 0.69785565137863159
0.65913552045822144 0.13188803195953369 0.70542490482330322
0.74033892154693604 0.12783488631248474 0.71134400367736816
0.77713292837142944 0.094705827534198761 0.73505645990371704
0 0.34045541286468506 0.52725529670715332
0.0030181286856532097 0.34040823578834534 0.56289339065551758
0.1520175039768219 0.31870713829994202 0.73494398593902588
0.52220839262008667 0.33471071720123291 0.7982558012008667
0.74203062057495117 0.32340770959854126 0.81319469213485718
0.83229607343673706 0.31590366363525391 0.81885749101638794
0.85807281732559204 0.34709429740905762 0.82967984676361084
0.0033476585522294044 0.48740082979202271 0.63178545236587524
0.048695910722017288 0.50315278768539429 0.66134047508239746
0.13250954449176788 0.56864094734191895 0.78619933128356934
0.53186935186386108 0.61840140819549561 0.88246816396713257
0.80568188428878784 0.63150191307067871 0.89664268493652344
0.90811288356781006 0.63816159963607788 0.89960348606109619
0.93535357713699341 0.66016107797622681 0.907939612865448
0.0036427965387701988 0.60183858871459961 0.69766223430633545
0.096967868506908417 0.63970023393630981 0.7351381778717041
0.20931635797023773 0.74442988634109497 0.83963406085968018
0.5227387547492981 0.8401799201965332 0.9268224835395813
0.84604364633560181 0.8787306547164917 0.94840437173843384
0.95899325609207153 0.88848268985748291 0.95222848653793335
0.98633044958114624 0.9020005464553833 0.95592939853668213
0.020864568650722504 0.6437801718711853 0.72352850437164307
0.025204228237271309 0.69624990224838257 0.77337336540222168
0.10109801590442657 0.80617517232894897 0.87174755334854126
0.49406462907791138 0.91130560636520386 0.94860249757766724
0.85083162784576416 0.96192818880081177 0.96738088130950928
0.97511106729507446 0.97679537534713745 0.97312861680984497
0.99606049060821533 0.97520357370376587 0.97285705804824829
0.0017043169355019927 0.68657344579696655 0.76614218950271606
0.044013544917106628 0.74881809949874878 0.82229280471801758
0.05294463038444519 0.83998733758926392 0.90180879831314087
0.52505600452423096 0.92966377735137939 0.96016335487365723
0.84955757856369019 0.97687816619873047 0.97562414407730103
0.96692121028900146 0.99078720808029175 0.97845721244812012
0.99646812677383423 0.99361443519592285 0.97854852676391602
0 0.21038392186164856 0.4059329628944397
0.0034685172140598297 0.20664530992507935 0.45592150092124939
0.19457760453224182 0.032342739403247833 0.63275408744812012
0.45035716891288757 0.043694932013750076 0.66290628910064697
0.6210206151008606 0.072624102234840393 0.66843235492706299
0.69324797391891479 0.083580464124679565 0.67374694347381592
0.7288021445274353 0.079299494624137878 0.69928014278411865
0 0.26605558395385742 0.47288405895233154
0.0037851519882678986 0.26737946271896362 0.51969450712203979
0.17905545234680176 0.152131587266922 0.71137279272079468
0.49583956599235535 0.15478302538394928 0.76270931959152222
0.69250422716140747 0.12801435589790344 0.77603608369827271
0.7767646312713623 0.12883435189723969 0.78089612722396851
0.80068099498748779 0.13674221932888031 0.7902834415435791
0.0016529606655240059 0.35557368397712708 0.54386824369430542
0.0039636949077248573 0.36570775508880615 0.59647899866104126
0.10471536964178085 0.35877352952957153 0.75732916593551636
0.51323229074478149 0.37162256240844727 0.83646553754806519
0.74961239099502563 0.36234650015830994 0.85454607009887695
0.84239852428436279 0.3599344789981842 0.86089575290679932
0.86860823631286621 0.38487160205841064 0.87015461921691895
0.0019795435946434736 0.4951569139957428 0.63966673612594604
0.023306902498006821 0.5205579400062561 0.68372780084609985
0.030322086066007614 0.57999718189239502 0.82093620300292969
0.51573073863983154 0.6267363429069519 0.90783381462097168
0.80494379997253418 0.64308148622512817 0.92684996128082275
0.90705519914627075 0.65072256326675415 0.93349611759185791
0.93406492471694946 0.67133808135986328 0.93774962425231934
0.0039878846146166325 0.60834968090057373 0.71187376976013184
0.02391032874584198 0.64851415157318115 0.75335860252380371
0.044495075941085815 0.75232762098312378 0.86500418186187744
0.47369480133056641 0.84449297189712524 0.95316910743713379
0.83795922994613647 0.88268744945526123 0.97293531894683838
0.95545381307601929 0.89071488380432129 0.97984915971755981
0.98160654306411743 0.89710664749145508 0.98075258731842041
0.015304924920201302 0.64959251880645752 0.73810344934463501
0.045572541654109955 0.7028084397315979 0.78751069307327271
0.047177363187074661 0.81220614910125732 0.88835990428924561
0.46231672167778015 0.91453713178634644 0.96746784448623657
0.83826279640197754 0.96153855323791504 0.98455601930618286
0.96562206745147705 0.97630101442337036 0.98981040716171265
0.99352055788040161 0.97397422790527344 0.9882081151008606
0.010143968276679516 0.68956071138381958 0.77270013093948364
0.0069208629429340363 0.76134330034255981 0.83952891826629639
0.046800263226032257 0.84981197118759155 0.91957473754882812
0.50565856695175171 0.93062442541122437 0.97209751605987549
0.83532124757766724 0.97740530967712402 0.98835808038711548
0.96409779787063599 0.99395322799682617 0.99609744548797607
0.99360197782516479 0.99460726976394653 0.99755489826202393
