assets/lut/fujixtransiii fuji xtrans iii astia.cube
# Created by: G'MIC (https://gmic.eu)
TITLE "fuji_xtrans_iii_astia"
# LUT size
LUT_3D_SIZE 13
# Data domain
DOMAIN_MIN 0.0 0.0 0.0
DOMAIN_MAX 1.0 1.0 1.0
# LUT data points
0.0087544163689017296 0.013643287122249603 0.010940102860331535
0.033264517784118652 0.014209014363586903 0.010242716409265995
0.10545700788497925 0.020502950996160507 0.01221624668687582
0.20166407525539398 0.026799116283655167 0.011480413377285004
0.33573064208030701 0.034052036702632904 0.0075420155189931393
0.47030657529830933 0.063321389257907867 0.0094957239925861359
0.58784860372543335 0.1002117395401001 0.023365603759884834
0.71589970588684082 0.13722124695777893 0.058135237544775009
0.79362624883651733 0.15811216831207275 0.10787294805049896
0.84160763025283813 0.17705503106117249 0.14965818822383881
0.86312144994735718 0.18919351696968079 0.17128762602806091
0.88100337982177734 0.20060449838638306 0.194809690117836
0.89575314521789551 0.2165483683347702 0.20759584009647369
0.0077499840408563614 0.034643568098545074 0.011793069541454315
0.032061468809843063 0.03941669687628746 0.010441858321428299
0.10907579213380814 0.047368966042995453 0.01052596140652895
0.20773322880268097 0.058028560131788254 0.011144077405333519
0.33551982045173645 0.072716429829597473 0.010345653630793095
0.46662712097167969 0.092797942459583282 0.012875022366642952
0.59959721565246582 0.11902542412281036 0.022129343822598457
0.71629184484481812 0.14667390286922455 0.05644085630774498
0.79419046640396118 0.16897702217102051 0.098613634705543518
0.8497542142868042 0.18909846246242523 0.14976778626441956
0.87326174974441528 0.20357559621334076 0.1719503253698349
0.89133507013320923 0.22038282454013824 0.18726475536823273
0.92223459482192993 0.25868931412696838 0.22612594068050385
0.0063876733183860779 0.089660242199897766 0.0096572423353791237
0.028875298798084259 0.096304938197135925 0.0081400554627180099
0.10821975767612457 0.097771525382995605 0.0073669133707880974
0.21920643746852875 0.11297591030597687 0.0094495136290788651
0.34294632077217102 0.1299193799495697 0.0089248204603791237
0.46841785311698914 0.15261019766330719 0.013879379257559776
0.59595119953155518 0.17613212764263153 0.021806694567203522
0.71242517232894897 0.19528310000896454 0.043809104710817337
0.79498720169067383 0.21461457014083862 0.085152000188827515
0.85451292991638184 0.22922958433628082 0.13012821972370148
0.89066874980926514 0.24586758017539978 0.16131363809108734
0.91986101865768433 0.28368625044822693 0.18886081874370575
0.94021672010421753 0.31376031041145325 0.20994766056537628
0.0072266370989382267 0.18917563557624817 0.0066310209222137928
0.029123328626155853 0.19109536707401276 0.0062208888120949268
0.085990473628044128 0.18668921291828156 0.0042160032317042351
0.20981647074222565 0.20550447702407837 0.0059760897420346737
0.33892419934272766 0.22608506679534912 0.0073851491324603558
0.47091129422187805 0.2428373247385025 0.01118762418627739
0.59417194128036499 0.25762146711349487 0.020465327426791191
0.70297616720199585 0.2689615786075592 0.030015129595994949
0.78828710317611694 0.2881932258605957 0.059601757675409317
0.85351729393005371 0.31028378009796143 0.10201352834701538
0.92195379734039307 0.32814270257949829 0.16397537291049957
0.93708676099777222 0.3398500382900238 0.17814062535762787
0.9426390528678894 0.34240332245826721 0.18374338746070862
0.0065861120820045471 0.28516599535942078 0.0018133275443688035
0.020463248714804649 0.30552127957344055 0.0018258487107232213
0.059164486825466156 0.3152831494808197 0.00034618002246133983
0.18601691722869873 0.32703778147697449 0.0022675308864563704
0.33512446284294128 0.34555593132972717 0.0047890455462038517
0.47012311220169067 0.35159540176391602 0.0069535798393189907
0.58524143695831299 0.35426744818687439 0.010085835121572018
0.685158371925354 0.36173385381698608 0.017561968415975571
0.76846963167190552 0.37946075201034546 0.03809826448559761
0.83526235818862915 0.39003336429595947 0.07616347074508667
0.90146762132644653 0.38952368497848511 0.12981534004211426
0.93522191047668457 0.36903056502342224 0.1576293408870697
0.94789707660675049 0.38626900315284729 0.17677152156829834
0.0027020922861993313 0.38124886155128479 1.077091019396903e-05
0.012363673187792301 0.42185387015342712 5.7444853155175224e-05
0.042567819356918335 0.42650076746940613 1.7951516610992257e-06
0.14467746019363403 0.44040688872337341 0.00045459222747012973
0.31590062379837036 0.45221760869026184 0.0025196149945259094
0.45854905247688293 0.45914503931999207 0.0035750893875956535
0.57075023651123047 0.46004578471183777 0.0043194787576794624
0.66262876987457275 0.45673349499702454 0.0084596369415521622
0.74781394004821777 0.47099217772483826 0.019879600033164024
0.80979591608047485 0.48488035798072815 0.040637355297803879
0.84872061014175415 0.48572316765785217 0.066340655088424683
0.90024608373641968 0.46741113066673279 0.12218032777309418
0.94244688749313354 0.50076955556869507 0.18864467740058899
0.0028792736120522022 0.44753524661064148 0.0016235650982707739
0.010455337353050709 0.48724928498268127 7.6144351623952389e-05
0.042939834296703339 0.49536114931106567 0
0.13199782371520996 0.52026903629302979 0
0.2921806275844574 0.53186917304992676 0.00012413473450578749
0.4324629008769989 0.53219074010848999 0.00057981902500614524
0.56276476383209229 0.5450516939163208 0.00050149054732173681
0.64945584535598755 0.5512465238571167 0.0050962860696017742
0.73231160640716553 0.55799442529678345 0.014794084243476391
0.80257314443588257 0.56867742538452148 0.024888865649700165
0.84502393007278442 0.573494553565979 0.059543520212173462
0.8672519326210022 0.58049845695495605 0.090835615992546082
0.91319048404693604 0.59825479984283447 0.16710814833641052
0.0058297701179981232 0.47982001304626465 0.002988478634506464
0.011509629897773266 0.51706641912460327 8.7663238446111791e-06
0.037693202495574951 0.5596470832824707 0.00034344242885708809
0.13295143842697144 0.55757600069046021 0
0.295798659324646 0.58768826723098755 0
0.39009284973144531 0.5939820408821106 0
0.55260306596755981 0.61222058534622192 0.0002692428242880851
0.6406097412109375 0.62481838464736938 0.0034429063089191914
0.73011797666549683 0.62629818916320801 0.010668197646737099
0.8028569221496582 0.63704633712768555 0.021425075829029083
0.83796679973602295 0.63817816972732544 0.055276982486248016
0.86440145969390869 0.65170478820800781 0.098919138312339783
0.90479367971420288 0.66385519504547119 0.16762043535709381
0.01128724031150341 0.51440626382827759 0.013234770856797695
0.013361359015107155 0.53894257545471191 0.00042447858140803874
0.031543191522359848 0.60693919658660889 0.0033792234025895596
0.10813073813915253 0.58153229951858521 0.00079582066973671317
0.27708381414413452 0.61161315441131592 0.00094546150648966432
0.38098937273025513 0.64719420671463013 0.00058756809448823333
0.55055111646652222 0.68006867170333862 0.0027395510114729404
0.64647591114044189 0.6806938648223877 0.0043440726585686207
0.73911374807357788 0.6741366982460022 0.010419927537441254
0.80764806270599365 0.67946583032608032 0.01780516654253006
0.83827191591262817 0.68342369794845581 0.053918875753879547
0.86387807130813599 0.69936013221740723 0.10516692698001862
0.89757353067398071 0.71665382385253906 0.16338968276977539
0.013327325694262981 0.5469973087310791 0.025185829028487206
0.015642577782273293 0.54001158475875854 0.0025024563074111938
0.03656933456659317 0.59773391485214233 0.012179101817309856
0.11100351810455322 0.62603670358657837 0.028356648981571198
0.28080043196678162 0.65109992027282715 0.015786712989211082
0.39892536401748657 0.6792110800743103 0.0044423867948353291
0.54360371828079224 0.69635331630706787 0.0068442849442362785
0.62982457876205444 0.6994137167930603 0.009645514190196991
0.71499162912368774 0.69183540344238281 0.012221631594002247
0.80519968271255493 0.68939375877380371 0.025094440206885338
0.8562086820602417 0.7054288387298584 0.086001992225646973
0.89571553468704224 0.72671413421630859 0.16337935626506805
0.92506790161132812 0.74103140830993652 0.21600188314914703
0.015151439234614372 0.55393862724304199 0.02650928869843483
0.019620304927229881 0.54679769277572632 0.0090265311300754547
0.069016806781291962 0.67911934852600098 0.054730746895074844
0.12093053758144379 0.71106696128845215 0.067548416554927826
0.27991673350334167 0.71153056621551514 0.035271737724542618
0.40880817174911499 0.71001708507537842 0.0068115382455289364
0.55625486373901367 0.71693927049636841 0.013209234923124313
0.62080460786819458 0.71549642086029053 0.020124996080994606
0.69484949111938477 0.71442562341690063 0.043282035738229752
0.80344384908676147 0.70187360048294067 0.049055345356464386
0.87363195419311523 0.72285693883895874 0.13429781794548035
0.91940188407897949 0.74256777763366699 0.21238130331039429
0.9302445650100708 0.74757903814315796 0.23157128691673279
0.022185007110238075 0.59187781810760498 0.018756283447146416
0.026064824312925339 0.58751469850540161 0.013105804100632668
0.078778408467769623 0.70692765712738037 0.065150193870067596
0.12881456315517426 0.734424889087677 0.079227745532989502
0.28400957584381104 0.73830395936965942 0.041564583778381348
0.41207364201545715 0.73856908082962036 0.013506406918168068
0.57687318325042725 0.73836356401443481 0.024630257859826088
0.62411266565322876 0.73773282766342163 0.049928478896617889
0.70224583148956299 0.74915385246276855 0.088983900845050812
0.79456955194473267 0.74291783571243286 0.13184604048728943
0.85480409860610962 0.75278264284133911 0.17807289958000183
0.91198676824569702 0.75788956880569458 0.23377424478530884
0.92429763078689575 0.76095598936080933 0.24908992648124695
0.023412726819515228 0.59990233182907104 0.013678127899765968
0.02637501060962677 0.60172075033187866 0.014803268946707249
0.080230265855789185 0.71030747890472412 0.07078196108341217
0.12552481889724731 0.73812949657440186 0.083289697766304016
0.28011935949325562 0.74231880903244019 0.049001343548297882
0.40990760922431946 0.74614572525024414 0.019523844122886658
0.57589513063430786 0.74938195943832397 0.038761526346206665
0.60246723890304565 0.76780855655670166 0.091907113790512085
0.70743447542190552 0.77666813135147095 0.14316783845424652
0.80187517404556274 0.78141450881958008 0.21657994389533997
0.85049402713775635 0.78696423768997192 0.24333664774894714
0.90037757158279419 0.7874138355255127 0.27518773078918457
0.91832429170608521 0.78890371322631836 0.29034754633903503
0.00758387241512537 0.016980638727545738 0.036516092717647552
0.02794901467859745 0.018620718270540237 0.03723539412021637
0.10501423478126526 0.02749958448112011 0.046503417193889618
0.20982347428798676 0.0408199243247509 0.052170533686876297
0.29698777198791504 0.04911886528134346 0.045191850513219833
0.45137593150138855 0.084536440670490265 0.045311618596315384
0.60336416959762573 0.12049493193626404 0.063746616244316101
0.72422105073928833 0.14423809945583344 0.11432527750730515
0.82329505681991577 0.15713000297546387 0.18701896071434021
0.86916166543960571 0.17966072261333466 0.22608514130115509
0.88337469100952148 0.19215437769889832 0.23563291132450104
0.89715790748596191 0.20353096723556519 0.25598856806755066
0.94485831260681152 0.24926252663135529 0.32204487919807434
0.0097679290920495987 0.048069179058074951 0.04943409189581871
0.03639468178153038 0.045241966843605042 0.042212959378957748
0.11319313943386078 0.056058291345834732 0.045697800815105438
0.21258872747421265 0.068206608295440674 0.043729115277528763
0.33300036191940308 0.081959590315818787 0.040182553231716156
0.4694620668888092 0.10587994754314423 0.045320086181163788
0.60176175832748413 0.1282103955745697 0.06411038339138031
0.70870423316955566 0.15544109046459198 0.10822471231222153
0.8033897876739502 0.17887091636657715 0.1579451858997345
0.86784136295318604 0.20054332911968231 0.2102276086807251
0.89554107189178467 0.21762366592884064 0.23304387927055359
0.9264906644821167 0.24625760316848755 0.27451488375663757
0.96580886840820312 0.27687796950340271 0.33800867199897766
0.007851320318877697 0.0987563356757164 0.048103872686624527
0.033730436116456985 0.10347472876310349 0.039215177297592163
0.10530012845993042 0.11058503389358521 0.041642162948846817
0.21682943403720856 0.12959708273410797 0.037747714668512344
0.34916460514068604 0.1445876806974411 0.038019727915525436
0.47528135776519775 0.16145716607570648 0.042965594679117203
0.59932678937911987 0.17877686023712158 0.056485194712877274
0.70395219326019287 0.19922207295894623 0.092636585235595703
0.79890292882919312 0.22276589274406433 0.13568013906478882
0.86594110727310181 0.24317324161529541 0.18799369037151337
0.9168088436126709 0.26514735817909241 0.24278178811073303
0.94252818822860718 0.28731778264045715 0.27066445350646973
0.96441185474395752 0.29607298970222473 0.31802970170974731
0.0072487029246985912 0.19392873346805573 0.030763544142246246
0.024593742564320564 0.19183667004108429 0.025643950328230858
0.085545137524604797 0.20286659896373749 0.026923131197690964
0.20789319276809692 0.21810150146484375 0.028581341728568077
0.34427991509437561 0.2306949645280838 0.023412277922034264
0.47568616271018982 0.24334219098091125 0.03068096749484539
0.59895783662796021 0.25435125827789307 0.040858056396245956
0.70064830780029297 0.27261126041412354 0.072840325534343719
0.79011082649230957 0.29470771551132202 0.11354902386665344
0.86137086153030396 0.31270140409469604 0.16744203865528107
0.91937381029129028 0.32604610919952393 0.21595999598503113
0.938934326171875 0.33508509397506714 0.23028190433979034
0.95944631099700928 0.34697085618972778 0.27772560715675354
0.0051273568533360958 0.30321666598320007 0.017207365483045578
0.016724664717912674 0.30513304471969604 0.016127791255712509
0.05763060599565506 0.31716188788414001 0.011711838655173779
0.1767076700925827 0.33072003722190857 0.01434218417853117
0.32918253540992737 0.33858186006546021 0.016301099210977554
0.47037097811698914 0.34663161635398865 0.017052026465535164
0.58888834714889526 0.35494574904441833 0.023206358775496483
0.69035524129867554 0.37008321285247803 0.0476241335272789
0.76964795589447021 0.38984584808349609 0.088329240679740906
0.84037297964096069 0.40247637033462524 0.14285849034786224
0.90167909860610962 0.4055640697479248 0.1870952844619751
0.93422406911849976 0.4084315299987793 0.2074398547410965
0.9565168023109436 0.43720847368240356 0.24153803288936615
0.0049023944884538651 0.40678459405899048 0.010914103128015995
0.013434211723506451 0.42313042283058167 0.01206677034497261
0.04048430547118187 0.43305128812789917 0.0067523135803639889
0.14156372845172882 0.44283053278923035 0.0070772957988083363
0.3082488477230072 0.44757664203643799 0.010395962744951248
0.45530602335929871 0.45425215363502502 0.012090525589883327
0.5742078423500061 0.46089735627174377 0.016545688733458519
0.67312687635421753 0.46789458394050598 0.026681503280997276
0.75262933969497681 0.4805607795715332 0.058207731693983078
0.8161090612411499 0.49107205867767334 0.099913895130157471
0.87673521041870117 0.49647268652915955 0.14640612900257111
0.93798184394836426 0.51046735048294067 0.2024383544921875
0.95630830526351929 0.53868252038955688 0.22906701266765594
0.0044140536338090897 0.47268682718276978 0.014927658252418041
0.010899921879172325 0.51628053188323975 0.007825903594493866
0.038376722484827042 0.52906554937362671 0.004183541052043438
0.12205925583839417 0.53265231847763062 0.0030065199825912714
0.28155577182769775 0.5414547324180603 0.0045823641121387482
0.42740103602409363 0.54464513063430786 0.0058257756754755974
0.555137038230896 0.55073338747024536 0.010981705971062183
0.6570773720741272 0.5570448637008667 0.020626787096261978
0.74111026525497437 0.56263285875320435 0.034141108393669128
0.80835509300231934 0.57142788171768188 0.072205863893032074
0.87376177310943604 0.57757925987243652 0.13627807796001434
0.91612857580184937 0.58739227056503296 0.17409560084342957
0.94421577453613281 0.60389935970306396 0.21764364838600159
0.0073768617585301399 0.5515439510345459 0.049836777150630951
0.015356520190834999 0.57914477586746216 0.0052099940367043018
0.035167351365089417 0.59819644689559937 0.003759047482162714
0.1077832356095314 0.59709697961807251 0.0022621303796768188
0.26540747284889221 0.60600173473358154 0.0028621149249374866
0.3910556435585022 0.61635637283325195 0.0027172612026333809
0.5392308235168457 0.6245415210723877 0.0082225576043128967
0.64311259984970093 0.62984174489974976 0.019939722493290901
0.72720789909362793 0.63805484771728516 0.027429020032286644
0.79966479539871216 0.64485102891921997 0.059376362711191177
0.86416280269622803 0.65430229902267456 0.12329580634832382
0.91430449485778809 0.66247797012329102 0.18342430889606476
0.94090443849563599 0.67319035530090332 0.21903963387012482
0.015566881746053696 0.58676272630691528 0.039254356175661087
0.021394930779933929 0.61372882127761841 0.0059165805578231812
0.031915284693241119 0.63862687349319458 0.0076476004905998707
0.08813813328742981 0.63981461524963379 0.007469820324331522
0.25007468461990356 0.64970320463180542 0.0098444325849413872
0.38599470257759094 0.67373353242874146 0.0095291584730148315
0.53201347589492798 0.69232994318008423 0.014667331241071224
0.63947367668151855 0.690379798412323 0.016525911167263985
0.72315394878387451 0.69064092636108398 0.035922151058912277
0.79514497518539429 0.70310837030410767 0.079254060983657837
0.85605084896087646 0.71554011106491089 0.13214528560638428
0.9071967601776123 0.71926003694534302 0.18902219831943512
0.94031989574432373 0.72988247871398926 0.22953759133815765
0.020614519715309143 0.60176634788513184 0.020674582570791245
0.027616867795586586 0.62362271547317505 0.012172878719866276
0.056803129613399506 0.67799925804138184 0.040438812226057053
0.10885940492153168 0.70145225524902344 0.050352253019809723
0.26869216561317444 0.70840460062026978 0.035133048892021179
0.39775294065475464 0.71404790878295898 0.015308679081499577
0.55390381813049316 0.72208726406097412 0.02226703055202961
0.63639563322067261 0.72203761339187622 0.033325031399726868
0.71563917398452759 0.71741271018981934 0.056981928646564484
0.79375612735748291 0.73090273141860962 0.11581947654485703
0.8608124852180481 0.74397701025009155 0.17625816166400909
0.91389292478561401 0.74687975645065308 0.21899066865444183
0.93089520931243896 0.74707692861557007 0.23299992084503174
0.021939415484666824 0.60655373334884644 0.042540650814771652
0.029079945757985115 0.6195671558380127 0.016550790518522263
0.075303442776203156 0.70773559808731079 0.06335633248090744
0.12361064553260803 0.72988027334213257 0.076761029660701752
0.27485191822052002 0.73820888996124268 0.053007312119007111
0.41065186262130737 0.74175000190734863 0.021155323833227158
0.58064091205596924 0.7428242564201355 0.028297513723373413
0.62588679790496826 0.75390493869781494 0.059839345514774323
0.70245146751403809 0.74941766262054443 0.095144815742969513
0.79005515575408936 0.7578742504119873 0.16574990749359131
0.8656611442565918 0.76942211389541626 0.22347943484783173
0.91375577449798584 0.75997519493103027 0.23989994823932648
0.92640829086303711 0.75772440433502197 0.24338646233081818
0.018000135198235512 0.61950737237930298 0.14823940396308899
0.029795777052640915 0.61869734525680542 0.022311355918645859
0.083560824394226074 0.71390366554260254 0.077769950032234192
0.13776415586471558 0.74799293279647827 0.11536753177642822
0.27830785512924194 0.75333505868911743 0.089688979089260101
0.40907108783721924 0.75111275911331177 0.046235296875238419
0.57331299781799316 0.75099891424179077 0.051374997943639755
0.60489761829376221 0.77008241415023804 0.097874119877815247
0.70301443338394165 0.77711349725723267 0.13899765908718109
0.79127204418182373 0.78169721364974976 0.21078586578369141
0.85167431831359863 0.78999501466751099 0.24915820360183716
0.89606326818466187 0.79634696245193481 0.28691717982292175
0.91495734453201294 0.79828441143035889 0.30110388994216919
0.015090209431946278 0.62916874885559082 0.21803435683250427
0.031919665634632111 0.62609201669692993 0.057224258780479431
0.11713289469480515 0.73483866453170776 0.13062220811843872
0.16406044363975525 0.76982903480529785 0.17530521750450134
0.26678633689880371 0.77032196521759033 0.16141049563884735
0.40626257658004761 0.76235556602478027 0.10707466304302216
0.56910765171051025 0.7566453218460083 0.068726450204849243
0.59315603971481323 0.77898460626602173 0.11323653906583786
0.69414335489273071 0.78511977195739746 0.14474724233150482
0.79779732227325439 0.78897011280059814 0.22818960249423981
0.85258489847183228 0.79580533504486084 0.25904655456542969
0.89969229698181152 0.82026219367980957 0.32749095559120178
0.91274720430374146 0.83106511831283569 0.35459372401237488
0.0080773597583174706 0.024416126310825348 0.14609305560588837
0.04823983833193779 0.032952237874269485 0.13981664180755615
0.1295877993106842 0.044480074197053909 0.13149325549602509
0.25633394718170166 0.060660671442747116 0.13269419968128204
0.34609973430633545 0.078309260308742523 0.14724913239479065
0.46971023082733154 0.1100841611623764 0.16355447471141815
0.61026984453201294 0.13828963041305542 0.18866518139839172
0.73041141033172607 0.15651406347751617 0.23086808621883392
0.82409954071044922 0.1660582572221756 0.26136603951454163
0.87398260831832886 0.18226779997348785 0.28316926956176758
0.89780455827713013 0.19867803156375885 0.29723474383354187
0.93820714950561523 0.23620972037315369 0.35470202565193176
0.98914253711700439 0.28203430771827698 0.43600708246231079
0.012704258784651756 0.062241032719612122 0.13530763983726501
0.048567183315753937 0.065282739698886871 0.13246273994445801
0.12342770397663116 0.072577379643917084 0.1284366250038147
0.23554675281047821 0.087685994803905487 0.13148316740989685
0.35556623339653015 0.10652048140764236 0.13865716755390167
0.4825461208820343 0.12851472198963165 0.14773263037204742
0.60745131969451904 0.14640411734580994 0.16845184564590454
0.714752197265625 0.17194581031799316 0.20361804962158203
0.81066000461578369 0.19054929912090302 0.23241584002971649
0.87676882743835449 0.21478509902954102 0.27034896612167358
0.92132747173309326 0.24085825681686401 0.30083569884300232
0.95549637079238892 0.26497501134872437 0.3431430459022522
0.99048596620559692 0.28891444206237793 0.40145125985145569
0.0097615709528326988 0.11870332807302475 0.13813842833042145
0.040738768875598907 0.12373175472021103 0.12875621020793915
0.11583644151687622 0.13056918978691101 0.12116815894842148
0.22983033955097198 0.15172435343265533 0.1212509423494339
0.35751911997795105 0.16894437372684479 0.12444788962602615
0.48501023650169373 0.18299221992492676 0.13305568695068359
0.60357540845870972 0.1951899379491806 0.15152117609977722
0.70692771673202515 0.21427078545093536 0.18637700378894806
0.80156153440475464 0.2377779632806778 0.22269542515277863
0.87286794185638428 0.26481324434280396 0.26195257902145386
0.93097233772277832 0.28475958108901978 0.30707511305809021
0.9679560661315918 0.2936951220035553 0.34246185421943665
0.99083793163299561 0.3142319917678833 0.39126589894294739
0.0077407388016581535 0.20827513933181763 0.1255747377872467
0.027373533695936203 0.21027086675167084 0.11317151784896851
0.092571467161178589 0.21855656802654266 0.10112536698579788
0.2171686589717865 0.232622429728508 0.098810173571109772
0.35283848643302917 0.24592559039592743 0.10310132056474686
0.48431581258773804 0.25665327906608582 0.11069992929697037
0.59839260578155518 0.26733997464179993 0.12975554168224335
0.70051783323287964 0.28432324528694153 0.16105848550796509
0.79079794883728027 0.30585196614265442 0.20027546584606171
0.86284464597702026 0.32265552878379822 0.24207840859889984
0.92743498086929321 0.34026488661766052 0.29282522201538086
0.97777432203292847 0.35907408595085144 0.34809309244155884
0.98871445655822754 0.37286290526390076 0.38630381226539612
0.0049248789437115192 0.31666532158851624 0.093359746038913727
0.017755037173628807 0.31536808609962463 0.08643997460603714
0.064094170928001404 0.32793918251991272 0.068217366933822632
