assets/lut/fujixtransiii fuji xtrans iii velvia.cube
# Created by: G'MIC (https://gmic.eu)
TITLE "fuji_xtrans_iii_velvia"
# LUT size
LUT_3D_SIZE 13
# Data domain
DOMAIN_MIN 0.0 0.0 0.0
DOMAIN_MAX 1.0 1.0 1.0
# LUT data points
0.0077789458446204662 0.007825230248272419 0.0052902521565556526
0.028889914974570274 0.010133810341358185 0.0068913628347218037
0.07802225649356842 0.01040356233716011 0.0043470943346619606
0.18629138171672821 0.015001933090388775 0.0082734497264027596
0.34719857573509216 0.018314016982913017 0.0072559281252324581
0.50725823640823364 0.032826680690050125 0.0061466144397854805
0.64212864637374878 0.066136769950389862 0.0061477660201489925
0.77621942758560181 0.10513776540756226 0.0085015539079904556
0.86312508583068848 0.13148601353168488 0.01189766637980938
0.91212385892868042 0.15316490828990936 0.033818848431110382
0.93534332513809204 0.16876049339771271 0.047451242804527283
0.95250910520553589 0.17983607947826385 0.068142786622047424
0.96346747875213623 0.19752801954746246 0.082582332193851471
0.0071564619429409504 0.023683466017246246 0.0085381753742694855
0.021494068205356598 0.021605083718895912 0.0070547815412282944
0.089647926390171051 0.025360137224197388 0.0047733234241604805
0.2084275484085083 0.042335525155067444 0.0093168076127767563
0.35700848698616028 0.055216096341609955 0.010990382172167301
0.51517206430435181 0.06278470903635025 0.0084492107853293419
0.65886622667312622 0.094085291028022766 0.0080855423584580421
0.7713463306427002 0.12301469594240189 0.0096846781671047211
0.86102128028869629 0.14391639828681946 0.011969592422246933
0.92425590753555298 0.16964410245418549 0.028372416272759438
0.95323067903518677 0.19060444831848145 0.039475325495004654
0.96402376890182495 0.20644454658031464 0.05487549677491188
0.98450809717178345 0.24998168647289276 0.091839537024497986
0.005994460079818964 0.078293174505233765 0.0056882370263338089
0.018344804644584656 0.073076553642749786 0.0041212942451238632
0.083366677165031433 0.080861516296863556 0.0037103989161550999
0.21150405704975128 0.10248411446809769 0.0069228825159370899
0.36302542686462402 0.12163133919239044 0.0080665741115808487
0.51810622215270996 0.12367983162403107 0.0053291022777557373
0.65067589282989502 0.1432739645242691 0.0054814056493341923
0.76672011613845825 0.16829359531402588 0.0053163417614996433
0.86030048131942749 0.19367571175098419 0.0066902609542012215
0.93002468347549438 0.22050172090530396 0.013152343221008778
0.96429985761642456 0.24162936210632324 0.019135957583785057
0.98520326614379883 0.28078737854957581 0.032028108835220337
0.99750936031341553 0.31840181350708008 0.043680738657712936
0.003369499696418643 0.17797370254993439 0.0013414120767265558
0.014352208003401756 0.18375158309936523 0.0020060520619153976
0.056075286120176315 0.18452408909797668 0.0011911280453205109
0.18322999775409698 0.20342171192169189 0.002315581077709794
0.35239461064338684 0.21553798019886017 0.0053494772873818874
0.49847781658172607 0.22320146858692169 0.0055576697923243046
0.6287798285484314 0.24312013387680054 0.0054317251779139042
0.74770224094390869 0.26475882530212402 0.0057595344260334969
0.8390510082244873 0.28373557329177856 0.0053130355663597584
0.91476935148239136 0.30840185284614563 0.0068093989975750446
0.97679656744003296 0.33577311038970947 0.011245368048548698
0.99563950300216675 0.34244373440742493 0.015083192847669125
0.99867159128189087 0.35005328059196472 0.019207702949643135
0.00048080144915729761 0.30003282427787781 0.002901413943618536
0.0068203494884073734 0.31942155957221985 0.0015131332911550999
0.030372500419616699 0.32536748051643372 6.2650789914187044e-05
0.12211984395980835 0.34494221210479736 0.00057091808412224054
0.30235201120376587 0.35335236787796021 0.0027014489751309156
0.47130206227302551 0.34779250621795654 0.0045999861322343349
0.60385358333587646 0.36428758502006531 0.0045572319068014622
0.72131532430648804 0.37241789698600769 0.0048517864197492599
0.81271404027938843 0.37870398163795471 0.0054862974211573601
0.89517062902450562 0.38490331172943115 0.0043001812882721424
0.95806425809860229 0.39537623524665833 0.0027407626621425152
0.99246793985366821 0.37159448862075806 0.0042136847041547298
0.99889457225799561 0.39118316769599915 0.0083977049216628075
0 0.40640899538993835 0.00045358994975686073
0.0083907181397080421 0.44445842504501343 8.6421590822283179e-05
0.026085542514920235 0.44276872277259827 6.4625460254319478e-06
0.072900958359241486 0.46387818455696106 8.0781828728504479e-06
0.23888246715068817 0.47572988271713257 0.00095527496887370944
0.4299837052822113 0.47277089953422546 0.0023351034615188837
0.57566797733306885 0.47424301505088806 0.0025899400934576988
0.69428783655166626 0.47442027926445007 0.0032136954832822084
0.78755497932434082 0.47525307536125183 0.0042588626965880394
0.86247730255126953 0.47966092824935913 0.0026370927225798368
0.91108608245849609 0.48493391275405884 0.00039361690869554877
0.95595824718475342 0.47345402836799622 0.0051392349414527416
0.99033617973327637 0.50413030385971069 0.014715695753693581
0.00060568418120965362 0.48036637902259827 2.8004365958622657e-05
0.0048659979365766048 0.51474535465240479 0
0.015152680687606335 0.52571189403533936 0
0.054222017526626587 0.54642534255981445 0
0.18314960598945618 0.55986064672470093 2.2618911316385493e-05
0.36949777603149414 0.55058127641677856 0.00018445182649884373
0.53965109586715698 0.55283212661743164 0.00025679645477794111
0.65907752513885498 0.56288713216781616 8.643655019113794e-05
0.75716245174407959 0.56429415941238403 0.00058468087809160352
0.84831225872039795 0.56926774978637695 0.00048168408102355897
0.90784037113189697 0.57201582193374634 0.00032909619039855897
0.94245123863220215 0.57189208269119263 0.0059585273265838623
0.980305016040802 0.59215641021728516 0.011136926710605621
0.0022665883880108595 0.51032871007919312 0.00090703030582517385
0.0036703073419630527 0.55046075582504272 0
0.011374380439519882 0.59191113710403442 0
0.055236231535673141 0.58722716569900513 0
0.15966199338436127 0.60870766639709473 0
0.27100881934165955 0.6063917875289917 0
0.51627528667449951 0.6181456446647644 0
0.62985610961914062 0.63008302450180054 0
0.74713122844696045 0.6247483491897583 0
0.8465307354927063 0.63474416732788086 0
0.90535712242126465 0.63515520095825195 0.00012449377391021699
0.93098205327987671 0.644115149974823 0.0032632716465741396
0.97265386581420898 0.65786266326904297 0.010495788417756557
0.0020596671383827925 0.54492670297622681 0.0026517233345657587
0.0025246564764529467 0.5632137656211853 0.00071767170447856188
0.0074691022746264935 0.62637925148010254 0.0003717011131811887
0.037813059985637665 0.60818445682525635 0.00021709367865696549
0.13813646137714386 0.62898886203765869 9.4664334028493613e-05
0.23994424939155579 0.65537971258163452 0
0.49170252680778503 0.68243753910064697 0
0.62308371067047119 0.68193799257278442 0
0.74828046560287476 0.67157065868377686 0
0.84818512201309204 0.67437386512756348 2.7824849894386716e-05
0.89724177122116089 0.67415344715118408 0.00096713798120617867
0.92819440364837646 0.69324195384979248 0.0015808853786438704
0.96159648895263672 0.71360498666763306 0.0058034858666360378
0.0014256795402616262 0.57483398914337158 0.0077039082534611225
0.0022889529354870319 0.56266146898269653 0.0014052597107365727
0.0069120968692004681 0.62174791097640991 0.00334930419921875
0.029640316963195801 0.65298324823379517 0.004652105737477541
0.13586792349815369 0.66835081577301025 0.0026272493414580822
0.25330141186714172 0.68660241365432739 0
0.48019152879714966 0.69854676723480225 0
0.60094273090362549 0.69970893859863281 0
0.7132299542427063 0.68765884637832642 1.6156365745700896e-05
0.8437996506690979 0.68582886457443237 0.00074201100505888462
0.91580265760421753 0.70056378841400146 0.003256120951846242
0.95285707712173462 0.71730273962020874 0.0047028334811329842
0.98838627338409424 0.7359623908996582 0.008288918063044548
0.0018669427372515202 0.5824732780456543 0.013548712246119976
0.0033897398971021175 0.58446019887924194 0.0017556434031575918
0.010324201546609402 0.7042614221572876 0.0089856013655662537
0.022720875218510628 0.73447728157043457 0.011773382313549519
0.12055040150880814 0.72696763277053833 0.0066794450394809246
0.23376558721065521 0.72186154127120972 6.0915477661183104e-05
0.48393493890762329 0.72315490245819092 1.4002182979311328e-05
0.58032500743865967 0.71829921007156372 0.00059649895410984755
0.68577218055725098 0.71009516716003418 0.0025060465559363365
0.84061974287033081 0.69790416955947876 0.0049378639087080956
0.93548744916915894 0.72398358583450317 0.010723114013671875
0.98084288835525513 0.73723989725112915 0.010469907894730568
0.99472415447235107 0.74193316698074341 0.011582737788558006
0.0039215688593685627 0.61984962224960327 0.01820901595056057
0.0052373548969626427 0.62713021039962769 0.0035303451586514711
0.012032811529934406 0.73118042945861816 0.010594147257506847
0.024181080982089043 0.75473326444625854 0.016646575182676315
0.10043581575155258 0.75333952903747559 0.011283635161817074
0.20979326963424683 0.75464755296707153 0.0011655022390186787
0.498689204454422 0.74722206592559814 0.00049953087000176311
0.55789518356323242 0.74861681461334229 0.0039553325623273849
0.67110288143157959 0.75449663400650024 0.0081539526581764221
0.81295931339263916 0.74925625324249268 0.023293260484933853
0.89942812919616699 0.75965344905853271 0.034635208547115326
0.97265642881393433 0.75773042440414429 0.025424448773264885
0.98900729417800903 0.75818896293640137 0.029463509097695351
0.0039215688593685627 0.62804043292999268 0.01646982878446579
0.0056123021058738232 0.63553881645202637 0.0059514963068068027
0.012476603500545025 0.73631304502487183 0.014217705465853214
0.025887014344334602 0.76010328531265259 0.022023743018507957
0.096829779446125031 0.75956690311431885 0.014470987021923065
0.20801393687725067 0.76056939363479614 0.0035697189159691334
0.4892393946647644 0.75714224576950073 0.0034055223222821951
0.50252234935760498 0.78656864166259766 0.011816331185400486
0.66862392425537109 0.78923821449279785 0.01967201940715313
0.80954986810684204 0.79190319776535034 0.04245898500084877
0.88457411527633667 0.80258947610855103 0.063936792314052582
0.95411050319671631 0.80317425727844238 0.07882218062877655
0.9831811785697937 0.80386590957641602 0.091888397932052612
0.0056576449424028397 0.0083450619131326675 0.025257648900151253
0.021000431850552559 0.010115664452314377 0.024317363277077675
0.088259465992450714 0.015699200332164764 0.035308480262756348
0.20455925166606903 0.021493740379810333 0.043620001524686813
0.30418574810028076 0.027317287400364876 0.039324622601270676
0.48529413342475891 0.054370895028114319 0.037377331405878067
0.65929102897644043 0.084227316081523895 0.039496224373579025
0.78125804662704468 0.10828712582588196 0.047864232212305069
0.88650882244110107 0.12693417072296143 0.081989124417304993
0.93739372491836548 0.15353184938430786 0.10286586731672287
0.95269465446472168 0.16474145650863647 0.12046187371015549
0.96319204568862915 0.18138350546360016 0.1430448442697525
0.98345887660980225 0.22749583423137665 0.21995507180690765
0.0065074097365140915 0.029461774975061417 0.030718112364411354
0.023775810375809669 0.029536169022321701 0.028242582455277443
0.089300878345966339 0.037735268473625183 0.032652553170919418
0.21311648190021515 0.048651106655597687 0.036024443805217743
0.34840556979179382 0.057897917926311493 0.035529118031263351
0.50711345672607422 0.077371843159198761 0.036863543093204498
0.66026127338409424 0.094093859195709229 0.034996435046195984
0.77293461561203003 0.12325096875429153 0.038697756826877594
0.86645948886871338 0.14775770902633667 0.052670437842607498
0.93347233533859253 0.17615813016891479 0.076399065554141998
0.95983004570007324 0.19226402044296265 0.09471912682056427
0.9824899435043335 0.22803321480751038 0.14679361879825592
0.99781471490859985 0.26241669058799744 0.22381843626499176
0.0055819493718445301 0.082934573292732239 0.02772795781493187
0.020198507234454155 0.081421032547950745 0.027187556028366089
0.080641850829124451 0.093763150274753571 0.024695737287402153
0.20562028884887695 0.10331292450428009 0.02441488578915596
0.36518505215644836 0.12122638523578644 0.027046248316764832
0.52340131998062134 0.12956170737743378 0.023345498368144035
0.65646094083786011 0.14906001091003418 0.022079212591052055
0.76772981882095337 0.17277339100837708 0.023644765838980675
0.85824227333068848 0.1996300220489502 0.031938157975673676
0.93293088674545288 0.22856506705284119 0.048312466591596603
0.97821730375289917 0.25063151121139526 0.095367342233657837
0.99684000015258789 0.27997910976409912 0.12300693243741989
0.99995237588882446 0.28967967629432678 0.18616576492786407
0.0030776828061789274 0.18705089390277863 0.021831842139363289
0.01235752459615469 0.19227077066898346 0.018417432904243469
0.053928479552268982 0.1959814727306366 0.012651002034544945
0.17337365448474884 0.20708203315734863 0.012942774221301079
0.34813249111175537 0.21829521656036377 0.021696936339139938
0.50909006595611572 0.22833774983882904 0.021018218249082565
0.63852226734161377 0.24535657465457916 0.014400781132280827
0.75157803297042847 0.26349744200706482 0.014712060801684856
0.84300690889358521 0.28826957941055298 0.022472919896245003
0.92356526851654053 0.30883148312568665 0.024755993857979774
0.98012274503707886 0.32573863863945007 0.044578492641448975
0.99738544225692749 0.33286175131797791 0.055048655718564987
0.99943560361862183 0.34486180543899536 0.12226995080709457
0.00091121898731216788 0.32017773389816284 0.016304105520248413
0.0051820045337080956 0.32647085189819336 0.012616804800927639
0.027066668495535851 0.32992374897003174 0.0078184390440583229
0.11767824739217758 0.34068563580513 0.0056898826733231544
0.29471009969711304 0.3461548388004303 0.010176430456340313
0.47109729051589966 0.34967526793479919 0.014329873025417328
0.60665160417556763 0.36162808537483215 0.011033570393919945
0.72205007076263428 0.37308391928672791 0.012250653468072414
0.82136130332946777 0.3847927451133728 0.014480965211987495
0.90675932168960571 0.39903175830841064 0.016819508746266365
0.97403973340988159 0.40808451175689697 0.022320691496133804
0.99464124441146851 0.40610578656196594 0.034050002694129944
0.9995189905166626 0.44150114059448242 0.06764259934425354
3.5544002457754686e-05 0.44251745939254761 0.0040563098154962063
0.0057177674025297165 0.45319089293479919 0.0052209142595529556
0.01929403655230999 0.45207604765892029 0.0037396748084574938
0.070969551801681519 0.46328628063201904 0.0013436860172078013
0.23243343830108643 0.4683874249458313 0.004788118414580822
0.42400777339935303 0.46442684531211853 0.008467954583466053
0.57385289669036865 0.46873319149017334 0.0088756335899233818
0.69398981332778931 0.47714293003082275 0.009303792379796505
0.79449117183685303 0.48035129904747009 0.008948247879743576
0.88026368618011475 0.48653659224510193 0.008783961646258831
0.95320695638656616 0.49475714564323425 0.009790053591132164
0.98640817403793335 0.50234133005142212 0.021679837256669998
0.99677997827529907 0.53161734342575073 0.030679380521178246
7.9435463703703135e-05 0.50477069616317749 0.0028550392016768456
0.0050375247374176979 0.54515665769577026 0.0023163738660514355
0.013801993802189827 0.55039381980895996 0.0011359420605003834
0.049593951553106308 0.54895764589309692 0.0010979296639561653
0.17571344971656799 0.56084269285202026 0.0031494738068431616
0.36552873253822327 0.55686116218566895 0.0038284899201244116
0.53654378652572632 0.55579966306686401 0.0089874565601348877
0.66503846645355225 0.56639546155929565 0.0075836931355297565
0.76374667882919312 0.57028448581695557 0.0034463321790099144
0.85417526960372925 0.5722077488899231 0.0032600702252238989
0.93910247087478638 0.5758402943611145 0.0062030120752751827
0.97973871231079102 0.58205229043960571 0.01978720910847187
0.99274194240570068 0.59723174571990967 0.024521501734852791
0.0029624190647155046 0.57848507165908813 0.010355825535953045
0.0046848221682012081 0.60673093795776367 0.0036217034794390202
0.010717698372900486 0.62248378992080688 0.0010473064612597227
0.032000761479139328 0.61619466543197632 0.00085721485083922744
0.12893611192703247 0.62780261039733887 0.0020223581232130527
0.27062651515007019 0.63039118051528931 0.002991904504597187
0.49360764026641846 0.63025140762329102 0.0043349172919988632
0.62922614812850952 0.63790291547775269 0.0049416334368288517
0.74211478233337402 0.63523584604263306 0.001722926739603281
0.83951723575592041 0.64150458574295044 0.0017497342778369784
0.93040663003921509 0.64765763282775879 0.005018316674977541
0.97045832872390747 0.65364205837249756 0.016628699377179146
0.98720449209213257 0.66686952114105225 0.029973167926073074
0.0038766448851674795 0.61892032623291016 0.015470362268388271
0.0044940426014363766 0.63725960254669189 0.0055010626092553139
0.0078374678269028664 0.66097205877304077 0.0044392901472747326
0.020024603232741356 0.66545993089675903 0.0029880597721785307
0.096592575311660767 0.67073976993560791 0.0036995681002736092
0.23386330902576447 0.68048334121704102 0.0021035587415099144
0.46258187294006348 0.69291144609451294 0.0011122908908873796
0.60915082693099976 0.69169420003890991 0.0015686483820900321
0.7284356951713562 0.68246501684188843 0.0018522823229432106
0.82302415370941162 0.69594073295593262 0.0024686327669769526
0.91542547941207886 0.70732659101486206 0.0062425499781966209
0.97172611951828003 0.71407550573348999 0.010214666835963726
0.98671460151672363 0.72414332628250122 0.026375265792012215
0.0039215688593685627 0.62594079971313477 0.012777695432305336
0.0043989443220198154 0.63907444477081299 0.0054932241328060627
0.0091992849484086037 0.7011839747428894 0.0096138902008533478
0.020688988268375397 0.72908025979995728 0.01162535697221756
0.10012198239564896 0.72304028272628784 0.008632914163172245
0.22348228096961975 0.72035026550292969 0.0020625842735171318
0.48006686568260193 0.7261892557144165 0.00049000157741829753
0.59389841556549072 0.73038375377655029 0.0010289360070601106
0.70612072944641113 0.71604102849960327 0.0029164780862629414
0.81112229824066162 0.73080295324325562 0.010589868761599064
0.91271489858627319 0.74183398485183716 0.016438517719507217
0.97744733095169067 0.74322164058685303 0.015258759260177612
0.99063128232955933 0.74829709529876709 0.017790490761399269
0.0038050783332437277 0.63127273321151733 0.037552341818809509
0.0045896642841398716 0.64581042528152466 0.0060793408192694187
0.010662497952580452 0.72653794288635254 0.01128043420612812
0.021375050768256187 0.75117045640945435 0.015993859618902206
0.10254431515932083 0.75362318754196167 0.014152721501886845
0.21183283627033234 0.75526821613311768 0.0052946503274142742
0.49564126133918762 0.74944591522216797 0.0026308097876608372
0.56293380260467529 0.76052939891815186 0.0047694486565887928
0.66930556297302246 0.75363409519195557 0.0070624258369207382
0.80399543046951294 0.75852030515670776 0.024529639631509781
0.90802210569381714 0.77194446325302124 0.036050818860530853
0.976176917552948 0.76031070947647095 0.02874857559800148
0.99411118030548096 0.75730675458908081 0.027402721345424652
0.0024616466835141182 0.64407444000244141 0.13172061741352081
0.0049405866302549839 0.6503061056137085 0.012948563322424889
0.011479725129902363 0.73873412609100342 0.022663818672299385
0.020897883921861649 0.77270561456680298 0.046768788248300552
0.09004085510969162 0.77227222919464111 0.041289191693067551
0.19885121285915375 0.76570487022399902 0.019823022186756134
0.47609594464302063 0.76133424043655396 0.012020888738334179
0.49954229593276978 0.78567957878112793 0.0148962726816535
0.659576416015625 0.78958225250244141 0.021889511495828629
0.79819351434707642 0.79262089729309082 0.040515482425689697
0.88467627763748169 0.80121886730194092 0.059258539229631424
0.95399695634841919 0.80834501981735229 0.087778963148593903
0.98376011848449707 0.80752468109130859 0.096997387707233429
0.001899225520901382 0.6524890661239624 0.18813097476959229
0.0048550176434218884 0.65600836277008057 0.042065326124429703
0.013697516173124313 0.76394379138946533 0.059126026928424835
0.021956410259008408 0.80053293704986572 0.094287052750587463
0.0666375532746315 0.79509973526000977 0.089524254202842712
0.1897876113653183 0.7794613242149353 0.056932114064693451
0.47030302882194519 0.76512694358825684 0.018738795071840286
0.4818236231803894 0.79532009363174438 0.017599247395992279
0.65364313125610352 0.798819899559021 0.025053929537534714
0.79310494661331177 0.80057841539382935 0.046715050935745239
0.88469994068145752 0.81557685136795044 0.081152744591236115
0.9592587947845459 0.84424710273742676 0.14034649729728699
0.97881299257278442 0.85703998804092407 0.16793359816074371
0.0082538826391100883 0.011469358578324318 0.14095146954059601
0.036471839994192123 0.017738193273544312 0.12002012878656387
0.12015009671449661 0.02403239905834198 0.12062650173902512
0.26883670687675476 0.030181705951690674 0.13104185461997986
0.36973005533218384 0.04066898301243782 0.15392626821994781
0.51388394832611084 0.069188229739665985 0.17038634419441223
0.6657378077507019 0.09176260232925415 0.1788516640663147
0.78311789035797119 0.10990452766418457 0.19625619053840637
0.88217246532440186 0.12359677255153656 0.19030636548995972
0.94295519590377808 0.14634586870670319 0.19366729259490967
0.96437019109725952 0.16458943486213684 0.21103675663471222
0.98391467332839966 0.20769126713275909 0.28629618883132935
0.99765092134475708 0.25516974925994873 0.37980589270591736
0.0093671008944511414 0.040349084883928299 0.11758381128311157
0.036876078695058823 0.041473090648651123 0.11333379149436951
0.11060831695795059 0.04989166185259819 0.11563092470169067
0.24133871495723724 0.059048313647508621 0.1248326450586319
0.38219201564788818 0.071660183370113373 0.13814972341060638
0.52794235944747925 0.091740794479846954 0.13717086613178253
0.66263496875762939 0.10737774521112442 0.14398598670959473
0.77332466840744019 0.13122725486755371 0.15568533539772034
0.86889958381652832 0.15432758629322052 0.16041973233222961
0.94017845392227173 0.18820708990097046 0.17583607137203217
0.97959041595458984 0.21896395087242126 0.19918057322502136
0.9958997368812561 0.24754773080348969 0.2505815327167511
0.99987924098968506 0.27285981178283691 0.31844601035118103
0.0061234119348227978 0.10181733965873718 0.11289072781801224
0.029108459129929543 0.099472686648368835 0.10717982798814774
0.099503837525844574 0.11377210170030594 0.10814373195171356
0.22324514389038086 0.12534578144550323 0.10907332599163055
0.37847423553466797 0.13721688091754913 0.105996273458004
0.52994900941848755 0.14327868819236755 0.10655172169208527
0.65473127365112305 0.16481778025627136 0.11085245758295059
0.76423698663711548 0.18714615702629089 0.11740750819444656
0.85624343156814575 0.21472994983196259 0.13581669330596924
0.93397527933120728 0.24463127553462982 0.15676027536392212
0.9855043888092041 0.26947614550590515 0.18565075099468231
0.9990546703338623 0.28235524892807007 0.23395241796970367
1 0.30424216389656067 0.30243009328842163
0.0039055768866091967 0.20644906163215637 0.08748994767665863
0.01388148870319128 0.20535224676132202 0.07782687246799469
0.063498601317405701 0.2131691575050354 0.070816308259963989
0.19406197965145111 0.22075104713439941 0.068560943007469177
0.35896599292755127 0.22626388072967529 0.074932053685188293
0.51669764518737793 0.2371010035276413 0.074417352676391602
0.63853615522384644 0.25756186246871948 0.077789574861526489
0.74744296073913574 0.27249348163604736 0.082278609275817871
0.84381365776062012 0.29490432143211365 0.09634137898683548
0.92870819568634033 0.31778442859649658 0.11149866133928299
0.98124641180038452 0.33799681067466736 0.15076208114624023
0.99806714057922363 0.35623270273208618 0.22296267747879028
0.99996757507324219 0.36883759498596191 0.27034607529640198
0.0015268063871189952 0.33497655391693115 0.051729690283536911
0.0050343829207122326 0.33431532979011536 0.045269850641489029
0.029157137498259544 0.34155303239822388 0.036131314933300018
