assets/lut/fujixtransiii fuji xtrans iii acros.cube
# Created by: G'MIC (https://gmic.eu)
TITLE "fuji_xtrans_iii_acros"
# LUT size
LUT_3D_SIZE 13
# Data domain
DOMAIN_MIN 0.0 0.0 0.0
DOMAIN_MAX 1.0 1.0 1.0
# LUT data points
0.018118899315595627 0.018118899315595627 0.018118899315595627
0.030271926894783974 0.030271926894783974 0.030271926894783974
0.045657962560653687 0.045657962560653687 0.045657962560653687
0.078353926539421082 0.078353926539421082 0.078353926539421082
0.11814766377210617 0.11814766377210617 0.11814766377210617
0.1719537079334259 0.1719537079334259 0.1719537079334259
0.22261928021907806 0.22261928021907806 0.22261928021907806
0.30101150274276733 0.30101150274276733 0.30101150274276733
0.34643957018852234 0.34643957018852234 0.34643957018852234
0.37941524386405945 0.37941524386405945 0.37941524386405945
0.39535814523696899 0.39535814523696899 0.39535814523696899
0.41525018215179443 0.41525018215179443 0.41525018215179443
0.42830470204353333 0.42830470204353333 0.42830470204353333
0.029681665822863579 0.029681665822863579 0.029681665822863579
0.044396389275789261 0.044396389275789261 0.044396389275789261
0.064447544515132904 0.064447544515132904 0.064447544515132904
0.096872098743915558 0.096872098743915558 0.096872098743915558
0.13760901987552643 0.13760901987552643 0.13760901987552643
0.19055759906768799 0.19055759906768799 0.19055759906768799
0.2453777939081192 0.2453777939081192 0.2453777939081192
0.30483081936836243 0.30483081936836243 0.30483081936836243
0.35171586275100708 0.35171586275100708 0.35171586275100708
0.38520386815071106 0.38520386815071106 0.38520386815071106
0.40529125928878784 0.40529125928878784 0.40529125928878784
0.42507937550544739 0.42507937550544739 0.42507937550544739
0.45843476057052612 0.45843476057052612 0.45843476057052612
0.052228488028049469 0.052228488028049469 0.052228488028049469
0.067254021763801575 0.067254021763801575 0.067254021763801575
0.089169822633266449 0.089169822633266449 0.089169822633266449
0.12489170581102371 0.12489170581102371 0.12489170581102371
0.17095541954040527 0.17095541954040527 0.17095541954040527
0.22056125104427338 0.22056125104427338 0.22056125104427338
0.27178391814231873 0.27178391814231873 0.27178391814231873
0.32360923290252686 0.32360923290252686 0.32360923290252686
0.37188684940338135 0.37188684940338135 0.37188684940338135
0.40698498487472534 0.40698498487472534 0.40698498487472534
0.43089067935943604 0.43089067935943604 0.43089067935943604
0.46394002437591553 0.46394002437591553 0.46394002437591553
0.49190554022789001 0.49190554022789001 0.49190554022789001
0.10392595082521439 0.10392595082521439 0.10392595082521439
0.11414803564548492 0.11414803564548492 0.11414803564548492
0.12768059968948364 0.12768059968948364 0.12768059968948364
0.16682820022106171 0.16682820022106171 0.16682820022106171
0.21430715918540955 0.21430715918540955 0.21430715918540955
0.26206815242767334 0.26206815242767334 0.26206815242767334
0.31028914451599121 0.31028914451599121 0.31028914451599121
0.35604876279830933 0.35604876279830933 0.35604876279830933
0.40160581469535828 0.40160581469535828 0.40160581469535828
0.44659027457237244 0.44659027457237244 0.44659027457237244
0.48593366146087646 0.48593366146087646 0.48593366146087646
0.49257323145866394 0.49257323145866394 0.49257323145866394
0.50034588575363159 0.50034588575363159 0.50034588575363159
0.15986433625221252 0.15986433625221252 0.15986433625221252
0.18312503397464752 0.18312503397464752 0.18312503397464752
0.19674265384674072 0.19674265384674072 0.19674265384674072
0.23363222181797028 0.23363222181797028 0.23363222181797028
0.27894234657287598 0.27894234657287598 0.27894234657287598
0.32100805640220642 0.32100805640220642 0.32100805640220642
0.36292529106140137 0.36292529106140137 0.36292529106140137
0.39944306015968323 0.39944306015968323 0.39944306015968323
0.44005849957466125 0.44005849957466125 0.44005849957466125
0.47902551293373108 0.47902551293373108 0.47902551293373108
0.51048815250396729 0.51048815250396729 0.51048815250396729
0.50776028633117676 0.50776028633117676 0.50776028633117676
0.52356493473052979 0.52356493473052979 0.52356493473052979
0.22348767518997192 0.22348767518997192 0.22348767518997192
0.25558954477310181 0.25558954477310181 0.25558954477310181
0.26482746005058289 0.26482746005058289 0.26482746005058289
0.29951635003089905 0.29951635003089905 0.29951635003089905
0.35365834832191467 0.35365834832191467 0.35365834832191467
0.39317676424980164 0.39317676424980164 0.39317676424980164
0.42545032501220703 0.42545032501220703 0.42545032501220703
0.45741146802902222 0.45741146802902222 0.45741146802902222
0.49169069528579712 0.49169069528579712 0.49169069528579712
0.52238434553146362 0.52238434553146362 0.52238434553146362
0.54960149526596069 0.54960149526596069 0.54960149526596069
0.55847418308258057 0.55847418308258057 0.55847418308258057
0.5964282751083374 0.5964282751083374 0.5964282751083374
0.27220293879508972 0.27220293879508972 0.27220293879508972
0.3008674681186676 0.3008674681186676 0.3008674681186676
0.31671500205993652 0.31671500205993652 0.31671500205993652
0.35812994837760925 0.35812994837760925 0.35812994837760925
0.40934622287750244 0.40934622287750244 0.40934622287750244
0.43844401836395264 0.43844401836395264 0.43844401836395264
0.47669833898544312 0.47669833898544312 0.47669833898544312
0.51312255859375 0.51312255859375 0.51312255859375
0.54473972320556641 0.54473972320556641 0.54473972320556641
0.57323366403579712 0.57323366403579712 0.57323366403579712
0.60109066963195801 0.60109066963195801 0.60109066963195801
0.60926932096481323 0.60926932096481323 0.60926932096481323
0.64045977592468262 0.64045977592468262 0.64045977592468262
0.30017009377479553 0.30017009377479553 0.30017009377479553
0.32894280552864075 0.32894280552864075 0.32894280552864075
0.37901204824447632 0.37901204824447632 0.37901204824447632
0.39151927828788757 0.39151927828788757 0.39151927828788757
0.44881066679954529 0.44881066679954529 0.44881066679954529
0.47293958067893982 0.47293958067893982 0.47293958067893982
0.52753233909606934 0.52753233909606934 0.52753233909606934
0.56418484449386597 0.56418484449386597 0.56418484449386597
0.59443813562393188 0.59443813562393188 0.59443813562393188
0.62327349185943604 0.62327349185943604 0.62327349185943604
0.64208930730819702 0.64208930730819702 0.64208930730819702
0.6571916937828064 0.6571916937828064 0.6571916937828064
0.68157964944839478 0.68157964944839478 0.68157964944839478
0.34065845608711243 0.34065845608711243 0.34065845608711243
0.35317665338516235 0.35317665338516235 0.35317665338516235
0.4176751971244812 0.4176751971244812 0.4176751971244812
0.41176661849021912 0.41176661849021912 0.41176661849021912
0.46248456835746765 0.46248456835746765 0.46248456835746765
0.51369577646255493 0.51369577646255493 0.51369577646255493
0.57591742277145386 0.57591742277145386 0.57591742277145386
0.601032555103302 0.601032555103302 0.601032555103302
0.63084268569946289 0.63084268569946289 0.63084268569946289
0.65809386968612671 0.65809386968612671 0.65809386968612671
0.66841340065002441 0.66841340065002441 0.66841340065002441
0.69488096237182617 0.69488096237182617 0.69488096237182617
0.72106695175170898 0.72106695175170898 0.72106695175170898
0.36920508742332458 0.36920508742332458 0.36920508742332458
0.35442551970481873 0.35442551970481873 0.35442551970481873
0.4088667631149292 0.4088667631149292 0.4088667631149292
0.44737669825553894 0.44737669825553894 0.44737669825553894
0.49715930223464966 0.49715930223464966 0.49715930223464966
0.53635424375534058 0.53635424375534058 0.53635424375534058
0.58139222860336304 0.58139222860336304 0.58139222860336304
0.60936236381530762 0.60936236381530762 0.60936236381530762
0.63879573345184326 0.63879573345184326 0.63879573345184326
0.66536420583724976 0.66536420583724976 0.66536420583724976
0.68945580720901489 0.68945580720901489 0.68945580720901489
0.719901442527771 0.719901442527771 0.719901442527771
0.74599117040634155 0.74599117040634155 0.74599117040634155
0.37640106678009033 0.37640106678009033 0.37640106678009033
0.36837702989578247 0.36837702989578247 0.36837702989578247
0.48961469531059265 0.48961469531059265 0.48961469531059265
0.52610474824905396 0.52610474824905396 0.52610474824905396
0.54850786924362183 0.54850786924362183 0.54850786924362183
0.56747007369995117 0.56747007369995117 0.56747007369995117
0.60780918598175049 0.60780918598175049 0.60780918598175049
0.62618547677993774 0.62618547677993774 0.62618547677993774
0.64567738771438599 0.64567738771438599 0.64567738771438599
0.67119807004928589 0.67119807004928589 0.67119807004928589
0.71398591995239258 0.71398591995239258 0.71398591995239258
0.74447983503341675 0.74447983503341675 0.74447983503341675
0.75403565168380737 0.75403565168380737 0.75403565168380737
0.40623390674591064 0.40623390674591064 0.40623390674591064
0.40016064047813416 0.40016064047813416 0.40016064047813416
0.51263123750686646 0.51263123750686646 0.51263123750686646
0.54481369256973267 0.54481369256973267 0.54481369256973267
0.57137614488601685 0.57137614488601685 0.57137614488601685
0.5971868634223938 0.5971868634223938 0.5971868634223938
0.63112562894821167 0.63112562894821167 0.63112562894821167
0.64243745803833008 0.64243745803833008 0.64243745803833008
0.67543399333953857 0.67543399333953857 0.67543399333953857
0.70475935935974121 0.70475935935974121 0.70475935935974121
0.73337715864181519 0.73337715864181519 0.73337715864181519
0.75748437643051147 0.75748437643051147 0.75748437643051147
0.76264595985412598 0.76264595985412598 0.76264595985412598
0.41363087296485901 0.41363087296485901 0.41363087296485901
0.41014811396598816 0.41014811396598816 0.41014811396598816
0.51587259769439697 0.51587259769439697 0.51587259769439697
0.5494987964630127 0.5494987964630127 0.5494987964630127
0.57261794805526733 0.57261794805526733 0.57261794805526733
0.59777617454528809 0.59777617454528809 0.59777617454528809
0.63548904657363892 0.63548904657363892 0.63548904657363892
0.66997665166854858 0.66997665166854858 0.66997665166854858
0.71154415607452393 0.71154415607452393 0.71154415607452393
0.74240165948867798 0.74240165948867798 0.74240165948867798
0.76850694417953491 0.76850694417953491 0.76850694417953491
0.78555583953857422 0.78555583953857422 0.78555583953857422
0.78873270750045776 0.78873270750045776 0.78873270750045776
0.025144629180431366 0.025144629180431366 0.025144629180431366
0.039552278816699982 0.039552278816699982 0.039552278816699982
0.061399407684803009 0.061399407684803009 0.061399407684803009
0.089449368417263031 0.089449368417263031 0.089449368417263031
0.11940473318099976 0.11940473318099976 0.11940473318099976
0.17990593612194061 0.17990593612194061 0.17990593612194061
0.24966029822826385 0.24966029822826385 0.24966029822826385
0.31542178988456726 0.31542178988456726 0.31542178988456726
0.37065207958221436 0.37065207958221436 0.37065207958221436
0.40078502893447876 0.40078502893447876 0.40078502893447876
0.42014291882514954 0.42014291882514954 0.42014291882514954
0.43157383799552917 0.43157383799552917 0.43157383799552917
0.47658225893974304 0.47658225893974304 0.47658225893974304
0.039867881685495377 0.039867881685495377 0.039867881685495377
0.058848332613706589 0.058848332613706589 0.058848332613706589
0.078794993460178375 0.078794993460178375 0.078794993460178375
0.10471519082784653 0.10471519082784653 0.10471519082784653
0.1404077410697937 0.1404077410697937 0.1404077410697937
0.20209118723869324 0.20209118723869324 0.20209118723869324
0.25858956575393677 0.25858956575393677 0.25858956575393677
0.31173267960548401 0.31173267960548401 0.31173267960548401
0.35895577073097229 0.35895577073097229 0.35895577073097229
0.39525079727172852 0.39525079727172852 0.39525079727172852
0.42628437280654907 0.42628437280654907 0.42628437280654907
0.46337759494781494 0.46337759494781494 0.46337759494781494
0.49772858619689941 0.49772858619689941 0.49772858619689941
0.072920873761177063 0.072920873761177063 0.072920873761177063
0.087239332497119904 0.087239332497119904 0.087239332497119904
0.10505168884992599 0.10505168884992599 0.10505168884992599
0.13147521018981934 0.13147521018981934 0.13147521018981934
0.18044213950634003 0.18044213950634003 0.18044213950634003
0.23379014432430267 0.23379014432430267 0.23379014432430267
0.28021511435508728 0.28021511435508728 0.28021511435508728
0.3264223039150238 0.3264223039150238 0.3264223039150238
0.3738919198513031 0.3738919198513031 0.3738919198513031
0.41908031702041626 0.41908031702041626 0.41908031702041626
0.46092319488525391 0.46092319488525391 0.46092319488525391
0.48841318488121033 0.48841318488121033 0.48841318488121033
0.50793397426605225 0.50793397426605225 0.50793397426605225
0.12094956636428833 0.12094956636428833 0.12094956636428833
0.1298346072435379 0.1298346072435379 0.1298346072435379
0.15018358826637268 0.15018358826637268 0.15018358826637268
0.18063443899154663 0.18063443899154663 0.18063443899154663
0.22564080357551575 0.22564080357551575 0.22564080357551575
0.27379664778709412 0.27379664778709412 0.27379664778709412
0.31962063908576965 0.31962063908576965 0.31962063908576965
0.36389270424842834 0.36389270424842834 0.36389270424842834
0.40969955921173096 0.40969955921173096 0.40969955921173096
0.45673128962516785 0.45673128962516785 0.45673128962516785
0.49698060750961304 0.49698060750961304 0.49698060750961304
0.50912106037139893 0.50912106037139893 0.50912106037139893
0.52587491273880005 0.52587491273880005 0.52587491273880005
0.18282702565193176 0.18282702565193176 0.18282702565193176
0.19216887652873993 0.19216887652873993 0.19216887652873993
0.21128532290458679 0.21128532290458679 0.21128532290458679
0.24009332060813904 0.24009332060813904 0.24009332060813904
0.28130450844764709 0.28130450844764709 0.28130450844764709
0.32999861240386963 0.32999861240386963 0.32999861240386963
0.37056124210357666 0.37056124210357666 0.37056124210357666
0.40903931856155396 0.40903931856155396 0.40903931856155396
0.45060592889785767 0.45060592889785767 0.45060592889785767
0.49362841248512268 0.49362841248512268 0.49362841248512268
0.52811908721923828 0.52811908721923828 0.52811908721923828
0.54421639442443848 0.54421639442443848 0.54421639442443848
0.57414376735687256 0.57414376735687256 0.57414376735687256
0.249158576130867 0.249158576130867 0.249158576130867
0.26760128140449524 0.26760128140449524 0.26760128140449524
0.2802145779132843 0.2802145779132843 0.2802145779132843
0.30798935890197754 0.30798935890197754 0.30798935890197754
0.34984424710273743 0.34984424710273743 0.34984424710273743
0.39420565962791443 0.39420565962791443 0.39420565962791443
0.42696037888526917 0.42696037888526917 0.42696037888526917
0.46155485510826111 0.46155485510826111 0.46155485510826111
0.50029617547988892 0.50029617547988892 0.50029617547988892
0.53879356384277344 0.53879356384277344 0.53879356384277344
0.57244205474853516 0.57244205474853516 0.57244205474853516
0.59893602132797241 0.59893602132797241 0.59893602132797241
0.62562656402587891 0.62562656402587891 0.62562656402587891
0.29687607288360596 0.29687607288360596 0.29687607288360596
0.33245167136192322 0.33245167136192322 0.33245167136192322
0.35116496682167053 0.35116496682167053 0.35116496682167053
0.37416088581085205 0.37416088581085205 0.37416088581085205
0.41632834076881409 0.41632834076881409 0.41632834076881409
0.44317758083343506 0.44317758083343506 0.44317758083343506
0.47535136342048645 0.47535136342048645 0.47535136342048645
0.51678299903869629 0.51678299903869629 0.51678299903869629
0.55443906784057617 0.55443906784057617 0.55443906784057617
0.58537787199020386 0.58537787199020386 0.58537787199020386
0.61556041240692139 0.61556041240692139 0.61556041240692139
0.63417536020278931 0.63417536020278931 0.63417536020278931
0.65630215406417847 0.65630215406417847 0.65630215406417847
0.36619669198989868 0.36619669198989868 0.36619669198989868
0.38097476959228516 0.38097476959228516 0.38097476959228516
0.41068634390830994 0.41068634390830994 0.41068634390830994
0.42230656743049622 0.42230656743049622 0.42230656743049622
0.46437254548072815 0.46437254548072815 0.46437254548072815
0.49034541845321655 0.49034541845321655 0.49034541845321655
0.53556185960769653 0.53556185960769653 0.53556185960769653
0.57445937395095825 0.57445937395095825 0.57445937395095825
0.60746097564697266 0.60746097564697266 0.60746097564697266
0.63629674911499023 0.63629674911499023 0.63629674911499023
0.66554135084152222 0.66554135084152222 0.66554135084152222
0.68721854686737061 0.68721854686737061 0.68721854686737061
0.70604175329208374 0.70604175329208374 0.70604175329208374
0.40280696749687195 0.40280696749687195 0.40280696749687195
0.42095491290092468 0.42095491290092468 0.42095491290092468
0.44664165377616882 0.44664165377616882 0.44664165377616882
0.45589011907577515 0.45589011907577515 0.45589011907577515
0.49200594425201416 0.49200594425201416 0.49200594425201416
0.52788710594177246 0.52788710594177246 0.52788710594177246
0.57947909832000732 0.57947909832000732 0.57947909832000732
0.61517804861068726 0.61517804861068726 0.61517804861068726
0.63995820283889771 0.63995820283889771 0.63995820283889771
0.67538511753082275 0.67538511753082275 0.67538511753082275
0.70547044277191162 0.70547044277191162 0.70547044277191162
0.72518831491470337 0.72518831491470337 0.72518831491470337
0.74838101863861084 0.74838101863861084 0.74838101863861084
0.41341522336006165 0.41341522336006165 0.41341522336006165
0.42752224206924438 0.42752224206924438 0.42752224206924438
0.48297855257987976 0.48297855257987976 0.48297855257987976
0.51405060291290283 0.51405060291290283 0.51405060291290283
0.54151380062103271 0.54151380062103271 0.54151380062103271
0.56480938196182251 0.56480938196182251 0.56480938196182251
0.61143606901168823 0.61143606901168823 0.61143606901168823
0.63477039337158203 0.63477039337158203 0.63477039337158203
0.66150766611099243 0.66150766611099243 0.66150766611099243
0.69560784101486206 0.69560784101486206 0.69560784101486206
0.72727465629577637 0.72727465629577637 0.72727465629577637
0.74916082620620728 0.74916082620620728 0.74916082620620728
0.75966101884841919 0.75966101884841919 0.75966101884841919
0.42057877779006958 0.42057877779006958 0.42057877779006958
0.42948225140571594 0.42948225140571594 0.42948225140571594
0.51694577932357788 0.51694577932357788 0.51694577932357788
0.54386228322982788 0.54386228322982788 0.54386228322982788
0.57206141948699951 0.57206141948699951 0.57206141948699951
0.59633040428161621 0.59633040428161621 0.59633040428161621
0.6361960768699646 0.6361960768699646 0.6361960768699646
0.65625691413879395 0.65625691413879395 0.65625691413879395
0.68580728769302368 0.68580728769302368 0.68580728769302368
0.71339553594589233 0.71339553594589233 0.71339553594589233
0.74784445762634277 0.74784445762634277 0.74784445762634277
0.75920122861862183 0.75920122861862183 0.75920122861862183
0.76169049739837646 0.76169049739837646 0.76169049739837646
0.44031029939651489 0.44031029939651489 0.44031029939651489
0.43137958645820618 0.43137958645820618 0.43137958645820618
0.52755767107009888 0.52755767107009888 0.52755767107009888
0.56383585929870605 0.56383585929870605 0.56383585929870605
0.58898025751113892 0.58898025751113892 0.58898025751113892
0.60648900270462036 0.60648900270462036 0.60648900270462036
0.63889575004577637 0.63889575004577637 0.63889575004577637
0.66634762287139893 0.66634762287139893 0.66634762287139893
0.7072332501411438 0.7072332501411438 0.7072332501411438
0.74172765016555786 0.74172765016555786 0.74172765016555786
0.7708965539932251 0.7708965539932251 0.7708965539932251
0.78961759805679321 0.78961759805679321 0.78961759805679321
0.78999704122543335 0.78999704122543335 0.78999704122543335
0.45455819368362427 0.45455819368362427 0.45455819368362427
0.44039276242256165 0.44039276242256165 0.44039276242256165
0.54394626617431641 0.54394626617431641 0.54394626617431641
0.58442473411560059 0.58442473411560059 0.58442473411560059
0.60409772396087646 0.60409772396087646 0.60409772396087646
0.61537230014801025 0.61537230014801025 0.61537230014801025
0.64416718482971191 0.64416718482971191 0.64416718482971191
0.67342901229858398 0.67342901229858398 0.67342901229858398
0.71179699897766113 0.71179699897766113 0.71179699897766113
0.74650269746780396 0.74650269746780396 0.74650269746780396
0.77347880601882935 0.77347880601882935 0.77347880601882935
0.81095266342163086 0.81095266342163086 0.81095266342163086
0.8235173225402832 0.8235173225402832 0.8235173225402832
0.037133954465389252 0.037133954465389252 0.037133954465389252
0.055036567151546478 0.055036567151546478 0.055036567151546478
0.081295758485794067 0.081295758485794067 0.081295758485794067
0.12508675456047058 0.12508675456047058 0.12508675456047058
0.1607586145401001 0.1607586145401001 0.1607586145401001
0.21167363226413727 0.21167363226413727 0.21167363226413727
0.27477598190307617 0.27477598190307617 0.27477598190307617
0.33131176233291626 0.33131176233291626 0.33131176233291626
0.37835326790809631 0.37835326790809631 0.37835326790809631
0.40942880511283875 0.40942880511283875 0.40942880511283875
0.4336717426776886 0.4336717426776886 0.4336717426776886
0.47015154361724854 0.47015154361724854 0.47015154361724854
0.52050966024398804 0.52050966024398804 0.52050966024398804
0.056157488375902176 0.056157488375902176 0.056157488375902176
0.076780609786510468 0.076780609786510468 0.076780609786510468
0.097173772752285004 0.097173772752285004 0.097173772752285004
0.13328300416469574 0.13328300416469574 0.13328300416469574
0.17138698697090149 0.17138698697090149 0.17138698697090149
0.22188258171081543 0.22188258171081543 0.22188258171081543
0.27860862016677856 0.27860862016677856 0.27860862016677856
0.33275768160820007 0.33275768160820007 0.33275768160820007
0.38080736994743347 0.38080736994743347 0.38080736994743347
0.42464053630828857 0.42464053630828857 0.42464053630828857
0.46038371324539185 0.46038371324539185 0.46038371324539185
0.4901987612247467 0.4901987612247467 0.4901987612247467
0.51819998025894165 0.51819998025894165 0.51819998025894165
0.093652255833148956 0.093652255833148956 0.093652255833148956
0.10320458561182022 0.10320458561182022 0.10320458561182022
0.12215632945299149 0.12215632945299149 0.12215632945299149
0.15494789183139801 0.15494789183139801 0.15494789183139801
0.20019993185997009 0.20019993185997009 0.20019993185997009
0.25025224685668945 0.25025224685668945 0.25025224685668945
0.29689958691596985 0.29689958691596985 0.29689958691596985
0.34527724981307983 0.34527724981307983 0.34527724981307983
0.39409610629081726 0.39409610629081726 0.39409610629081726
0.44412976503372192 0.44412976503372192 0.44412976503372192
0.48567384481430054 0.48567384481430054 0.48567384481430054
0.50869417190551758 0.50869417190551758 0.50869417190551758
0.53880971670150757 0.53880971670150757 0.53880971670150757
0.14406193792819977 0.14406193792819977 0.14406193792819977
0.15491950511932373 0.15491950511932373 0.15491950511932373
0.17495957016944885 0.17495957016944885 0.17495957016944885
0.20396022498607635 0.20396022498607635 0.20396022498607635
0.24311248958110809 0.24311248958110809 0.24311248958110809
0.28888165950775146 0.28888165950775146 0.28888165950775146
0.3322121798992157 0.3322121798992157 0.3322121798992157
0.37764942646026611 0.37764942646026611 0.37764942646026611
0.4237651526927948 0.4237651526927948 0.4237651526927948
0.47099778056144714 0.47099778056144714 0.47099778056144714
0.51641768217086792 0.51641768217086792 0.51641768217086792
0.54966264963150024 0.54966264963150024 0.54966264963150024
0.56963521242141724 0.56963521242141724 0.56963521242141724
0.20016330480575562 0.20016330480575562 0.20016330480575562
0.21438202261924744 0.21438202261924744 0.21438202261924744
0.23595154285430908 0.23595154285430908 0.23595154285430908
0.26336130499839783 0.26336130499839783 0.26336130499839783
0.2977423369884491 0.2977423369884491 0.2977423369884491
0.34215888381004333 0.34215888381004333 0.34215888381004333
0.38043245673179626 0.38043245673179626 0.38043245673179626
