assets/lut/fujixtransiii fuji xtrans iii mono+g.cube
# Created by: G'MIC (https://gmic.eu)
TITLE "fuji_xtrans_iii_mono+g"
# LUT size
LUT_3D_SIZE 13
# Data domain
DOMAIN_MIN 0.0 0.0 0.0
DOMAIN_MAX 1.0 1.0 1.0
# LUT data points
0.012222649529576302 0.012222649529576302 0.012222649529576302
0.01887093298137188 0.01887093298137188 0.01887093298137188
0.030010432004928589 0.030010432004928589 0.030010432004928589
0.042545799165964127 0.042545799165964127 0.042545799165964127
0.074306577444076538 0.074306577444076538 0.074306577444076538
0.12078680843114853 0.12078680843114853 0.12078680843114853
0.15921337902545929 0.15921337902545929 0.15921337902545929
0.21117442846298218 0.21117442846298218 0.21117442846298218
0.23537883162498474 0.23537883162498474 0.23537883162498474
0.25144472718238831 0.25144472718238831 0.25144472718238831
0.26422920823097229 0.26422920823097229 0.26422920823097229
0.27425801753997803 0.27425801753997803 0.27425801753997803
0.28478598594665527 0.28478598594665527 0.28478598594665527
0.027947144582867622 0.027947144582867622 0.027947144582867622
0.034318376332521439 0.034318376332521439 0.034318376332521439
0.045366924256086349 0.045366924256086349 0.045366924256086349
0.067738853394985199 0.067738853394985199 0.067738853394985199
0.10104607790708542 0.10104607790708542 0.10104607790708542
0.14094655215740204 0.14094655215740204 0.14094655215740204
0.18313148617744446 0.18313148617744446 0.18313148617744446
0.22135065495967865 0.22135065495967865 0.22135065495967865
0.24686765670776367 0.24686765670776367 0.24686765670776367
0.26397773623466492 0.26397773623466492 0.26397773623466492
0.27258670330047607 0.27258670330047607 0.27258670330047607
0.28683525323867798 0.28683525323867798 0.28683525323867798
0.30932939052581787 0.30932939052581787 0.30932939052581787
0.057263124734163284 0.057263124734163284 0.057263124734163284
0.069138534367084503 0.069138534367084503 0.069138534367084503
0.082067765295505524 0.082067765295505524 0.082067765295505524
0.1161624863743782 0.1161624863743782 0.1161624863743782
0.15116818249225616 0.15116818249225616 0.15116818249225616
0.17935743927955627 0.17935743927955627 0.17935743927955627
0.21122646331787109 0.21122646331787109 0.21122646331787109
0.24116963148117065 0.24116963148117065 0.24116963148117065
0.26690205931663513 0.26690205931663513 0.26690205931663513
0.28606414794921875 0.28606414794921875 0.28606414794921875
0.30372852087020874 0.30372852087020874 0.30372852087020874
0.3295835554599762 0.3295835554599762 0.3295835554599762
0.35279160737991333 0.35279160737991333 0.35279160737991333
0.12619350850582123 0.12619350850582123 0.12619350850582123
0.13913483917713165 0.13913483917713165 0.13913483917713165
0.14748391509056091 0.14748391509056091 0.14748391509056091
0.18117538094520569 0.18117538094520569 0.18117538094520569
0.21058936417102814 0.21058936417102814 0.21058936417102814
0.23382508754730225 0.23382508754730225 0.23382508754730225
0.26256754994392395 0.26256754994392395 0.26256754994392395
0.2906249463558197 0.2906249463558197 0.2906249463558197
0.31511503458023071 0.31511503458023071 0.31511503458023071
0.33498385548591614 0.33498385548591614 0.33498385548591614
0.36301535367965698 0.36301535367965698 0.36301535367965698
0.36446437239646912 0.36446437239646912 0.36446437239646912
0.36758625507354736 0.36758625507354736 0.36758625507354736
0.20200788974761963 0.20200788974761963 0.20200788974761963
0.22542183101177216 0.22542183101177216 0.22542183101177216
0.24011431634426117 0.24011431634426117 0.24011431634426117
0.26842492818832397 0.26842492818832397 0.26842492818832397
0.29000627994537354 0.29000627994537354 0.29000627994537354
0.30171167850494385 0.30171167850494385 0.30171167850494385
0.32624179124832153 0.32624179124832153 0.32624179124832153
0.35335519909858704 0.35335519909858704 0.35335519909858704
0.37837627530097961 0.37837627530097961 0.37837627530097961
0.39613732695579529 0.39613732695579529 0.39613732695579529
0.40241363644599915 0.40241363644599915 0.40241363644599915
0.38332542777061462 0.38332542777061462 0.38332542777061462
0.40172240138053894 0.40172240138053894 0.40172240138053894
0.27353644371032715 0.27353644371032715 0.27353644371032715
0.30605664849281311 0.30605664849281311 0.30605664849281311
0.31623092293739319 0.31623092293739319 0.31623092293739319
0.34689411520957947 0.34689411520957947 0.34689411520957947
0.37045139074325562 0.37045139074325562 0.37045139074325562
0.38087695837020874 0.38087695837020874 0.38087695837020874
0.39828294515609741 0.39828294515609741 0.39828294515609741
0.42250710725784302 0.42250710725784302 0.42250710725784302
0.44490039348602295 0.44490039348602295 0.44490039348602295
0.46106120944023132 0.46106120944023132 0.46106120944023132
0.47027769684791565 0.47027769684791565 0.47027769684791565
0.46419453620910645 0.46419453620910645 0.46419453620910645
0.48806121945381165 0.48806121945381165 0.48806121945381165
0.32957890629768372 0.32957890629768372 0.32957890629768372
0.35908377170562744 0.35908377170562744 0.35908377170562744
0.3714597225189209 0.3714597225189209 0.3714597225189209
0.40140482783317566 0.40140482783317566 0.40140482783317566
0.43412578105926514 0.43412578105926514 0.43412578105926514
0.44613072276115417 0.44613072276115417 0.44613072276115417
0.46510925889015198 0.46510925889015198 0.46510925889015198
0.48905754089355469 0.48905754089355469 0.48905754089355469
0.50354170799255371 0.50354170799255371 0.50354170799255371
0.51646178960800171 0.51646178960800171 0.51646178960800171
0.52712810039520264 0.52712810039520264 0.52712810039520264
0.53477209806442261 0.53477209806442261 0.53477209806442261
0.55059409141540527 0.55059409141540527 0.55059409141540527
0.35737442970275879 0.35737442970275879 0.35737442970275879
0.3881438672542572 0.3881438672542572 0.3881438672542572
0.43356642127037048 0.43356642127037048 0.43356642127037048
0.43515092134475708 0.43515092134475708 0.43515092134475708
0.47545900940895081 0.47545900940895081 0.47545900940895081
0.49140194058418274 0.49140194058418274 0.49140194058418274
0.52095168828964233 0.52095168828964233 0.52095168828964233
0.54258686304092407 0.54258686304092407 0.54258686304092407
0.55567175149917603 0.55567175149917603 0.55567175149917603
0.57098186016082764 0.57098186016082764 0.57098186016082764
0.57874017953872681 0.57874017953872681 0.57874017953872681
0.59100180864334106 0.59100180864334106 0.59100180864334106
0.60073083639144897 0.60073083639144897 0.60073083639144897
0.39917075634002686 0.39917075634002686 0.39917075634002686
0.4057457447052002 0.4057457447052002 0.4057457447052002
0.47067913413047791 0.47067913413047791 0.47067913413047791
0.45755547285079956 0.45755547285079956 0.45755547285079956
0.49678900837898254 0.49678900837898254 0.49678900837898254
0.5302312970161438 0.5302312970161438 0.5302312970161438
0.5743030309677124 0.5743030309677124 0.5743030309677124
0.58792716264724731 0.58792716264724731 0.58792716264724731
0.59429740905761719 0.59429740905761719 0.59429740905761719
0.60448992252349854 0.60448992252349854 0.60448992252349854
0.60753345489501953 0.60753345489501953 0.60753345489501953
0.63073927164077759 0.63073927164077759 0.63073927164077759
0.64608228206634521 0.64608228206634521 0.64608228206634521
0.42183429002761841 0.42183429002761841 0.42183429002761841
0.40683212876319885 0.40683212876319885 0.40683212876319885
0.46260184049606323 0.46260184049606323 0.46260184049606323
0.49530944228172302 0.49530944228172302 0.49530944228172302
0.5263059139251709 0.5263059139251709 0.5263059139251709
0.55505979061126709 0.55505979061126709 0.55505979061126709
0.58417731523513794 0.58417731523513794 0.58417731523513794
0.59720772504806519 0.59720772504806519 0.59720772504806519
0.60436904430389404 0.60436904430389404 0.60436904430389404
0.60954320430755615 0.60954320430755615 0.60954320430755615
0.62579977512359619 0.62579977512359619 0.62579977512359619
0.64938211441040039 0.64938211441040039 0.64938211441040039
0.66862422227859497 0.66862422227859497 0.66862422227859497
0.43238645792007446 0.43238645792007446 0.43238645792007446
0.42414692044258118 0.42414692044258118 0.42414692044258118
0.54408854246139526 0.54408854246139526 0.54408854246139526
0.57600444555282593 0.57600444555282593 0.57600444555282593
0.58552569150924683 0.58552569150924683 0.58552569150924683
0.59324401617050171 0.59324401617050171 0.59324401617050171
0.6145368218421936 0.6145368218421936 0.6145368218421936
0.61737912893295288 0.61737912893295288 0.61737912893295288
0.62118327617645264 0.62118327617645264 0.62118327617645264
0.62141793966293335 0.62141793966293335 0.62141793966293335
0.64471185207366943 0.64471185207366943 0.64471185207366943
0.66905397176742554 0.66905397176742554 0.66905397176742554
0.67571187019348145 0.67571187019348145 0.67571187019348145
0.46322542428970337 0.46322542428970337 0.46322542428970337
0.45987242460250854 0.45987242460250854 0.45987242460250854
0.57024240493774414 0.57024240493774414 0.57024240493774414
0.60193061828613281 0.60193061828613281 0.60193061828613281
0.61530429124832153 0.61530429124832153 0.61530429124832153
0.6262163519859314 0.6262163519859314 0.6262163519859314
0.64178186655044556 0.64178186655044556 0.64178186655044556
0.64932155609130859 0.64932155609130859 0.64932155609130859
0.6627500057220459 0.6627500057220459 0.6627500057220459
0.66946196556091309 0.66946196556091309 0.66946196556091309
0.68048137426376343 0.68048137426376343 0.68048137426376343
0.68747490644454956 0.68747490644454956 0.68747490644454956
0.6873289942741394 0.6873289942741394 0.6873289942741394
0.46576544642448425 0.46576544642448425 0.46576544642448425
0.46486645936965942 0.46486645936965942 0.46486645936965942
0.57103991508483887 0.57103991508483887 0.57103991508483887
0.60300368070602417 0.60300368070602417 0.60300368070602417
0.61539328098297119 0.61539328098297119 0.61539328098297119
0.63359332084655762 0.63359332084655762 0.63359332084655762
0.65225529670715332 0.65225529670715332 0.65225529670715332
0.67456799745559692 0.67456799745559692 0.67456799745559692
0.69135510921478271 0.69135510921478271 0.69135510921478271
0.70871025323867798 0.70871025323867798 0.70871025323867798
0.72398698329925537 0.72398698329925537 0.72398698329925537
0.72652506828308105 0.72652506828308105 0.72652506828308105
0.72525858879089355 0.72525858879089355 0.72525858879089355
0.019538534805178642 0.019538534805178642 0.019538534805178642
0.025115607306361198 0.025115607306361198 0.025115607306361198
0.042100060731172562 0.042100060731172562 0.042100060731172562
0.062158428132534027 0.062158428132534027 0.062158428132534027
0.079562664031982422 0.079562664031982422 0.079562664031982422
0.13538123667240143 0.13538123667240143 0.13538123667240143
0.18523223698139191 0.18523223698139191 0.18523223698139191
0.21539925038814545 0.21539925038814545 0.21539925038814545
0.23695583641529083 0.23695583641529083 0.23695583641529083
0.25399401783943176 0.25399401783943176 0.25399401783943176
0.26767092943191528 0.26767092943191528 0.26767092943191528
0.28074809908866882 0.28074809908866882 0.28074809908866882
0.3060009777545929 0.3060009777545929 0.3060009777545929
0.036041527986526489 0.036041527986526489 0.036041527986526489
0.050610963255167007 0.050610963255167007 0.050610963255167007
0.066289983689785004 0.066289983689785004 0.066289983689785004
0.083343446254730225 0.083343446254730225 0.083343446254730225
0.10556402802467346 0.10556402802467346 0.10556402802467346
0.15137471258640289 0.15137471258640289 0.15137471258640289
0.19557586312294006 0.19557586312294006 0.19557586312294006
0.22541815042495728 0.22541815042495728 0.22541815042495728
0.24843709170818329 0.24843709170818329 0.24843709170818329
0.26782053709030151 0.26782053709030151 0.26782053709030151
0.2842257022857666 0.2842257022857666 0.2842257022857666
0.30247616767883301 0.30247616767883301 0.30247616767883301
0.32532048225402832 0.32532048225402832 0.32532048225402832
0.076280467212200165 0.076280467212200165 0.076280467212200165
0.08368287980556488 0.08368287980556488 0.08368287980556488
0.099331602454185486 0.099331602454185486 0.099331602454185486
0.1222120076417923 0.1222120076417923 0.1222120076417923
0.1530144065618515 0.1530144065618515 0.1530144065618515
0.18515025079250336 0.18515025079250336 0.18515025079250336
0.22128975391387939 0.22128975391387939 0.22128975391387939
0.24905972182750702 0.24905972182750702 0.24905972182750702
0.27351677417755127 0.27351677417755127 0.27351677417755127
0.29619225859642029 0.29619225859642029 0.29619225859642029
0.31547343730926514 0.31547343730926514 0.31547343730926514
0.33264365792274475 0.33264365792274475 0.33264365792274475
0.33945557475090027 0.33945557475090027 0.33945557475090027
0.14829510450363159 0.14829510450363159 0.14829510450363159
0.15019930899143219 0.15019930899143219 0.15019930899143219
0.16846421360969543 0.16846421360969543 0.16846421360969543
0.1917007714509964 0.1917007714509964 0.1917007714509964
0.21797084808349609 0.21797084808349609 0.21797084808349609
0.24189029633998871 0.24189029633998871 0.24189029633998871
0.26476368308067322 0.26476368308067322 0.26476368308067322
0.28905484080314636 0.28905484080314636 0.28905484080314636
0.31565091013908386 0.31565091013908386 0.31565091013908386
0.34015065431594849 0.34015065431594849 0.34015065431594849
0.36256527900695801 0.36256527900695801 0.36256527900695801
0.36825549602508545 0.36825549602508545 0.36825549602508545
0.37660384178161621 0.37660384178161621 0.37660384178161621
0.22861857712268829 0.22861857712268829 0.22861857712268829
0.23424683511257172 0.23424683511257172 0.23424683511257172
0.25380235910415649 0.25380235910415649 0.25380235910415649
0.27302253246307373 0.27302253246307373 0.27302253246307373
0.29391181468963623 0.29391181468963623 0.29391181468963623
0.31397640705108643 0.31397640705108643 0.31397640705108643
0.33233252167701721 0.33233252167701721 0.33233252167701721
0.35249742865562439 0.35249742865562439 0.35249742865562439
0.37684905529022217 0.37684905529022217 0.37684905529022217
0.39834761619567871 0.39834761619567871 0.39834761619567871
0.4170222282409668 0.4170222282409668 0.4170222282409668
0.42298117280006409 0.42298117280006409 0.42298117280006409
0.44678649306297302 0.44678649306297302 0.44678649306297302
0.30285590887069702 0.30285590887069702 0.30285590887069702
0.32323265075683594 0.32323265075683594 0.32323265075683594
0.33916893601417542 0.33916893601417542 0.33916893601417542
0.3518250584602356 0.3518250584602356 0.3518250584602356
0.3719293475151062 0.3719293475151062 0.3719293475151062
0.38837772607803345 0.38837772607803345 0.38837772607803345
0.40672343969345093 0.40672343969345093 0.40672343969345093
0.42499580979347229 0.42499580979347229 0.42499580979347229
0.445445716381073 0.445445716381073 0.445445716381073
0.46259286999702454 0.46259286999702454 0.46259286999702454
0.47796690464019775 0.47796690464019775 0.47796690464019775
0.49312546849250793 0.49312546849250793 0.49312546849250793
0.51010102033615112 0.51010102033615112 0.51010102033615112
0.35413846373558044 0.35413846373558044 0.35413846373558044
0.39032173156738281 0.39032173156738281 0.39032173156738281
0.41237440705299377 0.41237440705299377 0.41237440705299377
0.42002296447753906 0.42002296447753906 0.42002296447753906
0.44056522846221924 0.44056522846221924 0.44056522846221924
0.45777058601379395 0.45777058601379395 0.45777058601379395
0.47524821758270264 0.47524821758270264 0.47524821758270264
0.49549126625061035 0.49549126625061035 0.49549126625061035
0.50933796167373657 0.50933796167373657 0.50933796167373657
0.52195662260055542 0.52195662260055542 0.52195662260055542
0.53304415941238403 0.53304415941238403 0.53304415941238403
0.54165548086166382 0.54165548086166382 0.54165548086166382
0.55767238140106201 0.55767238140106201 0.55767238140106201
0.42548903822898865 0.42548903822898865 0.42548903822898865
0.4360988438129425 0.4360988438129425 0.4360988438129425
0.46201765537261963 0.46201765537261963 0.46201765537261963
0.46774241328239441 0.46774241328239441 0.46774241328239441
0.49456021189689636 0.49456021189689636 0.49456021189689636
0.51244461536407471 0.51244461536407471 0.51244461536407471
0.53259122371673584 0.53259122371673584 0.53259122371673584
0.55221474170684814 0.55221474170684814 0.55221474170684814
0.56705069541931152 0.56705069541931152 0.56705069541931152
0.57958263158798218 0.57958263158798218 0.57958263158798218
0.59078860282897949 0.59078860282897949 0.59078860282897949
0.59783440828323364 0.59783440828323364 0.59783440828323364
0.61319231986999512 0.61319231986999512 0.61319231986999512
0.46121689677238464 0.46121689677238464 0.46121689677238464
0.47102546691894531 0.47102546691894531 0.47102546691894531
0.49776342511177063 0.49776342511177063 0.49776342511177063
0.50662863254547119 0.50662863254547119 0.50662863254547119
0.53339636325836182 0.53339636325836182 0.53339636325836182
0.55067992210388184 0.55067992210388184 0.55067992210388184
0.58641433715820312 0.58641433715820312 0.58641433715820312
0.60204333066940308 0.60204333066940308 0.60204333066940308
0.61001300811767578 0.61001300811767578 0.61001300811767578
0.63130021095275879 0.63130021095275879 0.63130021095275879
0.64217329025268555 0.64217329025268555 0.64217329025268555
0.64912593364715576 0.64912593364715576 0.64912593364715576
0.66271036863327026 0.66271036863327026 0.66271036863327026
0.47295120358467102 0.47295120358467102 0.47295120358467102
0.48121654987335205 0.48121654987335205 0.48121654987335205
0.53788775205612183 0.53788775205612183 0.53788775205612183
0.56896060705184937 0.56896060705184937 0.56896060705184937
0.58071565628051758 0.58071565628051758 0.58071565628051758
0.59608989953994751 0.59608989953994751 0.59608989953994751
0.6180540919303894 0.6180540919303894 0.6180540919303894
0.62863576412200928 0.62863576412200928 0.62863576412200928
0.63350909948348999 0.63350909948348999 0.63350909948348999
0.65418297052383423 0.65418297052383423 0.65418297052383423
0.67292934656143188 0.67292934656143188 0.67292934656143188
0.67768460512161255 0.67768460512161255 0.67768460512161255
0.68007290363311768 0.68007290363311768 0.68007290363311768
0.4782145619392395 0.4782145619392395 0.4782145619392395
0.48872518539428711 0.48872518539428711 0.48872518539428711
0.57002794742584229 0.57002794742584229 0.57002794742584229
0.59600144624710083 0.59600144624710083 0.59600144624710083
0.61137735843658447 0.61137735843658447 0.61137735843658447
0.6256711483001709 0.6256711483001709 0.6256711483001709
0.64607423543930054 0.64607423543930054 0.64607423543930054
0.66304248571395874 0.66304248571395874 0.66304248571395874
0.66621804237365723 0.66621804237365723 0.66621804237365723
0.67923498153686523 0.67923498153686523 0.67923498153686523
0.70047050714492798 0.70047050714492798 0.70047050714492798
0.68873709440231323 0.68873709440231323 0.68873709440231323
0.6865837574005127 0.6865837574005127 0.6865837574005127
0.49793586134910583 0.49793586134910583 0.49793586134910583
0.49034184217453003 0.49034184217453003 0.49034184217453003
0.58156174421310425 0.58156174421310425 0.58156174421310425
0.61705929040908813 0.61705929040908813 0.61705929040908813
0.62811809778213501 0.62811809778213501 0.62811809778213501
0.63748586177825928 0.63748586177825928 0.63748586177825928
0.65748244524002075 0.65748244524002075 0.65748244524002075
0.67966979742050171 0.67966979742050171 0.67966979742050171
0.69470310211181641 0.69470310211181641 0.69470310211181641
0.70878243446350098 0.70878243446350098 0.70878243446350098
0.72582459449768066 0.72582459449768066 0.72582459449768066
0.7286950945854187 0.7286950945854187 0.7286950945854187
0.72706234455108643 0.72706234455108643 0.72706234455108643
0.50802832841873169 0.50802832841873169 0.50802832841873169
0.49675741791725159 0.49675741791725159 0.49675741791725159
0.60091179609298706 0.60091179609298706 0.60091179609298706
0.6363368034362793 0.6363368034362793 0.6363368034362793
0.64659661054611206 0.64659661054611206 0.64659661054611206
0.65190941095352173 0.65190941095352173 0.65190941095352173
0.65909892320632935 0.65909892320632935 0.65909892320632935
0.68027406930923462 0.68027406930923462 0.68027406930923462
0.69893527030944824 0.69893527030944824 0.69893527030944824
0.71272999048233032 0.71272999048233032 0.71272999048233032
0.7292667031288147 0.7292667031288147 0.7292667031288147
0.75536221265792847 0.75536221265792847 0.75536221265792847
0.76883834600448608 0.76883834600448608 0.76883834600448608
0.035730756819248199 0.035730756819248199 0.035730756819248199
0.052602071315050125 0.052602071315050125 0.052602071315050125
0.066286958754062653 0.066286958754062653 0.066286958754062653
0.093932881951332092 0.093932881951332092 0.093932881951332092
0.12132649123668671 0.12132649123668671 0.12132649123668671
0.16580839455127716 0.16580839455127716 0.16580839455127716
0.21041825413703918 0.21041825413703918 0.21041825413703918
0.22767876088619232 0.22767876088619232 0.22767876088619232
0.24403439462184906 0.24403439462184906 0.24403439462184906
0.25960865616798401 0.25960865616798401 0.25960865616798401
0.27493029832839966 0.27493029832839966 0.27493029832839966
0.30097556114196777 0.30097556114196777 0.30097556114196777
0.33148831129074097 0.33148831129074097 0.33148831129074097
0.058746516704559326 0.058746516704559326 0.058746516704559326
0.075277723371982574 0.075277723371982574 0.075277723371982574
0.09061373770236969 0.09061373770236969 0.09061373770236969
0.11303813010454178 0.11303813010454178 0.11303813010454178
0.13692858815193176 0.13692858815193176 0.13692858815193176
0.17080095410346985 0.17080095410346985 0.17080095410346985
0.21167154610157013 0.21167154610157013 0.21167154610157013
0.23632714152336121 0.23632714152336121 0.23632714152336121
0.25524473190307617 0.25524473190307617 0.25524473190307617
0.27610760927200317 0.27610760927200317 0.27610760927200317
0.30273920297622681 0.30273920297622681 0.30273920297622681
0.31971827149391174 0.31971827149391174 0.31971827149391174
0.33934259414672852 0.33934259414672852 0.33934259414672852
0.10507632791996002 0.10507632791996002 0.10507632791996002
0.11456938832998276 0.11456938832998276 0.11456938832998276
0.12653589248657227 0.12653589248657227 0.12653589248657227
0.14807429909706116 0.14807429909706116 0.14807429909706116
0.1733839362859726 0.1733839362859726 0.1733839362859726
0.20305018126964569 0.20305018126964569 0.20305018126964569
0.23477472364902496 0.23477472364902496 0.23477472364902496
0.2603456974029541 0.2603456974029541 0.2603456974029541
0.28445577621459961 0.28445577621459961 0.28445577621459961
0.3105851411819458 0.3105851411819458 0.3105851411819458
0.32908633351325989 0.32908633351325989 0.32908633351325989
0.33881264925003052 0.33881264925003052 0.33881264925003052
0.35556074976921082 0.35556074976921082 0.35556074976921082
0.17366896569728851 0.17366896569728851 0.17366896569728851
0.18038809299468994 0.18038809299468994 0.18038809299468994
0.19248728454113007 0.19248728454113007 0.19248728454113007
0.21036677062511444 0.21036677062511444 0.21036677062511444
0.23518534004688263 0.23518534004688263 0.23518534004688263
0.26030972599983215 0.26030972599983215 0.26030972599983215
0.28282332420349121 0.28282332420349121 0.28282332420349121
0.30087569355964661 0.30087569355964661 0.30087569355964661
0.32477229833602905 0.32477229833602905 0.32477229833602905
0.34959930181503296 0.34959930181503296 0.34959930181503296
0.37265053391456604 0.37265053391456604 0.37265053391456604
0.39226782321929932 0.39226782321929932 0.39226782321929932
0.39990866184234619 0.39990866184234619 0.39990866184234619
0.25095409154891968 0.25095409154891968 0.25095409154891968
0.25863385200500488 0.25863385200500488 0.25863385200500488
0.27229800820350647 0.27229800820350647 0.27229800820350647
0.2915598452091217 0.2915598452091217 0.2915598452091217
0.31322100758552551 0.31322100758552551 0.31322100758552551
0.33237355947494507 0.33237355947494507 0.33237355947494507
0.34853604435920715 0.34853604435920715 0.34853604435920715
