assets/lut/fujixtransiii fuji xtrans iii mono+g.cube
# Created by: G'MIC (https://gmic.eu)
TITLE "fuji_xtrans_iii_mono+g"
# LUT size
LUT_3D_SIZE 7
# Data domain
DOMAIN_MIN 0.0 0.0 0.0
DOMAIN_MAX 1.0 1.0 1.0
# LUT data points
0.012222649529576302 0.012222649529576302 0.012222649529576302
0.030010432004928589 0.030010432004928589 0.030010432004928589
0.074306577444076538 0.074306577444076538 0.074306577444076538
0.15921337902545929 0.15921337902545929 0.15921337902545929
0.23537883162498474 0.23537883162498474 0.23537883162498474
0.26422920823097229 0.26422920823097229 0.26422920823097229
0.28478598594665527 0.28478598594665527 0.28478598594665527
0.057263124734163284 0.057263124734163284 0.057263124734163284
0.082067765295505524 0.082067765295505524 0.082067765295505524
0.15116818249225616 0.15116818249225616 0.15116818249225616
0.21122646331787109 0.21122646331787109 0.21122646331787109
0.26690205931663513 0.26690205931663513 0.26690205931663513
0.30372852087020874 0.30372852087020874 0.30372852087020874
0.35279160737991333 0.35279160737991333 0.35279160737991333
0.20200788974761963 0.20200788974761963 0.20200788974761963
0.24011431634426117 0.24011431634426117 0.24011431634426117
0.29000627994537354 0.29000627994537354 0.29000627994537354
0.32624179124832153 0.32624179124832153 0.32624179124832153
0.37837627530097961 0.37837627530097961 0.37837627530097961
0.40241363644599915 0.40241363644599915 0.40241363644599915
0.40172240138053894 0.40172240138053894 0.40172240138053894
0.32957890629768372 0.32957890629768372 0.32957890629768372
0.3714597225189209 0.3714597225189209 0.3714597225189209
0.43412578105926514 0.43412578105926514 0.43412578105926514
0.46510925889015198 0.46510925889015198 0.46510925889015198
0.50354170799255371 0.50354170799255371 0.50354170799255371
0.52712810039520264 0.52712810039520264 0.52712810039520264
0.55059409141540527 0.55059409141540527 0.55059409141540527
0.39917075634002686 0.39917075634002686 0.39917075634002686
0.47067913413047791 0.47067913413047791 0.47067913413047791
0.49678900837898254 0.49678900837898254 0.49678900837898254
0.5743030309677124 0.5743030309677124 0.5743030309677124
0.59429740905761719 0.59429740905761719 0.59429740905761719
0.60753345489501953 0.60753345489501953 0.60753345489501953
0.64608228206634521 0.64608228206634521 0.64608228206634521
0.43238645792007446 0.43238645792007446 0.43238645792007446
0.54408854246139526 0.54408854246139526 0.54408854246139526
0.58552569150924683 0.58552569150924683 0.58552569150924683
0.6145368218421936 0.6145368218421936 0.6145368218421936
0.62118327617645264 0.62118327617645264 0.62118327617645264
0.64471185207366943 0.64471185207366943 0.64471185207366943
0.67571187019348145 0.67571187019348145 0.67571187019348145
0.46576544642448425 0.46576544642448425 0.46576544642448425
0.57103991508483887 0.57103991508483887 0.57103991508483887
0.61539328098297119 0.61539328098297119 0.61539328098297119
0.65225529670715332 0.65225529670715332 0.65225529670715332
0.69135510921478271 0.69135510921478271 0.69135510921478271
0.72398698329925537 0.72398698329925537 0.72398698329925537
0.72525858879089355 0.72525858879089355 0.72525858879089355
0.035730756819248199 0.035730756819248199 0.035730756819248199
0.066286958754062653 0.066286958754062653 0.066286958754062653
0.12132649123668671 0.12132649123668671 0.12132649123668671
0.21041825413703918 0.21041825413703918 0.21041825413703918
0.24403439462184906 0.24403439462184906 0.24403439462184906
0.27493029832839966 0.27493029832839966 0.27493029832839966
0.33148831129074097 0.33148831129074097 0.33148831129074097
0.10507632791996002 0.10507632791996002 0.10507632791996002
0.12653589248657227 0.12653589248657227 0.12653589248657227
0.1733839362859726 0.1733839362859726 0.1733839362859726
0.23477472364902496 0.23477472364902496 0.23477472364902496
0.28445577621459961 0.28445577621459961 0.28445577621459961
0.32908633351325989 0.32908633351325989 0.32908633351325989
0.35556074976921082 0.35556074976921082 0.35556074976921082
0.25095409154891968 0.25095409154891968 0.25095409154891968
0.27229800820350647 0.27229800820350647 0.27229800820350647
0.31322100758552551 0.31322100758552551 0.31322100758552551
0.34853604435920715 0.34853604435920715 0.34853604435920715
0.38378646969795227 0.38378646969795227 0.38378646969795227
0.42898339033126831 0.42898339033126831 0.42898339033126831
0.448749840259552 0.448749840259552 0.448749840259552
0.3968072235584259 0.3968072235584259 0.3968072235584259
0.43144851922988892 0.43144851922988892 0.43144851922988892
0.46003279089927673 0.46003279089927673 0.46003279089927673
0.49261680245399475 0.49261680245399475 0.49261680245399475
0.52003473043441772 0.52003473043441772 0.52003473043441772
0.5419115424156189 0.5419115424156189 0.5419115424156189
0.55632829666137695 0.55632829666137695 0.55632829666137695
0.47025313973426819 0.47025313973426819 0.47025313973426819
0.52778208255767822 0.52778208255767822 0.52778208255767822
0.57505530118942261 0.57505530118942261 0.57505530118942261
0.60488754510879517 0.60488754510879517 0.60488754510879517
0.62576055526733398 0.62576055526733398 0.62576055526733398
0.657539963722229 0.657539963722229 0.657539963722229
0.68036586046218872 0.68036586046218872 0.68036586046218872
0.50708931684494019 0.50708931684494019 0.50708931684494019
0.58991259336471558 0.58991259336471558 0.58991259336471558
0.63534879684448242 0.63534879684448242 0.63534879684448242
0.66565972566604614 0.66565972566604614 0.66565972566604614
0.69315832853317261 0.69315832853317261 0.69315832853317261
0.73307090997695923 0.73307090997695923 0.73307090997695923
0.72491079568862915 0.72491079568862915 0.72491079568862915
0.53980523347854614 0.53980523347854614 0.53980523347854614
0.62670284509658813 0.62670284509658813 0.62670284509658813
0.66184717416763306 0.66184717416763306 0.66184717416763306
0.68414032459259033 0.68414032459259033 0.68414032459259033
0.71728622913360596 0.71728622913360596 0.7173190712928772
0.74558538198471069 0.74558538198471069 0.74558538198471069
0.78452885150909424 0.78452885150909424 0.78452885150909424
0.13032768666744232 0.13032768666744232 0.13039691746234894
0.16825923323631287 0.16825923323631287 0.16828957200050354
0.20462672412395477 0.20462672412395477 0.20462672412395477
0.25855425000190735 0.25855425000190735 0.25855425000190735
0.28312543034553528 0.28312543034553528 0.28312543034553528
0.32047602534294128 0.32047602534294128 0.32047602534294128
0.34683310985565186 0.34683310985565186 0.34683310985565186
0.18239697813987732 0.18239697813987732 0.18240204453468323
0.21049578487873077 0.21049578487873077 0.21049578487873077
0.26042908430099487 0.26042908430099487 0.26042908430099487
0.29827770590782166 0.29827770590782166 0.29827770590782166
0.33023035526275635 0.33023035526275635 0.33023035526275635
0.36420255899429321 0.36420255899429321 0.36420255899429321
0.39622366428375244 0.39622366428375244 0.39622366428375244
0.30939206480979919 0.30939206480979919 0.30942472815513611
0.33120673894882202 0.33120673894882202 0.33120673894882202
0.36830902099609375 0.36830902099609375 0.36830902099609375
0.40547829866409302 0.40547829866409302 0.40548840165138245
0.42968267202377319 0.42968267202377319 0.42968267202377319
0.45758816599845886 0.45758816599845886 0.45758816599845886
0.45985710620880127 0.45985710620880127 0.45985710620880127
0.44615936279296875 0.44615936279296875 0.44615936279296875
0.46801894903182983 0.46801894903182983 0.46801894903182983
0.50817245244979858 0.50817245244979858 0.50817245244979858
0.53602010011672974 0.53602010011672974 0.53602010011672974
0.55551820993423462 0.55551820993423462 0.55551820993423462
0.56702077388763428 0.56702077388763428 0.56702077388763428
0.5822945237159729 0.5822945237159729 0.5822945237159729
0.52881741523742676 0.52881741523742676 0.52881741523742676
0.58146744966506958 0.58146744966506958 0.58146744966506958
0.61227256059646606 0.61227256059646606 0.61227256059646606
0.64242357015609741 0.64242357015609741 0.64242357015609741
0.6690751314163208 0.6690751314163208 0.6690751314163208
0.6784055233001709 0.6784055233001709 0.6784055233001709
0.69324213266372681 0.69324213266372681 0.69324213266372681
0.63127988576889038 0.63127988576889038 0.63127988576889038
0.64736104011535645 0.64736104011535645 0.64736104011535645
0.67793691158294678 0.67793691158294678 0.67793691158294678
0.70684009790420532 0.70684009790420532 0.70684009790420532
0.75269484519958496 0.75269484519958496 0.75269484519958496
0.75928783416748047 0.75928783416748047 0.75928783416748047
0.77854347229003906 0.77854347229003906 0.77854347229003906
0.64538478851318359 0.64538478851318359 0.64538478851318359
0.65764963626861572 0.65764963626861572 0.65764963626861572
0.70926558971405029 0.70926558971405029 0.70926558971405029
0.74791818857192993 0.74791818857192993 0.74791818857192993
0.7687225341796875 0.7687225341796875 0.7687225341796875
0.79906892776489258 0.79906892776489258 0.79906892776489258
0.81872618198394775 0.81872618198394775 0.81872618198394775
0.23173306882381439 0.23173306882381439 0.23266567289829254
0.2581591010093689 0.2581591010093689 0.25827696919441223
0.29615142941474915 0.29615142941474915 0.29618430137634277
0.34026575088500977 0.34026575088500977 0.34026575088500977
0.38081243634223938 0.38081243634223938 0.38081243634223938
0.39071029424667358 0.39071029424667358 0.39071029424667358
0.40068191289901733 0.40068191289901733 0.40068191289901733
0.27584007382392883 0.27584007382392883 0.27592581510543823
0.30834087729454041 0.30834087729454041 0.30838695168495178
0.34986910223960876 0.34986910223960876 0.34986910223960876
0.39013963937759399 0.39013963937759399 0.39013963937759399
0.42087841033935547 0.42087841033935547 0.42087841033935547
0.43367058038711548 0.43367058038711548 0.43367058038711548
0.44114005565643311 0.44114005565643311 0.44114005565643311
0.38522979617118835 0.38522979617118835 0.38523989915847778
0.40984192490577698 0.40984192490577698 0.40987840294837952
0.43869706988334656 0.43869706988334656 0.43869706988334656
0.46968895196914673 0.46968895196914673 0.46968895196914673
0.50204789638519287 0.50204789638519287 0.50204789638519287
0.51672482490539551 0.51672482490539551 0.51672482490539551
0.52903807163238525 0.52903807163238525 0.52903807163238525
0.50626510381698608 0.50626510381698608 0.50629794597625732
0.52915275096893311 0.52915275096893311 0.52915275096893311
0.55830937623977661 0.55830937623977661 0.55832451581954956
0.589275062084198 0.589275062084198 0.589275062084198
0.61118572950363159 0.61118572950363159 0.61118572950363159
0.61358499526977539 0.61358499526977539 0.61358499526977539
0.6241610050201416 0.6241610050201416 0.6241610050201416
0.61215668916702271 0.61215668916702271 0.61215668916702271
0.62569326162338257 0.62569326162338257 0.62569832801818848
0.65142631530761719 0.65142631530761719 0.65142631530761719
0.68067538738250732 0.68067538738250732 0.68067538738250732
0.70678138732910156 0.70678138732910156 0.70678138732910156
0.71826541423797607 0.71826541423797607 0.71826541423797607
0.740692138671875 0.740692138671875 0.740692138671875
0.68299508094787598 0.68299508094787598 0.68302792310714722
0.69677400588989258 0.69677400588989258 0.69677400588989258
0.72410905361175537 0.72410905361175537 0.72410905361175537
0.75144821405410767 0.75144821405410767 0.75144821405410767
0.78373605012893677 0.78373605012893677 0.78373605012893677
0.80885785818099976 0.80885785818099976 0.80885785818099976
0.84297412633895874 0.84297412633895874 0.84297412633895874
0.69917011260986328 0.69917011260986328 0.69917011260986328
0.71460646390914917 0.71460646390914917 0.71460646390914917
0.73603612184524536 0.73603612184524536 0.73603612184524536
0.76634508371353149 0.76634508371353149 0.76634508371353149
0.79630345106124878 0.79630345106124878 0.79630345106124878
0.85093480348587036 0.85093480348587036 0.85093480348587036
0.87080258131027222 0.87080258131027222 0.87080258131027222
0.30884203314781189 0.30884203314781189 0.30984663963317871
0.34011361002922058 0.34011361002922058 0.34015583992004395
0.38392576575279236 0.38392576575279236 0.38399150967597961
0.43572404980659485 0.43572404980659485 0.43572404980659485
0.47339075803756714 0.47339075803756714 0.47339075803756714
0.49268901348114014 0.49268901348114014 0.49268901348114014
0.51733803749084473 0.51733803749084473 0.51733803749084473
0.38372433185577393 0.38372433185577393 0.38380807638168335
0.40793216228485107 0.40793216228485107 0.40799596905708313
0.43824726343154907 0.43824726343154907 0.43828165531158447
0.48327130079269409 0.48327130079269409 0.48327130079269409
0.50981509685516357 0.50981509685516357 0.50981509685516357
0.52617353200912476 0.52617353200912476 0.52617353200912476
0.54105490446090698 0.54105490446090698 0.54105490446090698
0.46100988984107971 0.46100988984107971 0.46106302738189697
0.4893437922000885 0.4893437922000885 0.48941242694854736
0.50794267654418945 0.50794267654418945 0.50794267654418945
0.5387951135635376 0.5387951135635376 0.5387951135635376
0.56774073839187622 0.56774073839187622 0.56774073839187622
0.59246546030044556 0.59246546030044556 0.59246546030044556
0.60753804445266724 0.60753804445266724 0.60753804445266724
0.56378930807113647 0.56378930807113647 0.56380957365036011
0.58397281169891357 0.58397281169891357 0.58397752046585083
0.60261070728302002 0.60261070728302002 0.60261070728302002
0.62748062610626221 0.62748062610626221 0.62748062610626221
0.65570026636123657 0.65570026636123657 0.65570026636123657
0.67239582538604736 0.67239582538604736 0.67239582538604736
0.69538635015487671 0.69538635015487671 0.69538635015487671
0.65756702423095703 0.65756702423095703 0.65756702423095703
0.66988551616668701 0.66988551616668701 0.66988551616668701
0.68392354249954224 0.68392354249954224 0.68392354249954224
0.70729470252990723 0.70729470252990723 0.70729470252990723
0.73859512805938721 0.73859512805938721 0.73859512805938721
0.76981925964355469 0.76981925964355469 0.76981925964355469
0.79588675498962402 0.79588675498962402 0.79588675498962402
0.74179011583328247 0.74179011583328247 0.74179011583328247
0.7356526255607605 0.7356526255607605 0.7356526255607605
0.75210112333297729 0.75210112333297729 0.75210112333297729
0.78473073244094849 0.78473073244094849 0.78473073244094849
0.81563347578048706 0.81563347578048706 0.81563347578048706
0.84854096174240112 0.84854096174240112 0.84854096174240112
0.8837655782699585 0.8837655782699585 0.8837655782699585
0.75540131330490112 0.75540131330490112 0.75540131330490112
0.7840617299079895 0.7840617299079895 0.7840617299079895
0.80237233638763428 0.80237233638763428 0.80237233638763428
0.8368181586265564 0.8368181586265564 0.8368181586265564
0.85996031761169434 0.85996031761169434 0.85996031761169434
0.88538467884063721 0.88538467884063721 0.88538467884063721
0.90490347146987915 0.90490347146987915 0.90490347146987915
0.37445107102394104 0.37445107102394104 0.37445107102394104
0.40857833623886108 0.40857833623886108 0.40864408016204834
0.44962257146835327 0.44962257146835327 0.44962257146835327
0.50831431150436401 0.50831431150436401 0.50831431150436401
0.55141419172286987 0.55141419172286987 0.55141419172286987
0.57996457815170288 0.57996457815170288 0.57996457815170288
0.59714633226394653 0.59714633226394653 0.59714633226394653
0.4597964882850647 0.4597964882850647 0.45982176065444946
0.49063828587532043 0.49063828587532043 0.4906429648399353
0.52089089155197144 0.52089089155197144 0.52089089155197144
0.56346327066421509 0.56346327066421509 0.56346327066421509
0.58905959129333496 0.58905959129333496 0.58905959129333496
0.61331665515899658 0.61331665515899658 0.61331665515899658
0.61872404813766479 0.61872404813766479 0.61872404813766479
0.53444826602935791 0.53444826602935791 0.53444826602935791
0.56496584415435791 0.56496584415435791 0.56497591733932495
0.58326643705368042 0.58326643705368042 0.58326643705368042
0.6106676459312439 0.6106676459312439 0.6106676459312439
0.6403535008430481 0.6403535008430481 0.6403535008430481
0.67274951934814453 0.67274951934814453 0.67274951934814453
0.68145096302032471 0.68145096302032471 0.68145096302032471
0.61442232131958008 0.61442232131958008 0.61444562673568726
0.64158159494400024 0.64158159494400024 0.64158159494400024
0.64766496419906616 0.64766496419906616 0.64766496419906616
0.66804462671279907 0.66804462671279907 0.66804462671279907
0.70386821031570435 0.70386821031570435 0.70386821031570435
0.72998213768005371 0.72998213768005371 0.72998213768005371
0.76038831472396851 0.76038831472396851 0.76038831472396851
0.70239251852035522 0.70239251852035522 0.70239251852035522
0.7187812328338623 0.7187812328338623 0.7187812328338623
0.73022609949111938 0.73022609949111938 0.73022609949111938
0.74452102184295654 0.74452102184295654 0.74452102184295654
0.77886217832565308 0.77886217832565308 0.77886217832565308
0.81316184997558594 0.81316184997558594 0.81316184997558594
0.84193998575210571 0.84193998575210571 0.84193998575210571
0.76917052268981934 0.76917052268981934 0.76917052268981934
0.78971844911575317 0.78971844911575317 0.78971844911575317
0.81670767068862915 0.81670767068862915 0.81670767068862915
0.82633674144744873 0.82633674144744873 0.82633674144744873
0.86203348636627197 0.86203348636627197 0.86203348636627197
0.88460934162139893 0.88460934162139893 0.88460934162139893
0.9198649525642395 0.9198649525642395 0.9198649525642395
0.84317374229431152 0.84317374229431152 0.84317374229431152
0.82646507024765015 0.82646507024765015 0.82646507024765015
0.84717047214508057 0.84717047214508057 0.84717047214508057
0.8734249472618103 0.8734249472618103 0.8734249472618103
0.90117931365966797 0.90117931365966797 0.90117931365966797
0.91909635066986084 0.91909635066986084 0.91909635066986084
0.93984895944595337 0.93984895944595337 0.93984895944595337
0.42360049486160278 0.42360049486160278 0.42356765270233154
0.44611966609954834 0.44611966609954834 0.44614496827125549
0.50371235609054565 0.50371235609054565 0.50371235609054565
0.5538596510887146 0.5538596510887146 0.5538596510887146
0.61027145385742188 0.61027145385742188 0.61027145385742188
0.66009557247161865 0.66009557247161865 0.66009557247161865
0.6764330267906189 0.6764330267906189 0.6764330267906189
0.4972507655620575 0.4972507655620575 0.4972507655620575
0.53349405527114868 0.53349405527114868 0.53367602825164795
0.58241528272628784 0.58241528272628784 0.58244806528091431
0.61922752857208252 0.61922752857208252 0.61922752857208252
0.65686303377151489 0.65686303377151489 0.65686303377151489
0.69043701887130737 0.69043701887130737 0.69043701887130737
0.69548898935317993 0.69548898935317993 0.69548898935317993
0.60767745971679688 0.60767745971679688 0.60767745971679688
0.64087992906570435 0.64087992906570435 0.64087992906570435
0.66150492429733276 0.66150492429733276 0.66150492429733276
0.68866580724716187 0.68866580724716187 0.68866580724716187
0.71322882175445557 0.71322882175445557 0.71322882175445557
0.73662805557250977 0.73662805557250977 0.73662805557250977
0.75092768669128418 0.75092768669128418 0.75092768669128418
0.67501646280288696 0.67501646280288696 0.67501646280288696
0.698874831199646 0.698874831199646 0.69884955883026123
0.71200138330459595 0.71200138330459595 0.71200138330459595
0.73553669452667236 0.73553669452667236 0.73553669452667236
0.76042652130126953 0.76042652130126953 0.76042652130126953
0.78936827182769775 0.78936827182769775 0.78936827182769775
0.80573177337646484 0.80573177337646484 0.80573177337646484
0.74418318271636963 0.74418318271636963 0.74418318271636963
0.76491844654083252 0.76491844654083252 0.76491844654083252
0.778839111328125 0.778839111328125 0.778839111328125
0.79807358980178833 0.79807358980178833 0.79807358980178833
0.82545363903045654 0.82545363903045654 0.82545363903045654
0.85616177320480347 0.85616177320480347 0.85616177320480347
0.88243788480758667 0.88243788480758667 0.88243788480758667
0.82877904176712036 0.82877904176712036 0.82877904176712036
0.83325892686843872 0.83325892686843872 0.83325892686843872
0.85525715351104736 0.85525715351104736 0.85525715351104736
0.87393718957901001 0.87393718957901001 0.87393718957901001
0.90007865428924561 0.90007865428924561 0.90007865428924561
0.91924220323562622 0.91924220323562622 0.91924220323562622
0.94243603944778442 0.94243603944778442 0.94243603944778442
0.8607027530670166 0.8607027530670166 0.8607027530670166
0.84754371643066406 0.84754371643066406 0.84754371643066406
0.8638991117477417 0.8638991117477417 0.8638991117477417
0.88968664407730103 0.88968664407730103 0.88968664407730103
0.91345012187957764 0.91345012187957764 0.91345012187957764
0.93979227542877197 0.93979227542877197 0.93979227542877197
0.95675075054168701 0.95675075054168701 0.95675075054168701
