assets/lut/fujixtransiii fuji xtrans iii acros+r.cube
# Created by: G'MIC (https://gmic.eu)
TITLE "fuji_xtrans_iii_acros+r"
# LUT size
LUT_3D_SIZE 13
# Data domain
DOMAIN_MIN 0.0 0.0 0.0
DOMAIN_MAX 1.0 1.0 1.0
# LUT data points
0.016120506450533867 0.016120506450533867 0.016120506450533867
0.042321432381868362 0.042321432381868362 0.042321432381868362
0.086500160396099091 0.086500160396099091 0.086500160396099091
0.14591717720031738 0.14591717720031738 0.14591717720031738
0.22680540382862091 0.22680540382862091 0.22680540382862091
0.31781557202339172 0.31781557202339172 0.31781557202339172
0.39980459213256836 0.39980459213256836 0.39980459213256836
0.50115931034088135 0.50115931034088135 0.50115931034088135
0.56567370891571045 0.56567370891571045 0.56567370891571045
0.61546027660369873 0.61546027660369873 0.61546027660369873
0.6349949836730957 0.6349949836730957 0.6349949836730957
0.65439724922180176 0.65439724922180176 0.65439724922180176
0.66737067699432373 0.66737067699432373 0.66737067699432373
0.022168971598148346 0.022168971598148346 0.022168971598148346
0.049946773797273636 0.049946773797273636 0.049946773797273636
0.098115108907222748 0.098115108907222748 0.098115108907222748
0.15899194777011871 0.15899194777011871 0.15899194777011871
0.24314980208873749 0.24314980208873749 0.24314980208873749
0.32812213897705078 0.32812213897705078 0.32812213897705078
0.41605693101882935 0.41605693101882935 0.41605693101882935
0.50734925270080566 0.50734925270080566 0.50734925270080566
0.57081508636474609 0.57081508636474609 0.57081508636474609
0.62659537792205811 0.62659537792205811 0.62659537792205811
0.64907985925674438 0.64907985925674438 0.64907985925674438
0.66437900066375732 0.66437900066375732 0.66437900066375732
0.69440877437591553 0.69440877437591553 0.69440877437591553
0.034653548151254654 0.034653548151254654 0.034653548151254654
0.06552644819021225 0.06552644819021225 0.06552644819021225
0.11162556707859039 0.11162556707859039 0.11162556707859039
0.17881022393703461 0.17881022393703461 0.17881022393703461
0.26102706789970398 0.26102706789970398 0.26102706789970398
0.3447105884552002 0.3447105884552002 0.3447105884552002
0.43271100521087646 0.43271100521087646 0.43271100521087646
0.51847571134567261 0.51847571134567261 0.51847571134567261
0.58577871322631836 0.58577871322631836 0.58577871322631836
0.63662415742874146 0.63662415742874146 0.63662415742874146
0.66581648588180542 0.66581648588180542 0.66581648588180542
0.69376891851425171 0.69376891851425171 0.69376891851425171
0.71446746587753296 0.71446746587753296 0.71446746587753296
0.077356286346912384 0.077356286346912384 0.077356286346912384
0.10529692471027374 0.10529692471027374 0.10529692471027374
0.1381918340921402 0.1381918340921402 0.1381918340921402
0.20680658519268036 0.20680658519268036 0.20680658519268036
0.28597748279571533 0.28597748279571533 0.28597748279571533
0.36612758040428162 0.36612758040428162 0.36612758040428162
0.44901379942893982 0.44901379942893982 0.44901379942893982
0.53091484308242798 0.53091484308242798 0.53091484308242798
0.60259062051773071 0.60259062051773071 0.60259062051773071
0.65845155715942383 0.65845155715942383 0.65845155715942383
0.70443212985992432 0.70443212985992432 0.70443212985992432
0.71647971868515015 0.71647971868515015 0.71647971868515015
0.72328764200210571 0.72328764200210571 0.72328764200210571
0.12670868635177612 0.12670868635177612 0.12670868635177612
0.16282129287719727 0.16282129287719727 0.16282129287719727
0.19542936980724335 0.19542936980724335 0.19542936980724335
0.2589297890663147 0.2589297890663147 0.2589297890663147
0.33464258909225464 0.33464258909225464 0.33464258909225464
0.40295368432998657 0.40295368432998657 0.40295368432998657
0.47370061278343201 0.47370061278343201 0.47370061278343201
0.55129873752593994 0.55129873752593994 0.55129873752593994
0.61869508028030396 0.61869508028030396 0.61869508028030396
0.6693718433380127 0.6693718433380127 0.6693718433380127
0.70935964584350586 0.70935964584350586 0.70935964584350586
0.72005772590637207 0.72005772590637207 0.72005772590637207
0.73769682645797729 0.73769682645797729 0.73769682645797729
0.18092799186706543 0.18092799186706543 0.18092799186706543
0.22283081710338593 0.22283081710338593 0.22283081710338593
0.25229999423027039 0.25229999423027039 0.25229999423027039
0.30387848615646362 0.30387848615646362 0.30387848615646362
0.37860879302024841 0.37860879302024841 0.37860879302024841
0.44341149926185608 0.44341149926185608 0.44341149926185608
0.50841403007507324 0.50841403007507324 0.50841403007507324
0.57846570014953613 0.57846570014953613 0.57846570014953613
0.63970077037811279 0.63970077037811279 0.63970077037811279
0.67914116382598877 0.67914116382598877 0.67914116382598877
0.70871341228485107 0.70871341228485107 0.70871341228485107
0.73440778255462646 0.73440778255462646 0.73440778255462646
0.77431493997573853 0.77431493997573853 0.77431493997573853
0.22591668367385864 0.22591668367385864 0.22591668367385864
0.25907570123672485 0.25907570123672485 0.25907570123672485
0.29673820734024048 0.29673820734024048 0.29673820734024048
0.34337133169174194 0.34337133169174194 0.34337133169174194
0.41858848929405212 0.41858848929405212 0.41858848929405212
0.47478750348091125 0.47478750348091125 0.47478750348091125
0.5453452467918396 0.5453452467918396 0.5453452467918396
0.60667169094085693 0.60667169094085693 0.60667169094085693
0.66454792022705078 0.66454792022705078 0.66454792022705078
0.70094001293182373 0.70094001293182373 0.70094001293182373
0.73387235403060913 0.73387235403060913 0.73387235403060913
0.75166112184524536 0.75166112184524536 0.75166112184524536
0.78944051265716553 0.78944051265716553 0.78944051265716553
0.25580358505249023 0.25580358505249023 0.25580358505249023
0.28819239139556885 0.28819239139556885 0.28819239139556885
0.33637654781341553 0.33637654781341553 0.33637654781341553
0.37482011318206787 0.37482011318206787 0.37482011318206787
0.45027464628219604 0.45027464628219604 0.45027464628219604
0.4870152473449707 0.4870152473449707 0.4870152473449707
0.57679557800292969 0.57679557800292969 0.57679557800292969
0.62860912084579468 0.62860912084579468 0.62860912084579468
0.68926143646240234 0.68926143646240234 0.68926143646240234
0.73379009962081909 0.73379009962081909 0.73379009962081909
0.7562328577041626 0.7562328577041626 0.7562328577041626
0.77615255117416382 0.77615255117416382 0.77615255117416382
0.80929893255233765 0.80929893255233765 0.80929893255233765
0.28925538063049316 0.28925538063049316 0.28925538063049316
0.30981266498565674 0.30981266498565674 0.30981266498565674
0.36350834369659424 0.36350834369659424 0.36350834369659424
0.38294756412506104 0.38294756412506104 0.38294756412506104
0.45660579204559326 0.45660579204559326 0.45660579204559326
0.51453566551208496 0.51453566551208496 0.51453566551208496
0.603515625 0.603515625 0.603515625
0.64871251583099365 0.64871251583099365 0.64871251583099365
0.70875471830368042 0.70875471830368042 0.70875471830368042
0.74847620725631714 0.74847620725631714 0.74847620725631714
0.77257484197616577 0.77257484197616577 0.77257484197616577
0.79619830846786499 0.79619830846786499 0.79619830846786499
0.82753217220306396 0.82753217220306396 0.82753217220306396
0.31361356377601624 0.31361356377601624 0.31361356377601624
0.31191352009773254 0.31191352009773254 0.31191352009773254
0.35993456840515137 0.35993456840515137 0.35993456840515137
0.41175472736358643 0.41175472736358643 0.41175472736358643
0.48141467571258545 0.48141467571258545 0.48141467571258545
0.53956156969070435 0.53956156969070435 0.53956156969070435
0.6051592230796814 0.6051592230796814 0.6051592230796814
0.65038585662841797 0.65038585662841797 0.65038585662841797
0.69536614418029785 0.69536614418029785 0.69536614418029785
0.74622952938079834 0.74622952938079834 0.74622952938079834
0.79019069671630859 0.79019069671630859 0.79019069671630859
0.82817846536636353 0.82817846536636353 0.82817846536636353
0.8529542088508606 0.8529542088508606 0.8529542088508606
0.32369005680084229 0.32369005680084229 0.32369005680084229
0.32485193014144897 0.32485193014144897 0.32485193014144897
0.42935973405838013 0.42935973405838013 0.42935973405838013
0.47223812341690063 0.47223812341690063 0.47223812341690063
0.52025300264358521 0.52025300264358521 0.52025300264358521
0.56337606906890869 0.56337606906890869 0.56337606906890869
0.63034933805465698 0.63034933805465698 0.63034933805465698
0.66260594129562378 0.66260594129562378 0.66260594129562378
0.70125120878219604 0.70125120878219604 0.70125120878219604
0.7600213885307312 0.7600213885307312 0.7600213885307312
0.81616979837417603 0.81616979837417603 0.81616979837417603
0.85164719820022583 0.85164719820022583 0.85164719820022583
0.86184626817703247 0.86184626817703247 0.86184626817703247
0.35578805208206177 0.35578805208206177 0.35578805208206177
0.35139518976211548 0.35139518976211548 0.35139518976211548
0.44996026158332825 0.44996026158332825 0.44996026158332825
0.48897537589073181 0.48897537589073181 0.48897537589073181
0.53664344549179077 0.53664344549179077 0.53664344549179077
0.58529484272003174 0.58529484272003174 0.58529484272003174
0.65430945158004761 0.65430945158004761 0.65430945158004761
0.67801409959793091 0.67801409959793091 0.67801409959793091
0.7279706597328186 0.7279706597328186 0.7279706597328186
0.77565157413482666 0.77565157413482666 0.77565157413482666
0.81651294231414795 0.81651294231414795 0.81651294231414795
0.85561186075210571 0.85561186075210571 0.85561186075210571
0.86681956052780151 0.86681956052780151 0.86681956052780151
0.35937261581420898 0.35937261581420898 0.35937261581420898
0.35476037859916687 0.35476037859916687 0.35476037859916687
0.45152124762535095 0.45152124762535095 0.45152124762535095
0.48957341909408569 0.48957341909408569 0.48957341909408569
0.54048418998718262 0.54048418998718262 0.54048418998718262
0.5878179669380188 0.5878179669380188 0.5878179669380188
0.65911179780960083 0.65911179780960083 0.65911179780960083
0.68474733829498291 0.68474733829498291 0.68474733829498291
0.74864894151687622 0.74864894151687622 0.74864894151687622
0.80584746599197388 0.80584746599197388 0.80584746599197388
0.84260213375091553 0.84260213375091553 0.84260213375091553
0.86592566967010498 0.86592566967010498 0.86592566967010498
0.87871009111404419 0.87871009111404419 0.87871009111404419
0.017741035670042038 0.017741035670042038 0.017741035670042038
0.033335309475660324 0.033335309475660324 0.033335309475660324
0.085182562470436096 0.085182562470436096 0.085182562470436096
0.15171606838703156 0.15171606838703156 0.15171606838703156
0.20537357032299042 0.20537357032299042 0.20537357032299042
0.30783668160438538 0.30783668160438538 0.30783668160438538
0.41775238513946533 0.41775238513946533 0.41775238513946533
0.50892233848571777 0.50892233848571777 0.50892233848571777
0.59204530715942383 0.59204530715942383 0.59204530715942383
0.63903898000717163 0.63903898000717163 0.63903898000717163
0.65809017419815063 0.65809017419815063 0.65809017419815063
0.67277854681015015 0.67277854681015015 0.67277854681015015
0.71459531784057617 0.71459531784057617 0.71459531784057617
0.027565944939851761 0.027565944939851761 0.027565944939851761
0.052843116223812103 0.052843116223812103 0.052843116223812103
0.10125156491994858 0.10125156491994858 0.10125156491994858
0.16340743005275726 0.16340743005275726 0.16340743005275726
0.23458670079708099 0.23458670079708099 0.23458670079708099
0.32781478762626648 0.32781478762626648 0.32781478762626648
0.42187720537185669 0.42187720537185669 0.42187720537185669
0.50720256567001343 0.50720256567001343 0.50720256567001343
0.57784783840179443 0.57784783840179443 0.57784783840179443
0.63217830657958984 0.63217830657958984 0.63217830657958984
0.66331756114959717 0.66331756114959717 0.66331756114959717
0.69920259714126587 0.69920259714126587 0.69920259714126587
0.73544168472290039 0.73544168472290039 0.73544168472290039
0.042313937097787857 0.042313937097787857 0.042313937097787857
0.073508992791175842 0.073508992791175842 0.073508992791175842
0.11777647584676743 0.11777647584676743 0.11777647584676743
0.18444554507732391 0.18444554507732391 0.18444554507732391
0.26288393139839172 0.26288393139839172 0.26288393139839172
0.34797188639640808 0.34797188639640808 0.34797188639640808
0.4352363646030426 0.4352363646030426 0.4352363646030426
0.51853048801422119 0.51853048801422119 0.51853048801422119
0.58861839771270752 0.58861839771270752 0.58861839771270752
0.64553612470626831 0.64553612470626831 0.64553612470626831
0.69479405879974365 0.69479405879974365 0.69479405879974365
0.71903723478317261 0.71903723478317261 0.71903723478317261
0.73754334449768066 0.73754334449768066 0.73754334449768066
0.083440549671649933 0.083440549671649933 0.083440549671649933
0.1115964874625206 0.1115964874625206 0.1115964874625206
0.15042506158351898 0.15042506158351898 0.15042506158351898
0.21498726308345795 0.21498726308345795 0.21498726308345795
0.28728654980659485 0.28728654980659485 0.28728654980659485
0.36634942889213562 0.36634942889213562 0.36634942889213562
0.45166662335395813 0.45166662335395813 0.45166662335395813
0.53286796808242798 0.53286796808242798 0.53286796808242798
0.60435932874679565 0.60435932874679565 0.60435932874679565
0.66292941570281982 0.66292941570281982 0.66292941570281982
0.71356219053268433 0.71356219053268433 0.71356219053268433
0.730965256690979 0.730965256690979 0.730965256690979
0.74783599376678467 0.74783599376678467 0.74783599376678467
0.13468201458454132 0.13468201458454132 0.13468201458454132
0.16269391775131226 0.16269391775131226 0.16269391775131226
0.20209042727947235 0.20209042727947235 0.20209042727947235
0.2608661949634552 0.2608661949634552 0.2608661949634552
0.32663020491600037 0.32663020491600037 0.32663020491600037
0.39681187272071838 0.39681187272071838 0.39681187272071838
0.47454816102981567 0.47454816102981567 0.47454816102981567
0.54961317777633667 0.54961317777633667 0.54961317777633667
0.62111294269561768 0.62111294269561768 0.62111294269561768
0.67838770151138306 0.67838770151138306 0.67838770151138306
0.72150194644927979 0.72150194644927979 0.72150194644927979
0.74112790822982788 0.74112790822982788 0.74112790822982788
0.77244997024536133 0.77244997024536133 0.77244997024536133
0.19440343976020813 0.19440343976020813 0.19440343976020813
0.22383636236190796 0.22383636236190796 0.22383636236190796
0.25876802206039429 0.25876802206039429 0.25876802206039429
0.3071712851524353 0.3071712851524353 0.3071712851524353
0.36997729539871216 0.36997729539871216 0.36997729539871216
0.43698647618293762 0.43698647618293762 0.43698647618293762
0.50509756803512573 0.50509756803512573 0.50509756803512573
0.5708460807800293 0.5708460807800293 0.5708460807800293
0.64029461145401001 0.64029461145401001 0.64029461145401001
0.68738079071044922 0.68738079071044922 0.68738079071044922
0.73227101564407349 0.73227101564407349 0.73227101564407349
0.77247411012649536 0.77247411012649536 0.77247411012649536
0.79295217990875244 0.79295217990875244 0.79295217990875244
0.2368234395980835 0.2368234395980835 0.2368234395980835
0.27158460021018982 0.27158460021018982 0.27158460021018982
0.31152918934822083 0.31152918934822083 0.31152918934822083
0.3512779176235199 0.3512779176235199 0.3512779176235199
0.41713160276412964 0.41713160276412964 0.41713160276412964
0.47252142429351807 0.47252142429351807 0.47252142429351807
0.54091280698776245 0.54091280698776245 0.54091280698776245
0.60300004482269287 0.60300004482269287 0.60300004482269287
0.66441363096237183 0.66441363096237183 0.66441363096237183
0.70782703161239624 0.70782703161239624 0.70782703161239624
0.7516893744468689 0.7516893744468689 0.7516893744468689
0.78260564804077148 0.78260564804077148 0.78260564804077148
0.80766135454177856 0.80766135454177856 0.80766135454177856
0.30360263586044312 0.30360263586044312 0.30360263586044312
0.32567626237869263 0.32567626237869263 0.32567626237869263
0.35825750231742859 0.35825750231742859 0.35825750231742859
0.38933652639389038 0.38933652639389038 0.38933652639389038
0.45223152637481689 0.45223152637481689 0.45223152637481689
0.50261563062667847 0.50261563062667847 0.50261563062667847
0.57640367746353149 0.57640367746353149 0.57640367746353149
0.63400083780288696 0.63400083780288696 0.63400083780288696
0.68673050403594971 0.68673050403594971 0.68673050403594971
0.73284298181533813 0.73284298181533813 0.73284298181533813
0.77759331464767456 0.77759331464767456 0.77759331464767456
0.8150978684425354 0.8150978684425354 0.8150978684425354
0.83559560775756836 0.83559560775756836 0.83559560775756836
0.34674918651580811 0.34674918651580811 0.34674918651580811
0.36698609590530396 0.36698609590530396 0.36698609590530396
0.38943499326705933 0.38943499326705933 0.38943499326705933
0.41428050398826599 0.41428050398826599 0.41428050398826599
0.47429072856903076 0.47429072856903076 0.47429072856903076
0.5325007438659668 0.5325007438659668 0.5325007438659668
0.60434937477111816 0.60434937477111816 0.60434937477111816
0.66054803133010864 0.66054803133010864 0.66054803133010864
0.70842838287353516 0.70842838287353516 0.70842838287353516
0.75547784566879272 0.75547784566879272 0.75547784566879272
0.80270177125930786 0.80270177125930786 0.80270177125930786
0.83750206232070923 0.83750206232070923 0.83750206232070923
0.86185598373413086 0.86185598373413086 0.86185598373413086
0.35537880659103394 0.35537880659103394 0.35537880659103394
0.37038952112197876 0.37038952112197876 0.37038952112197876
0.42533537745475769 0.42533537745475769 0.42533537745475769
0.45653706789016724 0.45653706789016724 0.45653706789016724
0.51752525568008423 0.51752525568008423 0.51752525568008423
0.56153213977813721 0.56153213977813721 0.56153213977813721
0.63239985704421997 0.63239985704421997 0.63239985704421997
0.67787730693817139 0.67787730693817139 0.67787730693817139
0.7210502028465271 0.7210502028465271 0.7210502028465271
0.76961570978164673 0.76961570978164673 0.76961570978164673
0.82126247882843018 0.82126247882843018 0.82126247882843018
0.85468548536300659 0.85468548536300659 0.85468548536300659
0.8643227219581604 0.8643227219581604 0.8643227219581604
0.36062011122703552 0.36062011122703552 0.36062011122703552
0.37795200943946838 0.37795200943946838 0.37795200943946838
0.45330309867858887 0.45330309867858887 0.45330309867858887
0.48686617612838745 0.48686617612838745 0.48686617612838745
0.53766107559204102 0.53766107559204102 0.53766107559204102
0.58490478992462158 0.58490478992462158 0.58490478992462158
0.65538197755813599 0.65538197755813599 0.65538197755813599
0.68742519617080688 0.68742519617080688 0.68742519617080688
0.73074853420257568 0.73074853420257568 0.73074853420257568
0.78676146268844604 0.78676146268844604 0.78676146268844604
0.83755677938461304 0.83755677938461304 0.83755677938461304
0.85680055618286133 0.85680055618286133 0.85680055618286133
0.86750733852386475 0.86750733852386475 0.86750733852386475
0.36671844124794006 0.36671844124794006 0.36671844124794006
0.3800254762172699 0.3800254762172699 0.3800254762172699
0.45985281467437744 0.45985281467437744 0.45985281467437744
0.50066596269607544 0.50066596269607544 0.50066596269607544
0.54386568069458008 0.54386568069458008 0.54386568069458008
0.58817589282989502 0.58817589282989502 0.58817589282989502
0.65979903936386108 0.65979903936386108 0.65979903936386108
0.68729019165039062 0.68729019165039062 0.68729019165039062
0.74738001823425293 0.74738001823425293 0.74738001823425293
0.8037714958190918 0.8037714958190918 0.8037714958190918
0.83993858098983765 0.83993858098983765 0.83993858098983765
0.86520397663116455 0.86520397663116455 0.86520397663116455
0.87716364860534668 0.87716364860534668 0.87716364860534668
0.3719293475151062 0.3719293475151062 0.3719293475151062
0.38629752397537231 0.38629752397537231 0.38629752397537231
0.48090624809265137 0.48090624809265137 0.48090624809265137
0.51757699251174927 0.51757699251174927 0.51757699251174927
0.55709296464920044 0.55709296464920044 0.55709296464920044
0.59624594449996948 0.59624594449996948 0.59624594449996948
0.66134220361709595 0.66134220361709595 0.66134220361709595
0.68509918451309204 0.68509918451309204 0.68509918451309204
0.74362629652023315 0.74362629652023315 0.74362629652023315
0.8057631254196167 0.8057631254196167 0.8057631254196167
0.84991300106048584 0.84991300106048584 0.84991300106048584
0.88773119449615479 0.88773119449615479 0.88773119449615479
0.89844852685928345 0.89844852685928345 0.89844852685928345
0.016325423493981361 0.016325423493981361 0.016325423493981361
0.041695374995470047 0.041695374995470047 0.041695374995470047
0.098967291414737701 0.098967291414737701 0.098967291414737701
0.1777227520942688 0.1777227520942688 0.1777227520942688
0.23568017780780792 0.23568017780780792 0.23568017780780792
0.32886373996734619 0.32886373996734619 0.32886373996734619
0.43174523115158081 0.43174523115158081 0.43174523115158081
0.51892262697219849 0.51892262697219849 0.51892262697219849
0.59732472896575928 0.59732472896575928 0.59732472896575928
0.64687669277191162 0.64687669277191162 0.64687669277191162
0.67104285955429077 0.67104285955429077 0.67104285955429077
0.7094988226890564 0.7094988226890564 0.7094988226890564
0.76156872510910034 0.76156872510910034 0.76156872510910034
0.03291771188378334 0.03291771188378334 0.03291771188378334
0.060892336070537567 0.060892336070537567 0.060892336070537567
0.10546319931745529 0.10546319931745529 0.10546319931745529
0.17179776728153229 0.17179776728153229 0.17179776728153229
0.2536836564540863 0.2536836564540863 0.2536836564540863
0.34214553236961365 0.34214553236961365 0.34214553236961365
0.43345156311988831 0.43345156311988831 0.43345156311988831
0.51815307140350342 0.51815307140350342 0.51815307140350342
0.58671563863754272 0.58671563863754272 0.58671563863754272
0.6479189395904541 0.6479189395904541 0.6479189395904541
0.69603997468948364 0.69603997468948364 0.69603997468948364
0.7295602560043335 0.7295602560043335 0.7295602560043335
0.76352429389953613 0.76352429389953613 0.76352429389953613
0.052222277969121933 0.052222277969121933 0.052222277969121933
0.079472362995147705 0.079472362995147705 0.079472362995147705
0.12147817015647888 0.12147817015647888 0.12147817015647888
0.18909543752670288 0.18909543752670288 0.18909543752670288
0.26966691017150879 0.26966691017150879 0.26966691017150879
0.35797145962715149 0.35797145962715149 0.35797145962715149
0.44158059358596802 0.44158059358596802 0.44158059358596802
0.52222716808319092 0.52222716808319092 0.52222716808319092
0.5934678316116333 0.5934678316116333 0.5934678316116333
0.65843850374221802 0.65843850374221802 0.65843850374221802
0.71116071939468384 0.71116071939468384 0.71116071939468384
0.7409481406211853 0.7409481406211853 0.7409481406211853
0.77382802963256836 0.77382802963256836 0.77382802963256836
0.094166412949562073 0.094166412949562073 0.094166412949562073
0.12110881507396698 0.12110881507396698 0.12110881507396698
0.1583271324634552 0.1583271324634552 0.1583271324634552
0.22352637350559235 0.22352637350559235 0.22352637350559235
0.29836577177047729 0.29836577177047729 0.29836577177047729
0.37775179743766785 0.37775179743766785 0.37775179743766785
0.45950949192047119 0.45950949192047119 0.45950949192047119
0.53702199459075928 0.53702199459075928 0.53702199459075928
0.60899162292480469 0.60899162292480469 0.60899162292480469
0.67404425144195557 0.67404425144195557 0.67404425144195557
0.73203015327453613 0.73203015327453613 0.73203015327453613
0.77417820692062378 0.77417820692062378 0.77417820692062378
0.79705142974853516 0.79705142974853516 0.79705142974853516
0.14181488752365112 0.14181488752365112 0.14181488752365112
0.17148205637931824 0.17148205637931824 0.17148205637931824
0.20670689642429352 0.20670689642429352 0.20670689642429352
0.26517379283905029 0.26517379283905029 0.26517379283905029
0.33451399207115173 0.33451399207115173 0.33451399207115173
0.40674379467964172 0.40674379467964172 0.40674379467964172
0.48221597075462341 0.48221597075462341 0.48221597075462341
0.55499923229217529 0.55499923229217529 0.55499923229217529
