assets/lut/fujixtransiii fuji xtrans iii mono+ye.cube
# Created by: G'MIC (https://gmic.eu)
TITLE "fuji_xtrans_iii_mono+ye"
# LUT size
LUT_3D_SIZE 13
# Data domain
DOMAIN_MIN 0.0 0.0 0.0
DOMAIN_MAX 1.0 1.0 1.0
# LUT data points
0.01133391447365284 0.01133391447365284 0.01133391447365284
0.024715153500437737 0.024715153500437737 0.024715153500437737
0.051463436335325241 0.051463436335325241 0.051463436335325241
0.10129814594984055 0.10129814594984055 0.10129814594984055
0.16444380581378937 0.16444380581378937 0.16444380581378937
0.24620239436626434 0.24620239436626434 0.24620239436626434
0.32365527749061584 0.32365527749061584 0.32365527749061584
0.41111686825752258 0.41111686825752258 0.41111686825752258
0.46078750491142273 0.46078750491142273 0.46078750491142273
0.50276249647140503 0.50276249647140503 0.50276249647140503
0.51652258634567261 0.51652258634567261 0.51652258634567261
0.52988064289093018 0.52988064289093018 0.52988064289093018
0.55068743228912354 0.55068743228912354 0.55068743228912354
0.023249233141541481 0.023282099515199661 0.023282099515199661
0.039663247764110565 0.039663247764110565 0.039663247764110565
0.07195243239402771 0.07195243239402771 0.07195243239402771
0.11923283338546753 0.11923283338546753 0.11923283338546753
0.18501436710357666 0.18501436710357666 0.18501436710357666
0.26093509793281555 0.26093509793281555 0.26093509793281555
0.33661985397338867 0.33661985397338867 0.33661985397338867
0.40972065925598145 0.40972065925598145 0.40972065925598145
0.46695587038993835 0.46695587038993835 0.46695587038993835
0.51353579759597778 0.51353579759597778 0.51353579759597778
0.52841866016387939 0.52841866016387939 0.52841866016387939
0.5447089672088623 0.5447089672088623 0.5447089672088623
0.57547014951705933 0.57547014951705933 0.57547014951705933
0.045215219259262085 0.045215219259262085 0.045215219259262085
0.064046673476696014 0.064046673476696014 0.064046673476696014
0.096818111836910248 0.096818111836910248 0.096818111836910248
0.15138570964336395 0.15138570964336395 0.15138570964336395
0.21775203943252563 0.21775203943252563 0.21775203943252563
0.28684538602828979 0.28684538602828979 0.28684538602828979
0.3582727313041687 0.3582727313041687 0.3582727313041687
0.42262837290763855 0.42262837290763855 0.42262837290763855
0.48301064968109131 0.48301064968109131 0.48301064968109131
0.52748721837997437 0.52748721837997437 0.52748721837997437
0.55179333686828613 0.55179333686828613 0.55179333686828613
0.57515436410903931 0.57515436410903931 0.57515436410903931
0.59768062829971313 0.59768062829971313 0.59768062829971313
0.094278626143932343 0.094278626143932343 0.094278626143932343
0.11350648105144501 0.11350648105144501 0.11350648105144501
0.1362282931804657 0.1362282931804657 0.1362282931804657
0.19640521705150604 0.19640521705150604 0.19640521705150604
0.25980612635612488 0.25980612635612488 0.25980612635612488
0.32355740666389465 0.32355740666389465 0.32355740666389465
0.38968822360038757 0.38968822360038757 0.38968822360038757
0.45147401094436646 0.45147401094436646 0.45147401094436646
0.50449866056442261 0.50449866056442261 0.50449866056442261
0.55214977264404297 0.55214977264404297 0.55214977264404297
0.5908852219581604 0.5908852219581604 0.5908852219581604
0.59974759817123413 0.59974759817123413 0.59974759817123413
0.60512155294418335 0.60512155294418335 0.60512155294418335
0.14805705845355988 0.14805705845355988 0.14805705845355988
0.17839846014976501 0.17839846014976501 0.17839846014976501
0.20626434683799744 0.20626434683799744 0.20626434683799744
0.2599034309387207 0.2599034309387207 0.2599034309387207
0.31726786494255066 0.31726786494255066 0.31726786494255066
0.36962980031967163 0.36962980031967163 0.36962980031967163
0.43340709805488586 0.43340709805488586 0.43340709805488586
0.48553472757339478 0.48553472757339478 0.48553472757339478
0.52928310632705688 0.52928310632705688 0.52928310632705688
0.57071852684020996 0.57071852684020996 0.57071852684020996
0.6051592230796814 0.6051592230796814 0.6051592230796814
0.61020797491073608 0.61020797491073608 0.61020797491073608
0.62306344509124756 0.62306344509124756 0.62306344509124756
0.20587337017059326 0.20587337017059326 0.20587337017059326
0.24541492760181427 0.24541492760181427 0.24541492760181427
0.26980829238891602 0.26980829238891602 0.26980829238891602
0.30848988890647888 0.30848988890647888 0.30848988890647888
0.36897027492523193 0.36897027492523193 0.36897027492523193
0.41974982619285583 0.41974982619285583 0.41974982619285583
0.47182551026344299 0.47182551026344299 0.47182551026344299
0.51641726493835449 0.51641726493835449 0.51641726493835449
0.55517369508743286 0.55517369508743286 0.55517369508743286
0.58976578712463379 0.58976578712463379 0.58976578712463379
0.61770159006118774 0.61770159006118774 0.61770159006118774
0.63944953680038452 0.63944953680038452 0.63944953680038452
0.67553913593292236 0.67553913593292236 0.67553913593292236
0.25632795691490173 0.25632795691490173 0.25632795691490173
0.28853690624237061 0.28853690624237061 0.28853690624237061
0.31379961967468262 0.31379961967468262 0.31379961967468262
0.35164457559585571 0.35164457559585571 0.35164457559585571
0.41099643707275391 0.41099643707275391 0.41099643707275391
0.44971629977226257 0.44971629977226257 0.44971629977226257
0.5037650465965271 0.5037650465965271 0.5037650465965271
0.5509909987449646 0.5509909987449646 0.5509909987449646
0.58988243341445923 0.58988243341445923 0.58988243341445923
0.62405800819396973 0.62405800819396973 0.62405800819396973
0.65308904647827148 0.65308904647827148 0.65308904647827148
0.67331832647323608 0.67331832647323608 0.67331832647323608
0.70305401086807251 0.70305401086807251 0.70305401086807251
0.28265690803527832 0.28265690803527832 0.28265690803527832
0.31573072075843811 0.31573072075843811 0.31573072075843811
0.36072942614555359 0.36072942614555359 0.36072942614555359
0.38617807626724243 0.38617807626724243 0.38617807626724243
0.44523134827613831 0.44523134827613831 0.44523134827613831
0.47483688592910767 0.47483688592910767 0.47483688592910767
0.53720992803573608 0.53720992803573608 0.53720992803573608
0.58068156242370605 0.58068156242370605 0.58068156242370605
0.62426304817199707 0.62426304817199707 0.62426304817199707
0.66343551874160767 0.66343551874160767 0.66343551874160767
0.68266874551773071 0.68266874551773071 0.68266874551773071
0.70029425621032715 0.70029425621032715 0.70029425621032715
0.7259412407875061 0.7259412407875061 0.7259412407875061
0.32169926166534424 0.32169926166534424 0.32169926166534424
0.33513584733009338 0.33513584733009338 0.33513584733009338
0.38842591643333435 0.38842591643333435 0.38842591643333435
0.39930585026741028 0.39930585026741028 0.39930585026741028
0.45536482334136963 0.45536482334136963 0.45536482334136963
0.50542867183685303 0.50542867183685303 0.50542867183685303
0.57329684495925903 0.57329684495925903 0.57329684495925903
0.60660171508789062 0.60660171508789062 0.60660171508789062
0.65413755178451538 0.65413755178451538 0.65413755178451538
0.68535411357879639 0.68535411357879639 0.68535411357879639
0.69774585962295532 0.69774585962295532 0.69774585962295532
0.72492694854736328 0.72492694854736328 0.72492694854736328
0.74872827529907227 0.74872827529907227 0.74872827529907227
0.35116750001907349 0.35116750001907349 0.35116750001907349
0.33716738224029541 0.33716738224029541 0.33716738224029541
0.38885670900344849 0.38885670900344849 0.38885670900344849
0.43033605813980103 0.43033605813980103 0.43033605813980103
0.48667076230049133 0.48667076230049133 0.48667076230049133
0.5273740291595459 0.5273740291595459 0.5273740291595459
0.57589930295944214 0.57589930295944214 0.57589930295944214
0.61070621013641357 0.61070621013641357 0.61070621013641357
0.65298557281494141 0.65298557281494141 0.65298557281494141
0.68902462720870972 0.68902462720870972 0.68902462720870972
0.71654742956161499 0.71654742956161499 0.71654742956161499
0.7501639723777771 0.7501639723777771 0.7501639723777771
0.77199572324752808 0.77199572324752808 0.77199572324752808
0.35492953658103943 0.35492953658103943 0.35492953658103943
0.35277852416038513 0.35277852416038513 0.35277852416038513
0.45795834064483643 0.45795834064483643 0.45795834064483643
0.49430817365646362 0.49430817365646362 0.49430817365646362
0.52856260538101196 0.52856260538101196 0.52856260538101196
0.55373483896255493 0.55373483896255493 0.55373483896255493
0.60157591104507446 0.60157591104507446 0.60157591104507446
0.6248314380645752 0.6248314380645752 0.6248314380645752
0.6557355523109436 0.6557355523109436 0.6557355523109436
0.69666528701782227 0.69666528701782227 0.69666528701782227
0.74280482530593872 0.74280482530593872 0.74280482530593872
0.77055329084396362 0.77055329084396362 0.77055329084396362
0.78240984678268433 0.78240984678268433 0.78240984678268433
0.38677716255187988 0.38677716255187988 0.38677716255187988
0.38106435537338257 0.38106435537338257 0.38106435537338257
0.47907057404518127 0.47907057404518127 0.47907057404518127
0.51337075233459473 0.51337075233459473 0.51337075233459473
0.54436415433883667 0.54436415433883667 0.54436415433883667
0.57902812957763672 0.57902812957763672 0.57902812957763672
0.62452834844589233 0.62452834844589233 0.62452834844589233
0.64167541265487671 0.64167541265487671 0.64167541265487671
0.67820429801940918 0.67820429801940918 0.67820429801940918
0.71720153093338013 0.71720153093338013 0.71720153093338013
0.75210380554199219 0.75210380554199219 0.75210380554199219
0.78176683187484741 0.78176683187484741 0.78176683187484741
0.79274427890777588 0.79274427890777588 0.79274427890777588
0.38974848389625549 0.38974848389625549 0.38974848389625549
0.38619515299797058 0.38619515299797058 0.38619515299797058
0.48063579201698303 0.48063579201698303 0.48063579201698303
0.51558303833007812 0.51558303833007812 0.51558303833007812
0.54341286420822144 0.54341286420822144 0.54341286420822144
0.57589781284332275 0.57589781284332275 0.57589781284332275
0.6287912130355835 0.6287912130355835 0.6287912130355835
0.65835905075073242 0.65835905075073242 0.65835905075073242
0.70596277713775635 0.70596277713775635 0.70596277713775635
0.74868482351303101 0.74868482351303101 0.74868482351303101
0.77552765607833862 0.77552765607833862 0.77552765607833862
0.79803299903869629 0.79803299903869629 0.79803299903869629
0.80789446830749512 0.80789446830749512 0.80789446830749512
0.012713293544948101 0.012771441601216793 0.012771441601216793
0.025643233209848404 0.025701770558953285 0.025701770558953285
0.062755048274993896 0.062755048274993896 0.062755048274993896
0.10921043157577515 0.10924329608678818 0.10924329608678818
0.15442377328872681 0.15442377328872681 0.15442377328872681
0.24968181550502777 0.24968181550502777 0.24968181550502777
0.34451982378959656 0.34451982378959656 0.34451982378959656
0.42032104730606079 0.42032104730606079 0.42032104730606079
0.48893281817436218 0.48893281817436218 0.48893281817436218
0.52787721157073975 0.52787721157073975 0.52787721157073975
0.54274123907089233 0.54274123907089233 0.54274123907089233
0.55406272411346436 0.55406272411346436 0.55406272411346436
0.59311014413833618 0.59311014413833618 0.59311014413833618
0.029404539614915848 0.029404539614915848 0.029404539614915848
0.050829630345106125 0.050862107425928116 0.050862107425928116
0.080971404910087585 0.081004276871681213 0.081004276871681213
0.13139618933200836 0.13139618933200836 0.13139618933200836
0.18752302229404449 0.18752302229404449 0.18752302229404449
0.26922124624252319 0.26922124624252319 0.26922124624252319
0.34819862246513367 0.34819862246513367 0.34819862246513367
0.41973954439163208 0.41973954439163208 0.41973954439163208
0.47990459203720093 0.47990459203720093 0.47990459203720093
0.52568936347961426 0.52568936347961426 0.52568936347961426
0.54730165004730225 0.54730165004730225 0.54730165004730225
0.57886004447937012 0.57886004447937012 0.57886004447937012
0.61490887403488159 0.61490887403488159 0.61490887403488159
0.058845356106758118 0.058845356106758118 0.058845356106758118
0.079600222408771515 0.079605281352996826 0.079605281352996826
0.11123775690793991 0.11123775690793991 0.11123775690793991
0.16493289172649384 0.16493289172649384 0.16493289172649384
0.22767411172389984 0.22767411172389984 0.22767411172389984
0.29635697603225708 0.29635697603225708 0.29635697603225708
0.36804383993148804 0.36804383993148804 0.36804383993148804
0.43546879291534424 0.43546879291534424 0.43546879291534424
0.49280554056167603 0.49280554056167603 0.49280554056167603
0.53901898860931396 0.53901898860931396 0.53901898860931396
0.57818162441253662 0.57818162441253662 0.57818162441253662
0.6002126932144165 0.6002126932144165 0.6002126932144165
0.62035393714904785 0.62035393714904785 0.62035393714904785
0.10663054138422012 0.10665835440158844 0.10665835440158844
0.12968096137046814 0.12968096137046814 0.12968096137046814
0.1569938063621521 0.1569938063621521 0.1569938063621521
0.21140843629837036 0.21140843629837036 0.21140843629837036
0.26958692073822021 0.26958692073822021 0.26958692073822021
0.3312622606754303 0.3312622606754303 0.3312622606754303
0.3988092839717865 0.3988092839717865 0.3988092839717865
0.45987889170646667 0.45987889170646667 0.45987889170646667
0.51093137264251709 0.51093137264251709 0.51093137264251709
0.55789029598236084 0.55789029598236084 0.55789029598236084
0.59873580932617188 0.59873580932617188 0.59873580932617188
0.61235666275024414 0.61235666275024414 0.61235666275024414
0.62963587045669556 0.62963587045669556 0.62963587045669556
0.17237836122512817 0.17237836122512817 0.17237836122512817
0.1909186989068985 0.1909186989068985 0.1909186989068985
0.2202504575252533 0.2202504575252533 0.2202504575252533
0.26706045866012573 0.26706045866012573 0.26706045866012573
0.31860095262527466 0.31860095262527466 0.31860095262527466
0.37359768152236938 0.37359768152236938 0.37359768152236938
0.43796098232269287 0.43796098232269287 0.43796098232269287
0.48975029587745667 0.48975029587745667 0.48975029587745667
0.5318416953086853 0.5318416953086853 0.5318416953086853
0.57477957010269165 0.57477957010269165 0.57477957010269165
0.61735010147094727 0.61735010147094727 0.61735010147094727
0.63602685928344727 0.63602685928344727 0.63602685928344727
0.659698486328125 0.659698486328125 0.659698486328125
0.23152169585227966 0.23152169585227966 0.23152169585227966
0.25724101066589355 0.25724101066589355 0.25724101066589355
0.28481456637382507 0.28481456637382507 0.28481456637382507
0.31520897150039673 0.31520897150039673 0.31520897150039673
0.36903974413871765 0.36903974413871765 0.36903974413871765
0.41688981652259827 0.41688981652259827 0.41688981652259827
0.47176390886306763 0.47176390886306763 0.47176390886306763
0.51848679780960083 0.51848679780960083 0.51848679780960083
0.55823194980621338 0.55823194980621338 0.55823194980621338
0.59679841995239258 0.59679841995239258 0.59679841995239258
0.64089006185531616 0.64089006185531616 0.64089006185531616
0.67675572633743286 0.67675572633743286 0.67675572633743286
0.69609391689300537 0.69609391689300537 0.69609391689300537
0.27630487084388733 0.27630487084388733 0.27630487084388733
0.3132946789264679 0.3132946789264679 0.3132946789264679
0.34135627746582031 0.34135627746582031 0.34135627746582031
0.36240389943122864 0.36240389943122864 0.36240389943122864
0.41732007265090942 0.41732007265090942 0.41732007265090942
0.44803202152252197 0.44803202152252197 0.44803202152252197
0.49777185916900635 0.49777185916900635 0.49777185916900635
0.54588377475738525 0.54588377475738525 0.54588377475738525
0.58965736627578735 0.58965736627578735 0.58965736627578735
0.63170421123504639 0.63170421123504639 0.63170421123504639
0.67359775304794312 0.67359775304794312 0.67359775304794312
0.70167535543441772 0.70167535543441772 0.70167535543441772
0.72019869089126587 0.72019869089126587 0.72019869089126587
0.33642128109931946 0.33642128109931946 0.33642128109931946
0.35994404554367065 0.35994404554367065 0.35994404554367065
0.38518047332763672 0.38518047332763672 0.38518047332763672
0.40302309393882751 0.40302309393882751 0.40302309393882751
0.45271185040473938 0.45271185040473938 0.45271185040473938
0.4867999255657196 0.4867999255657196 0.4867999255657196
0.53819441795349121 0.53819441795349121 0.53819441795349121
0.57891225814819336 0.57891225814819336 0.57891225814819336
0.62600457668304443 0.62600457668304443 0.62600457668304443
0.66805410385131836 0.66805410385131836 0.66805410385131836
0.70341980457305908 0.70341980457305908 0.70341980457305908
0.72632342576980591 0.72632342576980591 0.72632342576980591
0.74723869562149048 0.74723869562149048 0.74723869562149048
0.37495642900466919 0.37495642900466919 0.37495642900466919
0.39324593544006348 0.39324593544006348 0.39324593544006348
0.4108893871307373 0.4108893871307373 0.4108893871307373
0.43432897329330444 0.43432897329330444 0.43432897329330444
0.48044157028198242 0.48044157028198242 0.48044157028198242
0.52007359266281128 0.52007359266281128 0.52007359266281128
0.57741272449493408 0.57741272449493408 0.57741272449493408
0.617198646068573 0.617198646068573 0.617198646068573
0.65801560878753662 0.65801560878753662 0.65801560878753662
0.69634228944778442 0.69634228944778442 0.69634228944778442
0.73008102178573608 0.73008102178573608 0.73008102178573608
0.75326627492904663 0.75326627492904663 0.75326627492904663
0.77789676189422607 0.77789676189422607 0.77789676189422607
0.38879650831222534 0.38879650831222534 0.38879650831222534
0.40389534831047058 0.40389534831047058 0.40389534831047058
0.45603281259536743 0.45603281259536743 0.45603281259536743
0.48400622606277466 0.48400622606277466 0.48400622606277466
0.52035653591156006 0.52035653591156006 0.52035653591156006
0.55190920829772949 0.55190920829772949 0.55190920829772949
0.60530763864517212 0.60530763864517212 0.60530763864517212
0.63920247554779053 0.63920247554779053 0.63920247554779053
0.67410236597061157 0.67410236597061157 0.67410236597061157
0.71398931741714478 0.71398931741714478 0.71398931741714478
0.74809348583221436 0.74809348583221436 0.74809348583221436
0.77391666173934937 0.77391666173934937 0.77391666173934937
0.78406912088394165 0.78406912088394165 0.78406912088394165
0.39615407586097717 0.39615407586097717 0.39615407586097717
0.40655863285064697 0.40655863285064697 0.40655863285064697
0.47645875811576843 0.47645875811576843 0.47645875811576843
0.50785094499588013 0.50785094499588013 0.50785094499588013
0.54297763109207153 0.54297763109207153 0.54297763109207153
0.57586371898651123 0.57586371898651123 0.57586371898651123
0.62767434120178223 0.62767434120178223 0.62767434120178223
0.6540946364402771 0.6540946364402771 0.6540946364402771
0.69136369228363037 0.69136369228363037 0.69136369228363037
0.73008358478546143 0.73008358478546143 0.73008358478546143
0.76705825328826904 0.76705825328826904 0.76705825328826904
0.78410017490386963 0.78410017490386963 0.78410017490386963
0.78996062278747559 0.78996062278747559 0.78996062278747559
0.41123458743095398 0.41123458743095398 0.41123458743095398
0.4066416323184967 0.4066416323184967 0.4066416323184967
0.48858872056007385 0.48858872056007385 0.48858872056007385
0.525920569896698 0.525920569896698 0.525920569896698
0.55712956190109253 0.55712956190109253 0.55712956190109253
0.58557546138763428 0.58557546138763428 0.58557546138763428
0.63336539268493652 0.63336539268493652 0.63336539268493652
0.66038835048675537 0.66038835048675537 0.66038835048675537
0.70638316869735718 0.70638316869735718 0.70638316869735718
0.74698430299758911 0.74698430299758911 0.74698430299758911
0.77388864755630493 0.77388864755630493 0.77388864755630493
0.79489153623580933 0.79489153623580933 0.79489153623580933
0.80403226613998413 0.80403226613998413 0.80403226613998413
0.4212462306022644 0.4212462306022644 0.4212462306022644
0.41672506928443909 0.41672506928443909 0.41672506928443909
0.50861400365829468 0.50861400365829468 0.50861400365829468
0.54598504304885864 0.54598504304885864 0.54598504304885864
0.57190042734146118 0.57190042734146118 0.57190042734146118
0.59253871440887451 0.59253871440887451 0.59253871440887451
0.63442528247833252 0.63442528247833252 0.63442528247833252
0.66426783800125122 0.66426783800125122 0.66426783800125122
0.7068711519241333 0.7068711519241333 0.7068711519241333
0.74830025434494019 0.74830025434494019 0.74830025434494019
0.78192377090454102 0.78192377090454102 0.78192377090454102
0.82052767276763916 0.82052767276763916 0.82052767276763916
0.83005648851394653 0.83005648851394653 0.83005648851394653
0.016828948631882668 0.01795126311480999 0.01795126311480999
0.04101339727640152 0.042299848049879074 0.042299848049879074
0.08335953950881958 0.083411470055580139 0.083411470055580139
0.14772802591323853 0.14772802591323853 0.14772802591323853
0.19550415873527527 0.19550415873527527 0.19550415873527527
0.27741333842277527 0.27741333842277527 0.27741333842277527
0.36085674166679382 0.36085674166679382 0.36085674166679382
0.43395569920539856 0.43395569920539856 0.43395569920539856
0.49996280670166016 0.49996280670166016 0.49996280670166016
0.53920358419418335 0.53920358419418335 0.53920358419418335
0.55969905853271484 0.55969905853271484 0.55969905853271484
0.59062278270721436 0.59062278270721436 0.59062278270721436
0.63519734144210815 0.63519734144210815 0.63519734144210815
0.040662564337253571 0.040728297084569931 0.040728297084569931
0.067582421004772186 0.067660011351108551 0.067660011351108551
0.10213877260684967 0.10213877260684967 0.10213877260684967
0.15592774748802185 0.15592774748802185 0.15592774748802185
0.21834923326969147 0.21834923326969147 0.21834923326969147
0.29038110375404358 0.29038110375404358 0.29038110375404358
0.36147335171699524 0.36147335171699524 0.36147335171699524
0.43052121996879578 0.43052121996879578 0.43052121996879578
0.48829153180122375 0.48829153180122375 0.48829153180122375
0.5365789532661438 0.5365789532661438 0.5365789532661438
0.57951247692108154 0.57951247692108154 0.57951247692108154
0.61009711027145386 0.61009711027145386 0.61009711027145386
0.64234632253646851 0.64234632253646851 0.64234632253646851
0.076824426651000977 0.076857291162014008 0.076857291162014008
0.096374034881591797 0.096374034881591797 0.096374034881591797
0.12995308637619019 0.12995308637619019 0.12995308637619019
0.1794813871383667 0.1794813871383667 0.1794813871383667
0.24037677049636841 0.24037677049636841 0.24037677049636841
0.30871215462684631 0.30871215462684631 0.30871215462684631
0.3802417516708374 0.3802417516708374 0.3802417516708374
0.44313153624534607 0.44313153624534607 0.44313153624534607
0.49778145551681519 0.49778145551681519 0.49778145551681519
0.549713134765625 0.549713134765625 0.549713134765625
0.59406942129135132 0.59406942129135132 0.59406942129135132
0.62143135070800781 0.62143135070800781 0.62143135070800781
0.65489405393600464 0.65489405393600464 0.65489405393600464
0.12942050397396088 0.12942555546760559 0.12942555546760559
0.14904706180095673 0.14904706180095673 0.14904706180095673
0.17699231207370758 0.17699231207370758 0.17699231207370758
0.22297796607017517 0.22297796607017517 0.22297796607017517
0.27786996960639954 0.27786996960639954 0.27786996960639954
0.34059718251228333 0.34059718251228333 0.34059718251228333
0.40991741418838501 0.40991741418838501 0.40991741418838501
0.46880644559860229 0.46880644559860229 0.46880644559860229
0.52107816934585571 0.52107816934585571 0.52107816934585571
0.57208061218261719 0.57208061218261719 0.57208061218261719
0.61626189947128296 0.61626189947128296 0.61626189947128296
0.65513736009597778 0.65513736009597778 0.65513736009597778
0.67696487903594971 0.67696487903594971 0.67696487903594971
0.18265558779239655 0.18265558779239655 0.18265558779239655
0.20784632861614227 0.20784632861614227 0.20784632861614227
0.23394085466861725 0.23394085466861725 0.23394085466861725
0.27358722686767578 0.27358722686767578 0.27358722686767578
0.32293176651000977 0.32293176651000977 0.32293176651000977
0.38025790452957153 0.38025790452957153 0.38025790452957153
0.44441547989845276 0.44441547989845276 0.44441547989845276
