assets/lut/fujixtransiii fuji xtrans iii pro neg std.cube
# Created by: G'MIC (https://gmic.eu)
TITLE "fuji_xtrans_iii_pro_neg_std"
# LUT size
LUT_3D_SIZE 5
# Data domain
DOMAIN_MIN 0.0 0.0 0.0
DOMAIN_MAX 1.0 1.0 1.0
# LUT data points
0.020537402480840683 0.028101259842514992 0.026639018207788467
0.18834862112998962 0.060602031648159027 0.054888766258955002
0.49936741590499878 0.15030260384082794 0.12939079105854034
0.74326610565185547 0.23108650743961334 0.21791301667690277
0.8088071346282959 0.26930391788482666 0.26190993189811707
0.017128080129623413 0.18781685829162598 0.022244308143854141
0.20392502844333649 0.21162426471710205 0.050455596297979355
0.52112656831741333 0.26850172877311707 0.098034262657165527
0.77998167276382446 0.32861262559890747 0.18310181796550751
0.86649799346923828 0.36919969320297241 0.2487318366765976
0.0053167156875133514 0.41090041399002075 0.0050267535261809826
0.14976105093955994 0.48040449619293213 0.0098077068105340004
0.51836341619491577 0.5138319730758667 0.056229069828987122
0.76342153549194336 0.55230069160461426 0.14568093419075012
0.87511914968490601 0.58753889799118042 0.24301430583000183
0.023075267672538757 0.5077674388885498 0.051722254604101181
0.11644238978624344 0.58944153785705566 0.081522740423679352
0.51191389560699463 0.66131097078323364 0.096434272825717926
0.77431726455688477 0.66931068897247314 0.16046777367591858
0.89481061697006226 0.73522895574569702 0.27432778477668762
0.036488179117441177 0.55695432424545288 0.03918476402759552
0.10617858171463013 0.70947158336639404 0.1923428475856781
0.53508150577545166 0.73084330558776855 0.18162734806537628
0.7781827449798584 0.77613180875778198 0.29433652758598328
0.89505386352539062 0.79007673263549805 0.34369373321533203
0.053765017539262772 0.094545446336269379 0.25204858183860779
0.29595080018043518 0.13977006077766418 0.28676608204841614
0.5510825514793396 0.20570604503154755 0.37177518010139465
0.80572885274887085 0.26552829146385193 0.42079612612724304
0.95085805654525757 0.33214440941810608 0.52694189548492432
0.043641228228807449 0.24287955462932587 0.231877401471138
0.24986673891544342 0.26653280854225159 0.2548157274723053
0.54036915302276611 0.30560711026191711 0.30916813015937805
0.79772037267684937 0.3642737865447998 0.37579613924026489
0.9699406623840332 0.41757825016975403 0.44580957293510437
0.011326255276799202 0.50455820560455322 0.22500911355018616
0.16986043751239777 0.51785486936569214 0.21119894087314606
0.51632070541381836 0.54369825124740601 0.27282381057739258
0.7860264778137207 0.57835769653320312 0.32782945036888123
0.95194751024246216 0.59550899267196655 0.40263357758522034
0.0099800108000636101 0.61684483289718628 0.34731182456016541
0.10957521945238113 0.72070181369781494 0.23202945291996002
0.47712770104408264 0.74721640348434448 0.27983060479164124
0.76205146312713623 0.76490503549575806 0.32390657067298889
0.91868424415588379 0.79885905981063843 0.38101783394813538
0.024550853297114372 0.67995369434356689 0.35964417457580566
0.15084758400917053 0.77772706747055054 0.30623453855514526
0.47262832522392273 0.79534721374511719 0.3461671769618988
0.75604939460754395 0.8278803825378418 0.40189370512962341
0.91013628244400024 0.85143738985061646 0.44333148002624512
0.20426307618618011 0.16911734640598297 0.62980467081069946
0.39349928498268127 0.20855093002319336 0.64547395706176758
0.6267896294593811 0.27097782492637634 0.67745745182037354
0.84225171804428101 0.34018421173095703 0.69692790508270264
0.99023425579071045 0.39477109909057617 0.73422139883041382
0.13440307974815369 0.32756051421165466 0.57429987192153931
0.34551128745079041 0.35564237833023071 0.59370821714401245
0.59870427846908569 0.39359909296035767 0.6328619122505188
0.82738298177719116 0.4335893988609314 0.66106319427490234
0.98812723159790039 0.47805824875831604 0.69917500019073486
0.068990878760814667 0.54837262630462646 0.53511244058609009
0.28731516003608704 0.5657966136932373 0.547008216381073
0.57465833425521851 0.58220851421356201 0.57743781805038452
0.81322705745697021 0.60664463043212891 0.61604130268096924
0.97769880294799805 0.63414895534515381 0.63756483793258667
0.060553859919309616 0.73703819513320923 0.57330358028411865
0.20956119894981384 0.76016914844512939 0.50263690948486328
0.52151226997375488 0.77379137277603149 0.53481870889663696
0.78247243165969849 0.78560203313827515 0.56552416086196899
0.96270740032196045 0.82935422658920288 0.60821437835693359
0.082901671528816223 0.79218065738677979 0.61388152837753296
0.22658926248550415 0.82709395885467529 0.51572781801223755
0.47691547870635986 0.83708608150482178 0.52877521514892578
0.80618727207183838 0.86630135774612427 0.58445197343826294
0.95141273736953735 0.90805602073669434 0.62739086151123047
0.42615434527397156 0.1879509836435318 0.88593012094497681
0.54513096809387207 0.26910990476608276 0.8853762149810791
0.71319073438644409 0.34660887718200684 0.90551877021789551
0.88466006517410278 0.42062148451805115 0.92514693737030029
0.99533194303512573 0.4911687970161438 0.96717643737792969
0.24924638867378235 0.43153363466262817 0.85938191413879395
0.47068938612937927 0.47365182638168335 0.8718186616897583
0.66761898994445801 0.49709734320640564 0.8896823525428772
0.85993725061416626 0.53508144617080688 0.90640944242477417
0.99237877130508423 0.5704653263092041 0.92981117963790894
0.22875666618347168 0.61596810817718506 0.80904614925384521
0.42578202486038208 0.63467663526535034 0.8156280517578125
0.63551545143127441 0.64538478851318359 0.83823883533477783
0.84390127658843994 0.66799235343933105 0.85621947050094604
0.98861217498779297 0.69765985012054443 0.8897363543510437
0.22298841178417206 0.79196655750274658 0.78511637449264526
0.36938661336898804 0.80094248056411743 0.77792954444885254
0.59846323728561401 0.80557334423065186 0.7964445948600769
0.82093685865402222 0.81583571434020996 0.8219190239906311
0.98047667741775513 0.86342579126358032 0.86055439710617065
0.26495802402496338 0.86769652366638184 0.79826360940933228
0.35621780157089233 0.89235860109329224 0.80671995878219604
0.62165188789367676 0.90447711944580078 0.83529961109161377
0.84666043519973755 0.90950781106948853 0.83267027139663696
0.97917681932449341 0.94107705354690552 0.85565227270126343
0.62360310554504395 0.243204265832901 0.99294358491897583
0.69638943672180176 0.31729769706726074 0.99592894315719604
0.82105618715286255 0.42308923602104187 0.99507337808609009
0.93953019380569458 0.55107271671295166 0.9946712851524353
0.99607843160629272 0.61486721038818359 1
0.44220203161239624 0.50588834285736084 0.99234485626220703
0.61350184679031372 0.58779805898666382 0.99329113960266113
0.76473367214202881 0.61394089460372925 0.99363821744918823
0.91428083181381226 0.65745013952255249 0.99349486827850342
0.99660760164260864 0.65655416250228882 1
0.2274983674287796 0.69611507654190063 0.9850393533706665
0.54748600721359253 0.73251420259475708 0.99064266681671143
0.7258756160736084 0.74286830425262451 0.98997223377227783
0.88735276460647583 0.75902491807937622 0.98843264579772949
0.99426472187042236 0.76827937364578247 0.99872606992721558
0.3821159303188324 0.85497403144836426 0.97665035724639893
0.52395117282867432 0.87002980709075928 0.98149651288986206
0.71237635612487793 0.87083148956298828 0.98514837026596069
0.87655526399612427 0.87961965799331665 0.99096912145614624
0.99159008264541626 0.90134447813034058 0.99326997995376587
0.43841096758842468 0.92835873365402222 0.94133388996124268
0.48261773586273193 0.92661750316619873 0.9388536810874939
0.69165134429931641 0.93284302949905396 0.95900028944015503
0.88875085115432739 0.94612413644790649 0.99173575639724731
0.98135983943939209 0.96264100074768066 0.98345494270324707
