assets/lut/fujixtransiii fuji xtrans iii acros+ye.cube
# Created by: G'MIC (https://gmic.eu)
TITLE "fuji_xtrans_iii_acros+ye"
# LUT size
LUT_3D_SIZE 5
# Data domain
DOMAIN_MIN 0.0 0.0 0.0
DOMAIN_MAX 1.0 1.0 1.0
# LUT data points
0.014916319400072098 0.014916319400072098 0.014916319400072098
0.10998361557722092 0.10998361557722092 0.10998361557722092
0.32451105117797852 0.32451105117797852 0.32451105117797852
0.51237529516220093 0.51237529516220093 0.51237529516220093
0.56553512811660767 0.56553512811660767 0.56553512811660767
0.090630203485488892 0.090630203485488892 0.090630203485488892
0.1856318861246109 0.1856318861246109 0.1856318861246109
0.38791143894195557 0.38791143894195557 0.38791143894195557
0.55608516931533813 0.55608516931533813 0.55608516931533813
0.62428545951843262 0.62428545951843262 0.62428545951843262
0.25364702939987183 0.25364702939987183 0.25364702939987183
0.34949100017547607 0.34949100017547607 0.34936732053756714
0.50772935152053833 0.50772935152053833 0.50772935152053833
0.63821786642074585 0.63821786642074585 0.63821786642074585
0.71691912412643433 0.71691912412643433 0.71691912412643433
0.34849250316619873 0.34849250316619873 0.34849250316619873
0.43151998519897461 0.43151998519897461 0.43151998519897461
0.58859884738922119 0.58859884738922119 0.58859884738922119
0.70778125524520874 0.70778125524520874 0.70778125524520874
0.80041950941085815 0.80041950941085815 0.80041950941085815
0.39297229051589966 0.39297229051589966 0.39297229051589966
0.52583318948745728 0.52583318948745728 0.52583318948745728
0.6503874659538269 0.6503874659538269 0.6503874659538269
0.77359288930892944 0.77359288930892944 0.77359288930892944
0.83532780408859253 0.83532780408859253 0.83532780408859253
0.044697616249322891 0.044697616249322891 0.044697616249322891
0.19031132757663727 0.19031132757663727 0.19031132757663727
0.37607157230377197 0.37607157230377197 0.37607157230377197
0.56747055053710938 0.56747055053710938 0.56747055053710938
0.67701143026351929 0.67701143026351929 0.67701143026351929
0.13994030654430389 0.13994030654430389 0.13994030654430389
0.23354417085647583 0.23354417085647583 0.23354417085647583
0.40956801176071167 0.40956801176071167 0.40956801176071167
0.59400969743728638 0.59400969743728638 0.59400969743728638
0.72524893283843994 0.72524893283843994 0.72524893283843994
0.33866387605667114 0.33866387605667114 0.33866387605667114
0.39671576023101807 0.39671576023101807 0.39671051502227783
0.53171044588088989 0.53171044588088989 0.53171044588088989
0.66255050897598267 0.66255050897598267 0.66255050897598267
0.77391958236694336 0.77391958236694336 0.77391958236694336
0.42823553085327148 0.42823553085327148 0.42823553085327148
0.52927416563034058 0.52927416563034058 0.52927416563034058
0.64706611633300781 0.64706611633300781 0.64706611633300781
0.75767123699188232 0.75767123699188232 0.75767123699188232
0.84710830450057983 0.84710830450057983 0.84710830450057983
0.47954347729682922 0.47954347729682922 0.47954347729682922
0.58525437116622925 0.58525437116622925 0.58525437116622925
0.67631763219833374 0.67631763219833374 0.67631763219833374
0.79070961475372314 0.79070961475372314 0.79070961475372314
0.88169533014297485 0.88169533014297485 0.88169533014297485
0.17915429174900055 0.17915429174900055 0.17915429174900055
0.27873122692108154 0.27873122692108154 0.27873122692108154
0.43193364143371582 0.43193364143371582 0.43193364143371582
0.61495733261108398 0.61495733261108398 0.61495733261108398
0.74302095174789429 0.74302095174789429 0.74302095174789429
0.23015572130680084 0.23015572130680084 0.23015572130680084
0.32088211178779602 0.32088211178779602 0.32088211178779602
0.48389458656311035 0.48389458656311035 0.48389458656311035
0.6399877667427063 0.6399877667427063 0.6399877667427063
0.76618951559066772 0.76618951559066772 0.76618951559066772
0.40062642097473145 0.40062642097473145 0.40062642097473145
0.46149829030036926 0.46149829030036926 0.46149829030036926
0.57421302795410156 0.57421302795410156 0.57421302795410156
0.69832152128219604 0.69832152128219604 0.69832152128219604
0.80997473001480103 0.80997473001480103 0.80997473001480103
0.5376441478729248 0.5376441478729248 0.5376441478729248
0.5752989649772644 0.5752989649772644 0.5752989649772644
0.67760932445526123 0.67760932445526123 0.67760932445526123
0.78411883115768433 0.78411883115768433 0.78411883115768433
0.89481717348098755 0.89481717348098755 0.89481717348098755
0.58471131324768066 0.58471131324768066 0.58471131324768066
0.63848388195037842 0.63848388195037842 0.63848388195037842
0.7113373875617981 0.7113373875617981 0.7113373875617981
0.84885627031326294 0.84885627031326294 0.84885627031326294
0.94237631559371948 0.94237631559371948 0.94237631559371948
0.33389833569526672 0.33389833569526672 0.33389833569526672
0.4023284912109375 0.4023284912109375 0.4023284912109375
0.52087044715881348 0.52087044715881348 0.52087044715881348
0.67479079961776733 0.67479079961776733 0.67479079961776733
0.79497057199478149 0.79497057199478149 0.79497057199478149
0.34486791491508484 0.34486791491508484 0.34486791491508484
0.43511185050010681 0.43511185050010681 0.43511185050010681
0.55350935459136963 0.55350935459136963 0.55350935459136963
0.69468158483505249 0.69468158483505249 0.69468158483505249
0.81000232696533203 0.81000232696533203 0.81000232696533203
0.46199721097946167 0.46199721097946167 0.46199721097946167
0.53218382596969604 0.53218382596969604 0.53218382596969604
0.6373981237411499 0.6373981237411499 0.6373981237411499
0.74648690223693848 0.74648690223693848 0.74648690223693848
0.85772156715393066 0.85772156715393066 0.85772156715393066
0.610554039478302 0.610554039478302 0.610554039478302
0.64230316877365112 0.64230316877365112 0.64230316877365112
0.72958922386169434 0.72958922386169434 0.72958922386169434
0.82482045888900757 0.82482045888900757 0.82482045888900757
0.93627762794494629 0.93627762794494629 0.93627762794494629
0.66766130924224854 0.66766130924224854 0.66766130924224854
0.70945549011230469 0.70945549011230469 0.70945549011230469
0.80901211500167847 0.80901211500167847 0.80901211500167847
0.8981824517250061 0.8981824517250061 0.8981824517250061
0.97047102451324463 0.97047102451324463 0.97047102451324463
0.49083298444747925 0.49083298444747925 0.49083298444747925
0.53080970048904419 0.53080970048904419 0.53080970048904419
0.62710011005401611 0.62710011005401611 0.62710011005401611
0.74019521474838257 0.74019521474838257 0.74019521474838257
0.81826305389404297 0.81826305389404297 0.81826305389404297
0.48007476329803467 0.48007476329803467 0.48007476329803467
0.55660521984100342 0.55660521984100342 0.55660521984100342
0.65229493379592896 0.65229493379592896 0.65229493379592896
0.7557218074798584 0.7557218074798584 0.7557218074798584
0.83454948663711548 0.83454948663711548 0.83454948663711548
0.53983235359191895 0.53983235359191895 0.53983235359191895
0.62272602319717407 0.62272602319717407 0.62272602319717407
0.71322846412658691 0.71322846412658691 0.71322846412658691
0.80402266979217529 0.80402266979217529 0.80402266979217529
0.88412213325500488 0.88412213325500488 0.88412213325500488
0.67721050977706909 0.67721050977706909 0.67721050977706909
0.71356499195098877 0.71356499195098877 0.71356499195098877
0.79214596748352051 0.79214596748352051 0.79214596748352051
0.86847019195556641 0.86847019195556641 0.86847019195556641
0.95330411195755005 0.95330411195755005 0.95330411195755005
0.74700736999511719 0.74700736999511719 0.74700736999511719
0.74706435203552246 0.74706435203552246 0.74706435203552246
0.8250579833984375 0.8250579833984375 0.8250579833984375
0.92960959672927856 0.92960959672927856 0.92960959672927856
0.98444515466690063 0.98444515466690063 0.98444515466690063
