assets/lut/fujixtransiii fuji xtrans iii mono+r.cube
# Created by: G'MIC (https://gmic.eu)
TITLE "fuji_xtrans_iii_mono+r"
# LUT size
LUT_3D_SIZE 7
# Data domain
DOMAIN_MIN 0.0 0.0 0.0
DOMAIN_MAX 1.0 1.0 1.0
# LUT data points
0.011478603817522526 0.011478603817522526 0.011478603817522526
0.06890704482793808 0.06890704482793808 0.06890704482793808
0.22328932583332062 0.22328932583332062 0.22328932583332062
0.40992444753646851 0.40992444753646851 0.40992444753646851
0.55889415740966797 0.55889415740966797 0.55889415740966797
0.62821668386459351 0.62821668386459351 0.62821668386459351
0.66206693649291992 0.66206693649291992 0.66206693649291992
0.039255239069461823 0.039255239069461823 0.039255239069461823
0.10648749768733978 0.10648749768733978 0.10648749768733978
0.2602713406085968 0.2602713406085968 0.2602713406085968
0.43171662092208862 0.43171662092208862 0.43171662092208862
0.58258211612701416 0.58258211612701416 0.58258211612701416
0.65683239698410034 0.65683239698410034 0.65683239698410034
0.70478218793869019 0.70478218793869019 0.70478218793869019
0.12902453541755676 0.12902453541755676 0.12902453541755676
0.19968891143798828 0.19968891143798828 0.19968891143798828
0.34464487433433533 0.34464487433433533 0.34464487433433533
0.47486940026283264 0.47486940026283264 0.47486940026283264
0.60510808229446411 0.60510808229446411 0.60510808229446411
0.69762599468231201 0.69762599468231201 0.69762599468231201
0.72324937582015991 0.72324937582015991 0.72324937582015991
0.23622936010360718 0.23622936010360718 0.23622936010360718
0.30313718318939209 0.30313718318939209 0.30313718318939209
0.41893702745437622 0.41893702745437622 0.41893702745437622
0.53833878040313721 0.53833878040313721 0.53833878040313721
0.64580821990966797 0.64580821990966797 0.64580821990966797
0.71839344501495361 0.71839344501495361 0.71839344501495361
0.76796269416809082 0.76796269416809082 0.76796269416809082
0.29709970951080322 0.29709970951080322 0.29709970951080322
0.36762863397598267 0.36762863397598267 0.36762863397598267
0.45496881008148193 0.45496881008148193 0.45496881008148193
0.59094017744064331 0.59094017744064331 0.59094017744064331
0.69153517484664917 0.69153517484664917 0.69153517484664917
0.74715495109558105 0.74715495109558105 0.74715495109558105
0.80074286460876465 0.80074286460876465 0.80074286460876465
0.32516729831695557 0.32516729831695557 0.32516729831695557
0.42840656638145447 0.42840656638145447 0.42840656638145447
0.51415008306503296 0.51415008306503296 0.51415008306503296
0.61495935916900635 0.61495935916900635 0.61495935916900635
0.68946629762649536 0.68946629762649536 0.68946629762649536
0.79208213090896606 0.79208213090896606 0.79208213090896606
0.83376282453536987 0.83376282453536987 0.83376282453536987
0.36195912957191467 0.36195912957191467 0.36195912957191467
0.45129108428955078 0.45129108428955078 0.45129108428955078
0.5302005410194397 0.5302005410194397 0.5302005410194397
0.64264822006225586 0.64264822006225586 0.64264822006225586
0.7266048789024353 0.72657203674316406 0.72657203674316406
0.81524103879928589 0.81524103879928589 0.81524103879928589
0.84675276279449463 0.84675276279449463 0.84675276279449463
0.017358623445034027 0.017358623445034027 0.017358623445034027
0.094577044248580933 0.094577044248580933 0.094577044248580933
0.24405455589294434 0.24405455589294434 0.24405455589294434
0.43341237306594849 0.43341237306594849 0.43341237306594849
0.59466820955276489 0.59466820955276489 0.59466820955276489
0.66265779733657837 0.66265779733657837 0.66265779733657837
0.74300360679626465 0.74300360679626465 0.74300360679626465
0.057153902947902679 0.057153902947902679 0.057153902947902679
0.12923382222652435 0.12923382222652435 0.12923382222652435
0.28134864568710327 0.28134864568710327 0.28134864568710327
0.44249576330184937 0.44249576330184937 0.44249576330184937
0.59008067846298218 0.59008067846298218 0.59008067846298218
0.70108342170715332 0.70108342170715332 0.70108342170715332
0.75774931907653809 0.75774931907653809 0.75774931907653809
0.15275022387504578 0.15275022387504578 0.15275022387504578
0.22113607823848724 0.22113607823848724 0.22113607823848724
0.34605437517166138 0.34605437517166138 0.34605437517166138
0.48798179626464844 0.48798179626464844 0.48798179626464844
0.61829525232315063 0.61829525232315063 0.61829525232315063
0.72511070966720581 0.72511070966720581 0.72511070966720581
0.78694230318069458 0.78694230318069458 0.78694230318069458
0.2695578932762146 0.2695578932762146 0.2695578932762146
0.3267371654510498 0.3267371654510498 0.3267371654510498
0.41751044988632202 0.41751044988632202 0.41751044988632202
0.54295676946640015 0.54295676946640015 0.54295676946640015
0.65978163480758667 0.65978163480758667 0.65978163480758667
0.75181514024734497 0.75181514024734497 0.75181514024734497
0.80055379867553711 0.80055379867553711 0.80055379867553711
0.33999761939048767 0.33999761939048767 0.33999761939048767
0.407692551612854 0.407692551612854 0.407692551612854
0.48651441931724548 0.48651441931724548 0.48651441931724548
0.60577696561813354 0.60577696561813354 0.60577696561813354
0.69956624507904053 0.69956624507904053 0.69956624507904053
0.79061198234558105 0.79061198234558105 0.79061198234558105
0.85488861799240112 0.85488861799240112 0.85488861799240112
0.36874669790267944 0.36874669790267944 0.36874669790267944
0.46133208274841309 0.46133208274841309 0.46133208274841309
0.53585398197174072 0.53585398197174072 0.53585398197174072
0.6407167911529541 0.6407167911529541 0.6407167911529541
0.72543954849243164 0.72543954849243164 0.72543954849243164
0.81225752830505371 0.81225752830505371 0.81225752830505371
0.84938472509384155 0.84938472509384155 0.84938472509384155
0.39062950015068054 0.39062950015068054 0.39062950015068054
0.5008355975151062 0.5008355975151062 0.5008355975151062
0.55489188432693481 0.55489188432693481 0.55489188432693481
0.64281338453292847 0.64281338453292847 0.64281338453292847
0.73257350921630859 0.73257350921630859 0.73257350921630859
0.82907533645629883 0.82907533645629883 0.82907533645629883
0.87176871299743652 0.87176871299743652 0.87176871299743652
0.027105383574962616 0.027281772345304489 0.027281772345304489
0.12769582867622375 0.12777264416217804 0.12777264416217804
0.2719215452671051 0.2719215452671051 0.2719215452671051
0.44394546747207642 0.44394546747207642 0.44394546747207642
0.60327494144439697 0.60327494144439697 0.60327494144439697
0.71174514293670654 0.71174514293670654 0.71174514293670654
0.77720296382904053 0.77720296382904053 0.77720296382904053
0.075943887233734131 0.075974225997924805 0.075974225997924805
0.16089405119419098 0.16089405119419098 0.16089405119419098
0.29832285642623901 0.29835569858551025 0.29835569858551025
0.45751973986625671 0.45751973986625671 0.45751973986625671
0.60086464881896973 0.60086464881896973 0.60086464881896973
0.71593189239501953 0.71593189239501953 0.71593189239501953
0.80425691604614258 0.80425691604614258 0.80425691604614258
0.18115073442459106 0.18111786246299744 0.18111786246299744
0.25054171681404114 0.25054171681404114 0.25054171681404114
0.36788076162338257 0.36788076162338257 0.36788076162338257
0.50415724515914917 0.50415724515914917 0.50415724515914917
0.62743663787841797 0.62743663787841797 0.62743663787841797
0.73433172702789307 0.73433172702789307 0.73433172702789307
0.81171339750289917 0.81171339750289917 0.81171339750289917
0.30878755450248718 0.30878755450248718 0.30878755450248718
0.34932020306587219 0.34932020306587219 0.34932020306587219
0.44447460770606995 0.44447460770606995 0.44447460770606995
0.55427759885787964 0.55427759885787964 0.55427759885787964
0.66697973012924194 0.66697973012924194 0.66697973012924194
0.76330536603927612 0.76330536603927612 0.76330536603927612
0.83568000793457031 0.83568000793457031 0.83568000793457031
0.37243422865867615 0.37243422865867615 0.37243422865867615
0.4427189826965332 0.4427189826965332 0.4427189826965332
0.51687407493591309 0.51687407493591309 0.51687407493591309
0.61132723093032837 0.61132723093032837 0.61132723093032837
0.7114337682723999 0.7114337682723999 0.7114337682723999
0.80245661735534668 0.80245661735534668 0.80245661735534668
0.87038916349411011 0.87038916349411011 0.87038916349411011
0.4741632342338562 0.4741632342338562 0.4741632342338562
0.49246639013290405 0.49246639013290405 0.49246639013290405
0.55907583236694336 0.55907583236694336 0.55907583236694336
0.64730095863342285 0.64730095863342285 0.64730095863342285
0.74877285957336426 0.74877285957336426 0.74877285957336426
0.83924305438995361 0.83924305438995361 0.83924305438995361
0.89409512281417847 0.89409512281417847 0.89409512281417847
0.48677253723144531 0.48677253723144531 0.48677253723144531
0.50837969779968262 0.50837969779968262 0.50837969779968262
0.58535033464431763 0.58535033464431763 0.58535033464431763
0.67836350202560425 0.67836350202560425 0.67836350202560425
0.75401151180267334 0.75401151180267334 0.75401151180267334
0.86112749576568604 0.86112749576568604 0.86112749576568604
0.90794146060943604 0.90794146060943604 0.90794146060943604
0.063968762755393982 0.065999947488307953 0.065999947488307953
0.15839193761348724 0.15859672427177429 0.15859672427177429
0.2955285906791687 0.2955285906791687 0.2955285906791687
0.45704582333564758 0.45704582333564758 0.45704582333564758
0.60809051990509033 0.60809051990509033 0.60809051990509033
0.72129762172698975 0.72129762172698975 0.72129762172698975
0.8079524040222168 0.8079524040222168 0.8079524040222168
0.081597484648227692 0.081630349159240723 0.081630349159240723
0.18618911504745483 0.18622198700904846 0.18622198700904846
0.3245389461517334 0.32455411553382874 0.32455411553382874
0.47585082054138184 0.47585082054138184 0.47585082054138184
0.60421472787857056 0.60421472787857056 0.60421472787857056
0.725025475025177 0.725025475025177 0.725025475025177
0.82119017839431763 0.82119017839431763 0.82119017839431763
0.19314536452293396 0.19314536452293396 0.19314536452293396
0.27703601121902466 0.27703601121902466 0.27703601121902466
0.39966118335723877 0.39966118335723877 0.39966118335723877
0.51946568489074707 0.51946568489074707 0.51946568489074707
0.63644325733184814 0.63644325733184814 0.63644325733184814
0.74473774433135986 0.74473774433135986 0.74473774433135986
0.82591742277145386 0.82591742277145386 0.82591742277145386
0.32468375563621521 0.32468375563621521 0.32468375563621521
0.37528640031814575 0.37528640031814575 0.37528640031814575
0.47528555989265442 0.47528555989265442 0.47528555989265442
0.57810628414154053 0.57810628414154053 0.57810628414154053
0.67658019065856934 0.67658019065856934 0.67658019065856934
0.77189046144485474 0.77189046144485474 0.77189046144485474
0.84943491220474243 0.84943491220474243 0.84943491220474243
0.43508142232894897 0.43508142232894897 0.43508142232894897
0.47046881914138794 0.47046881914138794 0.47046881914138794
0.54959273338317871 0.54959273338317871 0.54959273338317871
0.63555079698562622 0.63555079698562622 0.63555079698562622
0.72069066762924194 0.72069066762924194 0.72069066762924194
0.81328070163726807 0.81328070163726807 0.81328070163726807
0.87768781185150146 0.87768781185150146 0.87768781185150146
0.49198275804519653 0.49198275804519653 0.49198275804519653
0.53161025047302246 0.53161025047302246 0.53161025047302246
0.59428304433822632 0.59428304433822632 0.59428304433822632
0.67450332641601562 0.67450332641601562 0.67450332641601562
0.76689141988754272 0.76689141988754272 0.76689141988754272
0.8623318076133728 0.8623318076133728 0.8623318076133728
0.93678879737854004 0.93678879737854004 0.93678879737854004
0.50862652063369751 0.50862652063369751 0.50862652063369751
0.55004113912582397 0.55004113912582397 0.55004113912582397
0.59998887777328491 0.59998887777328491 0.59998887777328491
0.67806267738342285 0.67806267738342285 0.67806267738342285
0.7774234414100647 0.7774234414100647 0.7774234414100647
0.89135444164276123 0.89135444164276123 0.89135444164276123
0.93592250347137451 0.93592250347137451 0.93592250347137451
0.14118023216724396 0.14132063090801239 0.14132063090801239
0.19581648707389832 0.19583982229232788 0.19583982229232788
0.30159983038902283 0.30159983038902283 0.30159983038902283
0.45316591858863831 0.45316591858863831 0.45316591858863831
0.61406975984573364 0.61406975984573364 0.61406975984573364
0.73128032684326172 0.73128032684326172 0.73128032684326172
0.81091123819351196 0.81091123819351196 0.81091123819351196
0.1144762858748436 0.1144762858748436 0.1144762858748436
0.20839367806911469 0.20839367806911469 0.20839367806911469
0.33328014612197876 0.33328014612197876 0.33328014612197876
0.48680055141448975 0.48680055141448975 0.48680055141448975
0.62846112251281738 0.62846112251281738 0.62846112251281738
0.74227225780487061 0.74227225780487061 0.74227225780487061
0.82669210433959961 0.82669210433959961 0.82669210433959961
0.19870874285697937 0.19870874285697937 0.19870874285697937
0.29113671183586121 0.29113671183586121 0.29113671183586121
0.40456715226173401 0.40456715226173401 0.40456715226173401
0.53053826093673706 0.53054141998291016 0.53054141998291016
0.65458440780639648 0.65458440780639648 0.65458440780639648
0.75863814353942871 0.75863814353942871 0.75863814353942871
0.84265679121017456 0.84265679121017456 0.84265679121017456
0.3331705629825592 0.3331705629825592 0.3331705629825592
0.4009731113910675 0.4009731113910675 0.4009731113910675
0.48389580845832825 0.48389580845832825 0.48389580845832825
0.59562808275222778 0.59562808275222778 0.59562808275222778
0.69099545478820801 0.69099545478820801 0.69099545478820801
0.78357833623886108 0.78357833623886108 0.78357833623886108
0.87690907716751099 0.87690907716751099 0.87690907716751099
0.44923734664916992 0.44923734664916992 0.44923734664916992
0.49535900354385376 0.49535900354385376 0.49535900354385376
0.5610349178314209 0.5610349178314209 0.5610349178314209
0.65080797672271729 0.65080797672271729 0.65080797672271729
0.73744475841522217 0.73744475841522217 0.73744475841522217
0.82745373249053955 0.82745373249053955 0.82745373249053955
0.90550482273101807 0.90550482273101807 0.90550482273101807
0.53337043523788452 0.53337043523788452 0.53337043523788452
0.56535130739212036 0.56535130739212036 0.56535130739212036
0.61608022451400757 0.61608022451400757 0.61608022451400757
0.70545148849487305 0.70545148849487305 0.70545148849487305
0.78832417726516724 0.78832417726516724 0.78832417726516724
0.87501335144042969 0.87501335144042969 0.87501335144042969
0.94962543249130249 0.94962543249130249 0.94962543249130249
0.55002713203430176 0.55002713203430176 0.55002713203430176
0.60321921110153198 0.60321921110153198 0.60321921110153198
0.65504014492034912 0.65504014492034912 0.65504014492034912
0.74132168292999268 0.74132168292999268 0.74132168292999268
0.82149070501327515 0.82149070501327515 0.82149070501327515
0.90971839427947998 0.90971839427947998 0.90971839427947998
0.95954990386962891 0.95954990386962891 0.95954990386962891
0.23347412049770355 0.23347412049770355 0.23347412049770355
0.25932198762893677 0.25932198762893677 0.25932198762893677
0.33053496479988098 0.33059817552566528 0.33059817552566528
0.4633755087852478 0.46338716149330139 0.46338716149330139
0.61516386270523071 0.61516386270523071 0.61516386270523071
0.73114359378814697 0.73114359378814697 0.73114359378814697
0.81811892986297607 0.81811892986297607 0.81811892986297607
0.15915432572364807 0.15915432572364807 0.15915432572364807
0.23718534409999847 0.23718534409999847 0.23718534409999847
0.34743106365203857 0.34743106365203857 0.34743106365203857
0.49342390894889832 0.49348962306976318 0.49348962306976318
0.6340678334236145 0.6340678334236145 0.6340678334236145
0.74747598171234131 0.74747598171234131 0.74747598171234131
0.82800161838531494 0.82800161838531494 0.82800161838531494
0.19810134172439575 0.19810134172439575 0.19810134172439575
0.31037405133247375 0.31037405133247375 0.31037405133247375
0.40974095463752747 0.40977379679679871 0.40977379679679871
0.53676134347915649 0.53676134347915649 0.53676134347915649
0.65513026714324951 0.65513026714324951 0.65513026714324951
0.76522427797317505 0.76522427797317505 0.76522427797317505
0.85169678926467896 0.85169678926467896 0.85169678926467896
0.33067509531974792 0.33067509531974792 0.33067509531974792
0.42053923010826111 0.42053923010826111 0.42053923010826111
0.49905547499656677 0.49905547499656677 0.49905547499656677
0.60264772176742554 0.60264772176742554 0.60264772176742554
0.69766879081726074 0.69766879081726074 0.69766879081726074
0.79503840208053589 0.79503840208053589 0.79503840208053589
0.87446743249893188 0.87446743249893188 0.87446743249893188
0.45915600657463074 0.45915600657463074 0.45915600657463074
0.51534593105316162 0.51534593105316162 0.51534593105316162
0.57633441686630249 0.57633441686630249 0.57633441686630249
0.66592633724212646 0.66592633724212646 0.66592633724212646
0.75058293342590332 0.75058293342590332 0.75058293342590332
0.84029144048690796 0.84029144048690796 0.84029144048690796
0.91408693790435791 0.91408693790435791 0.91408693790435791
0.54775786399841309 0.54775786399841309 0.54775786399841309
0.59504324197769165 0.59504324197769165 0.59504324197769165
0.647605299949646 0.647605299949646 0.647605299949646
0.72637242078781128 0.72637242078781128 0.72637242078781128
0.80801796913146973 0.80801796913146973 0.80801796913146973
0.88903182744979858 0.88903182744979858 0.88903182744979858
0.96003419160842896 0.96003419160842896 0.96003419160842896
0.64814317226409912 0.64814317226409912 0.64814317226409912
0.6313636302947998 0.6313636302947998 0.6313636302947998
0.68139374256134033 0.68139374256134033 0.68139374256134033
0.75860559940338135 0.75860559940338135 0.75860559940338135
0.83849936723709106 0.83849936723709106 0.83849936723709106
0.9117276668548584 0.9117276668548584 0.9117276668548584
0.96818357706069946 0.96818357706069946 0.96818357706069946
0.35130280256271362 0.35130280256271362 0.35130280256271362
0.36556088924407959 0.36556088924407959 0.36556088924407959
0.41572961211204529 0.41594973206520081 0.41594973206520081
0.49973815679550171 0.49975335597991943 0.49975335597991943
0.61653250455856323 0.61659336090087891 0.61659336090087891
0.73771762847900391 0.73771762847900391 0.73771762847900391
0.78494632244110107 0.78494632244110107 0.78494632244110107
0.28430360555648804 0.28430360555648804 0.28430360555648804
0.32633334398269653 0.32633334398269653 0.32633334398269653
0.38950106501579285 0.39047378301620483 0.39047378301620483
0.50221151113510132 0.50222671031951904 0.50222671031951904
0.63859659433364868 0.63863450288772583 0.63863450288772583
0.74834096431732178 0.74834096431732178 0.74834096431732178
0.81195253133773804 0.81195253133773804 0.81195253133773804
0.19289518892765045 0.19289518892765045 0.19289518892765045
0.28612539172172546 0.28612539172172546 0.28612539172172546
0.40273416042327881 0.40273416042327881 0.40273416042327881
0.53069150447845459 0.53072440624237061 0.53072440624237061
0.65099221467971802 0.65099221467971802 0.65099221467971802
0.76725929975509644 0.76725929975509644 0.76725929975509644
0.83921980857849121 0.83921980857849121 0.83921980857849121
0.28384459018707275 0.28384459018707275 0.28384459018707275
0.36998569965362549 0.36998569965362549 0.36998569965362549
0.49307748675346375 0.49307748675346375 0.49307748675346375
0.60008305311203003 0.60008305311203003 0.60008305311203003
0.7038077712059021 0.7038077712059021 0.7038077712059021
0.79992163181304932 0.79992163181304932 0.79992163181304932
0.87561231851577759 0.87564265727996826 0.87564265727996826
0.44474539160728455 0.44474539160728455 0.44474539160728455
0.48239290714263916 0.48239290714263916 0.48239290714263916
0.58619016408920288 0.58619016408920288 0.58619016408920288
0.67739343643188477 0.67739343643188477 0.67739343643188477
0.75945276021957397 0.75945276021957397 0.75945276021957397
0.84924072027206421 0.84924072027206421 0.84924072027206421
0.92233961820602417 0.92233961820602417 0.92233961820602417
0.57109558582305908 0.57109558582305908 0.57109558582305908
0.60290217399597168 0.60290217399597168 0.60290217399597168
0.65986716747283936 0.65986716747283936 0.65986716747283936
0.72865664958953857 0.72865664958953857 0.72865664958953857
0.81315910816192627 0.81315910816192627 0.81315910816192627
0.89270687103271484 0.89270687103271484 0.89270687103271484
0.95369428396224976 0.95369428396224976 0.95369428396224976
0.63580763339996338 0.63580763339996338 0.63580763339996338
0.62680196762084961 0.62680196762084961 0.62680196762084961
0.68774992227554321 0.68774992227554321 0.68774992227554321
0.78011387586593628 0.78011387586593628 0.78011387586593628
0.84825879335403442 0.84825879335403442 0.84825879335403442
0.92764967679977417 0.92764967679977417 0.92764967679977417
0.96642369031906128 0.96642369031906128 0.96642369031906128
