assets/lut/fujixtransiii fuji xtrans iii astia.cube
# Created by: G'MIC (https://gmic.eu)
TITLE "fuji_xtrans_iii_astia"
# LUT size
LUT_3D_SIZE 5
# Data domain
DOMAIN_MIN 0.0 0.0 0.0
DOMAIN_MAX 1.0 1.0 1.0
# LUT data points
0.0087544163689017296 0.013643287122249603 0.010940102860331535
0.20166407525539398 0.026799116283655167 0.011480413377285004
0.58784860372543335 0.1002117395401001 0.023365603759884834
0.84160763025283813 0.17705503106117249 0.14965818822383881
0.89575314521789551 0.2165483683347702 0.20759584009647369
0.0072266370989382267 0.18917563557624817 0.0066310209222137928
0.20981647074222565 0.20550447702407837 0.0059760897420346737
0.59417194128036499 0.25762146711349487 0.020465327426791191
0.85351729393005371 0.31028378009796143 0.10201352834701538
0.9426390528678894 0.34240332245826721 0.18374338746070862
0.0028792736120522022 0.44753524661064148 0.0016235650982707739
0.13199782371520996 0.52026903629302979 0
0.56276476383209229 0.5450516939163208 0.00050149054732173681
0.80257314443588257 0.56867742538452148 0.024888865649700165
0.91319048404693604 0.59825479984283447 0.16710814833641052
0.013327325694262981 0.5469973087310791 0.025185829028487206
0.11100351810455322 0.62603670358657837 0.028356648981571198
0.54360371828079224 0.69635331630706787 0.0068442849442362785
0.80519968271255493 0.68939375877380371 0.025094440206885338
0.92506790161132812 0.74103140830993652 0.21600188314914703
0.023412726819515228 0.59990233182907104 0.013678127899765968
0.12552481889724731 0.73812949657440186 0.083289697766304016
0.57589513063430786 0.74938195943832397 0.038761526346206665
0.80187517404556274 0.78141450881958008 0.21657994389533997
0.91832429170608521 0.78890371322631836 0.29034754633903503
0.013954850845038891 0.051188003271818161 0.31473830342292786
0.31400257349014282 0.086379766464233398 0.29156577587127686
0.61882227659225464 0.15096023678779602 0.3538338840007782
0.88134396076202393 0.20859113335609436 0.40381601452827454
0.99517017602920532 0.28200885653495789 0.52318048477172852
0.010148575529456139 0.23122546076774597 0.25937521457672119
0.22672122716903687 0.25456994771957397 0.23941084742546082
0.59813213348388672 0.28668740391731262 0.25670823454856873
0.86223989725112915 0.33756810426712036 0.344472736120224
0.99639433622360229 0.38905531167984009 0.43075388669967651
0.0065241195261478424 0.53472304344177246 0.18709594011306763
0.13630440831184387 0.54869192838668823 0.14050640165805817
0.55211532115936279 0.56582885980606079 0.16775833070278168
0.80821329355239868 0.57753032445907593 0.25327244400978088
0.977821946144104 0.5919497013092041 0.36909195780754089
0.0085865696892142296 0.64218932390213013 0.37461632490158081
0.12965025007724762 0.74547511339187622 0.15801474452018738
0.51477319002151489 0.7578011155128479 0.1831386387348175
0.78361600637435913 0.76480317115783691 0.25249668955802917
0.94230061769485474 0.79654139280319214 0.33195340633392334
0.031047716736793518 0.70070737600326538 0.37924697995185852
0.18687067925930023 0.79134911298751831 0.26338446140289307
0.50497174263000488 0.80232357978820801 0.28694286942481995
0.77446001768112183 0.82587295770645142 0.34648719429969788
0.93227612972259521 0.84637624025344849 0.39985364675521851
0.085148938000202179 0.14049807190895081 0.73978447914123535
0.35889068245887756 0.17602264881134033 0.73409378528594971
0.6362074613571167 0.23376038670539856 0.6941419243812561
0.87390387058258057 0.29802611470222473 0.68574655055999756
0.99738764762878418 0.35445129871368408 0.71088773012161255
0.023357002064585686 0.31801885366439819 0.70524293184280396
0.29085430502891541 0.34629479050636292 0.6886867880821228
0.60698527097702026 0.3779982328414917 0.65931576490402222
0.85724556446075439 0.42177647352218628 0.65988951921463013
0.99203485250473022 0.45370498299598694 0.67891907691955566
0.01513259019702673 0.56522434949874878 0.62354987859725952
0.21593718230724335 0.56799685955047607 0.60094738006591797
0.56630045175552368 0.57814991474151611 0.58136451244354248
0.81584662199020386 0.60071229934692383 0.60430467128753662
0.98771059513092041 0.63265705108642578 0.61856579780578613
0.033806446939706802 0.73317378759384155 0.65378308296203613
0.21588121354579926 0.75529700517654419 0.53152573108673096
0.53150874376296997 0.77032738924026489 0.53129559755325317
0.78936052322387695 0.78127491474151611 0.53433406352996826
0.97445738315582275 0.82152068614959717 0.57506692409515381
0.065105438232421875 0.78487563133239746 0.68768489360809326
0.24453921616077423 0.82291799783706665 0.54815065860748291
0.50445717573165894 0.83134299516677856 0.5262259840965271
0.81686317920684814 0.85780614614486694 0.54840302467346191
0.97153204679489136 0.90035474300384521 0.59766477346420288
0.30436760187149048 0.16363352537155151 0.90889906883239746
0.47184926271438599 0.24069003760814667 0.91779470443725586
0.6901206374168396 0.3239690363407135 0.92172086238861084
0.87802892923355103 0.39417737722396851 0.90643727779388428
0.99574226140975952 0.45932862162590027 0.94538360834121704
0.10255490243434906 0.41945832967758179 0.95778006315231323
0.37244328856468201 0.45789608359336853 0.95991408824920654
0.62645876407623291 0.48552396893501282 0.9205748438835144
0.8450016975402832 0.51580345630645752 0.89849698543548584
0.99106580018997192 0.53815805912017822 0.88768136501312256
0.065991029143333435 0.60792529582977295 0.90995770692825317
0.33138149976730347 0.62388318777084351 0.89176291227340698
0.61053425073623657 0.63720440864562988 0.86905890703201294
0.82011586427688599 0.65292882919311523 0.86222153902053833
0.98950445652008057 0.68176591396331787 0.85720533132553101
0.13635885715484619 0.78082239627838135 0.86195766925811768
0.33088871836662292 0.7839234471321106 0.84598970413208008
0.58198052644729614 0.79282468557357788 0.81785184144973755
0.80311059951782227 0.79693698883056641 0.81087672710418701
0.9805946946144104 0.85213112831115723 0.8209570050239563
0.21375897526741028 0.84872651100158691 0.8785664439201355
0.33026781678199768 0.87616562843322754 0.86741101741790771
0.6033669114112854 0.89077556133270264 0.84757447242736816
0.83637547492980957 0.89559394121170044 0.80688035488128662
0.97673475742340088 0.92775815725326538 0.8131335973739624
0.50070732831954956 0.21995940804481506 1
0.60227024555206299 0.28733578324317932 0.9992368221282959
0.76741409301757812 0.39867842197418213 0.99540060758590698
0.91906440258026123 0.51921665668487549 0.99423235654830933
0.98815405368804932 0.57421362400054932 0.99837946891784668
0.2520352303981781 0.48718458414077759 0.99654817581176758
0.49673852324485779 0.56279730796813965 0.99576723575592041
0.69863075017929077 0.58989304304122925 0.99348586797714233
0.89045059680938721 0.62206965684890747 0.99455416202545166
0.98260843753814697 0.6302562952041626 0.99967384338378906
0.18492579460144043 0.67338460683822632 0.99935472011566162
0.45488238334655762 0.71125274896621704 0.99837899208068848
0.66566616296768188 0.72170901298522949 0.99408280849456787
0.85592019557952881 0.73078727722167969 0.98931604623794556
0.99089264869689941 0.73924463987350464 0.99848055839538574
0.22477193176746368 0.82976007461547852 0.99982792139053345
0.43646699190139771 0.84305506944656372 0.99751049280166626
0.65127730369567871 0.85041093826293945 0.98842871189117432
0.84257537126541138 0.85809159278869629 0.9911077618598938
0.99145370721817017 0.88402467966079712 0.98474931716918945
0.35796496272087097 0.90911275148391724 0.98643797636032104
0.41653734445571899 0.90607422590255737 0.99131172895431519
0.6392168402671814 0.91245031356811523 0.98600715398788452
0.85856235027313232 0.93145865201950073 0.99355602264404297
0.98806202411651611 0.95587754249572754 0.98142796754837036
