assets/lut/fujixtransiii fuji xtrans iii mono+ye.cube
# Created by: G'MIC (https://gmic.eu)
TITLE "fuji_xtrans_iii_mono+ye"
# LUT size
LUT_3D_SIZE 7
# Data domain
DOMAIN_MIN 0.0 0.0 0.0
DOMAIN_MAX 1.0 1.0 1.0
# LUT data points
0.01133391447365284 0.01133391447365284 0.01133391447365284
0.051463436335325241 0.051463436335325241 0.051463436335325241
0.16444380581378937 0.16444380581378937 0.16444380581378937
0.32365527749061584 0.32365527749061584 0.32365527749061584
0.46078750491142273 0.46078750491142273 0.46078750491142273
0.51652258634567261 0.51652258634567261 0.51652258634567261
0.55068743228912354 0.55068743228912354 0.55068743228912354
0.045215219259262085 0.045215219259262085 0.045215219259262085
0.096818111836910248 0.096818111836910248 0.096818111836910248
0.21775203943252563 0.21775203943252563 0.21775203943252563
0.3582727313041687 0.3582727313041687 0.3582727313041687
0.48301064968109131 0.48301064968109131 0.48301064968109131
0.55179333686828613 0.55179333686828613 0.55179333686828613
0.59768062829971313 0.59768062829971313 0.59768062829971313
0.14805705845355988 0.14805705845355988 0.14805705845355988
0.20626434683799744 0.20626434683799744 0.20626434683799744
0.31726786494255066 0.31726786494255066 0.31726786494255066
0.43340709805488586 0.43340709805488586 0.43340709805488586
0.52928310632705688 0.52928310632705688 0.52928310632705688
0.6051592230796814 0.6051592230796814 0.6051592230796814
0.62306344509124756 0.62306344509124756 0.62306344509124756
0.25632795691490173 0.25632795691490173 0.25632795691490173
0.31379961967468262 0.31379961967468262 0.31379961967468262
0.41099643707275391 0.41099643707275391 0.41099643707275391
0.5037650465965271 0.5037650465965271 0.5037650465965271
0.58988243341445923 0.58988243341445923 0.58988243341445923
0.65308904647827148 0.65308904647827148 0.65308904647827148
0.70305401086807251 0.70305401086807251 0.70305401086807251
0.32169926166534424 0.32169926166534424 0.32169926166534424
0.38842591643333435 0.38842591643333435 0.38842591643333435
0.45536482334136963 0.45536482334136963 0.45536482334136963
0.57329684495925903 0.57329684495925903 0.57329684495925903
0.65413755178451538 0.65413755178451538 0.65413755178451538
0.69774585962295532 0.69774585962295532 0.69774585962295532
0.74872827529907227 0.74872827529907227 0.74872827529907227
0.35492953658103943 0.35492953658103943 0.35492953658103943
0.45795834064483643 0.45795834064483643 0.45795834064483643
0.52856260538101196 0.52856260538101196 0.52856260538101196
0.60157591104507446 0.60157591104507446 0.60157591104507446
0.6557355523109436 0.6557355523109436 0.6557355523109436
0.74280482530593872 0.74280482530593872 0.74280482530593872
0.78240984678268433 0.78240984678268433 0.78240984678268433
0.38974848389625549 0.38974848389625549 0.38974848389625549
0.48063579201698303 0.48063579201698303 0.48063579201698303
0.54341286420822144 0.54341286420822144 0.54341286420822144
0.6287912130355835 0.6287912130355835 0.6287912130355835
0.70596277713775635 0.70596277713775635 0.70596277713775635
0.77552765607833862 0.77552765607833862 0.77552765607833862
0.80789446830749512 0.80789446830749512 0.80789446830749512
0.016828948631882668 0.01795126311480999 0.01795126311480999
0.08335953950881958 0.083411470055580139 0.083411470055580139
0.19550415873527527 0.19550415873527527 0.19550415873527527
0.36085674166679382 0.36085674166679382 0.36085674166679382
0.49996280670166016 0.49996280670166016 0.49996280670166016
0.55969905853271484 0.55969905853271484 0.55969905853271484
0.63519734144210815 0.63519734144210815 0.63519734144210815
0.076824426651000977 0.076857291162014008 0.076857291162014008
0.12995308637619019 0.12995308637619019 0.12995308637619019
0.24037677049636841 0.24037677049636841 0.24037677049636841
0.3802417516708374 0.3802417516708374 0.3802417516708374
0.49778145551681519 0.49778145551681519 0.49778145551681519
0.59406942129135132 0.59406942129135132 0.59406942129135132
0.65489405393600464 0.65489405393600464 0.65489405393600464
0.18265558779239655 0.18265558779239655 0.18265558779239655
0.23394085466861725 0.23394085466861725 0.23394085466861725
0.32293176651000977 0.32293176651000977 0.32293176651000977
0.44441547989845276 0.44441547989845276 0.44441547989845276
0.54491746425628662 0.54491746425628662 0.54491746425628662
0.63796216249465942 0.63796216249465942 0.63796216249465942
0.68815547227859497 0.68815547227859497 0.68815547227859497
0.30935356020927429 0.30935356020927429 0.30935356020927429
0.3534148633480072 0.3534148633480072 0.3534148633480072
0.42048248648643494 0.42048248648643494 0.42048248648643494
0.51170194149017334 0.51170194149017334 0.51170194149017334
0.60368132591247559 0.60368132591247559 0.60368132591247559
0.68669062852859497 0.68669062852859497 0.68669062852859497
0.7299875020980835 0.7299875020980835 0.7299875020980835
0.37792664766311646 0.37792664766311646 0.37792664766311646
0.43233805894851685 0.43233805894851685 0.43233805894851685
0.50718408823013306 0.50718408823013306 0.50718408823013306
0.58372443914413452 0.58372443914413452 0.58372443914413452
0.66900360584259033 0.66900360584259033 0.66900360584259033
0.74425113201141357 0.74425113201141357 0.74425113201141357
0.79708898067474365 0.79708898067474365 0.79708898067474365
0.41415348649024963 0.41415348649024963 0.41415348649024963
0.50046783685684204 0.50046783685684204 0.50046783685684204
0.56274735927581787 0.56274735927581787 0.56274735927581787
0.63598823547363281 0.63598823547363281 0.63598823547363281
0.70578891038894653 0.70578891038894653 0.70578891038894653
0.78341728448867798 0.78341728448867798 0.78341728448867798
0.80562913417816162 0.80562913417816162 0.80562913417816162
0.44446468353271484 0.44446468353271484 0.44446468353271484
0.53527140617370605 0.53527140617370605 0.53527140617370605
0.57933253049850464 0.57933253049850464 0.57933253049850464
0.64279448986053467 0.64279448986053467 0.64279448986053467
0.71414661407470703 0.71414661407470703 0.71414661407470703
0.7927364706993103 0.7927364706993103 0.7927364706993103
0.84372562170028687 0.84372562170028687 0.84372562170028687
0.080075189471244812 0.080959275364875793 0.080959275364875793
0.15612863004207611 0.1562829315662384 0.1562829315662384
0.25492644309997559 0.25492644309997559 0.25492644309997559
0.37679430842399597 0.37679430842399597 0.37679430842399597
0.51525503396987915 0.51525503396987915 0.51525503396987915
0.61166554689407349 0.61166554689407349 0.61166554689407349
0.67428785562515259 0.67428785562515259 0.67428785562515259
0.12455252557992935 0.12455252557992935 0.12455252557992935
0.18578445911407471 0.18578445911407471 0.18578445911407471
0.28811854124069214 0.28811854124069214 0.28811854124069214
0.4091494083404541 0.4091494083404541 0.4091494083404541
0.52568733692169189 0.52568733692169189 0.52568733692169189
0.62337547540664673 0.62337547540664673 0.62337547540664673
0.69883924722671509 0.69883924722671509 0.69883924722671509
0.23150958120822906 0.23151968419551849 0.23151968419551849
0.27637609839439392 0.27637609839439392 0.27637609839439392
0.3605080246925354 0.3605080246925354 0.3605080246925354
0.47216564416885376 0.47216564416885376 0.47216564416885376
0.57272899150848389 0.57272899150848389 0.57272899150848389
0.65581220388412476 0.65581220388412476 0.65581220388412476
0.72158324718475342 0.72158324718475342 0.72158324718475342
0.35772886872291565 0.35772886872291565 0.35772886872291565
0.38759708404541016 0.38759708404541016 0.38759708404541016
0.45436352491378784 0.45436352491378784 0.45436352491378784
0.54262197017669678 0.54262197017669678 0.54262197017669678
0.63536500930786133 0.63536500930786133 0.63536500930786133
0.71250563859939575 0.71250563859939575 0.71250563859939575
0.77093267440795898 0.77093267440795898 0.77093267440795898
0.4304606020450592 0.4304606020450592 0.4304606020450592
0.48419195413589478 0.48419195413589478 0.48419195413589478
0.53666442632675171 0.53666442632675171 0.53666442632675171
0.61178171634674072 0.61178171634674072 0.61178171634674072
0.69475901126861572 0.69475901126861572 0.69475901126861572
0.76057851314544678 0.76057851314544678 0.76057851314544678
0.81885087490081787 0.81885087490081787 0.81885087490081787
0.52683717012405396 0.52683717012405396 0.52683717012405396
0.54122459888458252 0.54122459888458252 0.54122459888458252
0.5938073992729187 0.5938073992729187 0.5938073992729187
0.66396677494049072 0.66396677494049072 0.66396677494049072
0.74302321672439575 0.74302321672439575 0.74302321672439575
0.8024410605430603 0.8024410605430603 0.8024410605430603
0.85640645027160645 0.85640645027160645 0.85640645027160645
0.54079627990722656 0.54079627990722656 0.54079627990722656
0.55599457025527954 0.55599457025527954 0.55599457025527954
0.62569266557693481 0.62569266557693481 0.62569266557693481
0.69646692276000977 0.69646692276000977 0.69646692276000977
0.75138723850250244 0.75138723850250244 0.75138723850250244
0.83813858032226562 0.83813858032226562 0.83813858032226562
0.86895865201950073 0.86895865201950073 0.86895865201950073
0.16612531244754791 0.16612531244754791 0.16612531244754791
0.22646398842334747 0.22646398842334747 0.22646398842334747
0.32207590341567993 0.32207590341567993 0.32207590341567993
0.41102749109268188 0.41102749109268188 0.41102749109268188
0.53545463085174561 0.53545463085174561 0.53545463085174561
0.64126145839691162 0.64126145839691162 0.64126145839691162
0.70609337091445923 0.70609337091445923 0.70609337091445923
0.1846885085105896 0.1846885085105896 0.1846885085105896
0.25521767139434814 0.25521767139434814 0.25521767139434814
0.34046784043312073 0.34046784043312073 0.34046784043312073
0.4389168918132782 0.4389168918132782 0.4389168918132782
0.56218802928924561 0.56218802928924561 0.56218802928924561
0.65729451179504395 0.65729451179504395 0.65729451179504395
0.71985369920730591 0.71985369920730591 0.71985369920730591
0.28193852305412292 0.28193852305412292 0.28193852305412292
0.33406972885131836 0.33406972885131836 0.33406972885131836
0.40958985686302185 0.40958985686302185 0.40958985686302185
0.50362563133239746 0.50362563133239746 0.50362563133239746
0.60403728485107422 0.60403728485107422 0.60403728485107422
0.69100391864776611 0.69100391864776611 0.69100391864776611
0.75604254007339478 0.75604254007339478 0.75604254007339478
0.408517986536026 0.408517986536026 0.408517986536026
0.43641230463981628 0.43641230463981628 0.43641230463981628
0.48569056391716003 0.48569056391716003 0.48569056391716003
0.57216799259185791 0.57216799259185791 0.57216799259185791
0.66780561208724976 0.66780561208724976 0.66780561208724976
0.74405097961425781 0.74405097961425781 0.74405097961425781
0.7911684513092041 0.7911684513092041 0.7911684513092041
0.50697094202041626 0.50697094202041626 0.50697094202041626
0.51724892854690552 0.51724892854690552 0.51724892854690552
0.56644952297210693 0.56644952297210693 0.56644952297210693
0.64450514316558838 0.64450514316558838 0.64450514316558838
0.72223806381225586 0.72220510244369507 0.72220510244369507
0.78839737176895142 0.78839737176895142 0.78839737176895142
0.84449493885040283 0.84449493885040283 0.84449493885040283
0.5666770339012146 0.5666770339012146 0.5666770339012146
0.59284627437591553 0.59284627437591553 0.59284627437591553
0.63446164131164551 0.63446164131164551 0.63446164131164551
0.69310528039932251 0.69310528039932251 0.69310528039932251
0.76827907562255859 0.76827907562255859 0.76827907562255859
0.8390386700630188 0.8390386700630188 0.8390386700630188
0.89914274215698242 0.89914274215698242 0.89914274215698242
0.58538711071014404 0.58538711071014404 0.58538711071014404
0.61599099636077881 0.61599099636077881 0.61599099636077881
0.64572608470916748 0.64572608470916748 0.64572608470916748
0.70271652936935425 0.70271652936935425 0.70271652936935425
0.78012764453887939 0.78012764453887939 0.78012764453887939
0.87651896476745605 0.87651896476745605 0.87651896476745605
0.91080224514007568 0.91080224514007568 0.91080224514007568
0.25520533323287964 0.25520533323287964 0.25520533323287964
0.30484139919281006 0.30484139919281006 0.30484139919281006
0.37509122490882874 0.37509122490882874 0.37509122490882874
0.46685755252838135 0.46685755252838135 0.46685755252838135
0.57333767414093018 0.57333767414093018 0.57333767414093018
0.67203140258789062 0.67203140258789062 0.67203140258789062
0.73401761054992676 0.73401761054992676 0.73401761054992676
0.27186471223831177 0.27186471223831177 0.27186471223831177
0.33095267415046692 0.33095267415046692 0.33095267415046692
0.407570481300354 0.407570481300354 0.407570481300354
0.48607292771339417 0.48607292771339417 0.48607292771339417
0.59180444478988647 0.59180444478988647 0.59180444478988647
0.68646955490112305 0.68646955490112305 0.68646955490112305
0.75273239612579346 0.75273239612579346 0.75273239612579346
0.34285718202590942 0.34285718202590942 0.34285718202590942
0.40559777617454529 0.40559777617454529 0.40559777617454529
0.46302369236946106 0.46302369236946106 0.46302369236946106
0.54733723402023315 0.54733723402023315 0.54733723402023315
0.6394994854927063 0.6394994854927063 0.6394994854927063
0.7163359522819519 0.7163359522819519 0.7163359522819519
0.77159988880157471 0.77159988880157471 0.77159988880157471
0.44916126132011414 0.44916126132011414 0.44916126132011414
0.49179473519325256 0.49179473519325256 0.49179473519325256
0.53313338756561279 0.53313338756561279 0.53313338756561279
0.61541604995727539 0.61541604995727539 0.61541604995727539
0.70093280076980591 0.70093280076980591 0.70093280076980591
0.770557701587677 0.770557701587677 0.770557701587677
0.82000154256820679 0.82000154256820679 0.82000154256820679
0.54068952798843384 0.54068952798843384 0.54068952798843384
0.5682263970375061 0.5682263970375061 0.5682263970375061
0.60888618230819702 0.60888618230819702 0.60888618230819702
0.68281173706054688 0.68281173706054688 0.68281173706054688
0.75502866506576538 0.75502866506576538 0.75502866506576538
0.81896102428436279 0.81896102428436279 0.81896102428436279
0.8698495626449585 0.8698495626449585 0.8698495626449585
0.62157070636749268 0.62157070636749268 0.62157070636749268
0.64003938436508179 0.64003938436508179 0.64003938436508179
0.67067074775695801 0.67067074775695801 0.67067074775695801
0.73485112190246582 0.73485112190246582 0.73485112190246582
0.79915624856948853 0.79915624856948853 0.79915624856948853
0.87043678760528564 0.87043678760528564 0.87043678760528564
0.92882734537124634 0.92882734537124634 0.92882734537124634
0.64116233587265015 0.64116233587265015 0.64116233587265015
0.68274134397506714 0.68274134397506714 0.68274134397506714
0.72151821851730347 0.72151821851730347 0.72151821851730347
0.77558344602584839 0.77558344602584839 0.77558344602584839
0.83490639925003052 0.83490639925003052 0.83490639925003052
0.90249717235565186 0.90249717235565186 0.90249717235565186
0.94154971837997437 0.94154971837997437 0.94154971837997437
0.35970622301101685 0.35970622301101685 0.35970622301101685
0.40140488743782043 0.40140488743782043 0.40140488743782043
0.44758665561676025 0.44758665561676025 0.44758665561676025
0.52122515439987183 0.52122515439987183 0.52122515439987183
0.62060070037841797 0.62060070037841797 0.62060070037841797
0.70728218555450439 0.70728218555450439 0.70728218555450439
0.75496888160705566 0.75496888160705566 0.75496888160705566
0.35965812206268311 0.35965812206268311 0.35965812206268311
0.4165140688419342 0.4165140688419342 0.4165140688419342
0.47154518961906433 0.47154518961906433 0.47154518961906433
0.54300618171691895 0.54300618171691895 0.54300618171691895
0.62376534938812256 0.62376534938812256 0.62376534938812256
0.70696687698364258 0.70696687698364258 0.70696687698364258
0.76359564065933228 0.76359564065933228 0.76359564065933228
0.40416112542152405 0.40416112542152405 0.40416112542152405
0.47187906503677368 0.47187906503677368 0.47187906503677368
0.51912528276443481 0.51912528276443481 0.51912528276443481
0.5960579514503479 0.5960579514503479 0.5960579514503479
0.66663700342178345 0.66663700342178345 0.66663700342178345
0.73951351642608643 0.73951351642608643 0.73951351642608643
0.80151927471160889 0.80151927471160889 0.80151927471160889
0.49017161130905151 0.49017161130905151 0.49017161130905151
0.54461121559143066 0.54461121559143066 0.54461121559143066
0.59190160036087036 0.59190160036087036 0.59190160036087036
0.66265696287155151 0.66265696287155151 0.66265696287155151
0.72717171907424927 0.72717171907424927 0.72717171907424927
0.79067718982696533 0.79067718982696533 0.79067718982696533
0.83835828304290771 0.83835828304290771 0.83835828304290771
0.58466118574142456 0.58466118574142456 0.58466118574142456
0.6195533275604248 0.6195533275604248 0.6195533275604248
0.66813576221466064 0.66813576221466064 0.66813576221466064
0.72581750154495239 0.72581750154495239 0.72581750154495239
0.78700196743011475 0.78700196743011475 0.78700196743011475
0.84618496894836426 0.84618496894836426 0.84618496894836426
0.88738054037094116 0.88738054037094116 0.88738054037094116
0.65979588031768799 0.65979588031768799 0.65979588031768799
0.69076591730117798 0.69076591730117798 0.69076591730117798
0.73069250583648682 0.73069250583648682 0.73069250583648682
0.77826839685440063 0.77826839685440063 0.77826839685440063
0.84090238809585571 0.84090238809585571 0.84090238809585571
0.89946252107620239 0.89946252107620239 0.89946252107620239
0.94884401559829712 0.94884401559829712 0.94884401559829712
0.74090695381164551 0.74090695381164551 0.74090695381164551
0.72199684381484985 0.72199684381484985 0.72199684381484985
0.75372278690338135 0.75372278690338135 0.75372278690338135
0.80736935138702393 0.80736935138702393 0.80736935138702393
0.86902105808258057 0.86902105808258057 0.86902105808258057
0.92528122663497925 0.92528122663497925 0.92528122663497925
0.96254152059555054 0.96254152059555054 0.96254152059555054
0.46269652247428894 0.46269652247428894 0.46269652247428894
0.49296784400939941 0.49296784400939941 0.49296784400939941
0.51980340480804443 0.51980340480804443 0.51980340480804443
0.57259202003479004 0.57259202003479004 0.57259202003479004
0.66596692800521851 0.66596692800521851 0.66596692800521851
0.7309342622756958 0.7309342622756958 0.7309342622756958
0.76749950647354126 0.76749950647354126 0.76749950647354126
0.459299236536026 0.459299236536026 0.459299236536026
0.50066041946411133 0.50066041946411133 0.50066041946411133
0.54126071929931641 0.54126071929931641 0.54126071929931641
0.60509920120239258 0.60509920120239258 0.60509920120239258
0.68065100908279419 0.68065100908279419 0.68065100908279419
0.74344009160995483 0.74344009160995483 0.74344009160995483
0.77752089500427246 0.77752089500427246 0.77752089500427246
0.45277899503707886 0.45277899503707886 0.45277899503707886
0.52390003204345703 0.52390003204345703 0.52390003204345703
0.57334393262863159 0.57334393262863159 0.57334393262863159
0.64050626754760742 0.64050626754760742 0.64050626754760742
0.70782679319381714 0.70785713195800781 0.70785713195800781
0.76808512210845947 0.76808512210845947 0.76808512210845947
0.81723064184188843 0.81723064184188843 0.81723064184188843
0.51250386238098145 0.51250386238098145 0.51250386238098145
0.5668753981590271 0.5668753981590271 0.5668753981590271
0.63703274726867676 0.63703274726867676 0.63703274726867676
0.69166159629821777 0.69166159629821777 0.69166159629821777
0.74761950969696045 0.74761950969696045 0.74761950969696045
0.80633759498596191 0.80633759498596191 0.80633759498596191
0.8617321252822876 0.8617321252822876 0.8617321252822876
0.61719125509262085 0.61719125509262085 0.61719125509262085
0.64846771955490112 0.64846771955490112 0.64846771955490112
0.70270133018493652 0.70270133018493652 0.70270133018493652
0.75384986400604248 0.75384986400604248 0.75384986400604248
0.81226950883865356 0.81226950883865356 0.81226950883865356
0.8693353533744812 0.8693353533744812 0.8693353533744812
0.91142761707305908 0.91142761707305908 0.91142761707305908
0.70885646343231201 0.70885646343231201 0.70885646343231201
0.72327536344528198 0.72327536344528198 0.72327536344528198
0.7641446590423584 0.7641446590423584 0.7641446590423584
0.81125742197036743 0.81125742197036743 0.81125742197036743
0.86879205703735352 0.86879205703735352 0.86879205703735352
0.92177528142929077 0.92177528142929077 0.92177528142929077
0.96365046501159668 0.96365046501159668 0.96365046501159668
0.74687916040420532 0.74687916040420532 0.74687916040420532
0.73504304885864258 0.73504304885864258 0.73504304885864258
0.77771610021591187 0.77771610021591187 0.77771610021591187
0.83172935247421265 0.83172935247421265 0.83172935247421265
0.88738566637039185 0.88738566637039185 0.88738566637039185
0.93799018859863281 0.93799018859863281 0.93799018859863281
0.97389078140258789 0.97389078140258789 0.97389078140258789
