assets/lut/fujixtransiii fuji xtrans iii sepia.cube
# Created by: G'MIC (https://gmic.eu)
TITLE "fuji_xtrans_iii_sepia"
# LUT size
LUT_3D_SIZE 13
# Data domain
DOMAIN_MIN 0.0 0.0 0.0
DOMAIN_MAX 1.0 1.0 1.0
# LUT data points
0.06481461226940155 0.004897428210824728 0
0.080303758382797241 0.0083768507465720177 0.00018686032854020596
0.11545607447624207 0.022750465199351311 0.0018820669502019882
0.15475256741046906 0.049296945333480835 0.0079581467434763908
0.20078833401203156 0.090822286903858185 0.023718651384115219
0.2581140398979187 0.14388474822044373 0.067571558058261871
0.32036575675010681 0.20250934362411499 0.12065133452415466
0.38836520910263062 0.26840212941169739 0.1829628050327301
0.42719337344169617 0.30782124400138855 0.22211991250514984
0.45898473262786865 0.33793589472770691 0.2535596489906311
0.47230660915374756 0.34998074173927307 0.26604786515235901
0.49181884527206421 0.36583232879638672 0.28429713845252991
0.5060734748840332 0.37829005718231201 0.2981572151184082
0.096446633338928223 0.013952801004052162 7.7371034421958029e-05
0.10719707608222961 0.023163395002484322 0.0024802712723612785
0.13922764360904694 0.039733603596687317 0.0041174348443746567
0.17745871841907501 0.068553060293197632 0.013848637230694294
0.22554533183574677 0.11367431282997131 0.04346129298210144
0.27883592247962952 0.16323091089725494 0.087300665676593781
0.33259248733520508 0.21482808887958527 0.13404920697212219
0.38974961638450623 0.27120080590248108 0.18632914125919342
0.43272727727890015 0.31292149424552917 0.22788821160793304
0.46691995859146118 0.34377914667129517 0.26093572378158569
0.48740342259407043 0.36184626817703247 0.28023138642311096
0.50674116611480713 0.37863898277282715 0.2988719642162323
0.54289048910140991 0.41230571269989014 0.33510860800743103
0.13509881496429443 0.034033354371786118 0.0066646500490605831
0.14902451634407043 0.047846388071775436 0.0089594228193163872
0.17351453006267548 0.067338250577449799 0.013935298658907413
0.21687036752700806 0.10573718696832657 0.041046187281608582
0.26934167742729187 0.15434709191322327 0.081369154155254364
0.3173871636390686 0.19961731135845184 0.12122410535812378
0.36208638548851013 0.24334836006164551 0.16225939989089966
0.4108005166053772 0.29204872250556946 0.20781908929347992
0.45501509308815002 0.33348333835601807 0.25060459971427917
0.49162915349006653 0.36562591791152954 0.28579527139663696
0.51740473508834839 0.38863265514373779 0.31005990505218506
0.54560691118240356 0.41616359353065491 0.33921056985855103
0.57624161243438721 0.44689008593559265 0.37095361948013306
0.19158053398132324 0.082125551998615265 0.030324673280119896
0.21037934720516205 0.098907783627510071 0.038761526346206665
0.22926780581474304 0.11684989184141159 0.049535982310771942
0.27226513624191284 0.15783168375492096 0.086118780076503754
0.32071980834007263 0.20284272730350494 0.1253175288438797
0.3663952648639679 0.24608089029788971 0.16483205556869507
0.41029486060142517 0.29004499316215515 0.2082175612449646
0.45486670732498169 0.3345792293548584 0.25255078077316284
0.49834895133972168 0.37480145692825317 0.29517447948455811
0.53834825754165649 0.41111049056053162 0.33482640981674194
0.56935328245162964 0.44068756699562073 0.36519727110862732
0.57773721218109131 0.44820407032966614 0.37313339114189148
0.58664345741271973 0.45758834481239319 0.38250231742858887
0.25269919633865356 0.13662189245223999 0.062460131943225861
0.29056456685066223 0.17305189371109009 0.097740203142166138
0.31030237674713135 0.19376441836357117 0.11705198138952255
0.3466859757900238 0.22908160090446472 0.15008459985256195
0.39184743165969849 0.27137863636016846 0.19067187607288361
0.4246675968170166 0.30354148149490356 0.22309857606887817
0.46625486016273499 0.34517577290534973 0.26551255583763123
0.50650393962860107 0.38522040843963623 0.30607178807258606
0.54063308238983154 0.41739550232887268 0.34015950560569763
0.5710483193397522 0.44692441821098328 0.37052306532859802
0.59726065397262573 0.47170040011405945 0.39548099040985107
0.59269183874130249 0.46328437328338623 0.38831493258476257
0.61005198955535889 0.48107081651687622 0.40568020939826965
0.33074524998664856 0.2074444442987442 0.12549228966236115
0.36951324343681335 0.24801309406757355 0.16443571448326111
0.38056951761245728 0.2606998085975647 0.17783354222774506
0.4155096709728241 0.29444101452827454 0.21239201724529266
0.45903828740119934 0.3373253345489502 0.25685915350914001
0.48846197128295898 0.36737567186355591 0.28898477554321289
0.524757981300354 0.4042208194732666 0.32678917050361633
0.55925709009170532 0.43817371129989624 0.36144858598709106
0.58920478820800781 0.46731561422348022 0.39091122150421143
0.62117242813110352 0.49911096692085266 0.42198571562767029
0.64048397541046143 0.51905512809753418 0.44154125452041626
0.64449203014373779 0.52087318897247314 0.44406947493553162
0.67805904150009155 0.55214810371398926 0.47415712475776672
0.3841589093208313 0.25976759195327759 0.17430908977985382
0.41211715340614319 0.29011690616607666 0.20414148271083832
0.42946073412895203 0.30672276020050049 0.22268037497997284
0.46634802222251892 0.34349510073661804 0.26149293780326843
0.51174545288085938 0.38887926936149597 0.30940565466880798
0.53713148832321167 0.41638609766960144 0.33870160579681396
0.57469141483306885 0.45554593205451965 0.37995055317878723
0.60904127359390259 0.48947322368621826 0.41411125659942627
0.64147955179214478 0.52097994089126587 0.44476145505905151
0.66963142156600952 0.54767662286758423 0.47040483355522156
0.68423652648925781 0.56254035234451294 0.48521023988723755
0.69931572675704956 0.57739251852035522 0.49983006715774536
0.7276577353477478 0.60343742370605469 0.52462393045425415
0.41009083390235901 0.28789046406745911 0.20311641693115234
0.4333445131778717 0.31074920296669006 0.22550450265407562
0.47924643754959106 0.35548499226570129 0.27275034785270691
0.49475264549255371 0.37181565165519714 0.29079243540763855
0.54815483093261719 0.42462253570556641 0.34638175368309021
0.57222658395767212 0.45102980732917786 0.37368050217628479
0.62205910682678223 0.50388145446777344 0.42820689082145691
0.65742075443267822 0.53967869281768799 0.46449732780456543
0.68790161609649658 0.56830358505249023 0.49246892333030701
0.71768921613693237 0.59442305564880371 0.51674431562423706
0.73493444919586182 0.61058586835861206 0.53253841400146484
0.75352394580841064 0.62891453504562378 0.55000573396682739
0.77192491292953491 0.64603328704833984 0.565593421459198
0.4467308521270752 0.32379287481307983 0.24011632800102234
0.45724400877952576 0.3327239453792572 0.24836264550685883
0.51589912176132202 0.39087876677513123 0.30897873640060425
0.50999349355697632 0.38509994745254517 0.30398887395858765
0.56129473447799683 0.43588423728942871 0.35752737522125244
0.60420495271682739 0.48243704438209534 0.40533661842346191
0.66460627317428589 0.54618680477142334 0.46981161832809448
0.69248670339584351 0.57482403516769409 0.49923974275588989
0.71908754110336304 0.59976077079772949 0.52324593067169189
0.74996727705001831 0.62601298093795776 0.54741495847702026
0.76140367984771729 0.63562804460525513 0.55672085285186768
0.78944301605224609 0.66311156749725342 0.58275431394577026
0.81012552976608276 0.68274033069610596 0.60105794668197632
0.47140592336654663 0.3481597900390625 0.26361718773841858
0.45666965842247009 0.33213567733764648 0.24748076498508453
0.50552505254745483 0.38191211223602295 0.29911360144615173
0.54471206665039062 0.41967096924781799 0.33840838074684143
0.5923774242401123 0.46766009926795959 0.38824200630187988
0.62693154811859131 0.50512385368347168 0.42846828699111938
0.6710515022277832 0.55216813087463379 0.47503715753555298
0.69945532083511353 0.58165347576141357 0.5045129656791687
0.72464227676391602 0.60684424638748169 0.5288127064704895
0.75315457582473755 0.63057458400726318 0.55087077617645264
0.78134119510650635 0.65542382001876831 0.57510834932327271
0.8119235634803772 0.68427306413650513 0.60344451665878296
0.83303213119506836 0.70456242561340332 0.62230998277664185
0.47815084457397461 0.35607117414474487 0.27108895778656006
0.4712340235710144 0.34648358821868896 0.26215067505836487
0.58270508050918579 0.45622026920318604 0.37502512335777283
0.61729633808135986 0.49006006121635437 0.4103090763092041
0.64036279916763306 0.51536202430725098 0.43625015020370483
0.65640068054199219 0.53425198793411255 0.4556848406791687
0.69638770818710327 0.57519900798797607 0.4966481626033783
0.70818823575973511 0.58969908952713013 0.51210564374923706
0.73209607601165771 0.61331021785736084 0.53559136390686035
0.76227641105651855 0.6386951208114624 0.55797028541564941
0.80699241161346436 0.67972546815872192 0.59826052188873291
0.83593779802322388 0.70694875717163086 0.62499761581420898
0.8427245020866394 0.71334052085876465 0.63104128837585449
0.50797837972640991 0.38583901524543762 0.30329567193984985
0.50236970186233521 0.37923943996429443 0.29527488350868225
0.6062159538269043 0.4788145124912262 0.39834463596343994
0.6381714940071106 0.50942361354827881 0.43049454689025879
0.66139787435531616 0.53438758850097656 0.4542795717716217
0.68559509515762329 0.56057167053222656 0.47906249761581421
0.72057002782821655 0.59659892320632935 0.51556253433227539
0.73742926120758057 0.61467885971069336 0.53421908617019653
0.76970034837722778 0.64692521095275879 0.56647849082946777
0.79686945676803589 0.67341512441635132 0.59268718957901001
0.82449513673782349 0.69726139307022095 0.61603367328643799
0.84747838973999023 0.71827453374862671 0.63599765300750732
0.85716986656188965 0.72745788097381592 0.64464771747589111
0.51049935817718506 0.38868743181228638 0.30594536662101746
0.5054088830947876 0.38283666968345642 0.29850476980209351
0.61099857091903687 0.48377451300621033 0.40279841423034668
0.64553803205490112 0.51630520820617676 0.43747726082801819
0.6625027060508728 0.53408032655715942 0.45429316163063049
0.68956178426742554 0.56266689300537109 0.48120325803756714
0.72916483879089355 0.60156083106994629 0.51956439018249512
0.76403617858886719 0.63505148887634277 0.55301201343536377
0.80209994316101074 0.67619317770004272 0.59451121091842651
0.83453619480133057 0.70881319046020508 0.62698507308959961
0.85974305868148804 0.7320096492767334 0.64968955516815186
0.8744390606880188 0.74401313066482544 0.66135263442993164
0.88156706094741821 0.75054663419723511 0.66672325134277344
0.081653833389282227 0.0074167586863040924 0
0.091776065528392792 0.014865351840853691 0.0016842561308294535
0.13569638133049011 0.038633488118648529 0.0068381363525986671
0.174455925822258 0.067023590207099915 0.015792189165949821
0.20472544431686401 0.094959720969200134 0.026211682707071304
0.26917240023612976 0.15565317869186401 0.078062482178211212
0.34471052885055542 0.22768589854240417 0.14485961198806763
0.4002092182636261 0.28239277005195618 0.19696821272373199
0.4476073682308197 0.32811155915260315 0.24308544397354126
0.47769993543624878 0.35424429178237915 0.27161949872970581
0.4952360987663269 0.36973050236701965 0.28797060251235962
0.50797665119171143 0.3819059431552887 0.30079430341720581
0.54711073637008667 0.42055216431617737 0.3418881893157959
0.11408644914627075 0.02236543595790863 0.0024689617566764355
0.12731131911277771 0.035385850816965103 0.0047472636215388775
0.15973320603370667 0.056850973516702652 0.011309380643069744
0.19566109776496887 0.086243271827697754 0.025022588670253754
0.23691301047801971 0.12405402958393097 0.051792353391647339
0.2935737669467926 0.17720544338226318 0.09943244606256485
0.34697240591049194 0.22927920520305634 0.14726503193378448
0.39512228965759277 0.27689757943153381 0.19166818261146545
0.44015848636627197 0.31870949268341064 0.23506926000118256
0.47663626074790955 0.35189360380172729 0.27051886916160583
0.50542753934860229 0.37761098146438599 0.29826745390892029
0.54017478227615356 0.41202086210250854 0.33474829792976379
0.57120740413665771 0.44294825196266174 0.36632856726646423
0.16007445752620697 0.0571109838783741 0.014163866639137268
0.16677838563919067 0.062936730682849884 0.014380481094121933
0.19203294813632965 0.084031932055950165 0.024276793003082275
0.22891798615455627 0.11743544042110443 0.048747193068265915
0.28052020072937012 0.1655043363571167 0.090483479201793671
0.32990005612373352 0.21180318295955658 0.13215090334415436
0.37381535768508911 0.25461944937705994 0.17311616241931915
0.42025870084762573 0.2999953031539917 0.21668033301830292
0.46308779716491699 0.33975851535797119 0.25811320543289185
0.50412791967391968 0.37684354186058044 0.297840416431427
0.54419827461242676 0.4136294424533844 0.33729457855224609
0.5663636326789856 0.43630173802375793 0.36100152134895325
0.58287143707275391 0.45435762405395508 0.37775763869285583
0.2173609733581543 0.10589415580034256 0.041813705116510391
0.227603480219841 0.11467895656824112 0.046846996992826462
0.24939361214637756 0.13525593280792236 0.063973173499107361
0.28899875283241272 0.17386952042579651 0.099626801908016205
0.33341565728187561 0.21621304750442505 0.13750714063644409
0.3777923583984375 0.25863432884216309 0.17622338235378265
0.41964063048362732 0.29919546842575073 0.2170073539018631
0.46010687947273254 0.3386094868183136 0.25701546669006348
0.50058263540267944 0.3771246075630188 0.29703393578529358
0.54258745908737183 0.41627377271652222 0.33815404772758484
0.57269012928009033 0.44474518299102783 0.36836487054824829
0.58568459749221802 0.45710510015487671 0.38213235139846802
0.60458481311798096 0.47842180728912354 0.40208309888839722
0.28815671801567078 0.17121304571628571 0.094420522451400757
0.30257657170295715 0.18531723320484161 0.10857050120830536
0.32192736864089966 0.20468994975090027 0.12737324833869934
0.35580137372016907 0.2374579906463623 0.15801385045051575
0.39798668026924133 0.27853280305862427 0.19730645418167114
0.43634709715843201 0.31633588671684265 0.23524169623851776
0.47638598084449768 0.35540118813514709 0.27539834380149841
0.51222491264343262 0.39066097140312195 0.31117311120033264
0.54508692026138306 0.42276671528816223 0.34382480382919312
0.58074373006820679 0.457559734582901 0.37906211614608765
0.60930073261260986 0.48484629392623901 0.40699854493141174
0.62083953619003296 0.49429896473884583 0.41731539368629456
0.65314382314682007 0.52743816375732422 0.44964790344238281
0.35894975066184998 0.23740033805370331 0.15390443801879883
0.37786960601806641 0.25742578506469727 0.17461375892162323
0.3945598304271698 0.27443605661392212 0.19227015972137451
0.42089459300041199 0.29961419105529785 0.21798275411128998
0.46107304096221924 0.34034651517868042 0.26008272171020508
0.49836564064025879 0.37760308384895325 0.29905948042869568
0.53423750400543213 0.41322094202041626 0.33580142259597778
0.56637072563171387 0.44478744268417358 0.36739549040794373
0.59769827127456665 0.47587621212005615 0.39818179607391357
0.63138866424560547 0.50930273532867432 0.43117266893386841
0.66085904836654663 0.53836214542388916 0.45905429124832153
0.68244504928588867 0.55885857343673706 0.47861388325691223
0.70550757646560669 0.58033734560012817 0.50080984830856323
0.40531396865844727 0.2822929322719574 0.19654098153114319
0.43485921621322632 0.31460997462272644 0.2289353609085083
0.45817050337791443 0.33591461181640625 0.2533143162727356
0.47688770294189453 0.35384577512741089 0.27382099628448486
0.5220758318901062 0.40027123689651489 0.32131344079971313
0.55495381355285645 0.43334308266639709 0.3562682569026947
0.58609986305236816 0.46519899368286133 0.38950398564338684
0.6161426305770874 0.49561655521392822 0.41944357752799988
0.65102094411849976 0.53027200698852539 0.45312979817390442
0.68293344974517822 0.56051647663116455 0.48252865672111511
0.71071434020996094 0.587413489818573 0.50786441564559937
0.72550380229949951 0.60203278064727783 0.52170568704605103
0.74101394414901733 0.6164366602897644 0.53627479076385498
0.46933934092521667 0.34966084361076355 0.26432865858078003
0.47655323147773743 0.35492569208145142 0.2701416015625
0.50869143009185791 0.38434094190597534 0.30320847034454346
0.52155333757400513 0.39592292904853821 0.3174796998500824
0.56458091735839844 0.44083887338638306 0.3628447949886322
0.59293866157531738 0.47102034091949463 0.39400199055671692
0.63230699300765991 0.51320791244506836 0.43613317608833313
0.66621941328048706 0.54733407497406006 0.47089654207229614
0.70216155052185059 0.58173263072967529 0.50507164001464844
0.73159307241439819 0.60824638605117798 0.53015244007110596
0.75813710689544678 0.63300687074661255 0.55353015661239624
0.77535521984100342 0.64891195297241211 0.56842154264450073
0.79473638534545898 0.66632497310638428 0.58480018377304077
0.50203835964202881 0.38043850660324097 0.29724091291427612
0.51541674137115479 0.39116433262825012 0.30887690186500549
0.54296684265136719 0.41724416613578796 0.33692961931228638
0.55600148439407349 0.42867738008499146 0.34893834590911865
0.59385907649993896 0.46830156445503235 0.38981473445892334
0.62049180269241333 0.49784618616104126 0.42111492156982422
0.66982883214950562 0.54928827285766602 0.47091266512870789
0.70749908685684204 0.58639293909072876 0.50775599479675293
0.73225462436676025 0.61056661605834961 0.53240633010864258
0.7679552435874939 0.64324867725372314 0.56428790092468262
0.79785680770874023 0.67110574245452881 0.59053164720535278
0.82113713026046753 0.6922265887260437 0.61062353849411011
0.83874785900115967 0.70770275592803955 0.62573391199111938
0.51514416933059692 0.39149826765060425 0.30889761447906494
0.52369511127471924 0.39844986796379089 0.31628507375717163
0.58060276508331299 0.45351332426071167 0.37344557046890259
0.61413431167602539 0.48655089735984802 0.40649029612541199
0.64233410358428955 0.5166393518447876 0.43576851487159729
0.6642075777053833 0.54019135236740112 0.46045160293579102
0.70068705081939697 0.5773928165435791 0.49755102396011353
0.72524893283843994 0.60271459817886353 0.52341705560684204
0.75051689147949219 0.62764996290206909 0.54851138591766357
0.78839504718780518 0.6635245680809021 0.58350855112075806
0.82048302888870239 0.69301760196685791 0.61215847730636597
0.83992207050323486 0.71046286821365356 0.62904936075210571
0.84695255756378174 0.71708667278289795 0.63482511043548584
0.51980209350585938 0.39616307616233826 0.31330716609954834
0.52944934368133545 0.40371370315551758 0.32213971018791199
0.61044234037399292 0.48221543431282043 0.40292260050773621
0.63751894235610962 0.50969749689102173 0.42954742908477783
0.66636019945144653 0.53998738527297974 0.45926138758659363
0.68717730045318604 0.56183189153671265 0.48090901970863342
0.72262489795684814 0.59721934795379639 0.51688355207443237
0.74458730220794678 0.62068527936935425 0.54110026359558105
0.77607506513595581 0.65249967575073242 0.57333219051361084
0.80883795022964478 0.68329370021820068 0.60316687822341919
0.84100949764251709 0.71330255270004272 0.6328156590461731
0.84945821762084961 0.71990978717803955 0.63943082094192505
0.85154134035110474 0.72165030241012573 0.63946795463562012
0.54057085514068604 0.41745790839195251 0.33690986037254333
0.53255605697631836 0.40774202346801758 0.32584598660469055
0.61963498592376709 0.49289456009864807 0.41169637441635132
0.65458589792251587 0.52701348066329956 0.44534805417060852
0.67988437414169312 0.55226832628250122 0.47079223394393921
0.69820195436477661 0.57188451290130615 0.48977664113044739
0.73267281055450439 0.60681605339050293 0.52455860376358032
0.7611008882522583 0.63501948118209839 0.55305427312850952
0.80043947696685791 0.67471855878829956 0.59375333786010742
0.83554303646087646 0.70841026306152344 0.62743300199508667
0.86372864246368408 0.73439723253250122 0.65176135301589966
0.88180118799209595 0.75017243623733521 0.66652244329452515
0.88233739137649536 0.75068587064743042 0.66697859764099121
0.55273282527923584 0.42941409349441528 0.35012495517730713
0.53541165590286255 0.41174280643463135 0.32935884594917297
0.64250260591506958 0.51481372117996216 0.43165186047554016
0.67999821901321411 0.55069571733474731 0.46866911649703979
0.69698619842529297 0.56782478094100952 0.48614442348480225
0.71100729703903198 0.58283358812332153 0.50075477361679077
0.7406192421913147 0.61291998624801636 0.53049302101135254
0.76861369609832764 0.63955032825469971 0.55675709247589111
0.80679118633270264 0.67848563194274902 0.59551680088043213
0.84330224990844727 0.71468770503997803 0.63234144449234009
0.86802715063095093 0.73855829238891602 0.65600824356079102
0.90300929546356201 0.7711673378944397 0.68691539764404297
0.91463059186935425 0.78128349781036377 0.69623029232025146
0.11126998066902161 0.017133854329586029 0.0012509663356468081
0.13344119489192963 0.037307649850845337 0.006816190667450428
0.1675383597612381 0.061105303466320038 0.014732210896909237
0.21241316199302673 0.10008051246404648 0.036741726100444794
0.24704378843307495 0.13175834715366364 0.05617503821849823
0.3106553852558136 0.19459612667560577 0.1134863942861557
0.37193632125854492 0.25496992468833923 0.17111654579639435
0.42158305644989014 0.30484256148338318 0.21943442523479462
0.45667868852615356 0.33720117807388306 0.25330302119255066
0.48392343521118164 0.3606736958026886 0.27919682860374451
0.50907891988754272 0.38289704918861389 0.30318602919578552
0.54567140340805054 0.41887825727462769 0.34028893709182739
0.58390980958938599 0.45829108357429504 0.38065958023071289
0.13860221207141876 0.039383247494697571 0.0088860904797911644
0.1607644110918045 0.057493142783641815 0.013346384279429913
0.18761520087718964 0.079281702637672424 0.022242093458771706
0.22604191303253174 0.11294570565223694 0.043695874512195587
0.26782089471817017 0.15118764340877533 0.073724143207073212
0.32009372115135193 0.20214532315731049 0.12210449576377869
0.37013068795204163 0.25175511837005615 0.16908514499664307
0.4183221161365509 0.29892075061798096 0.21479474008083344
0.4597228467464447 0.33770772814750671 0.25494548678398132
0.5024789571762085 0.37720838189125061 0.29772490262985229
0.54055821895599365 0.41246172785758972 0.33611264824867249
0.56417536735534668 0.43666011095046997 0.36015385389328003
0.58504641056060791 0.4590286910533905 0.38266128301620483
0.18427126109600067 0.078471928834915161 0.021679133176803589
0.19593563675880432 0.088223554193973541 0.027214588597416878
0.22032330930233002 0.11016217619180679 0.040873583406209946
0.25982707738876343 0.14637130498886108 0.071671940386295319
0.30385273694992065 0.18694542348384857 0.10760370641946793
0.34827950596809387 0.22999432682991028 0.14812682569026947
0.3939831554889679 0.27401882410049438 0.19152593612670898
0.44014847278594971 0.3184274435043335 0.23568248748779297
0.4833519458770752 0.35897320508956909 0.27783438563346863
0.52805441617965698 0.40087631344795227 0.32240062952041626
0.56659245491027832 0.43811604380607605 0.3620104193687439
0.58222705125808716 0.45387804508209229 0.37842285633087158
0.60560506582260132 0.47986438870429993 0.40317898988723755
0.24177420139312744 0.12975682318210602 0.056505419313907623
0.25280719995498657 0.13953830301761627 0.067407272756099701
0.2756589949131012 0.16164658963680267 0.08734855055809021
0.31247878074645996 0.19710297882556915 0.1192747950553894
0.35234254598617554 0.23526766896247864 0.15366823971271515
0.39222559332847595 0.27383062243461609 0.18943299353122711
0.43451386690139771 0.31457561254501343 0.2312300056219101
0.47700265049934387 0.35531404614448547 0.27329167723655701
0.51635909080505371 0.39282774925231934 0.31222847104072571
0.55940544605255127 0.43397063016891479 0.35522514581680298
0.59771353006362915 0.47293922305107117 0.39521506428718567
0.62285429239273071 0.49871090054512024 0.42094561457633972
0.64111649990081787 0.51689434051513672 0.43803074955940247
0.31324732303619385 0.19662636518478394 0.11765310168266296
0.32310479879379272 0.20663672685623169 0.12839201092720032
0.34249544143676758 0.22532989084720612 0.14635938405990601
0.3752504289150238 0.25684875249862671 0.17564563453197479
0.41208276152610779 0.29309046268463135 0.21012699604034424
0.45052143931388855 0.33116477727890015 0.24880543351173401
0.4884205162525177 0.3686198890209198 0.28693795204162598
