assets/lut/fujixtransiii fuji xtrans iii classic chrome.cube
# Created by: G'MIC (https://gmic.eu)
TITLE "fuji_xtrans_iii_classic_chrome"
# LUT size
LUT_3D_SIZE 7
# Data domain
DOMAIN_MIN 0.0 0.0 0.0
DOMAIN_MAX 1.0 1.0 1.0
# LUT data points
0.0083547700196504593 0.011983265168964863 0.0083617717027664185
0.085369259119033813 0.021419016644358635 0.013008596375584602
0.28650665283203125 0.062853254377841949 0.039062082767486572
0.52138590812683105 0.13523241877555847 0.093794561922550201
0.72345072031021118 0.21039268374443054 0.1628233939409256
0.79449522495269775 0.24875037372112274 0.19990865886211395
0.82638055086135864 0.27735006809234619 0.23574559390544891
0.0080398712307214737 0.064086243510246277 0.013231539167463779
0.092119164764881134 0.084162451326847076 0.023017793893814087
0.30944573879241943 0.14003801345825195 0.05259430781006813
0.54060709476470947 0.19172376394271851 0.098091065883636475
0.73153966665267944 0.25444304943084717 0.15772454440593719
0.82809078693389893 0.29782494902610779 0.20651395618915558
0.88302654027938843 0.3569338321685791 0.2518514096736908
0.009809127077460289 0.20863960683345795 0.014853698201477528
0.065845102071762085 0.25146782398223877 0.024332696571946144
0.3126157820224762 0.29464095830917358 0.061409953981637955
0.55003249645233154 0.33106192946434021 0.084105320274829865
0.73945242166519165 0.38285166025161743 0.15164491534233093
0.8613288402557373 0.41649696230888367 0.21587246656417847
0.90048664808273315 0.41678974032402039 0.23689281940460205
0.0043468698859214783 0.37107875943183899 0.017086058855056763
0.047930728644132614 0.42086738348007202 0.021872382611036301
0.29321008920669556 0.47135671973228455 0.049434691667556763
0.55534929037094116 0.49814578890800476 0.098217591643333435
0.73193329572677612 0.53417080640792847 0.15305052697658539
0.84012424945831299 0.56421208381652832 0.20981493592262268
0.90140891075134277 0.60082483291625977 0.28350478410720825
0.013052278198301792 0.44961938261985779 0.065709389746189117
0.030253242701292038 0.53429162502288818 0.096281848847866058
0.27794092893600464 0.54951471090316772 0.071305610239505768
0.56123727560043335 0.63308906555175781 0.14056360721588135
0.75623363256454468 0.65195560455322266 0.19735018908977509
0.84823489189147949 0.66664671897888184 0.2343309074640274
0.9012761116027832 0.71333473920822144 0.30744564533233643
0.017755875363945961 0.4853217601776123 0.086850486695766449
0.053237751126289368 0.62053847312927246 0.17656601965427399
0.26034486293792725 0.65885049104690552 0.18449850380420685
0.56876260042190552 0.67217868566513062 0.18458452820777893
0.72149461507797241 0.68546414375305176 0.22212865948677063
0.88812965154647827 0.72150665521621704 0.30313995480537415
0.93236321210861206 0.74805939197540283 0.35117623209953308
0.024728348478674889 0.52900415658950806 0.09085904061794281
0.064779482781887054 0.65391713380813599 0.21054062247276306
0.25818356871604919 0.69039535522460938 0.21808689832687378
0.59275561571121216 0.71278667449951172 0.23150914907455444
0.72721534967422485 0.75689196586608887 0.31264474987983704
0.86847555637359619 0.78132688999176025 0.38460490107536316
0.92809498310089111 0.78789752721786499 0.41222015023231506
0.0094085391610860825 0.028986478224396706 0.088415823876857758
0.10796822607517242 0.054286494851112366 0.097029559314250946
0.29654982686042786 0.10065498948097229 0.14079876244068146
0.54765230417251587 0.17710207402706146 0.21065649390220642
0.75762796401977539 0.23364134132862091 0.25916889309883118
0.82927274703979492 0.27409878373146057 0.29362967610359192
0.92772191762924194 0.35658004879951477 0.41027280688285828
0.019161298871040344 0.10807207971811295 0.10519256442785263
0.10677076131105423 0.11742160469293594 0.11373823881149292
0.30990225076675415 0.16629347205162048 0.15359470248222351
0.54534941911697388 0.21798773109912872 0.1997227668762207
0.73731088638305664 0.28507018089294434 0.25316837430000305
0.87070333957672119 0.34225368499755859 0.32083937525749207
0.9384763240814209 0.39282029867172241 0.39164823293685913
0.0082218991592526436 0.25521785020828247 0.12676626443862915
0.075518496334552765 0.28052079677581787 0.13432292640209198
0.30612948536872864 0.30542382597923279 0.16212281584739685
0.5501219630241394 0.35100039839744568 0.19960345327854156
0.74633276462554932 0.4077785313129425 0.25007954239845276
0.87999743223190308 0.45069867372512817 0.32000711560249329
0.95174378156661987 0.484498530626297 0.38840201497077942
0.0051349564455449581 0.44660210609436035 0.14148038625717163
0.038710232824087143 0.46957209706306458 0.13265496492385864
0.26080641150474548 0.48921701312065125 0.15725322067737579
0.54559886455535889 0.51623213291168213 0.20559133589267731
0.74303615093231201 0.55410456657409668 0.25531646609306335
0.87150377035140991 0.58950692415237427 0.31367051601409912
0.94268077611923218 0.61823970079421997 0.35587817430496216
0.0077501186169683933 0.53890150785446167 0.21427984535694122
0.034592751413583755 0.5962415337562561 0.17148639261722565
0.22291585803031921 0.6394507884979248 0.20608846843242645
0.53617638349533081 0.6649404764175415 0.23799894750118256
0.73382163047790527 0.67927378416061401 0.280161052942276
0.86772781610488892 0.71548336744308472 0.33704033493995667
0.96318024396896362 0.75090557336807251 0.38742169737815857
0.009800376370549202 0.57915550470352173 0.27265352010726929
0.054363761097192764 0.66814184188842773 0.2438412606716156
0.22785590589046478 0.71293503046035767 0.28077200055122375
0.56202375888824463 0.72432976961135864 0.26557117700576782
0.7178579568862915 0.75358545780181885 0.31049752235412598
0.87055593729019165 0.79016780853271484 0.40023201704025269
0.92601341009140015 0.79111748933792114 0.41473391652107239
0.005415014922618866 0.61498284339904785 0.39279994368553162
0.097184136509895325 0.70810180902481079 0.30166074633598328
0.22127446532249451 0.73929101228713989 0.32815173268318176
0.51899451017379761 0.74598294496536255 0.32705274224281311
0.70915263891220093 0.77290385961532593 0.34675964713096619
0.87538844347000122 0.80394142866134644 0.42398747801780701
0.9290231466293335 0.83736729621887207 0.49270537495613098
0.045030795037746429 0.10566610842943192 0.31214067339897156
0.19015876948833466 0.13374382257461548 0.34516146779060364
0.3603489100933075 0.16749407351016998 0.36104351282119751
0.57567888498306274 0.22635629773139954 0.40777319669723511
0.76210016012191772 0.2784028947353363 0.42748448252677917
0.88170689344406128 0.34073194861412048 0.48935243487358093
0.96345645189285278 0.39041540026664734 0.5589098334312439
0.033765964210033417 0.16950267553329468 0.29189944267272949
0.15916904807090759 0.18858428299427032 0.3086458146572113
0.35705378651618958 0.2310069352388382 0.34537866711616516
0.57012462615966797 0.27982765436172485 0.37994250655174255
0.75881505012512207 0.3299313485622406 0.41889357566833496
0.88585537672042847 0.39011690020561218 0.46052825450897217
0.98480772972106934 0.4423869252204895 0.50083690881729126
0.021871529519557953 0.31197404861450195 0.31480324268341064
0.11288446187973022 0.33189994096755981 0.32575643062591553
0.34776097536087036 0.36199131608009338 0.34848788380622864
0.55737513303756714 0.39935967326164246 0.38959845900535583
0.75581365823745728 0.44681975245475769 0.4324546754360199
0.88897120952606201 0.48311662673950195 0.47177046537399292
0.97806966304779053 0.51296460628509521 0.49863079190254211
0.0097848484292626381 0.49536970257759094 0.35440489649772644
0.060593236237764359 0.5050475001335144 0.33505627512931824
0.29714486002922058 0.52886921167373657 0.35852512717247009
0.54852259159088135 0.55122560262680054 0.40068793296813965
0.74108564853668213 0.58015602827072144 0.43310546875
0.86898320913314819 0.60925149917602539 0.4678533673286438
0.96929550170898438 0.64328080415725708 0.51412695646286011
0.0043253432959318161 0.59758549928665161 0.40747848153114319
0.052514813840389252 0.65192437171936035 0.37477189302444458
0.2375459223985672 0.67050087451934814 0.35673937201499939
0.53320044279098511 0.68633389472961426 0.40119197964668274
0.73035675287246704 0.70621448755264282 0.43454891443252563
0.86539727449417114 0.73550403118133545 0.4708651602268219
0.96303302049636841 0.76565104722976685 0.49441719055175781
0.023133834823966026 0.71485668420791626 0.42238357663154602
0.05091838538646698 0.73270928859710693 0.39510628581047058
0.22264499962329865 0.74801433086395264 0.38656836748123169
0.51287668943405151 0.76930421590805054 0.41837799549102783
0.72138732671737671 0.7956244945526123 0.46506771445274353
0.86928999423980713 0.80722928047180176 0.49241387844085693
0.95040708780288696 0.83722001314163208 0.53684574365615845
0.027205882593989372 0.73039954900741577 0.41476225852966309
0.065551713109016418 0.74090445041656494 0.40534204244613647
0.23940089344978333 0.78778398036956787 0.48043423891067505
0.50633817911148071 0.80872189998626709 0.49777907133102417
0.71288508176803589 0.81745427846908569 0.49397128820419312
0.89301532506942749 0.84800845384597778 0.54045456647872925
0.95145022869110107 0.86702990531921387 0.58004337549209595
0.18514434993267059 0.18094606697559357 0.52756631374359131
0.30573612451553345 0.20747816562652588 0.54854881763458252
0.47138604521751404 0.25155028700828552 0.56467914581298828
0.62625598907470703 0.29659900069236755 0.58493638038635254
0.77516371011734009 0.34885996580123901 0.61588025093078613
0.89653629064559937 0.40441280603408813 0.63928759098052979
0.98791497945785522 0.4481891393661499 0.67122840881347656
0.083571143448352814 0.24955183267593384 0.51936453580856323
0.23151977360248566 0.27542561292648315 0.53472423553466797
0.41134235262870789 0.31422930955886841 0.55155640840530396
0.60285305976867676 0.35768821835517883 0.56907373666763306
0.7702333927154541 0.40361517667770386 0.6026729941368103
0.8876795768737793 0.4504641592502594 0.62635129690170288
0.98560506105422974 0.49111741781234741 0.66181200742721558
0.037429165095090866 0.38596266508102417 0.53329062461853027
0.1794411689043045 0.40185713768005371 0.53863179683685303
0.38587281107902527 0.43248236179351807 0.55707722902297974
0.59152549505233765 0.47348567843437195 0.58666366338729858
0.76455110311508179 0.50267297029495239 0.61157035827636719
0.88636451959609985 0.53904253244400024 0.63468325138092041
0.97980022430419922 0.58115184307098389 0.66772091388702393
0.023130230605602264 0.54889130592346191 0.55429732799530029
0.12021882086992264 0.55727082490921021 0.54531365633010864
0.36066931486129761 0.57892972230911255 0.56835401058197021
0.57602560520172119 0.60217607021331787 0.59931749105453491
0.74761265516281128 0.61904710531234741 0.62065243721008301
0.87051093578338623 0.65173459053039551 0.6432797908782959
0.9777105450630188 0.67969828844070435 0.67234247922897339
0.019297072663903236 0.67731130123138428 0.59968835115432739
0.098040655255317688 0.6846192479133606 0.5495917797088623
0.30565270781517029 0.69960510730743408 0.55910944938659668
0.56274920701980591 0.71406435966491699 0.59159833192825317
0.73585754632949829 0.73248231410980225 0.61735856533050537
0.86689454317092896 0.75678157806396484 0.63247579336166382
0.97078895568847656 0.78806400299072266 0.6651192307472229
0.037699110805988312 0.75647151470184326 0.65095949172973633
0.10106173902750015 0.77285683155059814 0.5913398265838623
0.2662138044834137 0.79206579923629761 0.58164876699447632
0.50594556331634521 0.80018538236618042 0.59279727935791016
0.73652088642120361 0.81133216619491577 0.62178295850753784
0.87603819370269775 0.84172898530960083 0.65592712163925171
0.97034287452697754 0.88200145959854126 0.69533413648605347
0.042964126914739609 0.77345222234725952 0.6622733473777771
0.12473125010728836 0.79443156719207764 0.61911380290985107
0.27203065156936646 0.80766099691390991 0.59254580736160278
0.50049424171447754 0.81927883625030518 0.59288126230239868
0.74052143096923828 0.83444505929946899 0.62011921405792236
0.90160739421844482 0.88618588447570801 0.68067491054534912
0.96588540077209473 0.90495032072067261 0.69913828372955322
0.35961064696311951 0.2395828515291214 0.70426267385482788
0.43841838836669922 0.27582752704620361 0.71077817678451538
0.54387903213500977 0.32069799304008484 0.7195819616317749
0.67910456657409668 0.37408781051635742 0.73250275850296021
0.80479919910430908 0.42421600222587585 0.75071978569030762
0.91074073314666748 0.47940915822982788 0.77554178237915039
0.98444980382919312 0.51964199542999268 0.81078898906707764
0.21370835602283478 0.34006941318511963 0.70014452934265137
0.33514797687530518 0.37590223550796509 0.70725119113922119
0.48762720823287964 0.4031517505645752 0.72657078504562378
0.63442134857177734 0.44227266311645508 0.74032092094421387
0.77816325426101685 0.48411533236503601 0.75354576110839844
0.89146041870117188 0.533100426197052 0.77561652660369873
0.98510992527008057 0.56609368324279785 0.80022948980331421
0.12353271991014481 0.46297135949134827 0.70827442407608032
0.27964508533477783 0.48943158984184265 0.71137118339538574
0.45028156042098999 0.50884890556335449 0.72550046443939209
0.62254339456558228 0.53986155986785889 0.74234282970428467
0.76447129249572754 0.57753413915634155 0.75494015216827393
0.88306975364685059 0.60697954893112183 0.77630454301834106
0.97668588161468506 0.63290005922317505 0.79268145561218262
0.066844135522842407 0.59836655855178833 0.71475273370742798
0.22088731825351715 0.6114661693572998 0.71533071994781494
0.42941051721572876 0.62474614381790161 0.72666537761688232
0.61718219518661499 0.649802565574646 0.7441478967666626
0.75667136907577515 0.67599022388458252 0.7616196870803833
0.8769524097442627 0.69893538951873779 0.78053742647171021
0.97865653038024902 0.72661787271499634 0.79478543996810913
0.060504060238599777 0.70703983306884766 0.72013062238693237
0.19185873866081238 0.71626901626586914 0.71667003631591797
0.39639654755592346 0.73209118843078613 0.72609102725982666
0.59996116161346436 0.74656051397323608 0.74880057573318481
0.74682217836380005 0.76509398221969604 0.76677608489990234
0.87385642528533936 0.78639298677444458 0.77881938219070435
0.97608709335327148 0.82391762733459473 0.80430382490158081
0.095960624516010284 0.80118608474731445 0.74752050638198853
0.18822498619556427 0.80235844850540161 0.73166012763977051
0.36624366044998169 0.81874006986618042 0.73938602209091187
0.5745360255241394 0.82640433311462402 0.75959914922714233
0.75550216436386108 0.84254920482635498 0.77503585815429688
0.88432198762893677 0.86395710706710815 0.78717982769012451
0.97545069456100464 0.90566521883010864 0.821544349193573
0.10445152968168259 0.82409769296646118 0.75290852785110474
0.24607127904891968 0.85183775424957275 0.78673654794692993
0.39284291863441467 0.86280918121337891 0.79023092985153198
0.61577391624450684 0.88011670112609863 0.81553089618682861
0.7724120020866394 0.88542604446411133 0.80362933874130249
0.90373891592025757 0.9014132022857666 0.8030315637588501
0.97607964277267456 0.93559837341308594 0.83011889457702637
0.53164476156234741 0.28878918290138245 0.85285377502441406
0.57758569717407227 0.33137768507003784 0.85260850191116333
0.63953280448913574 0.38628387451171875 0.84914380311965942
0.74436479806900024 0.43977862596511841 0.85660642385482788
0.85308563709259033 0.49897223711013794 0.86605143547058105
0.94051128625869751 0.55653852224349976 0.89220964908599854
0.99357730150222778 0.596790611743927 0.90061670541763306
0.38464292883872986 0.4202275276184082 0.83963227272033691
0.46106317639350891 0.46665281057357788 0.84517163038253784
0.57718676328659058 0.49189746379852295 0.84706354141235352
0.69421696662902832 0.52630001306533813 0.8521086573600769
0.81350088119506836 0.56842601299285889 0.86217796802520752
0.91619956493377686 0.61153107881546021 0.88311851024627686
0.98539787530899048 0.63001388311386108 0.89600062370300293
0.22605368494987488 0.54135787487030029 0.83370810747146606
0.39921864867210388 0.57238984107971191 0.84077173471450806
0.53308236598968506 0.59407752752304077 0.84691965579986572
0.6666409969329834 0.61292368173599243 0.85396814346313477
0.78919458389282227 0.65099930763244629 0.86894673109054565
0.89691621065139771 0.67967027425765991 0.88381707668304443
0.9856717586517334 0.6914069652557373 0.89133429527282715
0.19692438840866089 0.65461713075637817 0.83921509981155396
0.37329831719398499 0.67333483695983887 0.83991861343383789
0.51456379890441895 0.68921494483947754 0.84953868389129639
0.65601837635040283 0.70175909996032715 0.85932564735412598
0.77291500568389893 0.72237306833267212 0.87186181545257568
0.8882785439491272 0.74048954248428345 0.89015835523605347
0.98546910285949707 0.76659619808197021 0.90731555223464966
0.18136920034885406 0.75464189052581787 0.84338617324829102
0.33433958888053894 0.76436769962310791 0.84368288516998291
0.49723273515701294 0.7760811448097229 0.85504090785980225
0.63691830635070801 0.7895318865776062 0.86356139183044434
0.76949197053909302 0.8051636815071106 0.87468522787094116
0.89045798778533936 0.82266736030578613 0.88984155654907227
0.97951531410217285 0.848732590675354 0.9088665246963501
0.20132918655872345 0.83797776699066162 0.85606741905212402
0.31202730536460876 0.85052722692489624 0.85996055603027344
0.45868921279907227 0.85971015691757202 0.86772423982620239
0.63166767358779907 0.86441713571548462 0.8729979395866394
0.77972567081451416 0.87951600551605225 0.88417690992355347
0.90043538808822632 0.89494526386260986 0.90390443801879883
0.98135566711425781 0.93170154094696045 0.9296342134475708
0.3600882887840271 0.90128135681152344 0.90110319852828979
0.32639414072036743 0.8852418065071106 0.86959826946258545
0.4452679455280304 0.89199024438858032 0.87335109710693359
0.63987427949905396 0.90862208604812622 0.89733809232711792
0.79847639799118042 0.92004746198654175 0.90373533964157104
0.9092785120010376 0.93625390529632568 0.91324472427368164
0.98249787092208862 0.9617123007774353 0.93582642078399658
0.6512991189956665 0.34758689999580383 0.95267277956008911
0.68382167816162109 0.38431701064109802 0.95266598463058472
0.74120080471038818 0.424896240234375 0.95565658807754517
0.82583272457122803 0.48251533508300781 0.9677618145942688
0.90820783376693726 0.55040907859802246 0.9708220362663269
0.9688984751701355 0.61530077457427979 0.97585725784301758
0.99585616588592529 0.64990919828414917 0.97272628545761108
0.56682670116424561 0.45448237657546997 0.94898498058319092
0.62514829635620117 0.50689512491226196 0.95698040723800659
0.69194036722183228 0.5555841326713562 0.95643323659896851
0.78094291687011719 0.58768981695175171 0.95942205190658569
0.87493711709976196 0.62525445222854614 0.96457111835479736
0.94849759340286255 0.67581027746200562 0.9692046046257019
0.98622554540634155 0.68599247932434082 0.96727973222732544
0.29036092758178711 0.6093558669090271 0.93296951055526733
0.48289662599563599 0.64808279275894165 0.94786286354064941
0.61374682188034058 0.67824918031692505 0.94781529903411865
0.72790956497192383 0.69593280553817749 0.95169234275817871
0.84037363529205322 0.70897632837295532 0.95817416906356812
0.93097841739654541 0.73380428552627563 0.96826076507568359
0.98865753412246704 0.75049006938934326 0.97665339708328247
0.20169757306575775 0.70644950866699219 0.93306702375411987
0.36890682578086853 0.73359233140945435 0.94790184497833252
0.58620274066925049 0.76085746288299561 0.94744950532913208
0.69890308380126953 0.76753956079483032 0.94582206010818481
0.81036972999572754 0.78156203031539917 0.95145565271377563
0.92023676633834839 0.80270922183990479 0.96559685468673706
0.984730064868927 0.80408120155334473 0.96895956993103027
0.27756163477897644 0.80400979518890381 0.94115144014358521
0.37182891368865967 0.81776517629623413 0.9536818265914917
0.57643872499465942 0.83578121662139893 0.95118170976638794
0.69091355800628662 0.8395310640335083 0.95094102621078491
0.80814051628112793 0.85218226909637451 0.95616185665130615
0.91291505098342896 0.8676750659942627 0.96623724699020386
0.99148666858673096 0.88702702522277832 0.98047655820846558
0.36591640114784241 0.89758086204528809 0.96030580997467041
0.433074951171875 0.90270519256591797 0.96632909774780273
0.55739641189575195 0.90908020734786987 0.96376341581344604
0.69921571016311646 0.9158935546875 0.96441870927810669
0.82785862684249878 0.92609906196594238 0.97192394733428955
0.93223351240158081 0.93625205755233765 0.97463452816009521
0.98600465059280396 0.95654720067977905 0.982677161693573
0.40335062146186829 0.91634231805801392 0.94582319259643555
0.38464593887329102 0.90689867734909058 0.92644113302230835
0.52925401926040649 0.91628187894821167 0.94187551736831665
0.69269853830337524 0.93016612529754639 0.95624279975891113
0.8381463885307312 0.94652515649795532 0.96982699632644653
0.94042104482650757 0.96323412656784058 0.97851133346557617
0.98935526609420776 0.97624403238296509 0.97798818349838257
