assets/lut/fujixtransiii fuji xtrans iii pro neg std.cube
# Created by: G'MIC (https://gmic.eu)
TITLE "fuji_xtrans_iii_pro_neg_std"
# LUT size
LUT_3D_SIZE 7
# Data domain
DOMAIN_MIN 0.0 0.0 0.0
DOMAIN_MAX 1.0 1.0 1.0
# LUT data points
0.020537402480840683 0.028101259842514992 0.026639018207788467
0.11078639328479767 0.042426720261573792 0.036405183374881744
0.28452956676483154 0.080484874546527863 0.074198059737682343
0.49936741590499878 0.15030260384082794 0.12939079105854034
0.687796950340271 0.21173998713493347 0.19762043654918671
0.77216494083404541 0.24459545314311981 0.23308615386486053
0.8088071346282959 0.26930391788482666 0.26190993189811707
0.016857491806149483 0.10984060168266296 0.027544118463993073
0.12181806564331055 0.1226457804441452 0.043989188969135284
0.3039136528968811 0.16541734337806702 0.071683220565319061
0.5189204216003418 0.20678997039794922 0.11869626492261887
0.70691907405853271 0.25753676891326904 0.18123047053813934
0.80457735061645508 0.28703159093856812 0.22328236699104309
0.85963243246078491 0.34640699625015259 0.25912368297576904
0.011807415634393692 0.26458302140235901 0.011616501025855541
0.084051512181758881 0.30107954144477844 0.018859010189771652
0.31032902002334595 0.32308170199394226 0.046536672860383987
0.5207635760307312 0.34373688697814941 0.077417992055416107
0.70148420333862305 0.37156718969345093 0.14334447681903839
0.83188730478286743 0.40378427505493164 0.2074839323759079
0.87516039609909058 0.40765345096588135 0.24303945899009705
0.0053167156875133514 0.41090041399002075 0.0050267535261809826
0.058722164481878281 0.45859673619270325 0.0065554003231227398
0.28436827659606934 0.4973675012588501 0.017561804503202438
0.51836341619491577 0.5138319730758667 0.056229069828987122
0.69423556327819824 0.53454750776290894 0.11172892153263092
0.80611050128936768 0.56075161695480347 0.17515139281749725
0.87511914968490601 0.58753889799118042 0.24301430583000183
0.020320607349276543 0.48156976699829102 0.035650424659252167
0.042199317365884781 0.55615073442459106 0.049695692956447601
0.28073570132255554 0.57232224941253662 0.030701521784067154
0.51995617151260376 0.64771872758865356 0.085411041975021362
0.70353692770004272 0.65352934598922729 0.13771133124828339
0.80928272008895874 0.6663212776184082 0.17625688016414642
0.86863714456558228 0.70795351266860962 0.24324381351470947
0.023932123556733131 0.51641535758972168 0.058045823127031326
0.06438630074262619 0.65352523326873779 0.14139704406261444
0.25897383689880371 0.68316590785980225 0.13818278908729553
0.52117305994033813 0.68800336122512817 0.12894995510578156
0.66924560070037842 0.69371479749679565 0.16507403552532196
0.84867238998413086 0.71739614009857178 0.23722822964191437
0.90061712265014648 0.74385738372802734 0.28556340932846069
0.036488179117441177 0.55695432424545288 0.03918476402759552
0.070441089570522308 0.68045324087142944 0.16209526360034943
0.25251400470733643 0.71504384279251099 0.17271487414836884
0.53508150577545166 0.73084330558776855 0.18162734806537628
0.6754690408706665 0.77163630723953247 0.25418826937675476
0.82909387350082397 0.78470194339752197 0.31475287675857544
0.89505386352539062 0.79007673263549805 0.34369373321533203
0.029932329431176186 0.058863606303930283 0.13215017318725586
0.14521750807762146 0.087091661989688873 0.14626628160476685
0.31060266494750977 0.12518526613712311 0.1953626275062561
0.53291958570480347 0.18996007740497589 0.25577190518379211
0.73593223094940186 0.22867751121520996 0.3005974292755127
0.81328994035720825 0.26171362400054932 0.33410131931304932
0.91955041885375977 0.32813525199890137 0.44399288296699524
0.034706324338912964 0.1451374739408493 0.13997219502925873
0.14770464599132538 0.16181899607181549 0.15135809779167175
0.3230588436126709 0.19514612853527069 0.18798111379146576
0.5279841423034668 0.23218631744384766 0.2332192063331604
0.71388256549835205 0.27860835194587708 0.28608089685440063
0.85024505853652954 0.32445508241653442 0.33979770541191101
0.92506676912307739 0.36071789264678955 0.40857416391372681
0.017035361379384995 0.29861953854560852 0.13144879043102264
0.12510225176811218 0.3191857635974884 0.13915082812309265
0.31404775381088257 0.33593893051147461 0.16591483354568481
0.52212560176849365 0.36226376891136169 0.21032878756523132
0.710254967212677 0.40105080604553223 0.25709041953086853
0.84968119859695435 0.43416953086853027 0.31339734792709351
0.94130200147628784 0.45775458216667175 0.38184675574302673
0.0075276093557476997 0.47788169980049133 0.12221513688564301
0.068662859499454498 0.50082200765609741 0.10161066800355911
0.27093014121055603 0.51042705774307251 0.13617362082004547
0.50928688049316406 0.52964228391647339 0.18386046588420868
0.69962471723556519 0.55779707431793213 0.22421424090862274
0.84354680776596069 0.57773619890213013 0.27318271994590759
0.92399567365646362 0.59586215019226074 0.31408864259719849
0.010330080054700375 0.56405770778656006 0.17746667563915253
0.049723036587238312 0.62015146017074585 0.12862564623355865
0.22425732016563416 0.66384249925613403 0.16450390219688416
0.49290615320205688 0.67817580699920654 0.18974435329437256
0.68566817045211792 0.68984454870223999 0.22799807786941528
0.83298605680465698 0.71536022424697876 0.27162238955497742
0.9318927526473999 0.74460506439208984 0.31552582979202271
0.015106186270713806 0.59728491306304932 0.22944533824920654
0.068717241287231445 0.69701558351516724 0.20304295420646667
0.22655113041400909 0.74007570743560791 0.23481248319149017
0.51788067817687988 0.74324953556060791 0.21464695036411285
0.66769766807556152 0.76501679420471191 0.25054749846458435
0.83290660381317139 0.79287755489349365 0.32640615105628967
0.8929029107093811 0.79471105337142944 0.3467240035533905
0.013940983451902866 0.62970119714736938 0.35535213351249695
0.11096106469631195 0.74183493852615356 0.25767683982849121
0.22007092833518982 0.76974034309387207 0.28149518370628357
0.47699558734893799 0.76784151792526245 0.27604830265045166
0.65628182888031006 0.78643101453781128 0.28194281458854675
0.84163886308670044 0.80993509292602539 0.35522308945655823
0.89906984567642212 0.84430086612701416 0.42246043682098389
0.08913053572177887 0.13116124272346497 0.37824156880378723
0.23174801468849182 0.15253110229969025 0.40989163517951965
0.37832754850387573 0.18438263237476349 0.42323300242424011
0.56686294078826904 0.22245560586452484 0.47139063477516174
0.74647009372711182 0.26308527588844299 0.48329475522041321
0.87643128633499146 0.31009963154792786 0.53399842977523804
0.96711289882659912 0.34137716889381409 0.59951573610305786
0.080458834767341614 0.20375390350818634 0.34737488627433777
0.20546677708625793 0.22180357575416565 0.36006146669387817
0.36957606673240662 0.24547053873538971 0.38876259326934814
0.55850756168365479 0.28110179305076599 0.42572560906410217
0.73532235622406006 0.32017600536346436 0.4620211124420166
0.87479466199874878 0.36171570420265198 0.49729800224304199
0.98556166887283325 0.40298894047737122 0.51762425899505615
0.043896827846765518 0.34561198949813843 0.33510681986808777
0.17094540596008301 0.35579892992973328 0.33886814117431641
0.35937932133674622 0.37670490145683289 0.36703181266784668
0.5548478364944458 0.40131357312202454 0.39894548058509827
0.7346034049987793 0.43220245838165283 0.43399369716644287
0.87447488307952881 0.45822411775588989 0.47233179211616516
0.97654706239700317 0.47243604063987732 0.49558871984481812
0.021116040647029877 0.51448595523834229 0.33380401134490967
0.11354519426822662 0.52367228269577026 0.31496042013168335
0.31778240203857422 0.53941363096237183 0.33701357245445251
0.53311115503311157 0.5558738112449646 0.3727838397026062
0.71616774797439575 0.5813833475112915 0.40659856796264648
0.86258107423782349 0.59302765130996704 0.43859827518463135
0.95943677425384521 0.61028319597244263 0.46919330954551697
0.013010286726057529 0.61180692911148071 0.37031975388526917
0.070055507123470306 0.66951179504394531 0.32173752784729004
0.25252774357795715 0.68883079290390015 0.31435951590538025
0.50305467844009399 0.69524127244949341 0.34539374709129333
0.69752806425094604 0.71159178018569946 0.38587844371795654
0.84099143743515015 0.72504061460494995 0.41357523202896118
0.9482455849647522 0.74568080902099609 0.43333038687705994
0.038993056863546371 0.74094414710998535 0.37278640270233154
0.062568634748458862 0.76299405097961426 0.34396404027938843
0.22602158784866333 0.77594029903411865 0.32981744408607483
0.47356665134429932 0.78870600461959839 0.35721305012702942
0.67532819509506226 0.814075767993927 0.41078275442123413
0.83462947607040405 0.8155096173286438 0.42606508731842041
0.93135511875152588 0.83654648065567017 0.45512792468070984
0.043732017278671265 0.7597346305847168 0.35890376567840576
0.078889720141887665 0.76864492893218994 0.35178288817405701
0.24561312794685364 0.81461960077285767 0.4160827100276947
0.4675978422164917 0.83109074831008911 0.43499487638473511
0.66070681810379028 0.83484387397766113 0.43429970741271973
0.86123877763748169 0.85455399751663208 0.46731817722320557
0.92921358346939087 0.87187403440475464 0.50538462400436401
0.20426307618618011 0.16911734640598297 0.62980467081069946
0.32727643847465515 0.19419105350971222 0.64229667186737061
0.46931314468383789 0.2240557074546814 0.65726256370544434
0.6267896294593811 0.27097782492637634 0.67745745182037354
0.77526170015335083 0.31748735904693604 0.69492161273956299
0.90795493125915527 0.36114981770515442 0.7118229866027832
0.99023425579071045 0.39477109909057617 0.73422139883041382
0.14696279168128967 0.26553100347518921 0.58870559930801392
0.28754115104675293 0.29284203052520752 0.59651583433151245
0.43145385384559631 0.31267058849334717 0.620136559009552
0.60712337493896484 0.34636369347572327 0.64875215291976929
0.7673688530921936 0.37856283783912659 0.66666620969772339
0.89352560043334961 0.41008973121643066 0.68466436862945557
0.98966580629348755 0.43846723437309265 0.70716959238052368
0.10969138145446777 0.39631637930870056 0.55896413326263428
0.25193893909454346 0.41185641288757324 0.56722170114517212
0.42003035545349121 0.43149182200431824 0.59591037034988403
0.59399795532226562 0.45534732937812805 0.61606127023696899
0.75591248273849487 0.47820425033569336 0.63768023252487183
0.88949871063232422 0.49767395853996277 0.65986675024032593
0.98793715238571167 0.51835554838180542 0.68069148063659668
0.068990878760814667 0.54837262630462646 0.53511244058609009
0.19213417172431946 0.56197404861450195 0.53625166416168213
0.39542058110237122 0.56794649362564087 0.56024754047393799
0.57465833425521851 0.58220851421356201 0.57743781805038452
0.74039351940155029 0.59842526912689209 0.60612374544143677
0.87887489795684814 0.61674892902374268 0.62243056297302246
0.97769880294799805 0.63414895534515381 0.63756483793258667
0.058147653937339783 0.68166446685791016 0.54785484075546265
0.14756289124488831 0.69795399904251099 0.51198971271514893
0.33043667674064636 0.70563727617263794 0.52257496118545532
0.54233604669570923 0.71381396055221558 0.54753071069717407
0.72013133764266968 0.72222793102264404 0.56945973634719849
0.85984355211257935 0.73654854297637939 0.58946102857589722
0.95661956071853638 0.76326626539230347 0.61290198564529419
0.072308272123336792 0.77504611015319824 0.59525895118713379
0.14125269651412964 0.79426819086074829 0.52735632658004761
0.28255018591880798 0.81483638286590576 0.51746559143066406
0.48355332016944885 0.8188815712928772 0.53107273578643799
0.70104742050170898 0.82283705472946167 0.54706984758377075
0.85344010591506958 0.8420717716217041 0.58589982986450195
0.96047121286392212 0.87604653835296631 0.61924880743026733
0.082901671528816223 0.79218065738677979 0.61388152837753296
0.16907525062561035 0.81924402713775635 0.56199604272842407
0.28586727380752563 0.82924985885620117 0.52452665567398071
0.47691547870635986 0.83708608150482178 0.52877521514892578
0.69990819692611694 0.84364444017410278 0.5580068826675415
0.87100636959075928 0.88928115367889404 0.61307710409164429
0.95141273736953735 0.90805602073669434 0.62739086151123047
0.3457673192024231 0.18504036962985992 0.819327712059021
0.43531709909439087 0.22671656310558319 0.81861358880996704
0.55389517545700073 0.27837696671485901 0.83325880765914917
0.68409770727157593 0.32508406043052673 0.84820610284805298
0.80702555179595947 0.37180069088935852 0.85824745893478394
0.92105525732040405 0.41477152705192566 0.87092339992523193
0.98720800876617432 0.44284158945083618 0.90699583292007446
0.24771586060523987 0.33152472972869873 0.79302120208740234
0.38362875580787659 0.37000709772109985 0.7970125675201416
0.50537782907485962 0.38857871294021606 0.80741411447525024
0.6587141752243042 0.41340139508247375 0.82536780834197998
0.79706031084060669 0.44674843549728394 0.83674997091293335
0.9114844799041748 0.47661969065666199 0.85567575693130493
0.9946519136428833 0.49674969911575317 0.8760494589805603
0.20037680864334106 0.45772477984428406 0.76008361577987671
0.3599776029586792 0.48101904988288879 0.7715991735458374
0.48846516013145447 0.49881896376609802 0.78863447904586792
0.63700664043426514 0.51359277963638306 0.80355846881866455
0.78142243623733521 0.53181344270706177 0.81255358457565308
0.90401184558868408 0.55443751811981201 0.83464109897613525
0.99256712198257446 0.57963991165161133 0.84740734100341797
0.18110378086566925 0.590767502784729 0.72787678241729736
0.32093638181686401 0.60397964715957642 0.73862504959106445
0.45456716418266296 0.60906398296356201 0.750541090965271
0.61486119031906128 0.62304872274398804 0.76171600818634033
0.77003335952758789 0.63705945014953613 0.76950138807296753
0.892539381980896 0.65390276908874512 0.7962183952331543
0.98672914505004883 0.67498713731765747 0.81882089376449585
0.15009230375289917 0.72000271081924438 0.7015259861946106
0.25686377286911011 0.72907447814941406 0.70168089866638184
0.4134928286075592 0.72891944646835327 0.71944576501846313
0.58628302812576294 0.74055904150009155 0.72600865364074707
0.75067383050918579 0.74313515424728394 0.74151045083999634
0.87727254629135132 0.76204293966293335 0.76375019550323486
0.96904844045639038 0.78962159156799316 0.78925776481628418
0.16614371538162231 0.83118933439254761 0.71015387773513794
0.23933422565460205 0.81917601823806763 0.69011729955673218
0.37998926639556885 0.82754069566726685 0.69763976335525513
0.56284904479980469 0.8360741138458252 0.7196844220161438
0.73586022853851318 0.84116029739379883 0.73113983869552612
0.87387406826019287 0.85844409465789795 0.74882888793945312
0.9746738076210022 0.8995327353477478 0.77702003717422485
0.17171017825603485 0.84703022241592407 0.71196800470352173
0.29098236560821533 0.8704800009727478 0.74914103746414185
0.40861025452613831 0.87563586235046387 0.75045764446258545
0.6016353964805603 0.88690876960754395 0.78155016899108887
0.75177639722824097 0.89116835594177246 0.77347993850708008
0.89204174280166626 0.90329277515411377 0.75672215223312378
0.97635763883590698 0.9363132119178772 0.77937984466552734
0.50393688678741455 0.19152575731277466 0.94080471992492676
0.55622166395187378 0.24583020806312561 0.93927276134490967
0.64370012283325195 0.31540468335151672 0.94123893976211548
0.74717062711715698 0.37103095650672913 0.94781434535980225
0.85439294576644897 0.42593607306480408 0.95609545707702637
0.94526869058609009 0.47720915079116821 0.97161000967025757
0.9955824613571167 0.53164041042327881 0.995208740234375
0.38684755563735962 0.3813132643699646 0.93324083089828491
0.48739579319953918 0.43588516116142273 0.94071698188781738
0.57987654209136963 0.46535974740982056 0.94601064920425415
0.70098417997360229 0.48663744330406189 0.94858109951019287
0.82396978139877319 0.51876932382583618 0.96303987503051758
0.93023467063903809 0.54429608583450317 0.97390526533126831
0.99278199672698975 0.56522959470748901 0.98847019672393799
0.26330584287643433 0.52772480249404907 0.9129871129989624
0.4514305591583252 0.55765581130981445 0.92147743701934814
0.55748277902603149 0.5685114860534668 0.93129974603652954
0.67731249332427979 0.58065164089202881 0.9346623420715332
0.80639171600341797 0.59758120775222778 0.94402354955673218
0.91699528694152832 0.62275952100753784 0.95746386051177979
0.9933847188949585 0.63510984182357788 0.97146034240722656
0.27025774121284485 0.64379847049713135 0.88216227293014526
0.42155411839485168 0.66160303354263306 0.88144820928573608
0.53022783994674683 0.66424775123596191 0.89029163122177124
0.66177618503570557 0.67037534713745117 0.90739184617996216
0.79731333255767822 0.68481874465942383 0.91858488321304321
0.90717869997024536 0.69675463438034058 0.93308168649673462
0.99229490756988525 0.71760445833206177 0.95370966196060181
0.27682927250862122 0.75437659025192261 0.85811972618103027
0.38279622793197632 0.76822221279144287 0.85297310352325439
0.5060088038444519 0.77002620697021484 0.86435705423355103
0.64772695302963257 0.77514791488647461 0.87695127725601196
0.78005897998809814 0.78013569116592407 0.8925098180770874
0.8984074592590332 0.79660570621490479 0.91347366571426392
0.98710483312606812 0.81697595119476318 0.93307125568389893
0.29575666785240173 0.84091085195541382 0.85073840618133545
0.36366826295852661 0.85863602161407471 0.84819227457046509
0.48172676563262939 0.86595088243484497 0.85864555835723877
0.62662464380264282 0.86551356315612793 0.86876052618026733
0.77468794584274292 0.870319664478302 0.88011819124221802
0.89363241195678711 0.88767647743225098 0.89998072385787964
0.98277449607849121 0.92159181833267212 0.92393898963928223
0.40059313178062439 0.91677570343017578 0.88718998432159424
0.36343762278556824 0.89991426467895508 0.84957265853881836
0.4657081663608551 0.90546423196792603 0.85609233379364014
0.62795734405517578 0.91372853517532349 0.88639932870864868
0.78119045495986938 0.91594409942626953 0.87685489654541016
0.89836812019348145 0.92864561080932617 0.895579993724823
0.98072391748428345 0.95211887359619141 0.92036408185958862
0.62360310554504395 0.243204265832901 0.99294358491897583
0.66444927453994751 0.29006549715995789 0.99609476327896118
0.73418921232223511 0.34796988964080811 0.99570232629776001
0.82105618715286255 0.42308923602104187 0.99507337808609009
0.90682083368301392 0.5164492130279541 0.99549055099487305
0.96952712535858154 0.58500552177429199 0.99593812227249146
0.99607843160629272 0.61486721038818359 1
0.55682027339935303 0.38831344246864319 0.99248868227005005
0.63079589605331421 0.45794355869293213 0.99049180746078491
0.69605356454849243 0.51590925455093384 0.99106502532958984
0.79421776533126831 0.54782778024673462 0.99064433574676514
0.88231319189071655 0.60737067461013794 0.99256414175033569
0.96462893486022949 0.63556039333343506 0.99597370624542236
0.99774837493896484 0.62656325101852417 1
0.30435198545455933 0.58507257699966431 0.99217319488525391
0.52436333894729614 0.62468355894088745 0.9954647421836853
0.63596457242965698 0.64921027421951294 0.99246084690093994
0.74521005153656006 0.66199082136154175 0.99385553598403931
0.84992223978042603 0.6792292594909668 0.99462985992431641
0.9489670991897583 0.69428390264511108 0.99329221248626709
0.99723517894744873 0.70288145542144775 0.9999813437461853
0.2274983674287796 0.69611507654190063 0.9850393533706665
0.42074272036552429 0.7196199893951416 0.99178636074066162
0.61356514692306519 0.73514425754547119 0.99140059947967529
0.7258756160736084 0.74286830425262451 0.98997223377227783
0.83710312843322754 0.75570768117904663 0.99035680294036865
0.93450981378555298 0.76094925403594971 0.9891471266746521
0.99426472187042236 0.76827937364578247 0.99872606992721558
0.32630941271781921 0.80023729801177979 0.97627890110015869
0.41543847322463989 0.81447476148605347 0.98244035243988037
0.59988164901733398 0.82241004705429077 0.98281103372573853
0.71479147672653198 0.82865732908248901 0.98713392019271851
0.82496333122253418 0.83530920743942261 0.98644787073135376
0.92547613382339478 0.84310436248779297 0.99270498752593994
0.99567931890487671 0.85889416933059692 0.99820899963378906
0.42277324199676514 0.90216231346130371 0.97291743755340576
0.47968563437461853 0.90920263528823853 0.97798508405685425
0.58188444375991821 0.91327542066574097 0.9804835319519043
0.70392769575119019 0.9080163836479187 0.98414075374603271
0.82360029220581055 0.91916096210479736 0.98602795600891113
0.93004763126373291 0.9257199764251709 0.99042528867721558
0.98941129446029663 0.94146919250488281 0.99005204439163208
0.43841096758842468 0.92835873365402222 0.94133388996124268
0.43115109205245972 0.92113900184631348 0.92261201143264771
0.5448906421661377 0.92436355352401733 0.93996632099151611
0.69165134429931641 0.93284302949905396 0.95900028944015503
0.82544499635696411 0.94344562292098999 0.98589253425598145
0.93824321031570435 0.95238286256790161 0.98940658569335938
0.98135983943939209 0.96264100074768066 0.98345494270324707
