assets/lut/fujixtransiii fuji xtrans iii mono.cube
# Created by: G'MIC (https://gmic.eu)
TITLE "fuji_xtrans_iii_mono"
# LUT size
LUT_3D_SIZE 13
# Data domain
DOMAIN_MIN 0.0 0.0 0.0
DOMAIN_MAX 1.0 1.0 1.0
# LUT data points
0.010830613784492016 0.010830613784492016 0.010830613784492016
0.020449994131922722 0.020449994131922722 0.020449994131922722
0.035711970180273056 0.035711970180273056 0.035711970180273056
0.062360353767871857 0.062360353767871857 0.062360353767871857
0.10980107635259628 0.10980107635259628 0.10980107635259628
0.16621746122837067 0.16621746122837067 0.16621746122837067
0.21721701323986053 0.21721701323986053 0.21721701323986053
0.28554502129554749 0.28554502129554749 0.28554502129554749
0.3250848650932312 0.3250848650932312 0.3250848650932312
0.35414814949035645 0.35414814949035645 0.35414814949035645
0.36981397867202759 0.36981397867202759 0.36981397867202759
0.39070206880569458 0.39070206880569458 0.39070206880569458
0.40176889300346375 0.40176889300346375 0.40176889300346375
0.023471098393201828 0.023471098393201828 0.023471098393201828
0.03331470862030983 0.03331470862030983 0.03331470862030983
0.054565832018852234 0.054565832018852234 0.054565832018852234
0.085695900022983551 0.085695900022983551 0.085695900022983551
0.13251352310180664 0.13251352310180664 0.13251352310180664
0.18320253491401672 0.18320253491401672 0.18320253491401672
0.23531705141067505 0.23531705141067505 0.23531705141067505
0.29115983843803406 0.29115983843803406 0.29115983843803406
0.33659154176712036 0.33659154176712036 0.33659154176712036
0.37232840061187744 0.37232840061187744 0.37232840061187744
0.38409319519996643 0.38409319519996643 0.38409319519996643
0.40109258890151978 0.40109258890151978 0.40109258890151978
0.43236318230628967 0.43236318230628967 0.43236318230628967
0.05003579705953598 0.05003579705953598 0.05003579705953598
0.065087340772151947 0.065087340772151947 0.065087340772151947
0.086381368339061737 0.086381368339061737 0.086381368339061737
0.12722048163414001 0.12722048163414001 0.12722048163414001
0.17317062616348267 0.17317062616348267 0.17317062616348267
0.22113442420959473 0.22113442420959473 0.22113442420959473
0.26491215825080872 0.26491215825080872 0.26491215825080872
0.31073850393295288 0.31073850393295288 0.31073850393295288
0.35798269510269165 0.35798269510269165 0.35798269510269165
0.39432299137115479 0.39432299137115479 0.39432299137115479
0.41256207227706909 0.41256207227706909 0.41256207227706909
0.43876257538795471 0.43876257538795471 0.43876257538795471
0.4663752019405365 0.4663752019405365 0.4663752019405365
0.098642744123935699 0.098642744123935699 0.098642744123935699
0.11674587428569794 0.11674587428569794 0.11674587428569794
0.13924205303192139 0.13924205303192139 0.13924205303192139
0.18123328685760498 0.18123328685760498 0.18123328685760498
0.22294825315475464 0.22294825315475464 0.22294825315475464
0.2665550708770752 0.2665550708770752 0.2665550708770752
0.31015115976333618 0.31015115976333618 0.31015115976333618
0.35076653957366943 0.35076653957366943 0.35076653957366943
0.3942972719669342 0.3942972719669342 0.3942972719669342
0.43304747343063354 0.43304747343063354 0.43304747343063354
0.46364369988441467 0.46364369988441467 0.46364369988441467
0.46913698315620422 0.46913698315620422 0.46913698315620422
0.47657296061515808 0.47657296061515808 0.47657296061515808
0.1568724513053894 0.1568724513053894 0.1568724513053894
0.19593650102615356 0.19593650102615356 0.19593650102615356
0.21664270758628845 0.21664270758628845 0.21664270758628845
0.25009572505950928 0.25009572505950928 0.25009572505950928
0.28887298703193665 0.28887298703193665 0.28887298703193665
0.32786825299263 0.32786825299263 0.32786825299263
0.37018409371376038 0.37018409371376038 0.37018409371376038
0.40326902270317078 0.40326902270317078 0.40326902270317078
0.43576991558074951 0.43576991558074951 0.43576991558074951
0.46648323535919189 0.46648323535919189 0.46648323535919189
0.49034777283668518 0.49034777283668518 0.49034777283668518
0.48363634943962097 0.48363634943962097 0.48363634943962097
0.49924209713935852 0.49924209713935852 0.49924209713935852
0.22868341207504272 0.22868341207504272 0.22868341207504272
0.271034836769104 0.271034836769104 0.271034836769104
0.28204381465911865 0.28204381465911865 0.28204381465911865
0.309926837682724 0.309926837682724 0.309926837682724
0.35810619592666626 0.35810619592666626 0.35810619592666626
0.39495000243186951 0.39495000243186951 0.39495000243186951
0.42917397618293762 0.42917397618293762 0.42917397618293762
0.45883119106292725 0.45883119106292725 0.45883119106292725
0.48678702116012573 0.48678702116012573 0.48678702116012573
0.51623034477233887 0.51623034477233887 0.51623034477233887
0.53626143932342529 0.53626143932342529 0.53626143932342529
0.54109674692153931 0.54109674692153931 0.54109674692153931
0.57443773746490479 0.57443773746490479 0.57443773746490479
0.2786773145198822 0.2786773145198822 0.2786773145198822
0.30979061126708984 0.30979061126708984 0.30979061126708984
0.32695391774177551 0.32695391774177551 0.32695391774177551
0.35776248574256897 0.35776248574256897 0.35776248574256897
0.40797281265258789 0.40797281265258789 0.40797281265258789
0.4354521632194519 0.4354521632194519 0.4354521632194519
0.47535538673400879 0.47535538673400879 0.47535538673400879
0.51304727792739868 0.51304727792739868 0.51304727792739868
0.53848779201507568 0.53848779201507568 0.53848779201507568
0.56207364797592163 0.56207364797592163 0.56207364797592163
0.57680261135101318 0.57680261135101318 0.57680261135101318
0.59182804822921753 0.59182804822921753 0.59182804822921753
0.62181127071380615 0.62181127071380615 0.62181127071380615
0.30380290746688843 0.30380290746688843 0.30380290746688843
0.33043050765991211 0.33043050765991211 0.33043050765991211
0.37993356585502625 0.37993356585502625 0.37993356585502625
0.39221584796905518 0.39221584796905518 0.39221584796905518
0.44290953874588013 0.44290953874588013 0.44290953874588013
0.46673396229743958 0.46673396229743958 0.46673396229743958
0.51902943849563599 0.51902943849563599 0.51902943849563599
0.55460399389266968 0.55460399389266968 0.55460399389266968
0.58289074897766113 0.58289074897766113 0.58289074897766113
0.60965561866760254 0.60965561866760254 0.60965561866760254
0.6255534291267395 0.6255534291267395 0.6255534291267395
0.6400185227394104 0.6400185227394104 0.6400185227394104
0.66443783044815063 0.66443783044815063 0.66443783044815063
0.34212338924407959 0.34212338924407959 0.34212338924407959
0.35221216082572937 0.35221216082572937 0.35221216082572937
0.41133356094360352 0.41133356094360352 0.41133356094360352
0.40545061230659485 0.40545061230659485 0.40545061230659485
0.45593255758285522 0.45593255758285522 0.45593255758285522
0.49687919020652771 0.49687919020652771 0.49687919020652771
0.55867862701416016 0.55867862701416016 0.55867862701416016
0.59376400709152222 0.59376400709152222 0.59376400709152222
0.61801040172576904 0.61801040172576904 0.61801040172576904
0.64346450567245483 0.64346450567245483 0.64346450567245483
0.65384137630462646 0.65384137630462646 0.65384137630462646
0.68001115322113037 0.68001115322113037 0.68001115322113037
0.70350706577301025 0.70350706577301025 0.70350706577301025
0.36594751477241516 0.36594751477241516 0.36594751477241516
0.35358035564422607 0.35358035564422607 0.35358035564422607
0.40668919682502747 0.40668919682502747 0.40668919682502747
0.44136577844619751 0.44136577844619751 0.44136577844619751
0.48797765374183655 0.48797765374183655 0.48797765374183655
0.52204185724258423 0.52204185724258423 0.52204185724258423
0.56446784734725952 0.56446784734725952 0.56446784734725952
0.59794765710830688 0.59794765710830688 0.59794765710830688
0.62210685014724731 0.62210685014724731 0.62210685014724731
0.64839637279510498 0.64839637279510498 0.64839637279510498
0.6724204421043396 0.6724204421043396 0.6724204421043396
0.70367205142974854 0.70367205142974854 0.70367205142974854
0.72572362422943115 0.72572362422943115 0.72572362422943115
0.37634080648422241 0.37634080648422241 0.37634080648422241
0.36921504139900208 0.36921504139900208 0.36921504139900208
0.48310905694961548 0.48310905694961548 0.48310905694961548
0.51585477590560913 0.51585477590560913 0.51585477590560913
0.53518402576446533 0.53518402576446533 0.53518402576446533
0.55442410707473755 0.55442410707473755 0.55442410707473755
0.59269106388092041 0.59269106388092041 0.59269106388092041
0.60856741666793823 0.60856741666793823 0.60856741666793823
0.63475590944290161 0.63475590944290161 0.63475590944290161
0.6614951491355896 0.6614951491355896 0.6614951491355896
0.69665968418121338 0.69665968418121338 0.69665968418121338
0.72709947824478149 0.72709947824478149 0.72709947824478149
0.73346495628356934 0.73346495628356934 0.73346495628356934
0.4033200740814209 0.4033200740814209 0.4033200740814209
0.40105584263801575 0.40105584263801575 0.40105584263801575
0.50296676158905029 0.50296676158905029 0.50296676158905029
0.53331637382507324 0.53331637382507324 0.53331637382507324
0.55676603317260742 0.55676603317260742 0.55676603317260742
0.57883310317993164 0.57883310317993164 0.57883310317993164
0.61397343873977661 0.61397343873977661 0.61397343873977661
0.6307070255279541 0.6307070255279541 0.6307070255279541
0.6639171838760376 0.6639171838760376 0.6639171838760376
0.69495230913162231 0.69495230913162231 0.69495230913162231
0.7132028341293335 0.7132028341293335 0.7132028341293335
0.73422718048095703 0.73422718048095703 0.73422718048095703
0.74396812915802002 0.74396812915802002 0.74396812915802002
0.40926241874694824 0.40926241874694824 0.40926241874694824
0.40346074104309082 0.40346074104309082 0.40346074104309082
0.50536221265792847 0.50536221265792847 0.50536221265792847
0.53726339340209961 0.53726339340209961 0.53726339340209961
0.55493223667144775 0.55493223667144775 0.55493223667144775
0.57845276594161987 0.57845276594161987 0.57845276594161987
0.61723983287811279 0.61723983287811279 0.61723983287811279
0.65168792009353638 0.65168792009353638 0.65168792009353638
0.69173860549926758 0.69173860549926758 0.69173860549926758
0.72556203603744507 0.72556203603744507 0.72556203603744507
0.74669003486633301 0.74669003486633301 0.74669003486633301
0.76020890474319458 0.76020890474319458 0.76020890474319458
0.76868832111358643 0.76868832111358643 0.76868832111358643
0.015931013971567154 0.015931013971567154 0.015931013971567154
0.02512073889374733 0.02512073889374733 0.02512073889374733
0.051026258617639542 0.051026258617639542 0.051026258617639542
0.080400265753269196 0.080400265753269196 0.080400265753269196
0.11136087030172348 0.11136087030172348 0.11136087030172348
0.18005025386810303 0.18005025386810303 0.18005025386810303
0.24528343975543976 0.24528343975543976 0.24528343975543976
0.29832333326339722 0.29832333326339722 0.29832333326339722
0.34539684653282166 0.34539684653282166 0.34539684653282166
0.37552580237388611 0.37552580237388611 0.37552580237388611
0.38852512836456299 0.38852512836456299 0.38852512836456299
0.40371266007423401 0.40371266007423401 0.40371266007423401
0.44212710857391357 0.44212710857391357 0.44212710857391357
0.0343906469643116 0.0343906469643116 0.0343906469643116
0.050127483904361725 0.050127483904361725 0.050127483904361725
0.071898698806762695 0.071898698806762695 0.071898698806762695
0.10451351851224899 0.10451351851224899 0.10451351851224899
0.14130930602550507 0.14130930602550507 0.14130930602550507
0.19766519963741302 0.19766519963741302 0.19766519963741302
0.25127753615379333 0.25127753615379333 0.25127753615379333
0.30069443583488464 0.30069443583488464 0.30069443583488464
0.34509050846099854 0.34509050846099854 0.34509050846099854
0.37974163889884949 0.37974163889884949 0.37974163889884949
0.39784413576126099 0.39784413576126099 0.39784413576126099
0.43166521191596985 0.43166521191596985 0.43166521191596985
0.46273186802864075 0.46273186802864075 0.46273186802864075
0.066948041319847107 0.066948041319847107 0.066948041319847107
0.081835068762302399 0.081835068762302399 0.081835068762302399
0.10157066583633423 0.10157066583633423 0.10157066583633423
0.13753987848758698 0.13753987848758698 0.13753987848758698
0.18218366801738739 0.18218366801738739 0.18218366801738739
0.2319147139787674 0.2319147139787674 0.2319147139787674
0.27645334601402283 0.27645334601402283 0.27645334601402283
0.32295340299606323 0.32295340299606323 0.32295340299606323
0.36712366342544556 0.36712366342544556 0.36712366342544556
0.40106508135795593 0.40106508135795593 0.40106508135795593
0.42833244800567627 0.42833244800567627 0.42833244800567627
0.45512259006500244 0.45512259006500244 0.45512259006500244
0.47591471672058105 0.47591471672058105 0.47591471672058105
0.11876558512449265 0.11876558512449265 0.11876558512449265
0.13112129271030426 0.13112129271030426 0.13112129271030426
0.15709710121154785 0.15709710121154785 0.15709710121154785
0.19220121204853058 0.19220121204853058 0.19220121204853058
0.23282530903816223 0.23282530903816223 0.23282530903816223
0.27832558751106262 0.27832558751106262 0.27832558751106262
0.31821554899215698 0.31821554899215698 0.31821554899215698
0.35828858613967896 0.35828858613967896 0.35828858613967896
0.40083509683609009 0.40083509683609009 0.40083509683609009
0.43681919574737549 0.43681919574737549 0.43681919574737549
0.4639447033405304 0.4639447033405304 0.4639447033405304
0.47926008701324463 0.47926008701324463 0.47926008701324463
0.49720561504364014 0.49720561504364014 0.49720561504364014
0.19017338752746582 0.19017338752746582 0.19017338752746582
0.20488473773002625 0.20488473773002625 0.20488473773002625
0.22452200949192047 0.22452200949192047 0.22452200949192047
0.2542082667350769 0.2542082667350769 0.2542082667350769
0.28900948166847229 0.28900948166847229 0.28900948166847229
0.33409228920936584 0.33409228920936584 0.33409228920936584
0.37253269553184509 0.37253269553184509 0.37253269553184509
0.40633031725883484 0.40633031725883484 0.40633031725883484
0.44099289178848267 0.44099289178848267 0.44099289178848267
0.47539660334587097 0.47539660334587097 0.47539660334587097
0.50391554832458496 0.50391554832458496 0.50391554832458496
0.51594406366348267 0.51594406366348267 0.51594406366348267
0.54446494579315186 0.54446494579315186 0.54446494579315186
0.25661548972129822 0.25661548972129822 0.25661548972129822
0.27848169207572937 0.27848169207572937 0.27848169207572937
0.29283252358436584 0.29283252358436584 0.29283252358436584
0.31763356924057007 0.31763356924057007 0.31763356924057007
0.35278746485710144 0.35278746485710144 0.35278746485710144
0.39075836539268494 0.39075836539268494 0.39075836539268494
0.42609617114067078 0.42609617114067078 0.42609617114067078
0.46081164479255676 0.46081164479255676 0.46081164479255676
0.49259525537490845 0.49259525537490845 0.49259525537490845
0.52438843250274658 0.52438843250274658 0.52438843250274658
0.55445659160614014 0.55445659160614014 0.55445659160614014
0.57716089487075806 0.57716089487075806 0.57716089487075806
0.60062277317047119 0.60062277317047119 0.60062277317047119
0.29935428500175476 0.29935428500175476 0.29935428500175476
0.33506882190704346 0.33506882190704346 0.33506882190704346
0.35655349493026733 0.35655349493026733 0.35655349493026733
0.37194466590881348 0.37194466590881348 0.37194466590881348
0.41287806630134583 0.41287806630134583 0.41287806630134583
0.43826082348823547 0.43826082348823547 0.43826082348823547
0.4701228141784668 0.4701228141784668 0.4701228141784668
0.51498138904571533 0.51498138904571533 0.51498138904571533
0.54619908332824707 0.54619908332824707 0.54619908332824707
0.5739327073097229 0.5739327073097229 0.5739327073097229
0.60283106565475464 0.60283106565475464 0.60283106565475464
0.61898350715637207 0.61898350715637207 0.61898350715637207
0.63552993535995483 0.63552993535995483 0.63552993535995483
0.36574295163154602 0.36574295163154602 0.36574295163154602
0.37531816959381104 0.37531816959381104 0.37531816959381104
0.40744051337242126 0.40744051337242126 0.40744051337242126
0.41375315189361572 0.41375315189361572 0.41375315189361572
0.4534662663936615 0.4534662663936615 0.4534662663936615
0.47851958870887756 0.47851958870887756 0.47851958870887756
0.51992446184158325 0.51992446184158325 0.51992446184158325
0.55566692352294922 0.55566692352294922 0.55566692352294922
0.58710122108459473 0.58710122108459473 0.58710122108459473
0.62024921178817749 0.62024921178817749 0.62024921178817749
0.65049028396606445 0.65049028396606445 0.65049028396606445
0.66656386852264404 0.66656386852264404 0.66656386852264404
0.68516367673873901 0.68516367673873901 0.68516367673873901
0.40126124024391174 0.40126124024391174 0.40126124024391174
0.40970990061759949 0.40970990061759949 0.40970990061759949
0.43868881464004517 0.43868881464004517 0.43868881464004517
0.45015415549278259 0.45015415549278259 0.45015415549278259
0.48708274960517883 0.48708274960517883 0.48708274960517883
0.51359134912490845 0.51359134912490845 0.51359134912490845
0.56441664695739746 0.56441664695739746 0.56441664695739746
0.60068833827972412 0.60068833827972412 0.60068833827972412
0.62336957454681396 0.62336957454681396 0.62336957454681396
0.66040360927581787 0.66040360927581787 0.66040360927581787
0.688029944896698 0.688029944896698 0.688029944896698
0.70921474695205688 0.70921474695205688 0.70921474695205688
0.72777163982391357 0.72777163982391357 0.72777163982391357
0.40829929709434509 0.40829929709434509 0.40829929709434509
0.42001497745513916 0.42001497745513916 0.42001497745513916
0.47800806164741516 0.47800806164741516 0.47800806164741516
0.50707530975341797 0.50707530975341797 0.50707530975341797
0.53295731544494629 0.53295731544494629 0.53295731544494629
0.55104035139083862 0.55104035139083862 0.55104035139083862
0.59272783994674683 0.59272783994674683 0.59272783994674683
0.62126964330673218 0.62126964330673218 0.62126964330673218
0.64730703830718994 0.64730703830718994 0.64730703830718994
0.6809314489364624 0.6809314489364624 0.6809314489364624
0.70837688446044922 0.70837688446044922 0.70837688446044922
0.72963970899581909 0.72963970899581909 0.72963970899581909
0.73790472745895386 0.73790472745895386 0.73790472745895386
0.4172326922416687 0.4172326922416687 0.4172326922416687
0.42530864477157593 0.42530864477157593 0.42530864477157593
0.50191152095794678 0.50191152095794678 0.50191152095794678
0.52828407287597656 0.52828407287597656 0.52828407287597656
0.55631387233734131 0.55631387233734131 0.55631387233734131
0.58044660091400146 0.58044660091400146 0.58044660091400146
0.621559739112854 0.621559739112854 0.621559739112854
0.64552122354507446 0.64552122354507446 0.64552122354507446
0.6730964183807373 0.6730964183807373 0.6730964183807373
0.70133477449417114 0.70133477449417114 0.70133477449417114
0.7314828634262085 0.7314828634262085 0.7314828634262085
0.74202930927276611 0.74202930927276611 0.74202930927276611
0.74129903316497803 0.74129903316497803 0.74129903316497803
0.4352361261844635 0.4352361261844635 0.4352361261844635
0.42739099264144897 0.42739099264144897 0.42739099264144897
0.51227343082427979 0.51227343082427979 0.51227343082427979
0.54490083456039429 0.54490083456039429 0.54490083456039429
0.57000207901000977 0.57000207901000977 0.57000207901000977
0.5877649188041687 0.5877649188041687 0.5877649188041687
0.62662976980209351 0.62662976980209351 0.62662976980209351
0.65667605400085449 0.65667605400085449 0.65667605400085449
0.69236385822296143 0.69236385822296143 0.69236385822296143
0.72426080703735352 0.72426080703735352 0.72426080703735352
0.75042760372161865 0.75042760372161865 0.75042760372161865
0.76723980903625488 0.76723980903625488 0.76723980903625488
0.76764518022537231 0.76764518022537231 0.76764518022537231
0.45015710592269897 0.45015710592269897 0.45015710592269897
0.43439552187919617 0.43439552187919617 0.43439552187919617
0.53219753503799438 0.53219753503799438 0.53219753503799438
0.56759935617446899 0.56759935617446899 0.56759935617446899
0.58341383934020996 0.58341383934020996 0.58341383934020996
0.59827601909637451 0.59827601909637451 0.59827601909637451
0.63002860546112061 0.63002860546112061 0.63002860546112061
0.6568458080291748 0.6568458080291748 0.6568458080291748
0.69310277700424194 0.69310277700424194 0.69310277700424194
0.72862464189529419 0.72862464189529419 0.72862464189529419
0.75385022163391113 0.75385022163391113 0.75385022163391113
0.78827208280563354 0.78827208280563354 0.78827208280563354
0.79966050386428833 0.79966050386428833 0.79966050386428833
0.034019917249679565 0.034019917249679565 0.034019917249679565
0.050280865281820297 0.050280865281820297 0.050280865281820297
0.074771687388420105 0.074771687388420105 0.074771687388420105
0.11810998618602753 0.11810998618602753 0.11810998618602753
0.15081141889095306 0.15081141889095306 0.15081141889095306
0.21741890907287598 0.21741890907287598 0.21741890907287598
0.2743496298789978 0.2743496298789978 0.2743496298789978
0.3210122287273407 0.3210122287273407 0.3210122287273407
0.35794764757156372 0.35794764757156372 0.35794764757156372
0.38228195905685425 0.38228195905685425 0.38228195905685425
0.40254774689674377 0.40254774689674377 0.40254774689674377
0.43652951717376709 0.43652951717376709 0.43652951717376709
0.48085454106330872 0.48085454106330872 0.48085454106330872
0.05486113578081131 0.05486113578081131 0.05486113578081131
0.074772074818611145 0.074772074818611145 0.074772074818611145
0.096108034253120422 0.096108034253120422 0.096108034253120422
0.13453668355941772 0.13453668355941772 0.13453668355941772
0.17445239424705505 0.17445239424705505 0.17445239424705505
0.22319671511650085 0.22319671511650085 0.22319671511650085
0.27263537049293518 0.27263537049293518 0.27263537049293518
0.3190542459487915 0.3190542459487915 0.3190542459487915
0.35843145847320557 0.35843145847320557 0.35843145847320557
0.39101281762123108 0.39101281762123108 0.39101281762123108
0.42767319083213806 0.42767319083213806 0.42767319083213806
0.45859551429748535 0.45859551429748535 0.45859551429748535
0.48423901200294495 0.48423901200294495 0.48423901200294495
0.089685671031475067 0.089685671031475067 0.089685671031475067
0.107646644115448 0.107646644115448 0.107646644115448
0.12909916043281555 0.12909916043281555 0.12909916043281555
0.16480781137943268 0.16480781137943268 0.16480781137943268
0.20656844973564148 0.20656844973564148 0.20656844973564148
0.25003811717033386 0.25003811717033386 0.25003811717033386
0.29551458358764648 0.29551458358764648 0.29551458358764648
0.33974489569664001 0.33974489569664001 0.33974489569664001
0.37819203734397888 0.37819203734397888 0.37819203734397888
0.41680717468261719 0.41680717468261719 0.41680717468261719
0.45145362615585327 0.45145362615585327 0.45145362615585327
0.47585946321487427 0.47585946321487427 0.47585946321487427
0.50297021865844727 0.50297021865844727 0.50297021865844727
0.14730638265609741 0.14730638265609741 0.14730638265609741
0.1577635258436203 0.1577635258436203 0.1577635258436203
0.18075168132781982 0.18075168132781982 0.18075168132781982
0.2147066593170166 0.2147066593170166 0.2147066593170166
0.25258809328079224 0.25258809328079224 0.25258809328079224
0.29177168011665344 0.29177168011665344 0.29177168011665344
0.33144789934158325 0.33144789934158325 0.33144789934158325
0.37406530976295471 0.37406530976295471 0.37406530976295471
0.41262882947921753 0.41262882947921753 0.41262882947921753
0.44863098859786987 0.44863098859786987 0.44863098859786987
0.48874625563621521 0.48874625563621521 0.48874625563621521
0.51896989345550537 0.51896989345550537 0.51896989345550537
0.53700369596481323 0.53700369596481323 0.53700369596481323
0.2114054411649704 0.2114054411649704 0.2114054411649704
0.22245222330093384 0.22245222330093384 0.22245222330093384
0.24492612481117249 0.24492612481117249 0.24492612481117249
0.27438110113143921 0.27438110113143921 0.27438110113143921
0.30559760332107544 0.30559760332107544 0.30559760332107544
0.34023785591125488 0.34023785591125488 0.34023785591125488
0.37711676955223083 0.37711676955223083 0.37711676955223083
0.41662290692329407 0.41662290692329407 0.41662290692329407
