assets/lut/fujixtransiii fuji xtrans iii acros+r.cube
# Created by: G'MIC (https://gmic.eu)
TITLE "fuji_xtrans_iii_acros+r"
# LUT size
LUT_3D_SIZE 5
# Data domain
DOMAIN_MIN 0.0 0.0 0.0
DOMAIN_MAX 1.0 1.0 1.0
# LUT data points
0.016120506450533867 0.016120506450533867 0.016120506450533867
0.14591717720031738 0.14591717720031738 0.14591717720031738
0.39980459213256836 0.39980459213256836 0.39980459213256836
0.61546027660369873 0.61546027660369873 0.61546027660369873
0.66737067699432373 0.66737067699432373 0.66737067699432373
0.077356286346912384 0.077356286346912384 0.077356286346912384
0.20680658519268036 0.20680658519268036 0.20680658519268036
0.44901379942893982 0.44901379942893982 0.44901379942893982
0.65845155715942383 0.65845155715942383 0.65845155715942383
0.72328764200210571 0.72328764200210571 0.72328764200210571
0.22591668367385864 0.22591668367385864 0.22591668367385864
0.34337133169174194 0.34337133169174194 0.34337133169174194
0.5453452467918396 0.5453452467918396 0.5453452467918396
0.70094001293182373 0.70094001293182373 0.70094001293182373
0.78944051265716553 0.78944051265716553 0.78944051265716553
0.31361356377601624 0.31361356377601624 0.31361356377601624
0.41175472736358643 0.41175472736358643 0.41175472736358643
0.6051592230796814 0.6051592230796814 0.6051592230796814
0.74622952938079834 0.74622952938079834 0.74622952938079834
0.8529542088508606 0.8529542088508606 0.8529542088508606
0.35937261581420898 0.35937261581420898 0.35937261581420898
0.48957341909408569 0.48957341909408569 0.48957341909408569
0.65911179780960083 0.65911179780960083 0.65911179780960083
0.80584746599197388 0.80584746599197388 0.80584746599197388
0.87871009111404419 0.87871009111404419 0.87871009111404419
0.020709587261080742 0.020709587261080742 0.020709587261080742
0.21243566274642944 0.21243566274642944 0.21243566274642944
0.44449880719184875 0.44449880719184875 0.44449880719184875
0.66889965534210205 0.66889965534210205 0.66889965534210205
0.78070652484893799 0.78070652484893799 0.78070652484893799
0.10605344921350479 0.10605344921350479 0.10605344921350479
0.23531290888786316 0.23531290888786316 0.23531290888786316
0.47207802534103394 0.47207802534103394 0.47207802534103394
0.68331277370452881 0.68331277370452881 0.68331277370452881
0.82023626565933228 0.82023626565933228 0.82023626565933228
0.28525510430335999 0.28525510430335999 0.28525510430335999
0.37115854024887085 0.37115854024887085 0.37115854024887085
0.55169069766998291 0.55169069766998291 0.55169069766998291
0.72487843036651611 0.72487843036651611 0.72487843036651611
0.84568202495574951 0.84568202495574951 0.84568202495574951
0.37603574991226196 0.37603574991226196 0.37603574991226196
0.49017873406410217 0.49017873406410217 0.49017873406410217
0.63998079299926758 0.63998079299926758 0.63998079299926758
0.78925883769989014 0.78925883769989014 0.78925883769989014
0.89605516195297241 0.89605516195297241 0.89605516195297241
0.42506897449493408 0.42506897449493408 0.42506897449493408
0.54460293054580688 0.54460293054580688 0.54460293054580688
0.66711151599884033 0.66711151599884033 0.66711151599884033
0.81457704305648804 0.81457704305648804 0.81457704305648804
0.92136996984481812 0.92136996984481812 0.92136996984481812
0.13051432371139526 0.13051432371139526 0.13051432371139526
0.23717465996742249 0.23717465996742249 0.23717465996742249
0.45821043848991394 0.45821043848991394 0.45821043848991394
0.69275611639022827 0.69275611639022827 0.69275611639022827
0.83439284563064575 0.83439284563064575 0.83439284563064575
0.15177188813686371 0.15177188813686371 0.15177188813686371
0.28038260340690613 0.28038260340690613 0.28038260340690613
0.50220572948455811 0.50220572948455811 0.50220572948455811
0.70336824655532837 0.70336824655532837 0.70336824655532837
0.84210610389709473 0.84210610389709473 0.84210610389709473
0.31503242254257202 0.31503242254257202 0.31503242254257202
0.4059293270111084 0.4059293270111084 0.4059293270111084
0.57706427574157715 0.57706427574157715 0.57706427574157715
0.73357552289962769 0.73357552289962769 0.73357552289962769
0.87372243404388428 0.87372243404388428 0.87372243404388428
0.4551367461681366 0.4551367461681366 0.4551367461681366
0.51909393072128296 0.51909393072128296 0.51909393072128296
0.66513806581497192 0.66513806581497192 0.66513806581497192
0.80331969261169434 0.80331969261169434 0.80331969261169434
0.93534040451049805 0.93534040451049805 0.93534040451049805
0.50080996751785278 0.50080996751785278 0.50080996751785278
0.57619136571884155 0.57619136571884155 0.57619136571884155
0.6837049126625061 0.6837049126625061 0.6837049126625061
0.86400842666625977 0.86400842666625977 0.86400842666625977
0.96096181869506836 0.96096181869506836 0.96096181869506836
0.26837918162345886 0.26837918162345886 0.26837918162345886
0.33102250099182129 0.33102250099182129 0.33102250099182129
0.47970679402351379 0.47970679402351379 0.47970679402351379
0.70067960023880005 0.70067960023880005 0.70067960023880005
0.85697269439697266 0.85697269439697266 0.85697269439697266
0.21546414494514465 0.21546414494514465 0.21546414494514465
0.32515376806259155 0.32515376806259155 0.32515376806259155
0.51731806993484497 0.51731806993484497 0.51731806993484497
0.72300803661346436 0.72300803661346436 0.72300803661346436
0.86257612705230713 0.86257612705230713 0.86257612705230713
0.34725633263587952 0.34725633263587952 0.34725633263587952
0.43765893578529358 0.43765893578529358 0.43765893578529358
0.59527194499969482 0.59527194499969482 0.59527194499969482
0.75109505653381348 0.75109505653381348 0.75109505653381348
0.89970582723617554 0.89970582723617554 0.89970582723617554
0.49870952963829041 0.49870952963829041 0.49870952963829041
0.55396997928619385 0.55396997928619385 0.55396997928619385
0.68675833940505981 0.68675833940505981 0.68675833940505981
0.82134968042373657 0.82134968042373657 0.82134968042373657
0.95648229122161865 0.95648229122161865 0.95648229122161865
0.56707870960235596 0.56707870960235596 0.56707870960235596
0.61845916509628296 0.61845916509628296 0.61845916509628296
0.75853270292282104 0.75853270292282104 0.75853270292282104
0.8921160101890564 0.8921160101890564 0.8921160101890564
0.98244410753250122 0.98244410753250122 0.98244410753250122
0.41941359639167786 0.41941359639167786 0.41941359639167786
0.46203285455703735 0.46203285455703735 0.46203285455703735
0.57226210832595825 0.57226210832595825 0.57226210832595825
0.72317284345626831 0.72317284345626831 0.72317284345626831
0.82424783706665039 0.82424783706665039 0.82424783706665039
0.33938169479370117 0.33938169479370117 0.33938169479370117
0.42404550313949585 0.42404550313949585 0.42404550313949585
0.56913655996322632 0.56913655996322632 0.56913655996322632
0.73792779445648193 0.73792779445648193 0.73792779445648193
0.84993791580200195 0.84993791580200195 0.84993791580200195
0.38036906719207764 0.38036906719207764 0.38036906719207764
0.47943529486656189 0.47943529486656189 0.47943529486656189
0.63379848003387451 0.63379848003387451 0.63379848003387451
0.78667753934860229 0.78667753934860229 0.78667753934860229
0.90437871217727661 0.90437871217727661 0.90437871217727661
0.53621518611907959 0.53621518611907959 0.53621518611907959
0.5921090841293335 0.5921090841293335 0.5921090841293335
0.71813207864761353 0.71813207864761353 0.71813207864761353
0.85580176115036011 0.85580176115036011 0.85580176115036011
0.96265149116516113 0.96265149116516113 0.96265149116516113
0.62918937206268311 0.62918937206268311 0.62918937206268311
0.65120154619216919 0.65120154619216919 0.65120154619216919
0.76457405090332031 0.76457405090332031 0.76457405090332031
0.9056662917137146 0.9056662917137146 0.9056662917137146
0.98042094707489014 0.98042094707489014 0.98042094707489014
