assets/lut/fujixtransiii fuji xtrans iii velvia.cube
# Created by: G'MIC (https://gmic.eu)
TITLE "fuji_xtrans_iii_velvia"
# LUT size
LUT_3D_SIZE 7
# Data domain
DOMAIN_MIN 0.0 0.0 0.0
DOMAIN_MAX 1.0 1.0 1.0
# LUT data points
0.0077789458446204662 0.007825230248272419 0.0052902521565556526
0.07802225649356842 0.01040356233716011 0.0043470943346619606
0.34719857573509216 0.018314016982913017 0.0072559281252324581
0.64212864637374878 0.066136769950389862 0.0061477660201489925
0.86312508583068848 0.13148601353168488 0.01189766637980938
0.93534332513809204 0.16876049339771271 0.047451242804527283
0.96346747875213623 0.19752801954746246 0.082582332193851471
0.005994460079818964 0.078293174505233765 0.0056882370263338089
0.083366677165031433 0.080861516296863556 0.0037103989161550999
0.36302542686462402 0.12163133919239044 0.0080665741115808487
0.65067589282989502 0.1432739645242691 0.0054814056493341923
0.86030048131942749 0.19367571175098419 0.0066902609542012215
0.96429985761642456 0.24162936210632324 0.019135957583785057
0.99750936031341553 0.31840181350708008 0.043680738657712936
0.00048080144915729761 0.30003282427787781 0.002901413943618536
0.030372500419616699 0.32536748051643372 6.2650789914187044e-05
0.30235201120376587 0.35335236787796021 0.0027014489751309156
0.60385358333587646 0.36428758502006531 0.0045572319068014622
0.81271404027938843 0.37870398163795471 0.0054862974211573601
0.95806425809860229 0.39537623524665833 0.0027407626621425152
0.99889457225799561 0.39118316769599915 0.0083977049216628075
0.00060568418120965362 0.48036637902259827 2.8004365958622657e-05
0.015152680687606335 0.52571189403533936 0
0.18314960598945618 0.55986064672470093 2.2618911316385493e-05
0.53965109586715698 0.55283212661743164 0.00025679645477794111
0.75716245174407959 0.56429415941238403 0.00058468087809160352
0.90784037113189697 0.57201582193374634 0.00032909619039855897
0.980305016040802 0.59215641021728516 0.011136926710605621
0.0020596671383827925 0.54492670297622681 0.0026517233345657587
0.0074691022746264935 0.62637925148010254 0.0003717011131811887
0.13813646137714386 0.62898886203765869 9.4664334028493613e-05
0.49170252680778503 0.68243753910064697 0
0.74828046560287476 0.67157065868377686 0
0.89724177122116089 0.67415344715118408 0.00096713798120617867
0.96159648895263672 0.71360498666763306 0.0058034858666360378
0.0018669427372515202 0.5824732780456543 0.013548712246119976
0.010324201546609402 0.7042614221572876 0.0089856013655662537
0.12055040150880814 0.72696763277053833 0.0066794450394809246
0.48393493890762329 0.72315490245819092 1.4002182979311328e-05
0.68577218055725098 0.71009516716003418 0.0025060465559363365
0.93548744916915894 0.72398358583450317 0.010723114013671875
0.99472415447235107 0.74193316698074341 0.011582737788558006
0.0039215688593685627 0.62804043292999268 0.01646982878446579
0.012476603500545025 0.73631304502487183 0.014217705465853214
0.096829779446125031 0.75956690311431885 0.014470987021923065
0.4892393946647644 0.75714224576950073 0.0034055223222821951
0.66862392425537109 0.78923821449279785 0.01967201940715313
0.88457411527633667 0.80258947610855103 0.063936792314052582
0.9831811785697937 0.80386590957641602 0.091888397932052612
0.0082538826391100883 0.011469358578324318 0.14095146954059601
0.12015009671449661 0.02403239905834198 0.12062650173902512
0.36973005533218384 0.04066898301243782 0.15392626821994781
0.6657378077507019 0.09176260232925415 0.1788516640663147
0.88217246532440186 0.12359677255153656 0.19030636548995972
0.96437019109725952 0.16458943486213684 0.21103675663471222
0.99765092134475708 0.25516974925994873 0.37980589270591736
0.0061234119348227978 0.10181733965873718 0.11289072781801224
0.099503837525844574 0.11377210170030594 0.10814373195171356
0.37847423553466797 0.13721688091754913 0.105996273458004
0.65473127365112305 0.16481778025627136 0.11085245758295059
0.85624343156814575 0.21472994983196259 0.13581669330596924
0.9855043888092041 0.26947614550590515 0.18565075099468231
1 0.30424216389656067 0.30243009328842163
0.0015268063871189952 0.33497655391693115 0.051729690283536911
0.029157137498259544 0.34155303239822388 0.036131314933300018
0.30771997570991516 0.34831029176712036 0.041987162083387375
0.60532748699188232 0.36719882488250732 0.044769782572984695
0.82171487808227539 0.39022117853164673 0.064038112759590149
0.97593182325363159 0.41772541403770447 0.10526087135076523
0.99991261959075928 0.44104748964309692 0.21698886156082153
7.4498791946098208e-05 0.53861045837402344 0.018780997022986412
0.011795208789408207 0.55842524766921997 0.015057328157126904
0.16851073503494263 0.56560266017913818 0.016175303608179092
0.53175795078277588 0.56162959337234497 0.030257087200880051
0.76075416803359985 0.57204878330230713 0.027558345347642899
0.93860113620758057 0.5798528790473938 0.042392358183860779
0.99845272302627563 0.59544700384140015 0.081146806478500366
0.0016413669800385833 0.6267392635345459 0.10906577110290527
0.0086097866296768188 0.68318682909011841 0.018630757927894592
0.07694968581199646 0.7096518874168396 0.015174177475273609
0.43709269165992737 0.70783984661102295 0.013882685452699661
0.70866221189498901 0.70342528820037842 0.022349877282977104
0.91001218557357788 0.71896767616271973 0.027729423716664314
0.99798810482025146 0.73994046449661255 0.049514830112457275
0.0014722038758918643 0.65508079528808594 0.19325780868530273
0.010709545575082302 0.75467813014984131 0.056544404476881027
0.064142458140850067 0.78343027830123901 0.07405504584312439
0.43584230542182922 0.77223581075668335 0.036073062568902969
0.64572048187255859 0.78473144769668579 0.019666096195578575
0.88886862993240356 0.80403518676757812 0.069880858063697815
0.98552674055099487 0.80690872669219971 0.085615985095500946
7.7041928307153285e-05 0.67465090751647949 0.33297106623649597
0.013175545260310173 0.78721863031387329 0.12907347083091736
0.056831672787666321 0.81278711557388306 0.12778395414352417
0.34961268305778503 0.79887908697128296 0.094653353095054626
0.63155901432037354 0.80908310413360596 0.057667378336191177
0.898967444896698 0.83036476373672485 0.1078224778175354
0.98301321268081665 0.87075471878051758 0.19233192503452301
0.039249777793884277 0.042150504887104034 0.51459014415740967
0.22449491918087006 0.036623593419790268 0.53693372011184692
0.43787801265716553 0.05316905677318573 0.54038852453231812
0.66615974903106689 0.088418878614902496 0.55948555469512939
0.8637852668762207 0.14464184641838074 0.5226215124130249
0.9794851541519165 0.20569932460784912 0.5328865647315979
0.99968200922012329 0.24601553380489349 0.59700590372085571
0.019649714231491089 0.13995297253131866 0.45517387986183167
0.16933804750442505 0.14587002992630005 0.45622900128364563
0.42385265231132507 0.17166738212108612 0.46679633855819702
0.65475404262542725 0.20102755725383759 0.45887497067451477
0.84611767530441284 0.24429373443126678 0.46051275730133057
0.97710472345352173 0.29242157936096191 0.45909592509269714
0.99998563528060913 0.35007646679878235 0.44717893004417419
0.0059133791364729404 0.35565388202667236 0.37805429100990295
0.064596615731716156 0.36461007595062256 0.35872137546539307
0.34533840417861938 0.36734235286712646 0.35655364394187927
0.61043316125869751 0.38288524746894836 0.35243183374404907
0.81451129913330078 0.40078702569007874 0.3776361346244812
0.96145486831665039 0.42547500133514404 0.39251056313514709
0.99761903285980225 0.43724054098129272 0.40196520090103149
0.0035272934474050999 0.55895900726318359 0.31633934378623962
0.020898975431919098 0.56750905513763428 0.26741635799407959
0.20723506808280945 0.56751501560211182 0.26282963156700134
0.53787720203399658 0.5657508373260498 0.25396242737770081
0.75851821899414062 0.57992434501647949 0.2662602961063385
0.93116301298141479 0.58687013387680054 0.30197778344154358
0.99799948930740356 0.59357142448425293 0.35338029265403748
6.1274513427633792e-05 0.65490418672561646 0.33926326036453247
0.0092953704297542572 0.71002316474914551 0.25641658902168274
0.089313626289367676 0.72701311111450195 0.19702209532260895
0.41910576820373535 0.7186204195022583 0.20500986278057098
0.69979012012481689 0.72127735614776611 0.21523642539978027
0.90036815404891968 0.72473889589309692 0.24407593905925751
0.99315637350082397 0.73787444829940796 0.25603020191192627
0.0035973940975964069 0.7874525785446167 0.31077927350997925
0.0077923345379531384 0.80912959575653076 0.25730255246162415
0.048884864896535873 0.81891769170761108 0.20852261781692505
0.33366897702217102 0.8181348443031311 0.21237508952617645
0.61828470230102539 0.83885836601257324 0.24489320814609528
0.87986487150192261 0.83073186874389648 0.22422154247760773
0.99275285005569458 0.86444461345672607 0.24583286046981812
0.0039215688593685627 0.80475419759750366 0.28986912965774536
0.0082582207396626472 0.82135868072509766 0.27384299039840698
0.038362719118595123 0.86444860696792603 0.32167935371398926
0.25815874338150024 0.87680584192276001 0.31832128763198853
0.58035850524902344 0.86774748563766479 0.2785440981388092
0.90564507246017456 0.88770526647567749 0.26548975706100464
0.99260914325714111 0.90761399269104004 0.29206463694572449
0.14402790367603302 0.038916103541851044 0.80573153495788574
0.3479689359664917 0.04664263129234314 0.80874359607696533
0.52824527025222778 0.071776039898395538 0.80128967761993408
0.69601535797119141 0.12571233510971069 0.78116083145141602
0.85806488990783691 0.1787053644657135 0.76107507944107056
0.96760660409927368 0.23885814845561981 0.74861675500869751
0.9989243745803833 0.29558402299880981 0.74916863441467285
0.093481220304965973 0.19423204660415649 0.77598863840103149
0.29008966684341431 0.20899342000484467 0.78190535306930542
0.47944480180740356 0.2275015115737915 0.75964885950088501
0.67394280433654785 0.25292536616325378 0.73509353399276733
0.84484517574310303 0.28635606169700623 0.70838695764541626
0.97792887687683105 0.33229061961174011 0.69854998588562012
0.99850666522979736 0.36505597829818726 0.70811712741851807
0.027771145105361938 0.3874969482421875 0.67099714279174805
0.17356818914413452 0.39699539542198181 0.6791222095489502
0.42017260193824768 0.40195825695991516 0.66475433111190796
0.63338422775268555 0.40848684310913086 0.65899801254272461
0.82047826051712036 0.42860424518585205 0.65218132734298706
0.96677064895629883 0.44982799887657166 0.64315891265869141
0.99534744024276733 0.47384759783744812 0.6579594612121582
0.0089314477518200874 0.56626182794570923 0.59794360399246216
0.05648396909236908 0.57864618301391602 0.57715487480163574
0.29817354679107666 0.57291698455810547 0.57627695798873901
0.56513488292694092 0.57276767492294312 0.57206004858016968
0.76285070180892944 0.5887877345085144 0.56084579229354858
0.93638366460800171 0.59520566463470459 0.57117295265197754
0.99558478593826294 0.59978467226028442 0.58309793472290039
0.0026436750777065754 0.70479834079742432 0.56958478689193726
0.01721566915512085 0.72160333395004272 0.51518481969833374
0.1551453173160553 0.72601193189620972 0.49552330374717712
0.46278658509254456 0.72252935171127319 0.49628779292106628
0.70062392950057983 0.72890365123748779 0.49481692910194397
0.90027129650115967 0.72973823547363281 0.50251352787017822
0.99248260259628296 0.75379228591918945 0.50322383642196655
0 0.80874747037887573 0.59538346529006958
0.0083483830094337463 0.84340161085128784 0.49965408444404602
0.056452449411153793 0.85861384868621826 0.45543003082275391
0.29719516634941101 0.8600914478302002 0.44058015942573547
0.6292884349822998 0.85157239437103271 0.43441036343574524
0.87799751758575439 0.86952561140060425 0.44183498620986938
0.99192327260971069 0.9034045934677124 0.44142019748687744
0 0.82800143957138062 0.60979986190795898
0.0091426325961947441 0.86543041467666626 0.52392005920410156
0.053442742675542831 0.87875527143478394 0.46398857235908508
0.27858203649520874 0.87963533401489258 0.44439440965652466
0.62631845474243164 0.87625789642333984 0.43840005993843079
0.90062546730041504 0.93866384029388428 0.45071953535079956
0.99406802654266357 0.95498591661453247 0.43597719073295593
0.32333990931510925 0.01767934113740921 0.8937411904335022
0.45486098527908325 0.044088356196880341 0.90020883083343506
0.59637939929962158 0.093667872250080109 0.90952271223068237
0.74365741014480591 0.14518681168556213 0.9168127179145813
0.88033062219619751 0.20765385031700134 0.9193422794342041
0.96374213695526123 0.26658079028129578 0.92298644781112671
0.99736523628234863 0.31021732091903687 0.95161259174346924
0.20679320394992828 0.24070608615875244 0.95165055990219116
0.41172787547111511 0.2685876190662384 0.95923405885696411
0.54955452680587769 0.28732109069824219 0.95511221885681152
0.70164752006530762 0.30889600515365601 0.93996798992156982
0.85972774028778076 0.33960312604904175 0.91827273368835449
0.98108780384063721 0.37574288249015808 0.90801537036895752
0.99896079301834106 0.40391361713409424 0.92865240573883057
0.13920474052429199 0.4193166196346283 0.90115594863891602
0.34051412343978882 0.42994868755340576 0.90717798471450806
0.49803641438484192 0.43705323338508606 0.89646220207214355
0.66176426410675049 0.44890448451042175 0.88584154844284058
0.82970559597015381 0.4659159779548645 0.87345898151397705
0.96979671716690063 0.48271071910858154 0.85827964544296265
0.99631023406982422 0.50418859720230103 0.86734843254089355
0.056645501405000687 0.58320927619934082 0.81780833005905151
0.21045610308647156 0.58653920888900757 0.81753045320510864
0.42087259888648987 0.58457678556442261 0.81745445728302002
0.60766804218292236 0.59223687648773193 0.81226027011871338
0.77826440334320068 0.6027873158454895 0.80287021398544312
0.95133167505264282 0.60563617944717407 0.80214923620223999
0.99558889865875244 0.6269991397857666 0.79964005947113037
0.011544096283614635 0.72518616914749146 0.75686782598495483
0.071177087724208832 0.7307051420211792 0.74363243579864502
0.28714695572853088 0.72888165712356567 0.74486815929412842
0.52129280567169189 0.72798395156860352 0.74222910404205322
0.7180790901184082 0.738861083984375 0.72906553745269775
0.91034352779388428 0.73954832553863525 0.7340235710144043
0.99351722002029419 0.76731199026107788 0.73695158958435059
0.00099770037923008204 0.87248498201370239 0.71923190355300903
0.019041756168007851 0.86522024869918823 0.68992078304290771
0.1305767148733139 0.86443865299224854 0.68063968420028687
0.39867129921913147 0.86569762229919434 0.68381994962692261
0.6608198881149292 0.86362206935882568 0.67633324861526489
0.88147705793380737 0.87959861755371094 0.66429471969604492
0.99149012565612793 0.92327034473419189 0.67522341012954712
4.8229740059468895e-05 0.88545060157775879 0.71502530574798584
0.012990136630833149 0.92148804664611816 0.76657670736312866
0.13086004555225372 0.92580372095108032 0.75053244829177856
0.413013756275177 0.92920088768005371 0.76508039236068726
0.66439908742904663 0.93040293455123901 0.72506320476531982
0.91581130027770996 0.94356656074523926 0.65701985359191895
0.9903709888458252 0.96836596727371216 0.65216046571731567
0.47019162774085999 0.017937244847416878 0.97776889801025391
0.56087476015090942 0.035659730434417725 0.97374069690704346
0.67421746253967285 0.091109961271286011 0.96935182809829712
0.80104732513427734 0.14995810389518738 0.96819770336151123
0.91451883316040039 0.2176014631986618 0.96836143732070923
0.98050034046173096 0.27727422118186951 0.97581881284713745
0.9986947774887085 0.35208046436309814 0.98637610673904419
0.36286160349845886 0.24886593222618103 0.97675949335098267
0.51758676767349243 0.30678659677505493 0.98636907339096069
0.62673377990722656 0.33361169695854187 0.9806516170501709
0.75083690881729126 0.35487082600593567 0.98191100358963013
0.88162523508071899 0.38273337483406067 0.98632889986038208
0.98366975784301758 0.42264771461486816 0.99128991365432739
1 0.44892588257789612 0.98749995231628418
0.23316983878612518 0.45729756355285645 0.99317848682403564
0.46102690696716309 0.47969907522201538 0.99183231592178345
0.57128059864044189 0.48371630907058716 0.99061959981918335
0.7035897970199585 0.49082723259925842 0.99058753252029419
0.8494076132774353 0.50957435369491577 0.98974370956420898
0.97646188735961914 0.52499163150787354 0.99021035432815552
0.99879473447799683 0.53541189432144165 0.99088919162750244
0.1921587735414505 0.60174602270126343 0.98363786935806274
0.38332346081733704 0.60290431976318359 0.98238760232925415
0.51241528987884521 0.60535591840744019 0.97648876905441284
0.66094416379928589 0.61492031812667847 0.97603857517242432
0.81377869844436646 0.62224262952804565 0.97789710760116577
0.96186524629592896 0.62959915399551392 0.97880721092224121
0.99820715188980103 0.63080984354019165 0.97672879695892334
0.097062565386295319 0.73921722173690796 0.96027910709381104
0.24892079830169678 0.73863387107849121 0.95937472581863403
0.41472497582435608 0.73938030004501343 0.95372706651687622
0.5943000316619873 0.74482214450836182 0.94387924671173096
0.76613700389862061 0.74805611371994019 0.94172370433807373
0.92943686246871948 0.75838613510131836 0.94461071491241455
0.99602824449539185 0.78077822923660278 0.95340120792388916
0.014715127646923065 0.87593501806259155 0.92967993021011353
0.06869933009147644 0.8859257698059082 0.92650187015533447
0.24426409602165222 0.89332324266433716 0.91510152816772461
0.48935434222221375 0.88984978199005127 0.91605979204177856
0.71628612279891968 0.88494521379470825 0.9065442681312561
0.90560781955718994 0.89355015754699707 0.90469419956207275
0.99468660354614258 0.93460619449615479 0.92167359590530396
0.0019123152596876025 0.96402698755264282 0.96817338466644287
0.02755369246006012 0.95131248235702515 0.92017918825149536
0.1808287650346756 0.95543092489242554 0.91080820560455322
0.4447217583656311 0.95808738470077515 0.93352419137954712
0.70006126165390015 0.95078223943710327 0.89430993795394897
0.90992563962936401 0.95351326465606689 0.89667332172393799
0.99474138021469116 0.97725749015808105 0.91215616464614868
0.58817756175994873 0.18021918833255768 0.99997413158416748
0.6567617654800415 0.20602722465991974 0.99835532903671265
0.73800361156463623 0.23655575513839722 0.99767154455184937
0.84333330392837524 0.31278055906295776 0.99753367900848389
0.93843114376068115 0.40574413537979126 0.9968191385269165
0.99117934703826904 0.43892624974250793 0.99662065505981445
1 0.44056916236877441 0.99780303239822388
0.52764421701431274 0.26929166913032532 0.99575376510620117
0.63262665271759033 0.31470954418182373 0.9966815710067749
0.71635276079177856 0.38038742542266846 0.99474692344665527
0.81997662782669067 0.42914688587188721 0.99506628513336182
0.93125396966934204 0.49335971474647522 0.99461656808853149
0.99244129657745361 0.48712223768234253 0.99547654390335083
1 0.4780183732509613 0.99492877721786499
0.31068894267082214 0.49875929951667786 0.99996340274810791
0.52224272489547729 0.53150784969329834 0.99854838848114014
0.66338908672332764 0.54428726434707642 0.99681448936462402
0.7768293023109436 0.55717241764068604 0.99609708786010742
0.91400015354156494 0.58137309551239014 0.99775385856628418
0.99079763889312744 0.56914836168289185 0.99998921155929565
1 0.58026349544525146 0.99995404481887817
0.286100834608078 0.63874548673629761 1
0.45866036415100098 0.65326911211013794 0.99970173835754395
0.60508954524993896 0.66883867979049683 0.99749696254730225
0.73576945066452026 0.67428040504455566 0.99521422386169434
0.88447129726409912 0.6809266209602356 0.99639302492141724
0.98086059093475342 0.67446732521057129 1
0.99978405237197876 0.67316132783889771 1
0.23062001168727875 0.77284860610961914 1
0.37818014621734619 0.78121858835220337 0.99979871511459351
0.53882747888565063 0.7952609658241272 0.99666452407836914
0.68569314479827881 0.8010944128036499 0.99671441316604614
0.83668047189712524 0.80235260725021362 0.9952843189239502
0.95956063270568848 0.8093559741973877 0.99512088298797607
0.99709427356719971 0.81863307952880859 0.99734169244766235
0.080893449485301971 0.92707926034927368 1
0.23295591771602631 0.93622285127639771 0.99993032217025757
0.40279302000999451 0.93548858165740967 0.99768882989883423
0.59820598363876343 0.9240080714225769 0.99850034713745117
0.77870362997055054 0.9261823296546936 0.99745994806289673
0.94542205333709717 0.93110525608062744 0.99387389421463013
0.99700963497161865 0.94845747947692871 0.99467140436172485
0.039140872657299042 0.9776729941368103 0.99897164106369019
0.1011226698756218 0.9652523398399353 0.98944652080535889
0.30901777744293213 0.96427661180496216 0.98981577157974243
0.54303872585296631 0.9657599925994873 0.99891155958175659
0.75427132844924927 0.97493427991867065 0.9974028468132019
0.9550965428352356 0.97328239679336548 0.99527078866958618
0.99797511100769043 0.98605263233184814 0.99125117063522339
