assets/lut/fujixtransiii fuji xtrans iii provia.cube
# Created by: G'MIC (https://gmic.eu)
TITLE "fuji_xtrans_iii_provia"
# LUT size
LUT_3D_SIZE 13
# Data domain
DOMAIN_MIN 0.0 0.0 0.0
DOMAIN_MAX 1.0 1.0 1.0
# LUT data points
0.0061679165810346603 0.011925715953111649 0.012044121511280537
0.035819739103317261 0.01446374598890543 0.011703819967806339
0.10073337703943253 0.018136881291866302 0.012587020173668861
0.21376346051692963 0.02902640588581562 0.016811594367027283
0.33568534255027771 0.037374071776866913 0.013480601832270622
0.4551348090171814 0.06252327561378479 0.020108975470066071
0.57573401927947998 0.10542713105678558 0.040199354290962219
0.70748692750930786 0.14531679451465607 0.066233888268470764
0.78700500726699829 0.16956675052642822 0.093114085495471954
0.84499108791351318 0.18998719751834869 0.121782086789608
0.87507259845733643 0.20459717512130737 0.13427302241325378
0.89539492130279541 0.21730010211467743 0.16231505572795868
0.91368991136550903 0.23392190039157867 0.18028745055198669
0.0056266933679580688 0.029469598084688187 0.012664884328842163
0.0326857790350914 0.035020042210817337 0.012131080962717533
0.10753192007541656 0.039419151842594147 0.012483065947890282
0.21999543905258179 0.057944681495428085 0.017763653770089149
0.34443455934524536 0.076705724000930786 0.022275334224104881
0.46964180469512939 0.095496833324432373 0.027329808101058006
0.59511631727218628 0.13064348697662354 0.043599579483270645
0.71166157722473145 0.15716615319252014 0.065240584313869476
0.79491269588470459 0.17821656167507172 0.085815295577049255
0.86211663484573364 0.20409533381462097 0.11910183727741241
0.89060008525848389 0.22009873390197754 0.13748638331890106
0.90836793184280396 0.23508265614509583 0.14941172301769257
0.94304144382476807 0.27167996764183044 0.18727388978004456
0.0095578059554100037 0.09129459410905838 0.011961409822106361
0.023874888196587563 0.089542314410209656 0.0087760472670197487
0.095590822398662567 0.096212692558765411 0.01064752321690321
0.21897539496421814 0.11468680948019028 0.01424140203744173
0.35195735096931458 0.13406707346439362 0.01831899955868721
0.47586262226104736 0.15526078641414642 0.022402700036764145
0.59586971998214722 0.18008489906787872 0.033323850482702255
0.70415055751800537 0.2061370462179184 0.054793983697891235
0.79429274797439575 0.22761343419551849 0.06981205940246582
0.86870068311691284 0.24783273041248322 0.089849762618541718
0.91156840324401855 0.25776630640029907 0.1192767545580864
0.94552677869796753 0.28912138938903809 0.1463884711265564
0.97378545999526978 0.32400238513946533 0.16115975379943848
0.0078060375526547432 0.17520555853843689 0.0058823530562222004
0.019494688138365746 0.17919903993606567 0.0052918079309165478
0.07033894956111908 0.18389919400215149 0.0061803031712770462
0.2015225738286972 0.20727591216564178 0.0092988554388284683
0.33917534351348877 0.22045554220676422 0.010357680730521679
0.466014564037323 0.23277841508388519 0.016498835757374763
0.58568781614303589 0.25075799226760864 0.021758748218417168
0.6946723461151123 0.27228501439094543 0.036907166242599487
0.79000687599182129 0.29450863599777222 0.048091020435094833
0.87586730718612671 0.31376487016677856 0.062705859541893005
0.95808571577072144 0.33466845750808716 0.11631065607070923
0.97759079933166504 0.34335735440254211 0.13013844192028046
0.98318910598754883 0.34715312719345093 0.13840660452842712
0.0044731590896844864 0.27349457144737244 0.0011037040967494249
0.013575385324656963 0.29573622345924377 0.0014988469192758203
0.041615713387727737 0.30698302388191223 0.0022759831044822931
0.15410226583480835 0.32364171743392944 0.0028617859352380037
0.31343045830726624 0.33205711841583252 0.0044979318045079708
0.44585642218589783 0.32609742879867554 0.010275388136506081
0.5654105544090271 0.34076082706451416 0.016692128032445908
0.68059861660003662 0.35587698221206665 0.022031327709555626
0.78450626134872437 0.37191227078437805 0.027112474665045738
0.86561518907546997 0.38188093900680542 0.041321609169244766
0.94042223691940308 0.38997569680213928 0.086494028568267822
0.97834891080856323 0.37078267335891724 0.10974379628896713
0.99101704359054565 0.38618761301040649 0.12547217309474945
0.0010500440839678049 0.36662042140960693 0
0.010815698653459549 0.40023866295814514 6.1214668676257133e-05
0.031605307012796402 0.40415206551551819 0.00021846995514351875
0.10698658227920532 0.42208072543144226 0.00030890072230249643
0.27306210994720459 0.43646460771560669 0.0017146839527413249
0.42338135838508606 0.43205183744430542 0.005240212194621563
0.54663932323455811 0.43874022364616394 0.010069604031741619
0.66331857442855835 0.44844529032707214 0.013018379919230938
0.77187520265579224 0.45974016189575195 0.014055708423256874
0.84494739770889282 0.46965456008911133 0.024790460243821144
0.88688522577285767 0.47131571173667908 0.040801540017127991
0.93713009357452393 0.46245187520980835 0.085080377757549286
0.98132550716400146 0.49984467029571533 0.14561364054679871
0.00056756712729111314 0.43839812278747559 0.0015959496377035975
0.0057384115643799305 0.46763813495635986 0.00030756930937059224
0.019974203780293465 0.4804893434047699 0
0.079732753336429596 0.49930897355079651 0
0.22749820351600647 0.51761436462402344 3.6621095205191523e-05
0.38921156525611877 0.5190320611000061 0.00071707332972437143
0.53217977285385132 0.51973623037338257 0.0041291629895567894
0.64637911319732666 0.53461217880249023 0.0075201895087957382
0.75350284576416016 0.54256761074066162 0.0091121001169085503
0.83423739671707153 0.55211925506591797 0.012043897062540054
0.87970262765884399 0.55869805812835693 0.036719918251037598
0.90587359666824341 0.56367594003677368 0.064762100577354431
0.9527934193611145 0.58306282758712769 0.1224474161863327
0.0020402197260409594 0.46615588665008545 0.0036287645343691111
0.0028916303999722004 0.49783164262771606 0.0012678707716986537
0.010562133975327015 0.5445820689201355 0.00073674519080668688
0.073697395622730255 0.54205477237701416 5.609848813037388e-06
0.21237663924694061 0.56814396381378174 0
0.315786212682724 0.57587230205535889 0
0.5163000226020813 0.59715110063552856 0.00074648391455411911
0.63363099098205566 0.60626435279846191 0.0042238570749759674
0.74460995197296143 0.60665303468704224 0.0053963456302881241
0.82988053560256958 0.62377089262008667 0.0078621208667755127
0.87256890535354614 0.62406820058822632 0.030022595077753067
0.89987432956695557 0.6392027735710144 0.058887392282485962
0.94183224439620972 0.653359055519104 0.11267000436782837
0.0017350888811051846 0.49910727143287659 0.015479518100619316
0.0026069192681461573 0.51440370082855225 0.0012686187401413918
0.010878948494791985 0.58723962306976318 0.0050866072997450829
0.055442329496145248 0.56472069025039673 0.0032760170288383961
0.1847182959318161 0.58906418085098267 0.0011274898424744606
0.28311806917190552 0.62335526943206787 0.00018231260764878243
0.49931186437606812 0.66125905513763428 0.0013591093011200428
0.63001555204391479 0.66249239444732666 0.0031913607381284237
0.74475479125976562 0.65899848937988281 0.0062762242741882801
0.83132016658782959 0.66727471351623535 0.0072072199545800686
0.87117964029312134 0.67341750860214233 0.022353498265147209
0.89711171388626099 0.69577866792678833 0.044091828167438507
0.93119651079177856 0.71340733766555786 0.10055163502693176
0.0020900052040815353 0.53265798091888428 0.029715385288000107
0.0025193009059876204 0.51813894510269165 0.0014286265941336751
0.010759091936051846 0.57697063684463501 0.011547043919563293
0.043891578912734985 0.61280661821365356 0.027851134538650513
0.17461296916007996 0.63414722681045532 0.014215506613254547
0.29094204306602478 0.6607365608215332 0.0017247967189177871
0.48692026734352112 0.6762397289276123 0.0025726617313921452
0.60902857780456543 0.6800835132598877 0.0052949194796383381
0.71735060214996338 0.67555332183837891 0.0084763020277023315
0.83092594146728516 0.67709660530090332 0.011330458335578442
0.88570624589920044 0.69612008333206177 0.040557365864515305
0.92843973636627197 0.72057157754898071 0.097365394234657288
0.95936506986618042 0.73814761638641357 0.14622397720813751
0.0024742875248193741 0.53624707460403442 0.028539365157485008
0.0034273783676326275 0.52830415964126587 0.0080182543024420738
0.014210824854671955 0.66993176937103271 0.048388164490461349
0.031301267445087433 0.70728754997253418 0.063741318881511688
0.15055203437805176 0.70111590623855591 0.034384004771709442
0.27178561687469482 0.70083248615264893 0.0060458914376795292
0.50267422199249268 0.70934921503067017 0.010235730558633804
0.59147679805755615 0.70525491237640381 0.016527242958545685
0.687480628490448 0.7011902928352356 0.029370026662945747
0.82536745071411133 0.6936194896697998 0.034211162477731705
0.90531766414642334 0.7195318341255188 0.089758075773715973
0.95664769411087036 0.74096965789794922 0.15190769731998444
0.96620219945907593 0.74513447284698486 0.16350436210632324
0.0039215688593685627 0.5692441463470459 0.010854369960725307
0.005182318389415741 0.57352501153945923 0.010670695453882217
0.015495629049837589 0.70401543378829956 0.059825386852025986
0.034183982759714127 0.73232311010360718 0.072771705687046051
0.13110750913619995 0.73063415288925171 0.044948235154151917
0.25843721628189087 0.73320448398590088 0.010688826441764832
0.52180927991867065 0.73380684852600098 0.018218515440821648
0.57755893468856812 0.73573225736618042 0.042702872306108475
0.67879074811935425 0.74062460660934448 0.062187690287828445
0.80696648359298706 0.74064433574676514 0.10762285441160202
0.87813907861709595 0.75543135404586792 0.14176405966281891
0.94525980949401855 0.75638145208358765 0.17436736822128296
0.96106070280075073 0.75832831859588623 0.18484705686569214
0.0039215688593685627 0.5805397629737854 0.013217432424426079
0.0064775203354656696 0.5833740234375 0.013048478402197361
0.016134778037667274 0.70639681816101074 0.063094101846218109
0.036497078835964203 0.73625123500823975 0.078371785581111908
0.12928269803524017 0.73830997943878174 0.049592949450016022
0.25730669498443604 0.74216645956039429 0.01576017402112484
0.51266509294509888 0.74293708801269531 0.02955678291618824
0.52949756383895874 0.77135646343231201 0.084286540746688843
0.68266010284423828 0.77693736553192139 0.11169689148664474
0.80442583560943604 0.78381425142288208 0.17210300266742706
0.86705547571182251 0.79727554321289062 0.20444455742835999
0.91888374090194702 0.79540711641311646 0.22794978320598602
0.94491416215896606 0.79394733905792236 0.23934578895568848
0.0064971325919032097 0.014701753854751587 0.035643529146909714
0.02705719880759716 0.018083220347762108 0.035450715571641922
0.10902204364538193 0.028862763196229935 0.050449743866920471
0.21650087833404541 0.044149227440357208 0.062144290655851364
0.29956841468811035 0.051401998847723007 0.061320405453443527
0.44252067804336548 0.086391061544418335 0.070746615529060364
0.59610581398010254 0.12750786542892456 0.096140287816524506
0.71471101045608521 0.15448860824108124 0.12532716989517212
0.82587975263595581 0.17682789266109467 0.16996325552463531
0.87683212757110596 0.19838686287403107 0.19806236028671265
0.89559996128082275 0.20944005250930786 0.2118927538394928
0.91205316781997681 0.22286377847194672 0.22857615351676941
0.95390915870666504 0.26252609491348267 0.28920406103134155
0.008253045380115509 0.044598028063774109 0.045039456337690353
0.03578522801399231 0.046496819704771042 0.043470658361911774
0.10813393443822861 0.055799521505832672 0.04935016855597496
0.21536384522914886 0.070850089192390442 0.056096933782100677
0.33164578676223755 0.084399126470088959 0.062653437256813049
0.46586319804191589 0.10907592624425888 0.074311904609203339
0.59601759910583496 0.13559754192829132 0.089430443942546844
0.70620125532150269 0.168317511677742 0.11226174980401993
0.80458617210388184 0.19055604934692383 0.14214858412742615
0.87738686800003052 0.21328328549861908 0.18579380214214325
0.90808379650115967 0.23018397390842438 0.2044648677110672
0.94409465789794922 0.26008391380310059 0.24124875664710999
0.9776921272277832 0.2909664511680603 0.30131927132606506
0.0067829955369234085 0.097031690180301666 0.044006526470184326
0.029396297410130501 0.1006329134106636 0.041379202157258987
0.097839400172233582 0.11683934181928635 0.040256351232528687
0.213088259100914 0.12716037034988403 0.04573415219783783
0.34625309705734253 0.14331738650798798 0.054886657744646072
0.47808641195297241 0.16331373155117035 0.064864151179790497
0.59659236669540405 0.18384166061878204 0.079728223383426666
0.70369094610214233 0.20872215926647186 0.10396774858236313
0.80295157432556152 0.23103173077106476 0.12534579634666443
0.88210982084274292 0.25604555010795593 0.16047663986682892
0.94052064418792725 0.27797988057136536 0.20530155301094055
0.96599662303924561 0.29769593477249146 0.22963434457778931
0.9814799427986145 0.31066468358039856 0.27980142831802368
0.006248862948268652 0.19106107950210571 0.029830319806933403
0.021256614476442337 0.19454853236675262 0.031165776774287224
0.068692348897457123 0.20375946164131165 0.02600015327334404
0.19017308950424194 0.21481023728847504 0.031614881008863449
0.33556154370307922 0.22683806717395782 0.038281891494989395
0.46858170628547668 0.23882415890693665 0.048831596970558167
0.5879707932472229 0.25430884957313538 0.063603147864341736
0.69612234830856323 0.27653583884239197 0.087227195501327515
0.79648822546005249 0.29966196417808533 0.10803216695785522
0.8817448616027832 0.32187175750732422 0.1380927711725235
0.94893121719360352 0.33393341302871704 0.175340935587883
0.96932649612426758 0.34308367967605591 0.18850713968276978
0.98107564449310303 0.35448715090751648 0.23878887295722961
0.0040905522182583809 0.30111479759216309 0.015552446246147156
0.015205114148557186 0.30873653292655945 0.015509182587265968
0.03823484480381012 0.31107690930366516 0.012038197368383408
0.14632423222064972 0.32157763838768005 0.01600666344165802
0.30774727463722229 0.32990816235542297 0.020375898107886314
0.44579377770423889 0.33713445067405701 0.031295880675315857
0.56814414262771606 0.34808653593063354 0.046059790998697281
0.68308764696121216 0.36165675520896912 0.06289055198431015
0.78587603569030762 0.3803066611289978 0.082760877907276154
0.87061768770217896 0.39838519692420959 0.10594067722558975
0.94032949209213257 0.40193861722946167 0.14926476776599884
0.97105008363723755 0.40635550022125244 0.16708409786224365
0.98841172456741333 0.43982177972793579 0.19961027801036835
0.00088649074314162135 0.40076133608818054 0.0089194504544138908
0.0078899161890149117 0.41502895951271057 0.0096004260703921318
0.02394530363380909 0.414113849401474 0.0074973013252019882
0.102303646504879 0.42214769124984741 0.0073930476792156696
0.26394689083099365 0.43061530590057373 0.015287690795958042
0.41931420564651489 0.43861258029937744 0.022056983783841133
0.54766583442687988 0.44729876518249512 0.027547620236873627
0.66865766048431396 0.45590120553970337 0.035591620951890945
0.77240145206451416 0.46840989589691162 0.05217273160815239
0.850425124168396 0.47915709018707275 0.078430905938148499
0.9163394570350647 0.48575979471206665 0.11608897149562836
0.975849449634552 0.49791312217712402 0.15838232636451721
0.99402952194213867 0.53080946207046509 0.18387553095817566
0.00015412873472087085 0.46179327368736267 0.014095456339418888
0.0055289175361394882 0.49989104270935059 0.010905561037361622
0.020127136260271072 0.5076909065246582 0.0070732864551246166
0.070373371243476868 0.51169478893280029 0.0036766051780432463
0.21094878017902374 0.52225261926651001 0.0069723990745842457
0.3816530704498291 0.52875667810440063 0.0097078364342451096
0.52871942520141602 0.52929949760437012 0.013637288473546505
0.65196043252944946 0.54154914617538452 0.017454110085964203
0.75547236204147339 0.55116945505142212 0.028687704354524612
0.83588725328445435 0.55952554941177368 0.056176353245973587
0.90613859891891479 0.56513494253158569 0.096425704658031464
0.95513415336608887 0.57440030574798584 0.12831251323223114
0.98466455936431885 0.59580910205841064 0.17508667707443237
0.0021868387702852488 0.53549039363861084 0.051017746329307556
0.0043962365016341209 0.55649769306182861 0.0089911213144659996
0.012031794525682926 0.57381105422973633 0.0053478614427149296
0.052900515496730804 0.57610803842544556 0.0032416698522865772
0.16913393139839172 0.58897453546524048 0.0023398306220769882
0.31563690304756165 0.59901529550552368 0.0026086694560945034
0.49810600280761719 0.61012697219848633 0.0073293796740472317
0.62979573011398315 0.61662477254867554 0.014178556390106678
0.73753535747528076 0.62155264616012573 0.019280677661299706
0.82330858707427979 0.63249862194061279 0.036101892590522766
0.89923191070556641 0.64232915639877319 0.077982775866985321
0.95279574394226074 0.65193450450897217 0.13103434443473816
0.97391629219055176 0.67104226350784302 0.17071984708309174
0.0035510940942913294 0.56913650035858154 0.037939004600048065
0.0048213433474302292 0.58881640434265137 0.0053288177587091923
0.010723457671701908 0.61214631795883179 0.011017129756510258
0.032501667737960815 0.62601906061172485 0.014106481336057186
0.13933579623699188 0.63392865657806396 0.010088603012263775
0.28081899881362915 0.6542547345161438 0.0077689974568784237
0.4777277410030365 0.67309659719467163 0.0086624296382069588
0.61759549379348755 0.6803707480430603 0.013464400544762611
0.72664809226989746 0.67597252130508423 0.026895860210061073
0.81560367345809937 0.6912882924079895 0.046669621020555496
0.88582354784011841 0.70320355892181396 0.071633674204349518
0.94162225723266602 0.71568387746810913 0.12411244958639145
0.96472811698913574 0.73256266117095947 0.16757193207740784
0.0039215688593685627 0.58271455764770508 0.025477316230535507
0.0047164317220449448 0.59489172697067261 0.0080436859279870987
0.011659405194222927 0.66758084297180176 0.040437288582324982
0.031946685165166855 0.69909858703613281 0.055547632277011871
0.1320025622844696 0.7005729079246521 0.03524366021156311
0.26523330807685852 0.70516312122344971 0.012291522696614265
0.50102341175079346 0.71043771505355835 0.01381951104849577
0.60631018877029419 0.71574234962463379 0.026715969666838646
0.71260672807693481 0.70734983682632446 0.042414974421262741
0.80760484933853149 0.72386640310287476 0.078556343913078308
0.88462090492248535 0.7361830472946167 0.11174619942903519
0.94844168424606323 0.74679481983184814 0.15649676322937012
0.96311897039413452 0.7543373703956604 0.17255780100822449
0.0038371665868908167 0.58604270219802856 0.036400828510522842
0.0060712625272572041 0.6023632287979126 0.014056172221899033
0.01413879357278347 0.70227783918380737 0.06195354089140892
0.030338766053318977 0.72992497682571411 0.080124840140342712
0.1330282986164093 0.7328607439994812 0.050359390676021576
0.25580206513404846 0.73594576120376587 0.017208607867360115
0.51604348421096802 0.73728436231613159 0.023798475041985512
0.58232158422470093 0.75073641538619995 0.047384988516569138
0.68555402755737305 0.74595910310745239 0.072024628520011902
0.80174928903579712 0.75274175405502319 0.12335118651390076
0.88626247644424438 0.76788491010665894 0.16951267421245575
0.94716739654541016 0.76101124286651611 0.17989738285541534
0.96024221181869507 0.75908052921295166 0.18247987329959869
0.0026621499564498663 0.60677284002304077 0.13833498954772949
0.0056815952993929386 0.60133117437362671 0.020375166088342667
0.014878890477120876 0.7123875617980957 0.073754467070102692
0.028203073889017105 0.7491338849067688 0.10945983231067657
0.12105633318424225 0.74989968538284302 0.084910944104194641
0.24540600180625916 0.74696391820907593 0.036769837141036987
0.50080132484436035 0.74654960632324219 0.043017815798521042
0.52834820747375488 0.7730485200881958 0.087813161313533783
0.6762346625328064 0.77634710073471069 0.10812316834926605
0.80125516653060913 0.78082609176635742 0.16906721889972687
0.86839836835861206 0.79752486944198608 0.20922771096229553
0.91316336393356323 0.80163240432739258 0.23682637512683868
0.93923354148864746 0.79868251085281372 0.24313566088676453
0.0021242329385131598 0.6196175217628479 0.199130579829216
0.0059739653952419758 0.61011761426925659 0.051191937178373337
0.019135193899273872 0.73414409160614014 0.11571137607097626
0.032938893884420395 0.77358800172805786 0.16064238548278809
0.097092047333717346 0.77298009395599365 0.15242913365364075
0.24075353145599365 0.76098477840423584 0.095712549984455109
0.49881741404533386 0.75024008750915527 0.056659158319234848
0.51345354318618774 0.7800067663192749 0.098937064409255981
0.67046010494232178 0.78649437427520752 0.1210654005408287
0.80118900537490845 0.79166156053543091 0.18288186192512512
0.86912053823471069 0.80398678779602051 0.21748873591423035
0.91525286436080933 0.82705962657928467 0.27988490462303162
0.93036192655563354 0.83698564767837524 0.30823087692260742
0.010154410265386105 0.022576246410608292 0.13187730312347412
0.050341900438070297 0.031206004321575165 0.12388657033443451
0.13644097745418549 0.043603036552667618 0.1258857399225235
0.27026918530464172 0.063885152339935303 0.1414148211479187
0.353086918592453 0.079952895641326904 0.1592562198638916
0.47002571821212769 0.11444061994552612 0.18390747904777527
0.60753750801086426 0.14357273280620575 0.20470334589481354
0.72649741172790527 0.16526685655117035 0.2360367476940155
0.82858419418334961 0.1777852475643158 0.24248136579990387
0.88305604457855225 0.19676835834980011 0.25463256239891052
0.91352295875549316 0.21787139773368835 0.27480116486549377
0.95224982500076294 0.25275379419326782 0.32896023988723755
0.98960930109024048 0.29074400663375854 0.4022945761680603
0.013720478862524033 0.059480361640453339 0.12499045580625534
0.053032040596008301 0.064669862389564514 0.12099239975214005
0.12825022637844086 0.075034245848655701 0.12753570079803467
0.24056361615657806 0.090408444404602051 0.1404685378074646
0.3571835458278656 0.10796508938074112 0.15453577041625977
0.4814644455909729 0.13641701638698578 0.16855360567569733
0.60499757528305054 0.1548188328742981 0.18451051414012909
0.71432828903198242 0.18036407232284546 0.20583811402320862
0.81369853019714355 0.20030269026756287 0.21920403838157654
0.8904452919960022 0.22912047803401947 0.24499605596065521
0.94315087795257568 0.25717699527740479 0.27356615662574768
0.97462922334671021 0.28173163533210754 0.31779804825782776
0.99421244859695435 0.30472314357757568 0.36303144693374634
0.010116293095052242 0.11975640803575516 0.1281377375125885
0.040740504860877991 0.12293709814548492 0.12567138671875
0.11184101551771164 0.14014586806297302 0.12277395278215408
0.22000440955162048 0.15097342431545258 0.13030210137367249
0.35359472036361694 0.16354945302009583 0.14341124892234802
0.4853670597076416 0.18265277147293091 0.15762209892272949
0.59976834058761597 0.20004555583000183 0.17254407703876495
0.70502293109893799 0.22217510640621185 0.19277121126651764
0.80472904443740845 0.2462775707244873 0.21157552301883698
0.88862508535385132 0.27623307704925537 0.23831821978092194
0.9488334059715271 0.29667866230010986 0.27111524343490601
0.98068666458129883 0.3076494038105011 0.30872789025306702
0.99420195817947388 0.32353830337524414 0.35388842225074768
0.0052155139856040478 0.20880761742591858 0.11416470259428024
0.027180705219507217 0.21492502093315125 0.11011973023414612
0.081448860466480255 0.22176334261894226 0.10160788893699646
0.19407446682453156 0.23391662538051605 0.10961584746837616
0.33821338415145874 0.24142897129058838 0.12907375395298004
0.47448709607124329 0.2529885470867157 0.1402614414691925
0.58988994359970093 0.26814737915992737 0.15520086884498596
0.6949506402015686 0.2889762818813324 0.17494124174118042
0.79903644323348999 0.30916151404380798 0.19236816465854645
0.88502222299575806 0.33060002326965332 0.21724101901054382
0.94378936290740967 0.3489234447479248 0.25747627019882202
0.98543035984039307 0.3695952296257019 0.31340619921684265
0.99412596225738525 0.37977805733680725 0.34667578339576721
0.005239434540271759 0.31164771318435669 0.09564170241355896
0.013522368855774403 0.32042467594146729 0.08163558691740036
