assets/lut/fujixtransiii fuji xtrans iii acros+g.cube
# Created by: G'MIC (https://gmic.eu)
TITLE "fuji_xtrans_iii_acros+g"
# LUT size
LUT_3D_SIZE 13
# Data domain
DOMAIN_MIN 0.0 0.0 0.0
DOMAIN_MAX 1.0 1.0 1.0
# LUT data points
0.01796448603272438 0.01796448603272438 0.01796448603272438
0.025340855121612549 0.025340855121612549 0.025340855121612549
0.034993607550859451 0.034993607550859451 0.034993607550859451
0.060326520353555679 0.060326520353555679 0.060326520353555679
0.091485284268856049 0.091485284268856049 0.091485284268856049
0.12749956548213959 0.12749956548213959 0.12749956548213959
0.17325703799724579 0.17325703799724579 0.17325703799724579
0.2314746081829071 0.2314746081829071 0.2314746081829071
0.25963228940963745 0.25963228940963745 0.25963228940963745
0.28826627135276794 0.28826627135276794 0.28826627135276794
0.29912206530570984 0.29912206530570984 0.29912206530570984
0.3145577609539032 0.3145577609539032 0.3145577609539032
0.33236461877822876 0.33236461877822876 0.33236461877822876
0.034611377865076065 0.034611377865076065 0.034611377865076065
0.04442659392952919 0.04442659392952919 0.04442659392952919
0.057462848722934723 0.057462848722934723 0.057462848722934723
0.081113435328006744 0.081113435328006744 0.081113435328006744
0.10931475460529327 0.10931475460529327 0.10931475460529327
0.14678050577640533 0.14678050577640533 0.14678050577640533
0.19022661447525024 0.19022661447525024 0.19022661447525024
0.23032128810882568 0.23032128810882568 0.23032128810882568
0.2658616304397583 0.2658616304397583 0.2658616304397583
0.29368224740028381 0.29368224740028381 0.29368224740028381
0.30948922038078308 0.30948922038078308 0.30948922038078308
0.3266739547252655 0.3266739547252655 0.3266739547252655
0.35994046926498413 0.35994046926498413 0.35994046926498413
0.063631065189838409 0.063631065189838409 0.063631065189838409
0.07383524626493454 0.07383524626493454 0.07383524626493454
0.086133755743503571 0.086133755743503571 0.086133755743503571
0.11399093270301819 0.11399093270301819 0.11399093270301819
0.14753766357898712 0.14753766357898712 0.14753766357898712
0.18218247592449188 0.18218247592449188 0.18218247592449188
0.2196321040391922 0.2196321040391922 0.2196321040391922
0.25268170237541199 0.25268170237541199 0.25268170237541199
0.28735151886940002 0.28735151886940002 0.28735151886940002
0.32059499621391296 0.32059499621391296 0.32059499621391296
0.34048900008201599 0.34048900008201599 0.34048900008201599
0.36629873514175415 0.36629873514175415 0.36629873514175415
0.39385136961936951 0.39385136961936951 0.39385136961936951
0.12351842969655991 0.12351842969655991 0.12351842969655991
0.1314176470041275 0.1314176470041275 0.1314176470041275
0.13816440105438232 0.13816440105438232 0.13816440105438232
0.16834145784378052 0.16834145784378052 0.16834145784378052
0.19992654025554657 0.19992654025554657 0.19992654025554657
0.22936595976352692 0.22936595976352692 0.22936595976352692
0.26466336846351624 0.26466336846351624 0.26466336846351624
0.29724746942520142 0.29724746942520142 0.29724746942520142
0.32488894462585449 0.32488894462585449 0.32488894462585449
0.36151888966560364 0.36151888966560364 0.36151888966560364
0.39915710687637329 0.39915710687637329 0.39915710687637329
0.40778821706771851 0.40778821706771851 0.40778821706771851
0.41156700253486633 0.41156700253486633 0.41156700253486633
0.19079212844371796 0.19079212844371796 0.19079212844371796
0.21070784330368042 0.21070784330368042 0.21070784330368042
0.21942874789237976 0.21942874789237976 0.21942874789237976
0.24514004588127136 0.24514004588127136 0.24514004588127136
0.27357161045074463 0.27357161045074463 0.27357161045074463
0.29243853688240051 0.29243853688240051 0.29243853688240051
0.3204352855682373 0.3204352855682373 0.3204352855682373
0.34982547163963318 0.34982547163963318 0.34982547163963318
0.3764989972114563 0.3764989972114563 0.3764989972114563
0.40559059381484985 0.40559059381484985 0.40559059381484985
0.42894884943962097 0.42894884943962097 0.42894884943962097
0.42226710915565491 0.42226710915565491 0.42226710915565491
0.43954041600227356 0.43954041600227356 0.43954041600227356
0.25763985514640808 0.25763985514640808 0.25763985514640808
0.29251834750175476 0.29251834750175476 0.29251834750175476
0.29571971297264099 0.29571971297264099 0.29571971297264099
0.32311531901359558 0.32311531901359558 0.32311531901359558
0.35774296522140503 0.35774296522140503 0.35774296522140503
0.37645041942596436 0.37645041942596436 0.37645041942596436
0.39551261067390442 0.39551261067390442 0.39551261067390442
0.41022807359695435 0.41022807359695435 0.41022807359695435
0.43749323487281799 0.43749323487281799 0.43749323487281799
0.46869581937789917 0.46869581937789917 0.46869581937789917
0.48451724648475647 0.48451724648475647 0.48451724648475647
0.48386996984481812 0.48386996984481812 0.48386996984481812
0.51364827156066895 0.51364827156066895 0.51364827156066895
0.31401696801185608 0.31401696801185608 0.31401696801185608
0.34732693433761597 0.34732693433761597 0.34732693433761597
0.35921874642372131 0.35921874642372131 0.35921874642372131
0.39133846759796143 0.39133846759796143 0.39133846759796143
0.42558696866035461 0.42558696866035461 0.42558696866035461
0.43859881162643433 0.43859881162643433 0.43859881162643433
0.4672696590423584 0.4672696590423584 0.4672696590423584
0.48363709449768066 0.48363709449768066 0.48363709449768066
0.50327968597412109 0.50327968597412109 0.50327968597412109
0.52493429183959961 0.52493429183959961 0.52493429183959961
0.53557556867599487 0.53557556867599487 0.53557556867599487
0.54657459259033203 0.54657459259033203 0.54657459259033203
0.5708886981010437 0.5708886981010437 0.5708886981010437
0.34314122796058655 0.34314122796058655 0.34314122796058655
0.37565061450004578 0.37565061450004578 0.37565061450004578
0.42121234536170959 0.42121234536170959 0.42121234536170959
0.42748653888702393 0.42748653888702393 0.42748653888702393
0.47322231531143188 0.47322231531143188 0.47322231531143188
0.48575669527053833 0.48575669527053833 0.48575669527053833
0.52371072769165039 0.52371072769165039 0.52371072769165039
0.54796230792999268 0.54796230792999268 0.54796230792999268
0.5635981559753418 0.5635981559753418 0.5635981559753418
0.57627654075622559 0.57627654075622559 0.57627654075622559
0.58373326063156128 0.58373326063156128 0.58373326063156128
0.59471386671066284 0.59471386671066284 0.59471386671066284
0.61368107795715332 0.61368107795715332 0.61368107795715332
0.38674670457839966 0.38674670457839966 0.38674670457839966
0.39367300271987915 0.39367300271987915 0.39367300271987915
0.46540504693984985 0.46540504693984985 0.46540504693984985
0.44943422079086304 0.44943422079086304 0.44943422079086304
0.49005654454231262 0.49005654454231262 0.49005654454231262
0.53269392251968384 0.53269392251968384 0.53269392251968384
0.58427327871322632 0.58427327871322632 0.58427327871322632
0.5908849835395813 0.5908849835395813 0.5908849835395813
0.6004682183265686 0.6004682183265686 0.6004682183265686
0.60545337200164795 0.60545337200164795 0.60545337200164795
0.6140860915184021 0.6140860915184021 0.6140860915184021
0.64224439859390259 0.64224439859390259 0.64224439859390259
0.65955048799514771 0.65955048799514771 0.65955048799514771
0.41148066520690918 0.41148066520690918 0.41148066520690918
0.39309850335121155 0.39309850335121155 0.39309850335121155
0.45188862085342407 0.45188862085342407 0.45188862085342407
0.48553213477134705 0.48553213477134705 0.48553213477134705
0.52534341812133789 0.52534341812133789 0.52534341812133789
0.55981600284576416 0.55981600284576416 0.55981600284576416
0.59139811992645264 0.59139811992645264 0.59139811992645264
0.60308289527893066 0.60308289527893066 0.60308289527893066
0.61179304122924805 0.61179304122924805 0.61179304122924805
0.61589330434799194 0.61589330434799194 0.61589330434799194
0.63673979043960571 0.63673979043960571 0.63673979043960571
0.66535294055938721 0.66535294055938721 0.66535294055938721
0.68414062261581421 0.68414062261581421 0.68414062261581421
0.41468662023544312 0.41468662023544312 0.41468662023544312
0.41354885697364807 0.41354885697364807 0.41354885697364807
0.53746217489242554 0.53746217489242554 0.53746217489242554
0.56925171613693237 0.56925171613693237 0.56925171613693237
0.58521509170532227 0.58521509170532227 0.58521509170532227
0.59373617172241211 0.59373617172241211 0.59373617172241211
0.61735671758651733 0.61735671758651733 0.61735671758651733
0.62573146820068359 0.62573146820068359 0.62573146820068359
0.63248968124389648 0.63248968124389648 0.63248968124389648
0.63010495901107788 0.63010495901107788 0.63010495901107788
0.662772536277771 0.662772536277771 0.662772536277771
0.68589591979980469 0.68589591979980469 0.68589591979980469
0.69120121002197266 0.69120121002197266 0.69120121002197266
0.45424291491508484 0.45424291491508484 0.45424291491508484
0.45187002420425415 0.45187002420425415 0.45187002420425415
0.56300300359725952 0.56300300359725952 0.56300300359725952
0.5944475531578064 0.5944475531578064 0.5944475531578064
0.61431729793548584 0.61431729793548584 0.61431729793548584
0.62917900085449219 0.62917900085449219 0.62917900085449219
0.64828628301620483 0.64828628301620483 0.64828628301620483
0.65474337339401245 0.65474337339401245 0.65474337339401245
0.67294228076934814 0.67294228076934814 0.67294228076934814
0.67932426929473877 0.67932426929473877 0.67932426929473877
0.69476926326751709 0.69476926326751709 0.69476926326751709
0.70363551378250122 0.70363551378250122 0.70363551378250122
0.70314741134643555 0.70314741134643555 0.70314741134643555
0.45682221651077271 0.45682221651077271 0.45682221651077271
0.45581403374671936 0.45581403374671936 0.45581403374671936
0.56892114877700806 0.56892114877700806 0.56892114877700806
0.6012645959854126 0.6012645959854126 0.6012645959854126
0.61574316024780273 0.61574316024780273 0.61574316024780273
0.63389837741851807 0.63389837741851807 0.63389837741851807
0.66009765863418579 0.66009765863418579 0.66009765863418579
0.68307036161422729 0.68307036161422729 0.68307036161422729
0.70238697528839111 0.70238697528839111 0.70238697528839111
0.72370094060897827 0.72370094060897827 0.72370094060897827
0.74393630027770996 0.74393630027770996 0.74393630027770996
0.74464279413223267 0.74464279413223267 0.74464279413223267
0.74520087242126465 0.74520087242126465 0.74520087242126465
0.026426022872328758 0.026426022872328758 0.026426022872328758
0.032023798674345016 0.032023798674345016 0.032023798674345016
0.050918444991111755 0.050918444991111755 0.050918444991111755
0.074225708842277527 0.074225708842277527 0.074225708842277527
0.093091286718845367 0.093091286718845367 0.093091286718845367
0.1389976441860199 0.1389976441860199 0.1389976441860199
0.1955028772354126 0.1955028772354126 0.1955028772354126
0.24126607179641724 0.24126607179641724 0.24126607179641724
0.27590659260749817 0.27590659260749817 0.27590659260749817
0.30594578385353088 0.30594578385353088 0.30594578385353088
0.31530413031578064 0.31530413031578064 0.31530413031578064
0.32778686285018921 0.32778686285018921 0.32778686285018921
0.36491689085960388 0.36491689085960388 0.36491689085960388
0.045905902981758118 0.045905902981758118 0.045905902981758118
0.055053412914276123 0.055053412914276123 0.055053412914276123
0.07191804051399231 0.07191804051399231 0.07191804051399231
0.093417540192604065 0.093417540192604065 0.093417540192604065
0.11614988744258881 0.11614988744258881 0.11614988744258881
0.15861937403678894 0.15861937403678894 0.15861937403678894
0.20656080543994904 0.20656080543994904 0.20656080543994904
0.24227894842624664 0.24227894842624664 0.24227894842624664
0.27771618962287903 0.27771618962287903 0.27771618962287903
0.3066677451133728 0.3066677451133728 0.3066677451133728
0.32332012057304382 0.32332012057304382 0.32332012057304382
0.35124912858009338 0.35124912858009338 0.35124912858009338
0.38469454646110535 0.38469454646110535 0.38469454646110535
0.08317285031080246 0.08317285031080246 0.08317285031080246
0.084476500749588013 0.084476500749588013 0.084476500749588013
0.10117123275995255 0.10117123275995255 0.10117123275995255
0.12274560332298279 0.12274560332298279 0.12274560332298279
0.1522180587053299 0.1522180587053299 0.1522180587053299
0.19006365537643433 0.19006365537643433 0.19006365537643433
0.22746811807155609 0.22746811807155609 0.22746811807155609
0.26316356658935547 0.26316356658935547 0.26316356658935547
0.2989506721496582 0.2989506721496582 0.2989506721496582
0.33050906658172607 0.33050906658172607 0.33050906658172607
0.35541614890098572 0.35541614890098572 0.35541614890098572
0.37916463613510132 0.37916463613510132 0.37916463613510132
0.39465236663818359 0.39465236663818359 0.39465236663818359
0.13686279952526093 0.13686279952526093 0.13686279952526093
0.14126035571098328 0.14126035571098328 0.14126035571098328
0.15705488622188568 0.15705488622188568 0.15705488622188568
0.18105117976665497 0.18105117976665497 0.18105117976665497
0.20841251313686371 0.20841251313686371 0.20841251313686371
0.23655799031257629 0.23655799031257629 0.23655799031257629
0.26802283525466919 0.26802283525466919 0.26802283525466919
0.30221903324127197 0.30221903324127197 0.30221903324127197
0.33601203560829163 0.33601203560829163 0.33601203560829163
0.37208664417266846 0.37208664417266846 0.37208664417266846
0.40300047397613525 0.40300047397613525 0.40300047397613525
0.41178923845291138 0.41178923845291138 0.41178923845291138
0.42847731709480286 0.42847731709480286 0.42847731709480286
0.21201424300670624 0.21201424300670624 0.21201424300670624
0.21639128029346466 0.21639128029346466 0.21639128029346466
0.22979810833930969 0.22979810833930969 0.22979810833930969
0.25174781680107117 0.25174781680107117 0.25174781680107117
0.27638998627662659 0.27638998627662659 0.27638998627662659
0.30723613500595093 0.30723613500595093 0.30723613500595093
0.33410942554473877 0.33410942554473877 0.33410942554473877
0.35949814319610596 0.35949814319610596 0.35949814319610596
0.38878843188285828 0.38878843188285828 0.38878843188285828
0.42110738158226013 0.42110738158226013 0.42110738158226013
0.44831907749176025 0.44831907749176025 0.44831907749176025
0.45502278208732605 0.45502278208732605 0.45502278208732605
0.48413315415382385 0.48413315415382385 0.48413315415382385
0.28722876310348511 0.28722876310348511 0.28722876310348511
0.30615472793579102 0.30615472793579102 0.30615472793579102
0.31752994656562805 0.31752994656562805 0.31752994656562805
0.33171272277832031 0.33171272277832031 0.33171272277832031
0.35553285479545593 0.35553285479545593 0.35553285479545593
0.3843390941619873 0.3843390941619873 0.3843390941619873
0.41138401627540588 0.41138401627540588 0.41138401627540588
0.42963621020317078 0.42963621020317078 0.42963621020317078
0.45196241140365601 0.45196241140365601 0.45196241140365601
0.48033994436264038 0.48033994436264038 0.48033994436264038
0.49858182668685913 0.49858182668685913 0.49858182668685913
0.51834499835968018 0.51834499835968018 0.51834499835968018
0.54491579532623291 0.54491579532623291 0.54491579532623291
0.34012648463249207 0.34012648463249207 0.34012648463249207
0.37609636783599854 0.37609636783599854 0.37609636783599854
0.39658555388450623 0.39658555388450623 0.39658555388450623
0.40508034825325012 0.40508034825325012 0.40508034825325012
0.43140783905982971 0.43140783905982971 0.43140783905982971
0.45426389575004578 0.45426389575004578 0.45426389575004578
0.47763004899024963 0.47763004899024963 0.47763004899024963
0.49847763776779175 0.49847763776779175 0.49847763776779175
0.51809751987457275 0.51809751987457275 0.51809751987457275
0.53610813617706299 0.53610813617706299 0.53610813617706299
0.55086451768875122 0.55086451768875122 0.55086451768875122
0.56438744068145752 0.56438744068145752 0.56438744068145752
0.58316940069198608 0.58316940069198608 0.58316940069198608
0.41079807281494141 0.41079807281494141 0.41079807281494141
0.42550361156463623 0.42550361156463623 0.42550361156463623
0.45249071717262268 0.45249071717262268 0.45249071717262268
0.46187970042228699 0.46187970042228699 0.46187970042228699
0.48983502388000488 0.48983502388000488 0.48983502388000488
0.51011496782302856 0.51011496782302856 0.51011496782302856
0.53761202096939087 0.53761202096939087 0.53761202096939087
0.56165450811386108 0.56165450811386108 0.56165450811386108
0.57773661613464355 0.57773661613464355 0.57773661613464355
0.5880744457244873 0.5880744457244873 0.5880744457244873
0.60642004013061523 0.60642004013061523 0.60642004013061523
0.61408603191375732 0.61408603191375732 0.61408603191375732
0.63052600622177124 0.63052600622177124 0.63052600622177124
0.44960972666740417 0.44960972666740417 0.44960972666740417
0.46776324510574341 0.46776324510574341 0.46776324510574341
0.49461257457733154 0.49461257457733154 0.49461257457733154
0.50295543670654297 0.50295543670654297 0.50295543670654297
0.52894610166549683 0.52894610166549683 0.52894610166549683
0.55025768280029297 0.55025768280029297 0.55025768280029297
0.59378063678741455 0.59378063678741455 0.59378063678741455
0.61314684152603149 0.61314684152603149 0.61314684152603149
0.61919945478439331 0.61919945478439331 0.61919945478439331
0.63458573818206787 0.63458573818206787 0.63458573818206787
0.65131580829620361 0.65131580829620361 0.65131580829620361
0.66425508260726929 0.66425508260726929 0.66425508260726929
0.67940592765808105 0.67940592765808105 0.67940592765808105
0.46189373731613159 0.46189373731613159 0.46189373731613159
0.47399362921714783 0.47399362921714783 0.47399362921714783
0.53367501497268677 0.53367501497268677 0.53367501497268677
0.56542974710464478 0.56542974710464478 0.56542974710464478
0.58383488655090332 0.58383488655090332 0.58383488655090332
0.59107905626296997 0.59107905626296997 0.59107905626296997
0.6250794529914856 0.6250794529914856 0.6250794529914856
0.63843190670013428 0.63843190670013428 0.63843190670013428
0.64294725656509399 0.64294725656509399 0.64294725656509399
0.66427445411682129 0.66427445411682129 0.66427445411682129
0.68038105964660645 0.68038105964660645 0.68038105964660645
0.68968874216079712 0.68968874216079712 0.68968874216079712
0.69599288702011108 0.69599288702011108 0.69599288702011108
0.46606534719467163 0.46606534719467163 0.46606534719467163
0.47422823309898376 0.47422823309898376 0.47422823309898376
0.56503981351852417 0.56503981351852417 0.56503981351852417
0.59412676095962524 0.59412676095962524 0.59412676095962524
0.61597096920013428 0.61597096920013428 0.61597096920013428
0.62629365921020508 0.62629365921020508 0.62629365921020508
0.65136432647705078 0.65136432647705078 0.65136432647705078
0.66922551393508911 0.66922551393508911 0.66922551393508911
0.68014633655548096 0.68014633655548096 0.68014633655548096
0.6903650164604187 0.6903650164604187 0.6903650164604187
0.71426725387573242 0.71426725387573242 0.71426725387573242
0.7025599479675293 0.7025599479675293 0.7025599479675293
0.70171856880187988 0.70171856880187988 0.70171856880187988
0.49009042978286743 0.49009042978286743 0.49009042978286743
0.47890520095825195 0.47890520095825195 0.47890520095825195
0.57539510726928711 0.57539510726928711 0.57539510726928711
0.6119227409362793 0.6119227409362793 0.6119227409362793
0.63025832176208496 0.63025832176208496 0.63025832176208496
0.63927763700485229 0.63927763700485229 0.63927763700485229
0.6617656946182251 0.6617656946182251 0.6617656946182251
0.68518704175949097 0.68518704175949097 0.68518704175949097
0.70304363965988159 0.70304363965988159 0.70304363965988159
0.72093039751052856 0.72093039751052856 0.72093039751052856
0.73969173431396484 0.73969173431396484 0.73969173431396484
0.74886077642440796 0.74886077642440796 0.74886077642440796
0.74602711200714111 0.74602711200714111 0.74602711200714111
0.50080591440200806 0.50080591440200806 0.50080591440200806
0.48844534158706665 0.48844534158706665 0.48844534158706665
0.59898853302001953 0.59898853302001953 0.59898853302001953
0.63694417476654053 0.63694417476654053 0.63694417476654053
0.64886868000030518 0.64886868000030518 0.64886868000030518
0.65158462524414062 0.65158462524414062 0.65158462524414062
0.66350746154785156 0.66350746154785156 0.66350746154785156
0.68607419729232788 0.68607419729232788 0.68607419729232788
0.70878142118453979 0.70878142118453979 0.70878142118453979
0.73132574558258057 0.73132574558258057 0.73132574558258057
0.7489127516746521 0.7489127516746521 0.7489127516746521
0.78151804208755493 0.78151804208755493 0.78151804208755493
0.79279458522796631 0.79279458522796631 0.79279458522796631
0.043858800083398819 0.043858800083398819 0.043858800083398819
0.057988245040178299 0.057988245040178299 0.057988245040178299
0.076217308640480042 0.076217308640480042 0.076217308640480042
0.10113652795553207 0.10113652795553207 0.10113652795553207
0.12540921568870544 0.12540921568870544 0.12540921568870544
0.1697792112827301 0.1697792112827301 0.1697792112827301
0.21903041005134583 0.21903041005134583 0.21903041005134583
0.2621513307094574 0.2621513307094574 0.2621513307094574
0.29265135526657104 0.29265135526657104 0.29265135526657104
0.31209075450897217 0.31209075450897217 0.31209075450897217
0.32449251413345337 0.32449251413345337 0.32449251413345337
0.35602974891662598 0.35602974891662598 0.35602974891662598
0.39562812447547913 0.39562812447547913 0.39562812447547913
0.067059628665447235 0.067059628665447235 0.067059628665447235
0.077939055860042572 0.077939055860042572 0.077939055860042572
0.092752434313297272 0.092752434313297272 0.092752434313297272
0.11489498615264893 0.11489498615264893 0.11489498615264893
0.1431361585855484 0.1431361585855484 0.1431361585855484
0.18219508230686188 0.18219508230686188 0.18219508230686188
0.22396361827850342 0.22396361827850342 0.22396361827850342
0.25773721933364868 0.25773721933364868 0.25773721933364868
0.289621502161026 0.289621502161026 0.289621502161026
0.31754612922668457 0.31754612922668457 0.31754612922668457
0.34842890501022339 0.34842890501022339 0.34842890501022339
0.3786141574382782 0.3786141574382782 0.3786141574382782
0.39933502674102783 0.39933502674102783 0.39933502674102783
0.11034149676561356 0.11034149676561356 0.11034149676561356
0.11042094230651855 0.11042094230651855 0.11042094230651855
0.12238292396068573 0.12238292396068573 0.12238292396068573
0.14669722318649292 0.14669722318649292 0.14669722318649292
0.17568120360374451 0.17568120360374451 0.17568120360374451
0.20914320647716522 0.20914320647716522 0.20914320647716522
0.24436500668525696 0.24436500668525696 0.24436500668525696
0.28008148074150085 0.28008148074150085 0.28008148074150085
0.31378442049026489 0.31378442049026489 0.31378442049026489
0.34677296876907349 0.34677296876907349 0.34677296876907349
0.37960556149482727 0.37960556149482727 0.37960556149482727
0.39891302585601807 0.39891302585601807 0.39891302585601807
0.4175998866558075 0.4175998866558075 0.4175998866558075
0.16663141548633575 0.16663141548633575 0.16663141548633575
0.16682586073875427 0.16682586073875427 0.16682586073875427
0.17876100540161133 0.17876100540161133 0.17876100540161133
0.20300666987895966 0.20300666987895966 0.20300666987895966
0.22947104275226593 0.22947104275226593 0.22947104275226593
0.25544816255569458 0.25544816255569458 0.25544816255569458
0.28370711207389832 0.28370711207389832 0.28370711207389832
0.31962674856185913 0.31962674856185913 0.31962674856185913
0.35381126403808594 0.35381126403808594 0.35381126403808594
0.38648241758346558 0.38648241758346558 0.38648241758346558
0.42127776145935059 0.42127776145935059 0.42127776145935059
0.44262060523033142 0.44262060523033142 0.44262060523033142
0.45737624168395996 0.45737624168395996 0.45737624168395996
0.22599244117736816 0.22599244117736816 0.22599244117736816
0.23250073194503784 0.23250073194503784 0.23250073194503784
0.24840393662452698 0.24840393662452698 0.24840393662452698
0.27161291241645813 0.27161291241645813 0.27161291241645813
0.29489511251449585 0.29489511251449585 0.29489511251449585
0.32213911414146423 0.32213911414146423 0.32213911414146423
0.34775891900062561 0.34775891900062561 0.34775891900062561
