assets/lut/fujixtransiii fuji xtrans iii provia.cube
# Created by: G'MIC (https://gmic.eu)
TITLE "fuji_xtrans_iii_provia"
# LUT size
LUT_3D_SIZE 7
# Data domain
DOMAIN_MIN 0.0 0.0 0.0
DOMAIN_MAX 1.0 1.0 1.0
# LUT data points
0.0061679165810346603 0.011925715953111649 0.012044121511280537
0.10073337703943253 0.018136881291866302 0.012587020173668861
0.33568534255027771 0.037374071776866913 0.013480601832270622
0.57573401927947998 0.10542713105678558 0.040199354290962219
0.78700500726699829 0.16956675052642822 0.093114085495471954
0.87507259845733643 0.20459717512130737 0.13427302241325378
0.91368991136550903 0.23392190039157867 0.18028745055198669
0.0095578059554100037 0.09129459410905838 0.011961409822106361
0.095590822398662567 0.096212692558765411 0.01064752321690321
0.35195735096931458 0.13406707346439362 0.01831899955868721
0.59586971998214722 0.18008489906787872 0.033323850482702255
0.79429274797439575 0.22761343419551849 0.06981205940246582
0.91156840324401855 0.25776630640029907 0.1192767545580864
0.97378545999526978 0.32400238513946533 0.16115975379943848
0.0044731590896844864 0.27349457144737244 0.0011037040967494249
0.041615713387727737 0.30698302388191223 0.0022759831044822931
0.31343045830726624 0.33205711841583252 0.0044979318045079708
0.5654105544090271 0.34076082706451416 0.016692128032445908
0.78450626134872437 0.37191227078437805 0.027112474665045738
0.94042223691940308 0.38997569680213928 0.086494028568267822
0.99101704359054565 0.38618761301040649 0.12547217309474945
0.00056756712729111314 0.43839812278747559 0.0015959496377035975
0.019974203780293465 0.4804893434047699 0
0.22749820351600647 0.51761436462402344 3.6621095205191523e-05
0.53217977285385132 0.51973623037338257 0.0041291629895567894
0.75350284576416016 0.54256761074066162 0.0091121001169085503
0.87970262765884399 0.55869805812835693 0.036719918251037598
0.9527934193611145 0.58306282758712769 0.1224474161863327
0.0017350888811051846 0.49910727143287659 0.015479518100619316
0.010878948494791985 0.58723962306976318 0.0050866072997450829
0.1847182959318161 0.58906418085098267 0.0011274898424744606
0.49931186437606812 0.66125905513763428 0.0013591093011200428
0.74475479125976562 0.65899848937988281 0.0062762242741882801
0.87117964029312134 0.67341750860214233 0.022353498265147209
0.93119651079177856 0.71340733766555786 0.10055163502693176
0.0024742875248193741 0.53624707460403442 0.028539365157485008
0.014210824854671955 0.66993176937103271 0.048388164490461349
0.15055203437805176 0.70111590623855591 0.034384004771709442
0.50267422199249268 0.70934921503067017 0.010235730558633804
0.687480628490448 0.7011902928352356 0.029370026662945747
0.90531766414642334 0.7195318341255188 0.089758075773715973
0.96620219945907593 0.74513447284698486 0.16350436210632324
0.0039215688593685627 0.5805397629737854 0.013217432424426079
0.016134778037667274 0.70639681816101074 0.063094101846218109
0.12928269803524017 0.73830997943878174 0.049592949450016022
0.51266509294509888 0.74293708801269531 0.02955678291618824
0.68266010284423828 0.77693736553192139 0.11169689148664474
0.86705547571182251 0.79727554321289062 0.20444455742835999
0.94491416215896606 0.79394733905792236 0.23934578895568848
0.010154410265386105 0.022576246410608292 0.13187730312347412
0.13644097745418549 0.043603036552667618 0.1258857399225235
0.353086918592453 0.079952895641326904 0.1592562198638916
0.60753750801086426 0.14357273280620575 0.20470334589481354
0.82858419418334961 0.1777852475643158 0.24248136579990387
0.91352295875549316 0.21787139773368835 0.27480116486549377
0.98960930109024048 0.29074400663375854 0.4022945761680603
0.010116293095052242 0.11975640803575516 0.1281377375125885
0.11184101551771164 0.14014586806297302 0.12277395278215408
0.35359472036361694 0.16354945302009583 0.14341124892234802
0.59976834058761597 0.20004555583000183 0.17254407703876495
0.80472904443740845 0.2462775707244873 0.21157552301883698
0.9488334059715271 0.29667866230010986 0.27111524343490601
0.99420195817947388 0.32353830337524414 0.35388842225074768
0.005239434540271759 0.31164771318435669 0.09564170241355896
0.045028012245893478 0.32404997944831848 0.069951169192790985
0.30771133303642273 0.33975774049758911 0.097199007868766785
0.56529241800308228 0.36141148209571838 0.11985108256340027
0.78635859489440918 0.38888907432556152 0.1644786149263382
0.93795931339263916 0.41587719321250916 0.23155239224433899
0.99490022659301758 0.44423797726631165 0.31133091449737549
0.00061138375895097852 0.5001910924911499 0.059500318020582199
0.019967891275882721 0.51482582092285156 0.040240641683340073
0.19865334033966064 0.53244054317474365 0.041406817734241486
0.51985567808151245 0.54426068067550659 0.059560004621744156
0.74674582481384277 0.55934548377990723 0.097361832857131958
0.9154592752456665 0.57604718208312988 0.17129302024841309
0.9939998984336853 0.59238243103027344 0.21908695995807648
0.0027656105812638998 0.58853673934936523 0.14120796322822571
0.009887276217341423 0.64973586797714233 0.038289342075586319
0.11145886033773422 0.68164163827896118 0.053368125110864639
0.45524859428405762 0.69353818893432617 0.058156047016382217
0.71024960279464722 0.69715934991836548 0.088832005858421326
0.88934767246246338 0.71634078025817871 0.15243984758853912
0.98187023401260376 0.74894887208938599 0.20642994344234467
0.0021585652139037848 0.62143880128860474 0.205447718501091
0.014242778532207012 0.72635847330093384 0.10705698281526566
0.093323215842247009 0.75954365730285645 0.13535736501216888
0.46915462613105774 0.75662326812744141 0.079858921468257904
0.67146962881088257 0.77597314119338989 0.11174147576093674
0.8659854531288147 0.79879152774810791 0.21887044608592987
0.94747829437255859 0.79972976446151733 0.23693791031837463
4.1647519537946209e-05 0.65313464403152466 0.34758010506629944
0.019590564072132111 0.76131194829940796 0.18428443372249603
0.087688326835632324 0.79082328081130981 0.20426462590694427
0.39950624108314514 0.78312951326370239 0.17873643338680267
0.65425324440002441 0.79594254493713379 0.15357083082199097
0.87425369024276733 0.81726926565170288 0.24986065924167633
0.93413537740707397 0.84676063060760498 0.33012354373931885
0.058851666748523712 0.089010514318943024 0.42097947001457214
0.23030039668083191 0.099459223449230194 0.43816563487052917
0.41307085752487183 0.13202507793903351 0.43553772568702698
0.62681382894515991 0.17275099456310272 0.46771088242530823
0.82511991262435913 0.21273985505104065 0.46000325679779053
0.95378571748733521 0.26419544219970703 0.49817150831222534
0.99842822551727295 0.30253708362579346 0.56089884042739868
0.034816816449165344 0.17268837988376617 0.36975762248039246
0.18070806562900543 0.18546462059020996 0.38112366199493408
0.39851677417755127 0.21615530550479889 0.39281892776489258
0.61612981557846069 0.24798092246055603 0.41185429692268372
0.81130021810531616 0.28699398040771484 0.43265998363494873
0.95215511322021484 0.32555541396141052 0.45888760685920715
0.99988996982574463 0.37488168478012085 0.4683665931224823
0.010826799087226391 0.3484598696231842 0.3489280641078949
0.10072805732488632 0.36195123195648193 0.34831824898719788
0.35092473030090332 0.37297928333282471 0.36018258333206177
0.5914878249168396 0.38693106174468994 0.38010814785957336
0.79490691423416138 0.41176548600196838 0.40201109647750854
0.94436752796173096 0.43695428967475891 0.42751333117485046
0.99728381633758545 0.44185665249824524 0.45095136761665344
0.0084589943289756775 0.53674983978271484 0.33733081817626953
0.032983098179101944 0.54070460796356201 0.30545368790626526
0.23790796101093292 0.55329769849777222 0.30864480137825012
0.53299450874328613 0.55619698762893677 0.33522021770477295
0.7457154393196106 0.56567025184631348 0.35300347208976746
0.90903949737548828 0.58845049142837524 0.38241708278656006
0.99114412069320679 0.6046072244644165 0.41776418685913086
0.00049875298282131553 0.63380205631256104 0.36817604303359985
0.012646409682929516 0.6933174729347229 0.30308952927589417
0.12044765800237656 0.7082819938659668 0.26979511976242065
0.43962818384170532 0.70548516511917114 0.28257781267166138
0.70389753580093384 0.71262317895889282 0.30835670232772827
0.87133657932281494 0.73122489452362061 0.33839139342308044
0.98336917161941528 0.75494384765625 0.35418382287025452
0.0049035465344786644 0.76610285043716431 0.34384545683860779
0.0104777617380023 0.78680908679962158 0.30707839131355286
0.080812461674213409 0.7970348596572876 0.27739411592483521
0.37997809052467346 0.80314826965332031 0.28524625301361084
0.65672016143798828 0.8226248025894165 0.33886250853538513
0.86854428052902222 0.82905560731887817 0.34235092997550964
0.96591758728027344 0.83988070487976074 0.3754219114780426
0.005982088390737772 0.78241521120071411 0.32877543568611145
0.014395006932318211 0.79523122310638428 0.31460162997245789
0.071094095706939697 0.83305627107620239 0.38285335898399353
0.34670940041542053 0.84704458713531494 0.39393934607505798
0.62983494997024536 0.84307610988616943 0.36796212196350098
0.8810848593711853 0.85974407196044922 0.38927832245826721
0.95787161588668823 0.87492704391479492 0.42795780301094055
0.19605235755443573 0.12754113972187042 0.67774021625518799
0.34821707010269165 0.1399216502904892 0.68268567323684692
0.50670617818832397 0.17434868216514587 0.68030810356140137
0.67293941974639893 0.21858139336109161 0.67742645740509033
0.83267146348953247 0.26357024908065796 0.68551594018936157
0.95493197441101074 0.30526572465896606 0.68261599540710449
0.99798858165740967 0.35072740912437439 0.70187002420425415
0.11417511850595474 0.23692990839481354 0.63796913623809814
0.27739688754081726 0.25974038243293762 0.63629364967346191
0.45606240630149841 0.28454875946044922 0.64305984973907471
0.64811092615127563 0.30724525451660156 0.64393144845962524
0.81727981567382812 0.34262683987617493 0.65047234296798706
0.95496886968612671 0.37680700421333313 0.65861940383911133
0.99701768159866333 0.40277919173240662 0.67951583862304688
0.041786342859268188 0.3913787305355072 0.60544443130493164
0.19674377143383026 0.4108281135559082 0.61076611280441284
0.41444370150566101 0.41474395990371704 0.61420625448226929
0.60389548540115356 0.42846453189849854 0.60725051164627075
0.80302298069000244 0.44997763633728027 0.62449830770492554
0.93638700246810913 0.47591936588287354 0.63873052597045898
0.99598813056945801 0.49267205595970154 0.65426504611968994
0.014292069710791111 0.56252270936965942 0.57034546136856079
0.073947817087173462 0.56767445802688599 0.56451034545898438
0.30311810970306396 0.57289230823516846 0.56197810173034668
0.54850202798843384 0.57606619596481323 0.57163798809051514
0.74666690826416016 0.58798623085021973 0.58830720186233521
0.91079127788543701 0.60559380054473877 0.60145127773284912
0.99037379026412964 0.62318819761276245 0.60639017820358276
0.004748655017465353 0.69605112075805664 0.57891559600830078
0.029038626700639725 0.71192830801010132 0.53036564588546753
0.18367947638034821 0.72044867277145386 0.5196765661239624
0.48886984586715698 0.71799188852310181 0.53525286912918091
0.71331936120986938 0.72140353918075562 0.54702144861221313
0.87959545850753784 0.7375074028968811 0.55729508399963379
0.98169463872909546 0.76614272594451904 0.56795161962509155
0.00012700697698164731 0.79857498407363892 0.62468087673187256
0.015899628400802612 0.81537741422653198 0.53932875394821167
0.10670595616102219 0.83265668153762817 0.51080095767974854
0.37034213542938232 0.83822739124298096 0.50415706634521484
0.67476844787597656 0.83092290163040161 0.50963461399078369
0.86707258224487305 0.84971708059310913 0.53795415163040161
0.97379606962203979 0.87901324033737183 0.5654754638671875
0.0013128841528669 0.81278407573699951 0.63832622766494751
0.020552586764097214 0.83853304386138916 0.57605129480361938
0.10013937950134277 0.84912669658660889 0.51942920684814453
0.36309623718261719 0.85064011812210083 0.50304359197616577
0.6779705286026001 0.85216689109802246 0.52109932899475098
0.88484483957290649 0.8987610936164856 0.57103991508483887
0.96448773145675659 0.91253447532653809 0.57636946439743042
0.35599532723426819 0.11446850001811981 0.84859520196914673
0.4626060426235199 0.15145650506019592 0.85300517082214355
0.59192240238189697 0.20012383162975311 0.85514241456985474
0.72748351097106934 0.25980207324028015 0.85084247589111328
0.8626132607460022 0.30806884169578552 0.8473554253578186
0.96272355318069458 0.35090941190719604 0.85746604204177856
0.99515819549560547 0.38607403635978699 0.89243268966674805
0.22724464535713196 0.2930927574634552 0.84593415260314941
0.39591440558433533 0.32802674174308777 0.85144913196563721
0.52940738201141357 0.34927356243133545 0.84563779830932617
0.68948584794998169 0.36732786893844604 0.84422081708908081
0.83429849147796631 0.40228328108787537 0.83861881494522095
0.96169346570968628 0.4320557713508606 0.83891624212265015
0.99449950456619263 0.45506131649017334 0.85090875625610352
0.14809602499008179 0.4410039484500885 0.81463038921356201
0.33068788051605225 0.46127241849899292 0.82192277908325195
0.48369342088699341 0.46527007222175598 0.8146660327911377
0.64960497617721558 0.48182451725006104 0.8110051155090332
0.81695866584777832 0.49986842274665833 0.81101882457733154
0.93643498420715332 0.52458155155181885 0.81466114521026611
0.99463260173797607 0.54535156488418579 0.83137589693069458
0.066421926021575928 0.59503847360610962 0.77391666173934937
0.21537701785564423 0.60180085897445679 0.77475178241729736
0.41491347551345825 0.59946513175964355 0.77929753065109253
0.60972511768341064 0.60691708326339722 0.77723217010498047
0.77132868766784668 0.61988496780395508 0.77890074253082275
0.90636759996414185 0.63965922594070435 0.78346788883209229
0.99349319934844971 0.6613926887512207 0.79847633838653564
0.017270496115088463 0.72677278518676758 0.74462515115737915
0.090511023998260498 0.73605263233184814 0.73822855949401855
0.30797955393791199 0.73415631055831909 0.73831796646118164
0.55400711297988892 0.73446762561798096 0.74438029527664185
0.73735213279724121 0.74508398771286011 0.74405401945114136
0.88284957408905029 0.76391780376434326 0.75169706344604492
0.98879420757293701 0.79697310924530029 0.76824194192886353
0.0061102923937141895 0.84740817546844482 0.74515765905380249
0.053428426384925842 0.8388218879699707 0.72656303644180298
0.20669357478618622 0.84380018711090088 0.71446973085403442
0.47138187289237976 0.84586644172668457 0.71911752223968506
0.71051669120788574 0.83898526430130005 0.73137921094894409
0.87635958194732666 0.85896492004394531 0.7298591136932373
0.97564488649368286 0.89729505777359009 0.75399881601333618
0.010298620909452438 0.86053305864334106 0.74551105499267578
0.091093219816684723 0.88358187675476074 0.78119724988937378
0.23251327872276306 0.88847589492797852 0.77363759279251099
0.50710201263427734 0.8946375846862793 0.78828734159469604
0.72156417369842529 0.89548021554946899 0.76278185844421387
0.89602267742156982 0.90943658351898193 0.73848754167556763
0.97467494010925293 0.93669277429580688 0.75241291522979736
0.52013826370239258 0.070510953664779663 0.95665967464447021
0.57864177227020264 0.14550690352916718 0.95228284597396851
0.68254703283309937 0.21953551471233368 0.95115906000137329
0.79647922515869141 0.28449147939682007 0.95455998182296753
0.90190273523330688 0.34345018863677979 0.95222228765487671
0.97409594058990479 0.39616513252258301 0.95756298303604126
0.99848169088363647 0.460370272397995 0.98977172374725342
0.3925243616104126 0.32402986288070679 0.95977580547332764
0.51458144187927246 0.3756721019744873 0.96576094627380371
0.61818152666091919 0.40813618898391724 0.9671892523765564
0.74934571981430054 0.43150505423545837 0.95946162939071655
0.86892116069793701 0.46115821599960327 0.96688640117645264
0.97067153453826904 0.49098744988441467 0.97093957662582397
0.9950329065322876 0.51342976093292236 0.96798408031463623
0.23303511738777161 0.49825412034988403 0.95604521036148071
0.44517472386360168 0.52128463983535767 0.96359020471572876
0.56631278991699219 0.52880066633224487 0.94668054580688477
0.70508027076721191 0.54267102479934692 0.95181548595428467
0.83372336626052856 0.56003826856613159 0.94939863681793213
0.95106965303421021 0.57797688245773315 0.94987541437149048
0.99725544452667236 0.59958040714263916 0.95613819360733032
0.18769189715385437 0.63315790891647339 0.92963880300521851
0.36943015456199646 0.64682918787002563 0.9195590615272522
0.51983749866485596 0.64441049098968506 0.92839181423187256
0.67173296213150024 0.65257614850997925 0.92247432470321655
0.80302244424819946 0.6645362377166748 0.92528003454208374
0.91765505075454712 0.67426145076751709 0.93082553148269653
0.99507957696914673 0.69511896371841431 0.94372200965881348
0.11148709803819656 0.75531858205795288 0.90330237150192261
0.2632468044757843 0.76334887742996216 0.89164215326309204
0.44197416305541992 0.75858056545257568 0.89837193489074707
0.61676007509231567 0.76882034540176392 0.89023005962371826
0.76565027236938477 0.78022575378417969 0.89895164966583252
0.89442837238311768 0.79410082101821899 0.90765690803527832
0.99037808179855347 0.81947487592697144 0.92535984516143799
0.064727768301963806 0.85949015617370605 0.89038854837417603
0.1683867871761322 0.86355412006378174 0.88612478971481323
0.34072956442832947 0.86903840303421021 0.88540196418762207
0.56211352348327637 0.87109291553497314 0.8877444863319397
0.74971407651901245 0.87501269578933716 0.89431464672088623
0.88292992115020752 0.88899260759353638 0.89291155338287354
0.98062849044799805 0.91517919301986694 0.9179614782333374
0.22230343520641327 0.92412304878234863 0.92675602436065674
0.14711090922355652 0.90672439336776733 0.88932979106903076
0.30386120080947876 0.9151606559753418 0.88681870698928833
0.54955011606216431 0.92020934820175171 0.90393310785293579
0.75206655263900757 0.91905516386032104 0.87887418270111084
0.88795953989028931 0.93006563186645508 0.89162236452102661
0.97506928443908691 0.95219242572784424 0.91466641426086426
0.63992762565612793 0.15384052693843842 0.99929487705230713
0.68529534339904785 0.20774500072002411 0.99848860502243042
0.75324654579162598 0.2756732702255249 0.99726766347885132
0.84796988964080811 0.35906115174293518 0.99489015340805054
0.93379765748977661 0.45160546898841858 0.99571329355239868
0.98732924461364746 0.51142460107803345 0.99799871444702148
0.99986213445663452 0.5406874418258667 0.99852627515792847
0.5662115216255188 0.32478815317153931 0.99548935890197754
0.64949941635131836 0.39981827139854431 0.99205166101455688
0.72582519054412842 0.45742020010948181 0.99228888750076294
0.82568210363388062 0.49816891551017761 0.99271458387374878
0.90789502859115601 0.56027936935424805 0.99356931447982788
0.98355978727340698 0.58533549308776855 0.99511116743087769
0.99881410598754883 0.5679745078086853 0.99917834997177124
0.29076364636421204 0.55134636163711548 0.99904352426528931
0.53685146570205688 0.58620339632034302 0.99832415580749512
0.66509038209915161 0.60614287853240967 0.9937635064125061
0.77154189348220825 0.62064337730407715 0.99433785676956177
0.87464922666549683 0.63741189241409302 0.99229079484939575
0.96201753616333008 0.65408772230148315 0.99332010746002197
0.99959766864776611 0.65836948156356812 0.99896365404129028
0.21976061165332794 0.6760256290435791 0.99652367830276489
0.42771485447883606 0.69890290498733521 0.99782353639602661
0.61052387952804565 0.71271616220474243 0.99308842420578003
0.73137575387954712 0.72123247385025024 0.99174994230270386
0.85265666246414185 0.73207306861877441 0.99318981170654297
0.94244349002838135 0.73136711120605469 0.99389183521270752
0.99457687139511108 0.72290563583374023 0.99753463268280029
0.21113996207714081 0.79514056444168091 0.99614983797073364
0.37052389979362488 0.80426967144012451 0.9967002272605896
0.56503438949584961 0.81481760740280151 0.98804563283920288
0.69799667596817017 0.82205808162689209 0.98759865760803223
0.82009428739547729 0.82743865251541138 0.98340332508087158
0.933147132396698 0.83670258522033691 0.98532617092132568
0.99479657411575317 0.82877647876739502 0.9952164888381958
0.2468591034412384 0.90363961458206177 0.99262690544128418
0.34659063816070557 0.90852260589599609 0.99043458700180054
0.49637529253959656 0.90812009572982788 0.98924291133880615
0.66163474321365356 0.90150350332260132 0.9919973611831665
0.80494332313537598 0.91267305612564087 0.98381656408309937
0.92902541160583496 0.91654491424560547 0.98639863729476929
0.99057334661483765 0.93204152584075928 0.99293392896652222
0.26757648587226868 0.93327558040618896 0.97071188688278198
0.25431719422340393 0.92716044187545776 0.95399093627929688
0.42440557479858398 0.92770290374755859 0.95581668615341187
0.63826394081115723 0.93208611011505127 0.98034721612930298
0.80312836170196533 0.94163745641708374 0.98324322700500488
0.93330997228622437 0.95039033889770508 0.98979395627975464
0.98461127281188965 0.96154606342315674 0.98539966344833374
