assets/lut/fujixtransiii fuji xtrans iii sepia.cube
# Created by: G'MIC (https://gmic.eu)
TITLE "fuji_xtrans_iii_sepia"
# LUT size
LUT_3D_SIZE 7
# Data domain
DOMAIN_MIN 0.0 0.0 0.0
DOMAIN_MAX 1.0 1.0 1.0
# LUT data points
0.06481461226940155 0.004897428210824728 0
0.11545607447624207 0.022750465199351311 0.0018820669502019882
0.20078833401203156 0.090822286903858185 0.023718651384115219
0.32036575675010681 0.20250934362411499 0.12065133452415466
0.42719337344169617 0.30782124400138855 0.22211991250514984
0.47230660915374756 0.34998074173927307 0.26604786515235901
0.5060734748840332 0.37829005718231201 0.2981572151184082
0.13509881496429443 0.034033354371786118 0.0066646500490605831
0.17351453006267548 0.067338250577449799 0.013935298658907413
0.26934167742729187 0.15434709191322327 0.081369154155254364
0.36208638548851013 0.24334836006164551 0.16225939989089966
0.45501509308815002 0.33348333835601807 0.25060459971427917
0.51740473508834839 0.38863265514373779 0.31005990505218506
0.57624161243438721 0.44689008593559265 0.37095361948013306
0.25269919633865356 0.13662189245223999 0.062460131943225861
0.31030237674713135 0.19376441836357117 0.11705198138952255
0.39184743165969849 0.27137863636016846 0.19067187607288361
0.46625486016273499 0.34517577290534973 0.26551255583763123
0.54063308238983154 0.41739550232887268 0.34015950560569763
0.59726065397262573 0.47170040011405945 0.39548099040985107
0.61005198955535889 0.48107081651687622 0.40568020939826965
0.3841589093208313 0.25976759195327759 0.17430908977985382
0.42946073412895203 0.30672276020050049 0.22268037497997284
0.51174545288085938 0.38887926936149597 0.30940565466880798
0.57469141483306885 0.45554593205451965 0.37995055317878723
0.64147955179214478 0.52097994089126587 0.44476145505905151
0.68423652648925781 0.56254035234451294 0.48521023988723755
0.7276577353477478 0.60343742370605469 0.52462393045425415
0.4467308521270752 0.32379287481307983 0.24011632800102234
0.51589912176132202 0.39087876677513123 0.30897873640060425
0.56129473447799683 0.43588423728942871 0.35752737522125244
0.66460627317428589 0.54618680477142334 0.46981161832809448
0.71908754110336304 0.59976077079772949 0.52324593067169189
0.76140367984771729 0.63562804460525513 0.55672085285186768
0.81012552976608276 0.68274033069610596 0.60105794668197632
0.47815084457397461 0.35607117414474487 0.27108895778656006
0.58270508050918579 0.45622026920318604 0.37502512335777283
0.64036279916763306 0.51536202430725098 0.43625015020370483
0.69638770818710327 0.57519900798797607 0.4966481626033783
0.73209607601165771 0.61331021785736084 0.53559136390686035
0.80699241161346436 0.67972546815872192 0.59826052188873291
0.8427245020866394 0.71334052085876465 0.63104128837585449
0.51049935817718506 0.38868743181228638 0.30594536662101746
0.61099857091903687 0.48377451300621033 0.40279841423034668
0.6625027060508728 0.53408032655715942 0.45429316163063049
0.72916483879089355 0.60156083106994629 0.51956439018249512
0.80209994316101074 0.67619317770004272 0.59451121091842651
0.85974305868148804 0.7320096492767334 0.64968955516815186
0.88156706094741821 0.75054663419723511 0.66672325134277344
0.11126998066902161 0.017133854329586029 0.0012509663356468081
0.1675383597612381 0.061105303466320038 0.014732210896909237
0.24704378843307495 0.13175834715366364 0.05617503821849823
0.37193632125854492 0.25496992468833923 0.17111654579639435
0.45667868852615356 0.33720117807388306 0.25330302119255066
0.50907891988754272 0.38289704918861389 0.30318602919578552
0.58390980958938599 0.45829108357429504 0.38065958023071289
0.18427126109600067 0.078471928834915161 0.021679133176803589
0.22032330930233002 0.11016217619180679 0.040873583406209946
0.30385273694992065 0.18694542348384857 0.10760370641946793
0.3939831554889679 0.27401882410049438 0.19152593612670898
0.4833519458770752 0.35897320508956909 0.27783438563346863
0.56659245491027832 0.43811604380607605 0.3620104193687439
0.60560506582260132 0.47986438870429993 0.40317898988723755
0.31324732303619385 0.19662636518478394 0.11765310168266296
0.34249544143676758 0.22532989084720612 0.14635938405990601
0.41208276152610779 0.29309046268463135 0.21012699604034424
0.4884205162525177 0.3686198890209198 0.28693795204162598
0.55958622694015503 0.43725836277008057 0.35709518194198608
0.6319078803062439 0.50830018520355225 0.42944687604904175
0.6750369668006897 0.55038738250732422 0.47066426277160645
0.43766883015632629 0.31855162978172302 0.23351463675498962
0.47497972846031189 0.35289803147315979 0.27143082022666931
0.53262293338775635 0.40956613421440125 0.33057650923728943
0.60579103231430054 0.484322190284729 0.40710216760635376
0.66639602184295654 0.54472029209136963 0.46662124991416931
0.72395992279052734 0.60002273321151733 0.51958441734313965
0.75085175037384033 0.62520450353622437 0.54501241445541382
0.51478874683380127 0.39464923739433289 0.31189438700675964
0.56615793704986572 0.44058090448379517 0.36109209060668945
0.63179343938827515 0.50602239370346069 0.42543697357177734
0.68430709838867188 0.56100982427597046 0.48167592287063599
0.7496788501739502 0.62588667869567871 0.54625499248504639
0.81311070919036865 0.68536698818206787 0.60387152433395386
0.8571048378944397 0.72450625896453857 0.64221906661987305
0.54937183856964111 0.42669409513473511 0.34584948420524597
0.63197237253189087 0.50345039367675781 0.42360728979110718
0.68596339225769043 0.55743038654327393 0.47621449828147888
0.73957556486129761 0.61157965660095215 0.52851217985153198
0.79717767238616943 0.66971951723098755 0.58891433477401733
0.86568105220794678 0.73673230409622192 0.65544915199279785
0.87852460145950317 0.74655246734619141 0.66416460275650024
0.58386826515197754 0.46097403764724731 0.38276666402816772
0.67277681827545166 0.543812096118927 0.46109786629676819
0.7124868631362915 0.58292490243911743 0.49911108613014221
0.75593584775924683 0.62503612041473389 0.54122912883758545
0.81248003244400024 0.68157303333282471 0.59815430641174316
0.88415902853012085 0.75319898128509521 0.66930025815963745
0.92934143543243408 0.79474645853042603 0.71040266752243042
0.21553756296634674 0.10920857638120651 0.037941876798868179
0.2690674364566803 0.15762318670749664 0.079702876508235931
0.33530104160308838 0.21776404976844788 0.13545694947242737
0.41548648476600647 0.29508277773857117 0.21003043651580811
0.50341832637786865 0.38180267810821533 0.29944700002670288
0.57760715484619141 0.45411297678947449 0.37531253695487976
0.62066113948822021 0.49566099047660828 0.41715028882026672
0.26703932881355286 0.15251575410366058 0.076510392129421234
0.30899342894554138 0.19067728519439697 0.11105301976203918
0.37772905826568604 0.2598622739315033 0.17637929320335388
0.45664408802986145 0.33500126004219055 0.25271034240722656
0.53295278549194336 0.40871486067771912 0.32791951298713684
0.60304802656173706 0.47836476564407349 0.40021991729736328
0.65152817964553833 0.52912473678588867 0.45025148987770081
0.38270264863967896 0.26499724388122559 0.18187302350997925
0.40811410546302795 0.29043087363243103 0.20599673688411713
0.46786564588546753 0.34920504689216614 0.26520943641662598
0.53605806827545166 0.41552716493606567 0.33422210812568665
0.6092408299446106 0.48594838380813599 0.40643280744552612
0.66978877782821655 0.54585933685302734 0.46594789624214172
0.70571160316467285 0.58065152168273926 0.49967107176780701
0.50513780117034912 0.38440635800361633 0.30371361970901489
0.51744645833969116 0.39702412486076355 0.31588011980056763
0.57113099098205566 0.44908004999160767 0.36772087216377258
0.63784968852996826 0.51676678657531738 0.43689292669296265
0.69996875524520874 0.57725232839584351 0.49838608503341675
0.74765944480895996 0.6231352686882019 0.5425150990486145
0.7903633713722229 0.66317886114120483 0.58125436305999756
0.57395273447036743 0.4532066285610199 0.37348240613937378
0.62265634536743164 0.49882566928863525 0.41997793316841125
0.6664232611656189 0.54058146476745605 0.45922031998634338
0.72530704736709595 0.59998589754104614 0.51930010318756104
0.78587329387664795 0.66119879484176636 0.58095270395278931
0.83589065074920654 0.70759373903274536 0.62633156776428223
0.8771059513092041 0.7428746223449707 0.66067767143249512
0.67416632175445557 0.54666483402252197 0.46370220184326172
0.69003802537918091 0.55940014123916626 0.47593611478805542
0.72207081317901611 0.59274518489837646 0.51027595996856689
0.78019291162490845 0.64800757169723511 0.56485146284103394
0.85012590885162354 0.71919053792953491 0.63548946380615234
0.89015549421310425 0.75895506143569946 0.67757165431976318
0.93541067838668823 0.80013906955718994 0.71682196855545044
0.68674606084823608 0.55792546272277832 0.47362622618675232
0.7002633810043335 0.5699349045753479 0.48538458347320557
0.76351475715637207 0.63316184282302856 0.54767060279846191
0.82316023111343384 0.68796628713607788 0.60365563631057739
0.86515730619430542 0.73114919662475586 0.64775818586349487
0.93388843536376953 0.79521602392196655 0.71031492948532104
0.95828592777252197 0.82162731885910034 0.73864519596099854
0.31212082505226135 0.21974822878837585 0.15730321407318115
0.36275064945220947 0.26015439629554749 0.1906944215297699
0.42535540461540222 0.31122231483459473 0.23054222762584686
0.48830351233482361 0.37054067850112915 0.28838050365447998
0.55698996782302856 0.43611976504325867 0.35529705882072449
0.62849336862564087 0.50590413808822632 0.42577996850013733
0.67513537406921387 0.55064576864242554 0.46981242299079895
0.36367329955101013 0.25124576687812805 0.1719399094581604
0.4086783230304718 0.29132753610610962 0.20895454287528992
0.46147370338439941 0.34345224499702454 0.25994357466697693
0.53071331977844238 0.41142076253890991 0.33027216792106628
0.60121625661849976 0.47918486595153809 0.40019547939300537
0.65775686502456665 0.5350722074508667 0.4564763605594635
0.69599610567092896 0.57228958606719971 0.49226981401443481
0.45715105533599854 0.33795806765556335 0.2544892430305481
0.49160072207450867 0.37251448631286621 0.2907620370388031
0.53715759515762329 0.41766026616096497 0.33553770184516907
0.59358084201812744 0.47308963537216187 0.39423629641532898
0.65825492143630981 0.53593248128890991 0.45929718017578125
0.71485573053359985 0.5906674861907959 0.51216822862625122
0.7550087571144104 0.62916278839111328 0.54933351278305054
0.57234829664230347 0.45097339153289795 0.37178078293800354
0.59211480617523193 0.47028526663780212 0.39007538557052612
0.6312447190284729 0.50874298810958862 0.42815512418746948
0.68446773290634155 0.56167161464691162 0.48328810930252075
0.73501992225646973 0.6118476390838623 0.53451097011566162
0.78737574815750122 0.66213136911392212 0.58231759071350098
0.82803404331207275 0.70113718509674072 0.62005996704101562
0.66558295488357544 0.54549306631088257 0.46721592545509338
0.67597669363021851 0.55201989412307739 0.47193834185600281
0.72088462114334106 0.59430974721908569 0.51274508237838745
0.77128440141677856 0.64357984066009521 0.56229907274246216
0.81393373012542725 0.68733769655227661 0.6071479320526123
0.8627314567565918 0.73425459861755371 0.65291279554367065
0.9079824686050415 0.77660125494003296 0.6945311427116394
0.73358935117721558 0.60792070627212524 0.52684229612350464
0.74821776151657104 0.61733204126358032 0.53337699174880981
0.78307974338531494 0.65211349725723267 0.56714063882827759
0.8348996639251709 0.69922685623168945 0.6136435866355896
0.87626677751541138 0.74272060394287109 0.65988993644714355
0.933868408203125 0.797282874584198 0.71450048685073853
0.97957873344421387 0.84583848714828491 0.76023370027542114
0.74849623441696167 0.6217847466468811 0.54049330949783325
0.76891809701919556 0.63570290803909302 0.55291807651519775
0.79835265874862671 0.66475319862365723 0.57872158288955688
0.8394579291343689 0.7028384804725647 0.61754363775253296
0.89880168437957764 0.75971394777297974 0.67703616619110107
0.97779989242553711 0.83705765008926392 0.75265371799468994
0.99189072847366333 0.86452585458755493 0.77951347827911377
0.41085025668144226 0.32058566808700562 0.26703986525535583
0.45083409547805786 0.35230985283851624 0.29367184638977051
0.5072217583656311 0.39988461136817932 0.3341221809387207
0.56733417510986328 0.45179629325866699 0.38044923543930054
0.62599104642868042 0.50659769773483276 0.43040952086448669
0.68058741092681885 0.55960339307785034 0.48093417286872864
0.72774344682693481 0.60461944341659546 0.52532291412353516
0.46743911504745483 0.35421305894851685 0.2825615406036377
0.51405155658721924 0.39979267120361328 0.32889142632484436
0.55307787656784058 0.43809372186660767 0.36393341422080994
0.6034703254699707 0.48356175422668457 0.40560349822044373
0.66027498245239258 0.53816145658493042 0.45981019735336304
0.71219468116760254 0.58870130777359009 0.51012861728668213
0.75310134887695312 0.62789708375930786 0.54900449514389038
0.54736131429672241 0.42365178465843201 0.3461296558380127
0.58549165725708008 0.46356439590454102 0.3866279125213623
0.6152687668800354 0.49464237689971924 0.41633272171020508
0.66081523895263672 0.53919023275375366 0.46153870224952698
0.71041834354400635 0.58749568462371826 0.5105242133140564
0.75960665941238403 0.6342010498046875 0.55621010065078735
0.80428731441497803 0.67586731910705566 0.59663647413253784
0.63919687271118164 0.51613974571228027 0.43749850988388062
0.66636389493942261 0.54357552528381348 0.46477851271629333
0.68861615657806396 0.56390070915222168 0.4838683009147644
0.72703063488006592 0.60171371698379517 0.52280837297439575
0.77054554224014282 0.64521610736846924 0.56724673509597778
0.82164913415908813 0.69318890571594238 0.61415606737136841
0.87291133403778076 0.74074071645736694 0.66038477420806885
0.71617048978805542 0.59490281343460083 0.51576918363571167
0.74471515417098999 0.61911702156066895 0.53805238008499146
0.76643842458724976 0.63617390394210815 0.55370622873306274
0.8075488805770874 0.67582732439041138 0.59343135356903076
0.84583348035812378 0.71545779705047607 0.63441562652587891
0.89147788286209106 0.76253610849380493 0.68124610185623169
0.93692368268966675 0.80863982439041138 0.72656887769699097
0.80085033178329468 0.67174094915390015 0.58969271183013916
0.80034112930297852 0.6687580943107605 0.58645898103713989
0.82893973588943481 0.69576293230056763 0.61048370599746704
0.88584226369857788 0.74647986888885498 0.66028302907943726
0.91574811935424805 0.77912074327468872 0.6955115795135498
0.95844215154647827 0.82864576578140259 0.74608528614044189
0.99010765552520752 0.87883692979812622 0.79378229379653931
0.80796998739242554 0.67655408382415771 0.59469079971313477
0.85475093126296997 0.7190481424331665 0.63387608528137207
0.88535571098327637 0.74522274732589722 0.65767478942871094
0.93248987197875977 0.78830337524414062 0.70026934146881104
0.96423923969268799 0.82216131687164307 0.73613536357879639
0.99210697412490845 0.86877071857452393 0.7850002646446228
0.99540096521377563 0.89631342887878418 0.81324654817581177
0.51172775030136108 0.4088364839553833 0.34936651587486267
0.54897654056549072 0.44088247418403625 0.37551552057266235
0.59617692232131958 0.48316562175750732 0.41330796480178833
0.65365922451019287 0.53458821773529053 0.46297398209571838
0.70627379417419434 0.58412688970565796 0.50865852832794189
0.74989563226699829 0.62765741348266602 0.54920601844787598
0.78100830316543579 0.65762698650360107 0.57716917991638184
0.56762772798538208 0.45280972123146057 0.38391348719596863
0.6090208888053894 0.49243548512458801 0.42062562704086304
0.64190876483917236 0.52347451448440552 0.44898656010627747
0.68300122022628784 0.56109607219696045 0.48363402485847473
0.72555780410766602 0.60247427225112915 0.52386981248855591
0.77776920795440674 0.65322089195251465 0.57359045743942261
0.80364620685577393 0.67793238162994385 0.59742003679275513
0.63046795129776001 0.50873112678527832 0.43292191624641418
0.66780543327331543 0.54559576511383057 0.46812784671783447
0.69213974475860596 0.56961220502853394 0.49048888683319092
0.72420328855514526 0.6006966233253479 0.52096021175384521
0.76893633604049683 0.64451909065246582 0.56525647640228271
0.81394237279891968 0.68874990940093994 0.60995447635650635
0.84921908378601074 0.7205004096031189 0.63877373933792114
0.71407264471054077 0.59080952405929565 0.51159143447875977
0.734455406665802 0.61111599206924438 0.53100872039794922
0.74326491355895996 0.61692589521408081 0.53485202789306641
0.78352922201156616 0.6566806435585022 0.57509839534759521
0.82826751470565796 0.70180058479309082 0.62091153860092163
0.86967569589614868 0.74169623851776123 0.66156047582626343
0.90878629684448242 0.77697992324829102 0.69654268026351929
0.78686952590942383 0.6611284613609314 0.58096933364868164
0.80649006366729736 0.67796474695205688 0.59532779455184937
0.81646943092346191 0.68368536233901978 0.59894615411758423
0.85173696279525757 0.72019648551940918 0.63534963130950928
0.88908421993255615 0.7607734203338623 0.67727220058441162
0.93320143222808838 0.80248868465423584 0.72017490863800049
0.97482824325561523 0.84527313709259033 0.76303672790527344
0.85121816396713257 0.71942365169525146 0.63708806037902832
0.87336856126785278 0.73591428995132446 0.6519777774810791
0.8983878493309021 0.75820869207382202 0.67165482044219971
0.92808085680007935 0.78959959745407104 0.70142340660095215
0.95986390113830566 0.8277772068977356 0.74135345220565796
0.9782404899597168 0.8628353476524353 0.78002405166625977
0.99386513233184814 0.90630424022674561 0.82558274269104004
0.92648088932037354 0.78198349475860596 0.69568538665771484
0.90229672193527222 0.76299107074737549 0.67883437871932983
0.9267117977142334 0.78292334079742432 0.69637525081634521
0.96831190586090088 0.82528334856033325 0.73661375045776367
0.99515843391418457 0.8649590015411377 0.77743518352508545
0.99797815084457397 0.89701324701309204 0.81424427032470703
1 0.92611247301101685 0.84541255235671997
0.60247856378555298 0.4864506721496582 0.41647079586982727
0.6350022554397583 0.5162467360496521 0.44247764348983765
0.66872811317443848 0.55041784048080444 0.47286048531532288
0.72618043422698975 0.60255837440490723 0.52708148956298828
0.77379691600799561 0.64909607172012329 0.57168900966644287
0.81997561454772949 0.69502472877502441 0.61425590515136719
0.83859437704086304 0.71137940883636475 0.62923943996429443
0.6437375545501709 0.52569031715393066 0.45272484421730042
0.68633431196212769 0.56484997272491455 0.48827281594276428
0.72177243232727051 0.59972339868545532 0.52107024192810059
0.76053416728973389 0.63576686382293701 0.55795007944107056
0.7949102520942688 0.66972571611404419 0.59070336818695068
0.83237862586975098 0.70735675096511841 0.62595540285110474
0.84756094217300415 0.72031837701797485 0.63821017742156982
0.70084398984909058 0.58025765419006348 0.50320583581924438
0.74655365943908691 0.62276285886764526 0.54285669326782227
0.7707207202911377 0.64571255445480347 0.56378531455993652
0.79857629537582397 0.6730961799621582 0.59136182069778442
0.83555299043655396 0.70986664295196533 0.62801796197891235
0.87024992704391479 0.74325007200241089 0.65898829698562622
0.90818822383880615 0.7734343409538269 0.68820399045944214
0.76754683256149292 0.64564818143844604 0.56563425064086914
0.79396587610244751 0.66837167739868164 0.58632463216781616
0.81526225805282593 0.68667489290237427 0.60212665796279907
0.84515362977981567 0.71728700399398804 0.63267183303833008
0.88150274753570557 0.75538104772567749 0.67163771390914917
0.91849255561828613 0.78991758823394775 0.70521396398544312
0.95251309871673584 0.81772834062576294 0.73395323753356934
0.8336448073387146 0.70665007829666138 0.62505888938903809
0.86119532585144043 0.7293124794960022 0.64390695095062256
0.87574207782745361 0.74260258674621582 0.65455573797225952
0.90299463272094727 0.77242755889892578 0.68444281816482544
0.93218106031417847 0.80761659145355225 0.72112298011779785
0.9692695140838623 0.844870924949646 0.75944548845291138
0.99200254678726196 0.87080842256546021 0.78815066814422607
0.915871262550354 0.77594047784805298 0.68804264068603516
0.93201315402984619 0.78896290063858032 0.70045214891433716
0.94610607624053955 0.80666357278823853 0.7158958911895752
0.9691922664642334 0.83525276184082031 0.74387556314468384
0.98947751522064209 0.86799919605255127 0.77950716018676758
0.99062985181808472 0.89839351177215576 0.81714874505996704
0.99781471490859985 0.93371206521987915 0.85721123218536377
0.93856179714202881 0.79476886987686157 0.70507353544235229
0.92605149745941162 0.78412902355194092 0.69751155376434326
0.95123249292373657 0.80916422605514526 0.72222083806991577
0.99436330795288086 0.8560478687286377 0.76932090520858765
0.99607843160629272 0.87869703769683838 0.79128909111022949
0.99844133853912354 0.92034810781478882 0.84071683883666992
1 0.94372296333312988 0.86838001012802124
