assets/lut/fujixtransiii fuji xtrans iii pro neg hi.cube
# Created by: G'MIC (https://gmic.eu)
TITLE "fuji_xtrans_iii_pro_neg_hi"
# LUT size
LUT_3D_SIZE 7
# Data domain
DOMAIN_MIN 0.0 0.0 0.0
DOMAIN_MAX 1.0 1.0 1.0
# LUT data points
0.006800543051213026 0.0085451612249016762 0.0067884707823395729
0.073961608111858368 0.017451446503400803 0.012238416820764542
0.2822871208190918 0.049616482108831406 0.028631381690502167
0.5222892165184021 0.12008726596832275 0.079240225255489349
0.72480154037475586 0.19205112755298615 0.15788550674915314
0.81003201007843018 0.23549994826316833 0.19494630396366119
0.84087961912155151 0.2597406804561615 0.23417893052101135
0.0056471130810678005 0.067261636257171631 0.0086659304797649384
0.08438892662525177 0.084461629390716553 0.011983743868768215
0.29696163535118103 0.12590555846691132 0.032194729894399643
0.54442858695983887 0.18052738904953003 0.062246046960353851
0.73977494239807129 0.24121004343032837 0.13206939399242401
0.84627121686935425 0.2870069146156311 0.18654537200927734
0.90771329402923584 0.35848790407180786 0.23332221806049347
0.0060691982507705688 0.24665553867816925 0.0029758976306766272
0.054156899452209473 0.27693554759025574 0.0022201687097549438
0.30512750148773193 0.30742326378822327 0.0065989773720502853
0.54995489120483398 0.34393146634101868 0.030943851917982101
0.72835266590118408 0.38338318467140198 0.079368457198143005
0.87907671928405762 0.41611611843109131 0.16838383674621582
0.92907023429870605 0.41459640860557556 0.20263837277889252
0.002542832400649786 0.4089323878288269 0.0010835087159648538
0.037339020520448685 0.45680633187294006 0.00010483685764484107
0.27814850211143494 0.49538826942443848 0.00045188455260358751
0.54565614461898804 0.50909388065338135 0.0066783083602786064
0.72605413198471069 0.53927206993103027 0.039506576955318451
0.85547131299972534 0.56324642896652222 0.12611876428127289
0.92935198545455933 0.58968669176101685 0.21876862645149231
0.009308280423283577 0.47770339250564575 0.013378352858126163
0.025574015453457832 0.56525158882141113 0.011246071197092533
0.26213040947914124 0.56806379556655884 0.0037404079921543598
0.54439282417297363 0.64248752593994141 0.01015020627528429
0.74382507801055908 0.65087246894836426 0.058321516960859299
0.86352932453155518 0.66727465391159058 0.13664805889129639
0.92914390563964844 0.71131992340087891 0.21970486640930176
0.011394171975553036 0.51166367530822754 0.029409671202301979
0.044204413890838623 0.64863526821136475 0.095722302794456482
0.24087142944335938 0.67681878805160522 0.077571183443069458
0.54497617483139038 0.68486565351486206 0.056526005268096924
0.70701378583908081 0.69033992290496826 0.10402859002351761
0.90737044811248779 0.71518737077713013 0.20492814481258392
0.96926259994506836 0.74586004018783569 0.2648540735244751
0.016542142257094383 0.55813539028167725 0.022517245262861252
0.051247704774141312 0.67825251817703247 0.11510102450847626
0.23861683905124664 0.71181690692901611 0.10322210192680359
0.55650246143341064 0.72697728872299194 0.1144360676407814
0.70408231019973755 0.76659071445465088 0.21005524694919586
0.87235039472579956 0.78597623109817505 0.28636947274208069
0.95424789190292358 0.79233169555664062 0.31973806023597717
0.0089320316910743713 0.01986256055533886 0.10119064897298813
0.10241957753896713 0.044601544737815857 0.10637535899877548
0.29089519381523132 0.087921351194381714 0.16224640607833862
0.54368215799331665 0.15288630127906799 0.22492644190788269
0.75956004858016968 0.20870469510555267 0.28956407308578491
0.84277826547622681 0.2504132091999054 0.31969958543777466
0.95994651317596436 0.33754795789718628 0.45514276623725891
0.014315556734800339 0.098858088254928589 0.10600191354751587
0.10107485949993134 0.12064309418201447 0.11033333837985992
0.31267544627189636 0.15521959960460663 0.15413239598274231
0.54644608497619629 0.20159575343132019 0.19220727682113647
0.73761165142059326 0.26444697380065918 0.25873750448226929
0.88617110252380371 0.32933124899864197 0.33040180802345276
0.96459066867828369 0.37038400769233704 0.41429707407951355
0.007117162924259901 0.28533920645713806 0.077263012528419495
0.061769016087055206 0.29643705487251282 0.067723184823989868
0.30506846308708191 0.32496222853660583 0.093564830720424652
0.5450548529624939 0.35778915882110596 0.14570444822311401
0.72611188888549805 0.40433070063591003 0.2097957581281662
0.89429587125778198 0.44045677781105042 0.29282811284065247
0.98001360893249512 0.47939965128898621 0.38170561194419861
0.0028124491218477488 0.47468265891075134 0.046945039182901382
0.041067983955144882 0.50193989276885986 0.039811272174119949
0.26194530725479126 0.51079916954040527 0.057265575975179672
0.52402079105377197 0.52966105937957764 0.10458381474018097
0.72027933597564697 0.55100083351135254 0.17439903318881989
0.89056968688964844 0.57991576194763184 0.2545173168182373
0.97697317600250244 0.6007004976272583 0.30158767104148865
0.0063255610875785351 0.5643351674079895 0.13027101755142212
0.030539434403181076 0.61649888753890991 0.055715478956699371
0.20602467656135559 0.65571486949920654 0.094277553260326385
0.509116530418396 0.67572849988937378 0.12515807151794434
0.71720856428146362 0.6832091212272644 0.17735163867473602
0.88590157032012939 0.71142351627349854 0.24506708979606628
0.98374277353286743 0.74653106927871704 0.30222645401954651
0.0081629734486341476 0.59595692157745361 0.19569869339466095
0.049868758767843246 0.70122498273849487 0.15092520415782928
0.20220963656902313 0.73692911863327026 0.18278783559799194
0.52501034736633301 0.74129539728164673 0.15875448286533356
0.68677371740341187 0.76914900541305542 0.20966280996799469
0.87867116928100586 0.79121190309524536 0.29708772897720337
0.9628557562828064 0.78980159759521484 0.32091578841209412
0.0052152299322187901 0.62626832723617554 0.34112140536308289
0.082596719264984131 0.74000638723373413 0.21301077306270599
0.19289718568325043 0.76850444078445435 0.24027808010578156
0.47675994038581848 0.76638567447662354 0.23376874625682831
0.68353879451751709 0.78618371486663818 0.24424965679645538
0.8877490758895874 0.80960607528686523 0.32218348979949951
0.95770901441574097 0.84590393304824829 0.39544853568077087
0.043170630931854248 0.085427902638912201 0.38732880353927612
0.19439230859279633 0.10386412590742111 0.41249832510948181
0.36905097961425781 0.1406286358833313 0.43035835027694702
0.56844133138656616 0.18833591043949127 0.48220807313919067
0.75654417276382446 0.24458083510398865 0.49225324392318726
0.89525997638702393 0.30914562940597534 0.54379838705062866
0.99180930852890015 0.35160768032073975 0.60820621252059937
0.034165866672992706 0.15863893926143646 0.34244218468666077
0.16184975206851959 0.18059630692005157 0.35149183869361877
0.36242407560348511 0.21252639591693878 0.39478352665901184
0.56075644493103027 0.25757768750190735 0.43011534214019775
0.74337565898895264 0.31371963024139404 0.46550390124320984
0.90425527095794678 0.36905321478843689 0.5011325478553772
0.99248731136322021 0.41812229156494141 0.52250736951828003
0.012394804507493973 0.32509297132492065 0.32419037818908691
0.10672875493764877 0.3454124927520752 0.32491269707679749
0.34298998117446899 0.36754149198532104 0.36126440763473511
0.54601138830184937 0.39403757452964783 0.39163494110107422
0.73663169145584106 0.42842081189155579 0.42631787061691284
0.89964812994003296 0.4632866382598877 0.47466814517974854
0.98937320709228516 0.48053589463233948 0.50397753715515137
0.011655679903924465 0.51303392648696899 0.32357567548751831
0.060945712029933929 0.52397459745407104 0.29610365629196167
0.30409273505210876 0.529541015625 0.31972548365592957
0.52441173791885376 0.54956537485122681 0.34881189465522766
0.72246193885803223 0.57356065511703491 0.38754874467849731
0.88275903463363647 0.59795010089874268 0.43090417981147766
0.99104762077331543 0.62106972932815552 0.4726007878780365
0.0055972826667129993 0.60703432559967041 0.35433557629585266
0.046116668730974197 0.66820049285888672 0.31087639927864075
0.22752520442008972 0.68197566270828247 0.287310391664505
0.49059933423995972 0.69362443685531616 0.32016608119010925
0.71153908967971802 0.70852768421173096 0.35281020402908325
0.87431257963180542 0.72302877902984619 0.39253076910972595
0.98506259918212891 0.75925630331039429 0.42520692944526672
0.020761212334036827 0.74362647533416748 0.3476930558681488
0.043619610369205475 0.7629888653755188 0.31689721345901489
0.19509632885456085 0.77480947971343994 0.29859668016433716
0.46337217092514038 0.78820645809173584 0.32564720511436462
0.68469357490539551 0.81374120712280273 0.37811154127120972
0.87739932537078857 0.81207883358001709 0.39688462018966675
0.98659443855285645 0.83892011642456055 0.43224197626113892
0.023134373128414154 0.75711363554000854 0.33593618869781494
0.054166607558727264 0.77139735221862793 0.33042764663696289
0.20091408491134644 0.81405836343765259 0.38804566860198975
0.45067578554153442 0.83077538013458252 0.40383526682853699
0.66557085514068604 0.83109521865844727 0.39792954921722412
0.90194666385650635 0.85755974054336548 0.43874737620353699
0.97967565059661865 0.87600862979888916 0.4745449423789978
0.16661718487739563 0.1356835812330246 0.66642725467681885
0.31365600228309631 0.15560787916183472 0.67935478687286377
0.46558877825737 0.19423463940620422 0.68050920963287354
0.61956429481506348 0.24573877453804016 0.68743348121643066
0.77412635087966919 0.29744184017181396 0.70150697231292725
0.90789437294006348 0.35294362902641296 0.71375423669815063
0.99260485172271729 0.39507433772087097 0.73331904411315918
0.10589124262332916 0.23472285270690918 0.61978614330291748
0.25593674182891846 0.25156691670417786 0.62049275636672974
0.41637894511222839 0.29118835926055908 0.63448631763458252
0.59161621332168579 0.32518500089645386 0.64940470457077026
0.76725298166275024 0.37310251593589783 0.67469626665115356
0.89856410026550293 0.41652503609657288 0.6939581036567688
0.99038779735565186 0.45083826780319214 0.72022897005081177
0.06220080703496933 0.38408467173576355 0.57567256689071655
0.22394837439060211 0.40109798312187195 0.58809000253677368
0.39885705709457397 0.42071855068206787 0.60632097721099854
0.58233332633972168 0.44566875696182251 0.62424534559249878
0.75777071714401245 0.46988460421562195 0.64473855495452881
0.89234733581542969 0.49632346630096436 0.66284811496734619
0.98717987537384033 0.52947038412094116 0.68153351545333862
0.036672718822956085 0.54492175579071045 0.54479837417602539
0.15942543745040894 0.55757039785385132 0.54582709074020386
0.37212997674942017 0.5636407732963562 0.56395357847213745
0.55353164672851562 0.58295625448226929 0.57564568519592285
0.73279422521591187 0.59931713342666626 0.5887148380279541
0.88286370038986206 0.61803686618804932 0.61675405502319336
0.9899667501449585 0.64207535982131958 0.64268171787261963
0.025409279391169548 0.67985707521438599 0.5487169623374939
0.10794110596179962 0.69901156425476074 0.50739938020706177
0.3081134557723999 0.702190101146698 0.51640504598617554
0.51295703649520874 0.71525973081588745 0.52284348011016846
0.71811282634735107 0.72777432203292847 0.54065155982971191
0.87287753820419312 0.74402046203613281 0.57478636503219604
0.9851682186126709 0.77249199151992798 0.61125653982162476
0.040956683456897736 0.77621245384216309 0.59547919034957886
0.087360888719558716 0.79680740833282471 0.52314966917037964
0.23456518352031708 0.80812734365463257 0.49464228749275208
0.4619731605052948 0.81873703002929688 0.50540614128112793
0.70557934045791626 0.82025992870330811 0.52327167987823486
0.88120573759078979 0.85343354940414429 0.56343924999237061
0.98467808961868286 0.88397258520126343 0.59549355506896973
0.043002814054489136 0.79444330930709839 0.61140733957290649
0.10283969342708588 0.82412362098693848 0.55612128973007202
0.23134179413318634 0.83272510766983032 0.50707459449768066
0.45124983787536621 0.83792567253112793 0.5065428614616394
0.70710790157318115 0.84525823593139648 0.53645950555801392
0.90101867914199829 0.89998024702072144 0.58903902769088745
0.98723697662353516 0.9244457483291626 0.6166345477104187
0.3149992823600769 0.16214320063591003 0.84732413291931152
0.41914612054824829 0.18607814610004425 0.84897303581237793
0.54601311683654785 0.24175509810447693 0.86032658815383911
0.68446677923202515 0.28816401958465576 0.86056149005889893
0.81747156381607056 0.34386664628982544 0.87441140413284302
0.92471379041671753 0.39911803603172302 0.88290524482727051
0.99289482831954956 0.43147182464599609 0.9264143705368042
0.22417044639587402 0.30781835317611694 0.83191895484924316
0.37326768040657043 0.33982264995574951 0.82992452383041382
0.50325137376785278 0.36494690179824829 0.83837306499481201
0.64046597480773926 0.3921208381652832 0.84356498718261719
0.78502589464187622 0.42967313528060913 0.85575634241104126
0.90612804889678955 0.46923792362213135 0.87324315309524536
0.99381482601165771 0.49957066774368286 0.89045202732086182
0.17692483961582184 0.44408676028251648 0.79229855537414551
0.35392352938652039 0.46683955192565918 0.80296140909194946
0.47447270154953003 0.47565147280693054 0.8072059154510498
0.62480616569519043 0.49726790189743042 0.81770509481430054
0.77184826135635376 0.52179992198944092 0.82341313362121582
0.9007752537727356 0.54455292224884033 0.83911615610122681
0.99077212810516357 0.58361810445785522 0.85705190896987915
0.14656005799770355 0.58503341674804688 0.75432121753692627
0.3107103705406189 0.60166573524475098 0.765247642993927
0.45036199688911438 0.60676169395446777 0.76619768142700195
0.60038495063781738 0.61659711599349976 0.76687514781951904
0.76101696491241455 0.63257122039794922 0.77145493030548096
0.88983333110809326 0.64990699291229248 0.79695796966552734
0.99315249919891357 0.67903041839599609 0.82027393579483032
0.10296180844306946 0.71491372585296631 0.71702337265014648
0.23206046223640442 0.72650754451751709 0.7195548415184021
0.40413421392440796 0.72961634397506714 0.72221750020980835
0.56356751918792725 0.73767828941345215 0.72557884454727173
0.74362659454345703 0.74689453840255737 0.74075698852539062
0.88363832235336304 0.76447188854217529 0.76060217618942261
0.98945170640945435 0.80109214782714844 0.78839343786239624
0.10037335008382797 0.83644860982894897 0.71602320671081543
0.18138483166694641 0.82485055923461914 0.69961601495742798
0.34240779280662537 0.82675713300704956 0.70076888799667358
0.53371798992156982 0.84060007333755493 0.71132898330688477
0.73259419202804565 0.84601342678070068 0.72339963912963867
0.88462930917739868 0.86572152376174927 0.7382429838180542
0.98793202638626099 0.91469883918762207 0.7671889066696167
0.10858920216560364 0.85070186853408813 0.71887195110321045
0.22437281906604767 0.87706726789474487 0.75416582822799683
0.35540136694908142 0.88701891899108887 0.75545179843902588
0.56741905212402344 0.8979528546333313 0.77961379289627075
0.74176502227783203 0.90117627382278442 0.76177132129669189
0.9179801344871521 0.91773706674575806 0.73762989044189453
0.98401796817779541 0.94775611162185669 0.76528662443161011
0.46619397401809692 0.143646240234375 0.95645910501480103
0.53751289844512939 0.20397792756557465 0.95318853855133057
0.63237828016281128 0.27241593599319458 0.95165306329727173
0.75063794851303101 0.33169138431549072 0.95527833700180054
0.86324405670166016 0.38764473795890808 0.96604806184768677
0.95162147283554077 0.44420593976974487 0.97421741485595703
0.99553447961807251 0.50126606225967407 0.98925864696502686
0.37266236543655396 0.35229086875915527 0.95681780576705933
0.49517261981964111 0.3968125581741333 0.96616005897521973
0.59064584970474243 0.4320184588432312 0.96663022041320801
0.70883125066757202 0.46036839485168457 0.9694785475730896
0.82087922096252441 0.49269136786460876 0.98094308376312256
0.92833322286605835 0.52986621856689453 0.98331725597381592
0.99369841814041138 0.54481905698776245 0.98996543884277344
0.24715171754360199 0.505462646484375 0.94963544607162476
0.46148887276649475 0.53649234771728516 0.95671701431274414
0.56328117847442627 0.54482316970825195 0.96155118942260742
0.67982029914855957 0.5621379017829895 0.96277952194213867
0.80598622560501099 0.57868719100952148 0.95854109525680542
0.92464542388916016 0.59969913959503174 0.96196377277374268
0.99242669343948364 0.62192374467849731 0.97821402549743652
0.25380733609199524 0.62892884016036987 0.92139929533004761
0.43615418672561646 0.64581537246704102 0.93039494752883911
0.53895407915115356 0.65333157777786255 0.93073970079421997
0.6616591215133667 0.65717440843582153 0.93258792161941528
0.7902449369430542 0.67026656866073608 0.93643903732299805
0.90766721963882446 0.69061356782913208 0.94860196113586426
0.99499607086181641 0.71368634700775146 0.97087103128433228
0.25211933255195618 0.75022995471954346 0.89135849475860596
0.37442827224731445 0.75950819253921509 0.89037638902664185
0.49753397703170776 0.76486718654632568 0.89040875434875488
0.63166308403015137 0.76653516292572021 0.89889585971832275
0.77609986066818237 0.77751153707504272 0.91134083271026611
0.90057724714279175 0.79435604810714722 0.92334997653961182
0.98765534162521362 0.81627470254898071 0.9410281777381897
0.22961221635341644 0.85150408744812012 0.87368214130401611
0.31686186790466309 0.86426705121994019 0.87066757678985596
0.4415530264377594 0.87117153406143188 0.87116998434066772
0.60528337955474854 0.87027400732040405 0.89063721895217896
0.76530539989471436 0.88156884908676147 0.89616125822067261
0.89821237325668335 0.89329630136489868 0.90655702352523804
0.9885600209236145 0.93676668405532837 0.9351116418838501
0.34564998745918274 0.92956751585006714 0.92009526491165161
0.31386899948120117 0.91198492050170898 0.88293367624282837
0.41860249638557434 0.9190441370010376 0.87762892246246338
0.60483157634735107 0.92788350582122803 0.9020501971244812
0.76765203475952148 0.93237382173538208 0.88698220252990723
0.91902315616607666 0.94118481874465942 0.8992505669593811
0.98809432983398438 0.96858495473861694 0.92830753326416016
0.59094387292861938 0.21024543046951294 0.99981796741485596
0.63821291923522949 0.26664191484451294 0.99809938669204712
0.71670055389404297 0.33021384477615356 0.99534589052200317
0.81603747606277466 0.40708652138710022 0.99612569808959961
0.89885133504867554 0.50333088636398315 0.99545085430145264
0.97159659862518311 0.57195734977722168 0.9978635311126709
0.99929547309875488 0.59680420160293579 0.99950194358825684
0.53174299001693726 0.35888275504112244 0.99460512399673462
0.61963629722595215 0.42334574460983276 0.99407970905303955
0.69267195463180542 0.48691946268081665 0.99335730075836182
0.7941480278968811 0.53286409378051758 0.9917798638343811
0.89023196697235107 0.58266180753707886 0.99457341432571411
0.96707248687744141 0.61260658502578735 0.99608117341995239
0.99715530872344971 0.60972243547439575 0.99989444017410278
0.29561197757720947 0.56016784906387329 0.99828273057937622
0.52478748559951782 0.60204905271530151 0.99856269359588623
0.64946699142456055 0.61979413032531738 0.99155145883560181
0.75290846824645996 0.63288527727127075 0.99179601669311523
0.85927200317382812 0.65697580575942993 0.99453556537628174
0.95464366674423218 0.67023444175720215 0.99666064977645874
0.99838125705718994 0.68579638004302979 1
0.22915448248386383 0.67774277925491333 0.99559080600738525
0.44247394800186157 0.70015245676040649 0.99843013286590576
0.62047082185745239 0.7165830135345459 0.9905850887298584
0.73269325494766235 0.72359877824783325 0.99087393283843994
0.84293639659881592 0.73983466625213623 0.99659734964370728
0.94282680749893188 0.74323105812072754 0.99810695648193359
0.9955553412437439 0.74006235599517822 1
0.30184540152549744 0.79393500089645386 0.9943510890007019
0.42356160283088684 0.80479687452316284 0.99639540910720825
0.60172462463378906 0.81478822231292725 0.9934813380241394
0.71121180057525635 0.82158279418945312 0.99160903692245483
0.8239903450012207 0.83180934190750122 0.99059051275253296
0.93626421689987183 0.84382838010787964 0.99208086729049683
0.99728024005889893 0.85403734445571899 0.99897301197052002
0.39169815182685852 0.91257393360137939 0.99199455976486206
0.45758277177810669 0.91721624135971069 0.99193179607391357
0.56000465154647827 0.91863334178924561 0.9886549711227417
0.67849183082580566 0.91423749923706055 0.9907299280166626
0.81783849000930786 0.93070971965789795 0.9904944896697998
0.9456295371055603 0.93994498252868652 0.99295848608016968
0.99557942152023315 0.96426230669021606 0.99730610847473145
0.39591571688652039 0.94247329235076904 0.96133452653884888
0.37914925813674927 0.93317109346389771 0.9453270435333252
0.51235449314117432 0.93835258483886719 0.96020948886871338
0.66887044906616211 0.94494104385375977 0.99195402860641479
0.82694435119628906 0.95969021320343018 0.98901879787445068
0.95290404558181763 0.97028028964996338 0.99025440216064453
0.98975461721420288 0.98010742664337158 0.98296898603439331
