assets/lut/fujixtransiii fuji xtrans iii mono+r.cube
# Created by: G'MIC (https://gmic.eu)
TITLE "fuji_xtrans_iii_mono+r"
# LUT size
LUT_3D_SIZE 13
# Data domain
DOMAIN_MIN 0.0 0.0 0.0
DOMAIN_MAX 1.0 1.0 1.0
# LUT data points
0.011478603817522526 0.011478603817522526 0.011478603817522526
0.02658577635884285 0.02658577635884285 0.02658577635884285
0.06890704482793808 0.06890704482793808 0.06890704482793808
0.1402275413274765 0.1402275413274765 0.1402275413274765
0.22328932583332062 0.22328932583332062 0.22328932583332062
0.32448306679725647 0.32448306679725647 0.32448306679725647
0.40992444753646851 0.40992444753646851 0.40992444753646851
0.50487244129180908 0.50487244129180908 0.50487244129180908
0.55889415740966797 0.55889415740966797 0.55889415740966797
0.60504907369613647 0.60504907369613647 0.60504907369613647
0.62821668386459351 0.62821668386459351 0.62821668386459351
0.6501777172088623 0.6501777172088623 0.6501777172088623
0.66206693649291992 0.66206693649291992 0.66206693649291992
0.021344741806387901 0.021344741806387901 0.021344741806387901
0.039291501045227051 0.039291501045227051 0.039291501045227051
0.081863135099411011 0.081863135099411011 0.081863135099411011
0.15417845547199249 0.15417845547199249 0.15417845547199249
0.23809805512428284 0.23809805512428284 0.23809805512428284
0.33423802256584167 0.33423802256584167 0.33423802256584167
0.42592015862464905 0.42592015862464905 0.42592015862464905
0.51074975728988647 0.51074975728988647 0.51074975728988647
0.57070189714431763 0.57070189714431763 0.57070189714431763
0.61583393812179565 0.61583393812179565 0.61583393812179565
0.63926690816879272 0.63926690816879272 0.63926690816879272
0.66063326597213745 0.66063326597213745 0.66063326597213745
0.68479365110397339 0.68479365110397339 0.68479365110397339
0.039255239069461823 0.039255239069461823 0.039255239069461823
0.064453750848770142 0.064453750848770142 0.064453750848770142
0.10648749768733978 0.10648749768733978 0.10648749768733978
0.17734482884407043 0.17734482884407043 0.17734482884407043
0.2602713406085968 0.2602713406085968 0.2602713406085968
0.34561815857887268 0.34561815857887268 0.34561815857887268
0.43171662092208862 0.43171662092208862 0.43171662092208862
0.51544982194900513 0.51544982194900513 0.51544982194900513
0.58258211612701416 0.58258211612701416 0.58258211612701416
0.62613552808761597 0.62613552808761597 0.62613552808761597
0.65683239698410034 0.65683239698410034 0.65683239698410034
0.68436384201049805 0.68436384201049805 0.68436384201049805
0.70478218793869019 0.70478218793869019 0.70478218793869019
0.079543232917785645 0.079543232917785645 0.079543232917785645
0.10717999190092087 0.10717999190092087 0.10717999190092087
0.14120636880397797 0.14120636880397797 0.14120636880397797
0.21227677166461945 0.21227677166461945 0.21227677166461945
0.29720550775527954 0.29720550775527954 0.29720550775527954
0.37531912326812744 0.37531912326812744 0.37531912326812744
0.44919928908348083 0.44919928908348083 0.44919928908348083
0.52655398845672607 0.52655398845672607 0.52655398845672607
0.59378111362457275 0.59378111362457275 0.59378111362457275
0.64747947454452515 0.64747947454452515 0.64747947454452515
0.69346964359283447 0.69346964359283447 0.69346964359283447
0.70501655340194702 0.70501655340194702 0.70501655340194702
0.71051287651062012 0.71051287651062012 0.71051287651062012
0.12902453541755676 0.12902453541755676 0.12902453541755676
0.16434080898761749 0.16434080898761749 0.16434080898761749
0.19968891143798828 0.19968891143798828 0.19968891143798828
0.26541787385940552 0.26541787385940552 0.26541787385940552
0.34464487433433533 0.34464487433433533 0.34464487433433533
0.41001945734024048 0.41001945734024048 0.41001945734024048
0.47486940026283264 0.47486940026283264 0.47486940026283264
0.5434257984161377 0.5434257984161377 0.5434257984161377
0.60510808229446411 0.60510808229446411 0.60510808229446411
0.65536969900131226 0.65536969900131226 0.65536969900131226
0.69762599468231201 0.69762599468231201 0.69762599468231201
0.70855879783630371 0.70855879783630371 0.70855879783630371
0.72324937582015991 0.72324937582015991 0.72324937582015991
0.18581026792526245 0.18581026792526245 0.18581026792526245
0.22677722573280334 0.22677722573280334 0.22677722573280334
0.25693303346633911 0.25693303346633911 0.25693303346633911
0.30878785252571106 0.30878785252571106 0.30878785252571106
0.38210222125053406 0.38210222125053406 0.38210222125053406
0.44238215684890747 0.44238215684890747 0.44238215684890747
0.50723880529403687 0.50723880529403687 0.50723880529403687
0.56853878498077393 0.56853878498077393 0.56853878498077393
0.62117534875869751 0.62117534875869751 0.62117534875869751
0.66893315315246582 0.66893315315246582 0.66893315315246582
0.69530701637268066 0.69530701637268066 0.69530701637268066
0.7200579047203064 0.7200579047203064 0.7200579047203064
0.75508666038513184 0.75508666038513184 0.75508666038513184
0.23622936010360718 0.23622936010360718 0.23622936010360718
0.2643357515335083 0.2643357515335083 0.2643357515335083
0.30313718318939209 0.30313718318939209 0.30313718318939209
0.34683263301849365 0.34683263301849365 0.34683263301849365
0.41893702745437622 0.41893702745437622 0.41893702745437622
0.47081136703491211 0.47081136703491211 0.47081136703491211
0.53833878040313721 0.53833878040313721 0.53833878040313721
0.59226953983306885 0.59226953983306885 0.59226953983306885
0.64580821990966797 0.64580821990966797 0.64580821990966797
0.68831378221511841 0.68831378221511841 0.68831378221511841
0.71839344501495361 0.71839344501495361 0.71839344501495361
0.73628222942352295 0.73628222942352295 0.73628222942352295
0.76796269416809082 0.76796269416809082 0.76796269416809082
0.2588309645652771 0.2588309645652771 0.2588309645652771
0.28991985321044922 0.28991985321044922 0.28991985321044922
0.33834928274154663 0.33834928274154663 0.33834928274154663
0.37444385886192322 0.37444385886192322 0.37444385886192322
0.44649004936218262 0.44649004936218262 0.44649004936218262
0.48265758156776428 0.48265758156776428 0.48265758156776428
0.56163114309310913 0.56163114309310913 0.56163114309310913
0.61228466033935547 0.61228466033935547 0.61228466033935547
0.67023015022277832 0.67023015022277832 0.67023015022277832
0.71195298433303833 0.71195298433303833 0.71195298433303833
0.73695755004882812 0.73695755004882812 0.73695755004882812
0.75473779439926147 0.75473779439926147 0.75473779439926147
0.78507959842681885 0.78507959842681885 0.78507959842681885
0.29709970951080322 0.29709970951080322 0.29709970951080322
0.3144192099571228 0.3144192099571228 0.3144192099571228
0.36762863397598267 0.36762863397598267 0.36762863397598267
0.38330250978469849 0.38330250978469849 0.38330250978469849
0.45496881008148193 0.45496881008148193 0.45496881008148193
0.50508564710617065 0.50508564710617065 0.50508564710617065
0.59094017744064331 0.59094017744064331 0.59094017744064331
0.63661456108093262 0.63661456108093262 0.63661456108093262
0.69153517484664917 0.69153517484664917 0.69153517484664917
0.73116397857666016 0.73116397857666016 0.73116397857666016
0.74715495109558105 0.74715495109558105 0.74715495109558105
0.77187472581863403 0.77187472581863403 0.77187472581863403
0.80074286460876465 0.80074286460876465 0.80074286460876465
0.31746238470077515 0.31746238470077515 0.31746238470077515
0.31417647004127502 0.31417647004127502 0.31417647004127502
0.36308631300926208 0.36308631300926208 0.36308631300926208
0.40795025229454041 0.40795025229454041 0.40795025229454041
0.47424668073654175 0.47424668073654175 0.47424668073654175
0.52920830249786377 0.52920830249786377 0.52920830249786377
0.59349566698074341 0.59349566698074341 0.59349566698074341
0.6366611123085022 0.6366611123085022 0.6366611123085022
0.67943882942199707 0.67943882942199707 0.67943882942199707
0.73206347227096558 0.73206347227096558 0.73206347227096558
0.76691293716430664 0.76691293716430664 0.76691293716430664
0.80183857679367065 0.80183857679367065 0.80183857679367065
0.8267894983291626 0.8267894983291626 0.8267894983291626
0.32516729831695557 0.32516729831695557 0.32516729831695557
0.32801568508148193 0.32801568508148193 0.32801568508148193
0.42840656638145447 0.42840656638145447 0.42840656638145447
0.46553042531013489 0.46553042531013489 0.46553042531013489
0.51415008306503296 0.51415008306503296 0.51415008306503296
0.55110299587249756 0.55110299587249756 0.55110299587249756
0.61495935916900635 0.61495935916900635 0.61495935916900635
0.64695292711257935 0.64695292711257935 0.64695292711257935
0.68946629762649536 0.68946629762649536 0.68946629762649536
0.74308192729949951 0.74308192729949951 0.74308192729949951
0.79208213090896606 0.79208213090896606 0.79208213090896606
0.82346010208129883 0.82346010208129883 0.82346010208129883
0.83376282453536987 0.83376282453536987 0.83376282453536987
0.35650333762168884 0.35650333762168884 0.35650333762168884
0.35090023279190063 0.35090023279190063 0.35090023279190063
0.4468989372253418 0.4468989372253418 0.4468989372253418
0.4822591245174408 0.4822591245174408 0.4822591245174408
0.52653366327285767 0.52653366327285767 0.52653366327285767
0.56861793994903564 0.56861793994903564 0.56861793994903564
0.63701319694519043 0.63701319694519043 0.63701319694519043
0.65961432456970215 0.65961432456970215 0.65961432456970215
0.70969480276107788 0.70969480276107788 0.70969480276107788
0.75651299953460693 0.75651299953460693 0.75651299953460693
0.79065811634063721 0.79065811634063721 0.79065811634063721
0.82666003704071045 0.82666003704071045 0.82666003704071045
0.83708697557449341 0.83708697557449341 0.83708697557449341
0.36195912957191467 0.36195912957191467 0.36195912957191467
0.35585349798202515 0.35585349798202515 0.35585349798202515
0.45129108428955078 0.45129108428955078 0.45129108428955078
0.48665225505828857 0.48665225505828857 0.48665225505828857
0.5302005410194397 0.5302005410194397 0.5302005410194397
0.5707848072052002 0.5707848072052002 0.5707848072052002
0.64264822006225586 0.64264822006225586 0.64264822006225586
0.66736876964569092 0.66736876964569092 0.66736876964569092
0.7266048789024353 0.72657203674316406 0.72657203674316406
0.78360629081726074 0.78360629081726074 0.78360629081726074
0.81524103879928589 0.81524103879928589 0.81524103879928589
0.83486658334732056 0.83486658334732056 0.83486658334732056
0.84675276279449463 0.84675276279449463 0.84675276279449463
0.017244137823581696 0.017244137823581696 0.017244137823581696
0.02736244909465313 0.02736244909465313 0.02736244909465313
0.076537109911441803 0.076537109911441803 0.076537109911441803
0.14709119498729706 0.14709119498729706 0.14709119498729706
0.20116780698299408 0.20116780698299408 0.20116780698299408
0.31748917698860168 0.31748917698860168 0.31748917698860168
0.42285645008087158 0.42285645008087158 0.42285645008087158
0.5103919506072998 0.5103919506072998 0.5103919506072998
0.58543550968170166 0.58543550968170166 0.58543550968170166
0.62855857610702515 0.62855857610702515 0.62855857610702515
0.65027797222137451 0.65027797222137451 0.65027797222137451
0.6637948751449585 0.6637948751449585 0.6637948751449585
0.70161545276641846 0.70161545276641846 0.70161545276641846
0.031861100345849991 0.031861100345849991 0.031861100345849991
0.049257256090641022 0.049257256090641022 0.049257256090641022
0.089570842683315277 0.089570842683315277 0.089570842683315277
0.15627333521842957 0.15627333521842957 0.15627333521842957
0.22765852510929108 0.22765852510929108 0.22765852510929108
0.33477017283439636 0.33477017283439636 0.33477017283439636
0.42309802770614624 0.42309802770614624 0.42309802770614624
0.50582152605056763 0.50582152605056763 0.50582152605056763
0.57735800743103027 0.57735800743103027 0.57735800743103027
0.63168257474899292 0.63168257474899292 0.63168257474899292
0.6557917594909668 0.6557917594909668 0.6557917594909668
0.68709975481033325 0.68709975481033325 0.68709975481033325
0.7222939133644104 0.7222939133644104 0.7222939133644104
0.050276946276426315 0.050276946276426315 0.050276946276426315
0.073098845779895782 0.073098845779895782 0.073098845779895782
0.11932681500911713 0.11932681500911713 0.11932681500911713
0.18691816926002502 0.18691816926002502 0.18691816926002502
0.26867777109146118 0.26867777109146118 0.26867777109146118
0.35570654273033142 0.35570654273033142 0.35570654273033142
0.43517044186592102 0.43517044186592102 0.43517044186592102
0.51550382375717163 0.51550382375717163 0.51550382375717163
0.58550852537155151 0.58550852537155151 0.58550852537155151
0.64029610157012939 0.64029610157012939 0.64029610157012939
0.68429720401763916 0.68429720401763916 0.68429720401763916
0.70531851053237915 0.70531851053237915 0.70531851053237915
0.72671049833297729 0.72671049833297729 0.72671049833297729
0.08533148467540741 0.08533148467540741 0.08533148467540741
0.12033800780773163 0.12033800780773163 0.12033800780773163
0.1597074419260025 0.1597074419260025 0.1597074419260025
0.22609776258468628 0.22609776258468628 0.22609776258468628
0.30473428964614868 0.30473428964614868 0.30473428964614868
0.38135623931884766 0.38135623931884766 0.38135623931884766
0.45506584644317627 0.45506584644317627 0.45506584644317627
0.52916908264160156 0.52916908264160156 0.52916908264160156
0.59721970558166504 0.59721970558166504 0.59721970558166504
0.65417367219924927 0.65417367219924927 0.65417367219924927
0.70155811309814453 0.70155811309814453 0.70155811309814453
0.71738141775131226 0.71738141775131226 0.71738141775131226
0.73044383525848389 0.73044383525848389 0.73044383525848389
0.14701831340789795 0.14701831340789795 0.14701831340789795
0.17313629388809204 0.17313629388809204 0.17313629388809204
0.21191991865634918 0.21191991865634918 0.21191991865634918
0.27469310164451599 0.27469310164451599 0.27469310164451599
0.34317448735237122 0.34317448735237122 0.34317448735237122
0.41202104091644287 0.41202104091644287 0.41202104091644287
0.47927969694137573 0.47927969694137573 0.47927969694137573
0.546161949634552 0.546161949634552 0.546161949634552
0.61196422576904297 0.61196422576904297 0.61196422576904297
0.66953533887863159 0.66953533887863159 0.66953533887863159
0.71080034971237183 0.71080034971237183 0.71080034971237183
0.72782784700393677 0.72782784700393677 0.72782784700393677
0.75413304567337036 0.75413304567337036 0.75413304567337036
0.20488454401493073 0.20488454401493073 0.20488454401493073
0.23027065396308899 0.23027065396308899 0.23027065396308899
0.26568502187728882 0.26568502187728882 0.26568502187728882
0.31396770477294922 0.31396770477294922 0.31396770477294922
0.37840369343757629 0.37840369343757629 0.37840369343757629
0.44185417890548706 0.44185417890548706 0.44185417890548706
0.50750601291656494 0.50750601291656494 0.50750601291656494
0.57052421569824219 0.57052421569824219 0.57052421569824219
0.63142526149749756 0.63142526149749756 0.63142526149749756
0.68063616752624512 0.68063616752624512 0.68063616752624512
0.71989595890045166 0.71989595890045166 0.71989595890045166
0.75572812557220459 0.75572812557220459 0.75572812557220459
0.7723764181137085 0.7723764181137085 0.7723764181137085
0.24593791365623474 0.24593791365623474 0.24593791365623474
0.27876845002174377 0.27876845002174377 0.27876845002174377
0.31785160303115845 0.31785160303115845 0.31785160303115845
0.35593068599700928 0.35593068599700928 0.35593068599700928
0.42210054397583008 0.42210054397583008 0.42210054397583008
0.47293370962142944 0.47293370962142944 0.47293370962142944
0.53662675619125366 0.53662675619125366 0.53662675619125366
0.59626823663711548 0.59626823663711548 0.59626823663711548
0.65211635828018188 0.65211635828018188 0.65211635828018188
0.69686543941497803 0.69686543941497803 0.69686543941497803
0.73595714569091797 0.73595714569091797 0.73595714569091797
0.76392114162445068 0.76392114162445068 0.76392114162445068
0.78667658567428589 0.78667658567428589 0.78667658567428589
0.30788320302963257 0.30788320302963257 0.30788320302963257
0.32408758997917175 0.32408758997917175 0.32408758997917175
0.36041355133056641 0.36041355133056641 0.36041355133056641
0.39024323225021362 0.39024323225021362 0.39024323225021362
0.44768616557121277 0.44768616557121277 0.44768616557121277
0.49618673324584961 0.49618673324584961 0.49618673324584961
0.5681338906288147 0.5681338906288147 0.5681338906288147
0.62276065349578857 0.62276065349578857 0.62276065349578857
0.67230403423309326 0.67230403423309326 0.67230403423309326
0.71719455718994141 0.71719455718994141 0.71719455718994141
0.75979799032211304 0.75979799032211304 0.75979799032211304
0.79075485467910767 0.79075485467910767 0.79075485467910767
0.80936336517333984 0.80936336517333984 0.80936336517333984
0.34609878063201904 0.34609878063201904 0.34609878063201904
0.36789309978485107 0.36789309978485107 0.36789309978485107
0.38562986254692078 0.38562986254692078 0.38562986254692078
0.41131389141082764 0.41131389141082764 0.41131389141082764
0.46909186244010925 0.46909186244010925 0.46909186244010925
0.52130764722824097 0.52130764722824097 0.52130764722824097
0.59632915258407593 0.59632915258407593 0.59632915258407593
0.64365994930267334 0.64365994930267334 0.64365994930267334
0.69209057092666626 0.69209057092666626 0.69209057092666626
0.73667722940444946 0.73667722940444946 0.73667722940444946
0.77668219804763794 0.77668219804763794 0.77668219804763794
0.80777537822723389 0.80777537822723389 0.80777537822723389
0.8321947455406189 0.8321947455406189 0.8321947455406189
0.35953676700592041 0.35953676700592041 0.35953676700592041
0.37378457188606262 0.37378457188606262 0.37378457188606262
0.41919401288032532 0.41919401288032532 0.41919401288032532
0.45586380362510681 0.45586380362510681 0.45586380362510681
0.51046574115753174 0.51046574115753174 0.51046574115753174
0.54796850681304932 0.54796850681304932 0.54796850681304932
0.62064772844314575 0.62064772844314575 0.62064772844314575
0.65395611524581909 0.65395611524581909 0.65395611524581909
0.70119988918304443 0.70119988918304443 0.70119988918304443
0.74946987628936768 0.74946987628936768 0.74946987628936768
0.79328459501266479 0.79328459501266479 0.79328459501266479
0.82714939117431641 0.82714939117431641 0.82714939117431641
0.83698773384094238 0.83698773384094238 0.83698773384094238
0.36719927191734314 0.36719927191734314 0.36719927191734314
0.38062071800231934 0.38062071800231934 0.38062071800231934
0.45017299056053162 0.45017299056053162 0.45017299056053162
0.47773817181587219 0.47773817181587219 0.47773817181587219
0.52613699436187744 0.52613699436187744 0.52613699436187744
0.56748849153518677 0.56748849153518677 0.56748849153518677
0.63860476016998291 0.63860476016998291 0.63860476016998291
0.66898435354232788 0.66898435354232788 0.66898435354232788
0.71824651956558228 0.71824651956558228 0.71824651956558228
0.76778090000152588 0.76778090000152588 0.76778090000152588
0.80935990810394287 0.80935990810394287 0.80935990810394287
0.83028030395507812 0.83028030395507812 0.83028030395507812
0.83869099617004395 0.83869099617004395 0.83869099617004395
0.37194699048995972 0.37194699048995972 0.37194699048995972
0.382210373878479 0.382210373878479 0.382210373878479
0.45872336626052856 0.45872336626052856 0.45872336626052856
0.48940730094909668 0.48940730094909668 0.48940730094909668
0.53310078382492065 0.53310078382492065 0.53310078382492065
0.57460695505142212 0.57460695505142212 0.57460695505142212
0.64332067966461182 0.64332067966461182 0.64332067966461182
0.67242002487182617 0.67242002487182617 0.67242002487182617
0.72970902919769287 0.72970902919769287 0.72970902919769287
0.7784653902053833 0.7784653902053833 0.7784653902053833
0.8087843656539917 0.8087843656539917 0.8087843656539917
0.83306777477264404 0.83306777477264404 0.83306777477264404
0.84385842084884644 0.84385842084884644 0.84385842084884644
0.37707337737083435 0.37707337737083435 0.37707337737083435
0.38603800535202026 0.38603800535202026 0.38603800535202026
0.48023062944412231 0.48023062944412231 0.48023062944412231
0.51607143878936768 0.51607143878936768 0.51607143878936768
0.54797929525375366 0.54797929525375366 0.54797929525375366
0.57857012748718262 0.57857012748718262 0.57857012748718262
0.63870465755462646 0.63870465755462646 0.63870465755462646
0.66968631744384766 0.66968631744384766 0.66968631744384766
0.73019534349441528 0.73019534349441528 0.73019534349441528
0.78378146886825562 0.78378146886825562 0.78378146886825562
0.8223414421081543 0.8223414421081543 0.8223414421081543
0.8554002046585083 0.8554002046585083 0.8554002046585083
0.86268448829650879 0.86268448829650879 0.86268448829650879
0.017358623445034027 0.017358623445034027 0.017358623445034027
0.03908398374915123 0.03908398374915123 0.03908398374915123
0.094577044248580933 0.094577044248580933 0.094577044248580933
0.18212348222732544 0.18212348222732544 0.18212348222732544
0.24405455589294434 0.24405455589294434 0.24405455589294434
0.33578094840049744 0.33578094840049744 0.33578094840049744
0.43341237306594849 0.43341237306594849 0.43341237306594849
0.51892656087875366 0.51892656087875366 0.51892656087875366
0.59466820955276489 0.59466820955276489 0.59466820955276489
0.63920366764068604 0.63920366764068604 0.63920366764068604
0.66265779733657837 0.66265779733657837 0.66265779733657837
0.69568288326263428 0.69568288326263428 0.69568288326263428
0.74300360679626465 0.74300360679626465 0.74300360679626465
0.037138994783163071 0.037138994783163071 0.037138994783163071
0.063093908131122589 0.063093908131122589 0.063093908131122589
0.10259994864463806 0.10259994864463806 0.10259994864463806
0.17629405856132507 0.17629405856132507 0.17629405856132507
0.26057633757591248 0.26057633757591248 0.26057633757591248
0.34887793660163879 0.34887793660163879 0.34887793660163879
0.43203011155128479 0.43203011155128479 0.43203011155128479
0.51420050859451294 0.51420050859451294 0.51420050859451294
0.58506202697753906 0.58506202697753906 0.58506202697753906
0.64474606513977051 0.64474606513977051 0.64474606513977051
0.68615180253982544 0.68615180253982544 0.68615180253982544
0.7135128378868103 0.7135128378868103 0.7135128378868103
0.74654334783554077 0.74654334783554077 0.74654334783554077
0.057153902947902679 0.057153902947902679 0.057153902947902679
0.088880710303783417 0.088880710303783417 0.088880710303783417
0.12923382222652435 0.12923382222652435 0.12923382222652435
0.19771197438240051 0.19771197438240051 0.19771197438240051
0.28134864568710327 0.28134864568710327 0.28134864568710327
0.36610704660415649 0.36610704660415649 0.36610704660415649
0.44249576330184937 0.44249576330184937 0.44249576330184937
0.51848745346069336 0.51848745346069336 0.51848745346069336
0.59008067846298218 0.59008067846298218 0.59008067846298218
0.65291738510131836 0.65291738510131836 0.65291738510131836
0.70108342170715332 0.70108342170715332 0.70108342170715332
0.72948163747787476 0.72948163747787476 0.72948163747787476
0.75774931907653809 0.75774931907653809 0.75774931907653809
0.099774457514286041 0.099774457514286041 0.099774457514286041
0.12929566204547882 0.12929566204547882 0.12929566204547882
0.17317238450050354 0.17317238450050354 0.17317238450050354
0.23858436942100525 0.23858436942100525 0.23858436942100525
0.31201335787773132 0.31201335787773132 0.31201335787773132
0.39022019505500793 0.39022019505500793 0.39022019505500793
0.46409967541694641 0.46409967541694641 0.46409967541694641
0.53303521871566772 0.53303521871566772 0.53303521871566772
0.60209351778030396 0.60209351778030396 0.60209351778030396
0.66482782363891602 0.66482782363891602 0.66482782363891602
0.71793550252914429 0.71793550252914429 0.71793550252914429
0.75787752866744995 0.75787752866744995 0.75787752866744995
0.77889072895050049 0.77889072895050049 0.77889072895050049
0.15275022387504578 0.15275022387504578 0.15275022387504578
0.18357460200786591 0.18357460200786591 0.18357460200786591
0.22113607823848724 0.22113607823848724 0.22113607823848724
0.28158333897590637 0.28158333897590637 0.28158333897590637
0.34605437517166138 0.34605437517166138 0.34605437517166138
0.41854161024093628 0.41854161024093628 0.41854161024093628
0.48798179626464844 0.48798179626464844 0.48798179626464844
