assets/lut/fujixtransiii fuji xtrans iii mono.cube
# Created by: G'MIC (https://gmic.eu)
TITLE "fuji_xtrans_iii_mono"
# LUT size
LUT_3D_SIZE 7
# Data domain
DOMAIN_MIN 0.0 0.0 0.0
DOMAIN_MAX 1.0 1.0 1.0
# LUT data points
0.010830613784492016 0.010830613784492016 0.010830613784492016
0.035711970180273056 0.035711970180273056 0.035711970180273056
0.10980107635259628 0.10980107635259628 0.10980107635259628
0.21721701323986053 0.21721701323986053 0.21721701323986053
0.3250848650932312 0.3250848650932312 0.3250848650932312
0.36981397867202759 0.36981397867202759 0.36981397867202759
0.40176889300346375 0.40176889300346375 0.40176889300346375
0.05003579705953598 0.05003579705953598 0.05003579705953598
0.086381368339061737 0.086381368339061737 0.086381368339061737
0.17317062616348267 0.17317062616348267 0.17317062616348267
0.26491215825080872 0.26491215825080872 0.26491215825080872
0.35798269510269165 0.35798269510269165 0.35798269510269165
0.41256207227706909 0.41256207227706909 0.41256207227706909
0.4663752019405365 0.4663752019405365 0.4663752019405365
0.1568724513053894 0.1568724513053894 0.1568724513053894
0.21664270758628845 0.21664270758628845 0.21664270758628845
0.28887298703193665 0.28887298703193665 0.28887298703193665
0.37018409371376038 0.37018409371376038 0.37018409371376038
0.43576991558074951 0.43576991558074951 0.43576991558074951
0.49034777283668518 0.49034777283668518 0.49034777283668518
0.49924209713935852 0.49924209713935852 0.49924209713935852
0.2786773145198822 0.2786773145198822 0.2786773145198822
0.32695391774177551 0.32695391774177551 0.32695391774177551
0.40797281265258789 0.40797281265258789 0.40797281265258789
0.47535538673400879 0.47535538673400879 0.47535538673400879
0.53848779201507568 0.53848779201507568 0.53848779201507568
0.57680261135101318 0.57680261135101318 0.57680261135101318
0.62181127071380615 0.62181127071380615 0.62181127071380615
0.34212338924407959 0.34212338924407959 0.34212338924407959
0.41133356094360352 0.41133356094360352 0.41133356094360352
0.45593255758285522 0.45593255758285522 0.45593255758285522
0.55867862701416016 0.55867862701416016 0.55867862701416016
0.61801040172576904 0.61801040172576904 0.61801040172576904
0.65384137630462646 0.65384137630462646 0.65384137630462646
0.70350706577301025 0.70350706577301025 0.70350706577301025
0.37634080648422241 0.37634080648422241 0.37634080648422241
0.48310905694961548 0.48310905694961548 0.48310905694961548
0.53518402576446533 0.53518402576446533 0.53518402576446533
0.59269106388092041 0.59269106388092041 0.59269106388092041
0.63475590944290161 0.63475590944290161 0.63475590944290161
0.69665968418121338 0.69665968418121338 0.69665968418121338
0.73346495628356934 0.73346495628356934 0.73346495628356934
0.40926241874694824 0.40926241874694824 0.40926241874694824
0.50536221265792847 0.50536221265792847 0.50536221265792847
0.55493223667144775 0.55493223667144775 0.55493223667144775
0.61723983287811279 0.61723983287811279 0.61723983287811279
0.69173860549926758 0.69173860549926758 0.69173860549926758
0.74669003486633301 0.74669003486633301 0.74669003486633301
0.76868832111358643 0.76868832111358643 0.76868832111358643
0.034019917249679565 0.034019917249679565 0.034019917249679565
0.074771687388420105 0.074771687388420105 0.074771687388420105
0.15081141889095306 0.15081141889095306 0.15081141889095306
0.2743496298789978 0.2743496298789978 0.2743496298789978
0.35794764757156372 0.35794764757156372 0.35794764757156372
0.40254774689674377 0.40254774689674377 0.40254774689674377
0.48085454106330872 0.48085454106330872 0.48085454106330872
0.089685671031475067 0.089685671031475067 0.089685671031475067
0.12909916043281555 0.12909916043281555 0.12909916043281555
0.20656844973564148 0.20656844973564148 0.20656844973564148
0.29551458358764648 0.29551458358764648 0.29551458358764648
0.37819203734397888 0.37819203734397888 0.37819203734397888
0.45145362615585327 0.45145362615585327 0.45145362615585327
0.50297021865844727 0.50297021865844727 0.50297021865844727
0.2114054411649704 0.2114054411649704 0.2114054411649704
0.24492612481117249 0.24492612481117249 0.24492612481117249
0.30559760332107544 0.30559760332107544 0.30559760332107544
0.37711676955223083 0.37711676955223083 0.37711676955223083
0.45407363772392273 0.45407363772392273 0.45407363772392273
0.5246577262878418 0.5246577262878418 0.5246577262878418
0.5670543909072876 0.5670543909072876 0.5670543909072876
0.34182202816009521 0.34182202816009521 0.34182202816009521
0.37019532918930054 0.37019532918930054 0.37019532918930054
0.41239207983016968 0.41239207983016968 0.41239207983016968
0.47794690728187561 0.47794690728187561 0.47794690728187561
0.55459117889404297 0.55459117889404297 0.55459117889404297
0.6137394905090332 0.6137394905090332 0.6137394905090332
0.64597141742706299 0.64597141742706299 0.64597141742706299
0.41441524028778076 0.41441524028778076 0.41441524028778076
0.46283987164497375 0.46283987164497375 0.46283987164497375
0.51760220527648926 0.51760220527648926 0.51760220527648926
0.57511663436889648 0.57511663436889648 0.57511663436889648
0.63698363304138184 0.63698363304138184 0.63698363304138184
0.70087534189224243 0.70087534189224243 0.70087534189224243
0.74384516477584839 0.74384516477584839 0.74384516477584839
0.44692543148994446 0.44692543148994446 0.44692543148994446
0.5262107253074646 0.5262107253074646 0.5262107253074646
0.5780109167098999 0.5780109167098999 0.5780109167098999
0.63248139619827271 0.63248139619827271 0.63248139619827271
0.68879276514053345 0.68879276514053345 0.68879276514053345
0.75355643033981323 0.75355643033981323 0.75355643033981323
0.76546114683151245 0.76546114683151245 0.76546114683151245
0.48331564664840698 0.48331564664840698 0.48331564664840698
0.55902242660522461 0.55902242660522461 0.55902242660522461
0.59931886196136475 0.59931886196136475 0.59931886196136475
0.64360731840133667 0.64360731840133667 0.64360731840133667
0.7005075216293335 0.7005075216293335 0.7005075216293335
0.76673144102096558 0.76673144102096558 0.76673144102096558
0.81347501277923584 0.81347501277923584 0.81347501277923584
0.12559954822063446 0.12559954822063446 0.12559954822063446
0.1768973171710968 0.1768973171710968 0.1768973171710968
0.23829479515552521 0.23829479515552521 0.23829479515552521
0.31728473305702209 0.31728473305702209 0.31728473305702209
0.40349271893501282 0.40349271893501282 0.40349271893501282
0.47444954514503479 0.47444954514503479 0.47444954514503479
0.51282846927642822 0.51282846927642822 0.51282846927642822
0.17331089079380035 0.17331089079380035 0.17331089079380035
0.20594523847103119 0.20594523847103119 0.20594523847103119
0.27206367254257202 0.27206367254257202 0.27206367254257202
0.34713003039360046 0.34713003039360046 0.34713003039360046
0.42992395162582397 0.42992395162582397 0.42992395162582397
0.49517986178398132 0.49517986178398132 0.49517986178398132
0.54859089851379395 0.54859089851379395 0.54859089851379395
0.28115642070770264 0.28115642070770264 0.28115642070770264
0.30381152033805847 0.30381152033805847 0.30381152033805847
0.35265442728996277 0.35265442728996277 0.35265442728996277
0.42075851559638977 0.42075851559638977 0.42075851559638977
0.49876692891120911 0.49876692891120911 0.49876692891120911
0.55804812908172607 0.55804812908172607 0.55804812908172607
0.59732091426849365 0.59732091426849365 0.59732091426849365
0.40086814761161804 0.40086814761161804 0.40086814761161804
0.414451003074646 0.414451003074646 0.414451003074646
0.4540306031703949 0.4540306031703949 0.4540306031703949
0.51513838768005371 0.51513838768005371 0.51513838768005371
0.5839037299156189 0.5839037299156189 0.5839037299156189
0.64079612493515015 0.64079612493515015 0.64079612493515015
0.67926102876663208 0.67926102876663208 0.67926102876663208
0.47010359168052673 0.47010359168052673 0.47010359168052673
0.51658588647842407 0.51658588647842407 0.51658588647842407
0.55575752258300781 0.55575752258300781 0.55575752258300781
0.60500168800354004 0.60500168800354004 0.60500168800354004
0.66604918241500854 0.66604918241500854 0.66604918241500854
0.7205081582069397 0.7205081582069397 0.7205081582069397
0.76435381174087524 0.76435381174087524 0.76435381174087524
0.56287503242492676 0.56287503242492676 0.56287503242492676
0.57453912496566772 0.57453912496566772 0.57453912496566772
0.61092549562454224 0.61092549562454224 0.61092549562454224
0.66790145635604858 0.66790145635604858 0.66790145635604858
0.7351875901222229 0.7351875901222229 0.7351875901222229
0.77231866121292114 0.77231866121292114 0.77231866121292114
0.81997781991958618 0.81997781991958618 0.81997781991958618
0.57312309741973877 0.57312309741973877 0.57312309741973877
0.58756518363952637 0.58756518363952637 0.58756518363952637
0.65163600444793701 0.65163600444793701 0.65163600444793701
0.70636022090911865 0.70636022090911865 0.70636022090911865
0.74774694442749023 0.74774694442749023 0.74774694442749023
0.81303870677947998 0.81303870677947998 0.81303870677947998
0.83765047788619995 0.83765047788619995 0.83765047788619995
0.2298586368560791 0.2298586368560791 0.2298586368560791
0.27240598201751709 0.27240598201751709 0.27240598201751709
0.31905296444892883 0.31905296444892883 0.31905296444892883
0.38164180517196655 0.38164180517196655 0.38164180517196655
0.45373499393463135 0.45373499393463135 0.45373499393463135
0.52279162406921387 0.52279162406921387 0.52279162406921387
0.56353390216827393 0.56353390216827393 0.56353390216827393
0.26686397194862366 0.26686397194862366 0.26686397194862366
0.30215293169021606 0.30215293169021606 0.30215293169021606
0.35155686736106873 0.35155686736106873 0.35155686736106873
0.41847538948059082 0.41847538948059082 0.41847538948059082
0.48679184913635254 0.48679184913635254 0.48679184913635254
0.5403093695640564 0.5403093695640564 0.5403093695640564
0.5850757360458374 0.5850757360458374 0.5850757360458374
0.36112672090530396 0.36112672090530396 0.36112672090530396
0.37979134917259216 0.37979134917259216 0.37979134917259216
0.41536685824394226 0.41536685824394226 0.41536685824394226
0.48498404026031494 0.48498404026031494 0.48498404026031494
0.5533263087272644 0.5533263087272644 0.5533263087272644
0.60574120283126831 0.60574120283126831 0.60574120283126831
0.64745891094207764 0.64745891094207764 0.64745891094207764
0.46328487992286682 0.46328487992286682 0.46328487992286682
0.47381499409675598 0.47381499409675598 0.47381499409675598
0.51155894994735718 0.51155894994735718 0.51155894994735718
0.57485282421112061 0.57485282421112061 0.57485282421112061
0.63345599174499512 0.63345599174499512 0.63345599174499512
0.68366622924804688 0.68366622924804688 0.68366622924804688
0.71720772981643677 0.71720772981643677 0.71720772981643677
0.56402075290679932 0.56402075290679932 0.56402075290679932
0.56428784132003784 0.56428784132003784 0.56428784132003784
0.60543984174728394 0.60543984174728394 0.60543984174728394
0.6599467396736145 0.6599467396736145 0.6599467396736145
0.70843815803527832 0.70843815803527832 0.70843815803527832
0.75989151000976562 0.75989151000976562 0.75989151000976562
0.79611098766326904 0.79611098766326904 0.79611098766326904
0.62714976072311401 0.62714976072311401 0.62714976072311401
0.63703399896621704 0.63703399896621704 0.63703399896621704
0.66977202892303467 0.66977202892303467 0.66977202892303467
0.71223098039627075 0.71223098039627075 0.71223098039627075
0.76155263185501099 0.76155263185501099 0.76155263185501099
0.81983548402786255 0.81983548402786255 0.81983548402786255
0.86809176206588745 0.86809176206588745 0.86809176206588745
0.63800787925720215 0.63800787925720215 0.63800787925720215
0.65909433364868164 0.65909433364868164 0.65909433364868164
0.67952871322631836 0.67952871322631836 0.67952871322631836
0.71858757734298706 0.71858757734298706 0.71858757734298706
0.77733337879180908 0.77733337879180908 0.77733337879180908
0.85752850770950317 0.85752850770950317 0.85752850770950317
0.88868671655654907 0.88868671655654907 0.88868671655654907
0.32881680130958557 0.32881680130958557 0.32881680130958557
0.36563757061958313 0.36563757061958313 0.36563757061958313
0.40636399388313293 0.40636399388313293 0.40636399388313293
0.46295145153999329 0.46295145153999329 0.46295145153999329
0.52722465991973877 0.52722465991973877 0.52722465991973877
0.57865148782730103 0.57865148782730103 0.57865148782730103
0.62430644035339355 0.62430644035339355 0.62430644035339355
0.37575170397758484 0.37575170397758484 0.37575170397758484
0.41048318147659302 0.41048318147659302 0.41048318147659302
0.44724085927009583 0.44724085927009583 0.44724085927009583
0.50363004207611084 0.50363004207611084 0.50363004207611084
0.55368924140930176 0.55368924140930176 0.55368924140930176
0.60627907514572144 0.60627907514572144 0.60627907514572144
0.64928758144378662 0.64928758144378662 0.64928758144378662
0.44158828258514404 0.44158828258514404 0.44158828258514404
0.4746759831905365 0.4746759831905365 0.4746759831905365
0.49975857138633728 0.49975857138633728 0.49975857138633728
0.55426871776580811 0.55426871776580811 0.55426871776580811
0.60470205545425415 0.60470205545425415 0.60470205545425415
0.65552639961242676 0.65552639961242676 0.65552639961242676
0.69243574142456055 0.69243574142456055 0.69243574142456055
0.53114420175552368 0.53114420175552368 0.53114420175552368
0.55655193328857422 0.55655193328857422 0.55655193328857422
0.57912129163742065 0.57912129163742065 0.57912129163742065
0.62734740972518921 0.62734740972518921 0.62734740972518921
0.67767345905303955 0.67767345905303955 0.67767345905303955
0.72618359327316284 0.72618359327316284 0.72618359327316284
0.76684862375259399 0.76684862375259399 0.76684862375259399
0.60978978872299194 0.60978978872299194 0.60978978872299194
0.63188183307647705 0.63188183307647705 0.63188183307647705
0.65621250867843628 0.65621250867843628 0.65621250867843628
0.698799729347229 0.698799729347229 0.698799729347229
0.74576550722122192 0.74576550722122192 0.74576550722122192
0.79702490568161011 0.79702490568161011 0.79702490568161011
0.83348023891448975 0.83348023891448975 0.83348023891448975
0.6890714168548584 0.6890714168548584 0.6890714168548584
0.69443094730377197 0.69443094730377197 0.69443094730377197
0.71229648590087891 0.71229648590087891 0.71229648590087891
0.76091575622558594 0.76091575622558594 0.76091575622558594
0.80331331491470337 0.80331331491470337 0.80331331491470337
0.85526919364929199 0.85526919364929199 0.85526919364929199
0.90132719278335571 0.90132719278335571 0.90132719278335571
0.69766819477081299 0.69766819477081299 0.69766819477081299
0.73913347721099854 0.73913347721099854 0.73913347721099854
0.760794997215271 0.760794997215271 0.760794997215271
0.8086848258972168 0.8086848258972168 0.8086848258972168
0.84447139501571655 0.84447139501571655 0.84447139501571655
0.88813978433609009 0.88813978433609009 0.88813978433609009
0.92211532592773438 0.92211532592773438 0.92211532592773438
0.42595410346984863 0.42595410346984863 0.42595410346984863
0.45357489585876465 0.45357489585876465 0.45357489585876465
0.49367758631706238 0.49367758631706238 0.49367758631706238
0.54687261581420898 0.54687261581420898 0.54687261581420898
0.606758713722229 0.606758713722229 0.606758713722229
0.64518558979034424 0.64518558979034424 0.64518558979034424
0.67416858673095703 0.67416858673095703 0.67416858673095703
0.47043269872665405 0.47043269872665405 0.47043269872665405
0.50904214382171631 0.50904214382171631 0.50904214382171631
0.5397946834564209 0.5397946834564209 0.5397946834564209
0.5838923454284668 0.5838923454284668 0.5838923454284668
0.63003838062286377 0.63003838062286377 0.63003838062286377
0.66968822479248047 0.66968822479248047 0.66968822479248047
0.69158637523651123 0.69158637523651123 0.69158637523651123
0.52611994743347168 0.52611994743347168 0.52611994743347168
0.56690853834152222 0.56690853834152222 0.56690853834152222
0.59182918071746826 0.59182918071746826 0.59182918071746826
0.62553519010543823 0.62553519010543823 0.62553519010543823
0.66978657245635986 0.66978657245635986 0.66978657245635986
0.71726357936859131 0.71726357936859131 0.71726357936859131
0.7407982349395752 0.7407982349395752 0.7407982349395752
0.59789431095123291 0.59789431095123291 0.59789431095123291
0.63318061828613281 0.63318061828613281 0.63318061828613281
0.64902567863464355 0.64902567863464355 0.64902567863464355
0.67948275804519653 0.67948275804519653 0.67948275804519653
0.72403168678283691 0.72403168678283691 0.72403168678283691
0.76817506551742554 0.76817506551742554 0.76817506551742554
0.79976344108581543 0.79976344108581543 0.79976344108581543
0.67272233963012695 0.67272233963012695 0.67272233963012695
0.69708478450775146 0.69708478450775146 0.69708478450775146
0.71745932102203369 0.71745932102203369 0.71745932102203369
0.74821752309799194 0.74821752309799194 0.74821752309799194
0.79119426012039185 0.79119426012039185 0.79119426012039185
0.82977837324142456 0.82977837324142456 0.82977837324142456
0.86732608079910278 0.86732608079910278 0.86732608079910278
0.73242795467376709 0.73242795467376709 0.73242795467376709
0.7502673864364624 0.7502673864364624 0.7502673864364624
0.78562331199645996 0.78562331199645996 0.78562331199645996
0.81114363670349121 0.81114363670349121 0.81114363670349121
0.85474252700805664 0.85474252700805664 0.85474252700805664
0.88507539033889771 0.88507539033889771 0.88507539033889771
0.92888134717941284 0.92888134717941284 0.92888134717941284
0.80312740802764893 0.80312740802764893 0.80312740802764893
0.7842332124710083 0.7842332124710083 0.7842332124710083
0.80368733406066895 0.80368733406066895 0.80368733406066895
0.85284274816513062 0.85284274816513062 0.85284274816513062
0.88904660940170288 0.88904660940170288 0.88904660940170288
0.91892993450164795 0.91892993450164795 0.91892993450164795
0.95093673467636108 0.95093673467636108 0.95093673467636108
0.50335806608200073 0.50335806608200073 0.50335806608200073
0.52874189615249634 0.52874189615249634 0.52874189615249634
0.56637471914291382 0.56637471914291382 0.56637471914291382
0.61368346214294434 0.61368346214294434 0.61368346214294434
0.66970705986022949 0.66970705986022949 0.66970705986022949
0.71524983644485474 0.71524983644485474 0.71524983644485474
0.72879981994628906 0.72879981994628906 0.72879981994628906
0.53892678022384644 0.53892678022384644 0.53892678022384644
0.5856284499168396 0.5856284499168396 0.5856284499168396
0.61619472503662109 0.61619472503662109 0.61619472503662109
0.65339893102645874 0.65339893102645874 0.65339893102645874
0.68790298700332642 0.68790298700332642 0.68790298700332642
0.72671645879745483 0.72671645879745483 0.72671645879745483
0.73816573619842529 0.73816573619842529 0.73816573619842529
0.597431480884552 0.597431480884552 0.597431480884552
0.64236623048782349 0.64236623048782349 0.64236623048782349
0.66643375158309937 0.66643375158309937 0.66643375158309937
0.69577771425247192 0.69577771425247192 0.69577771425247192
0.72529733180999756 0.72529733180999756 0.72529733180999756
0.75982451438903809 0.75982451438903809 0.75982451438903809
0.79059678316116333 0.79059678316116333 0.79059678316116333
0.66063469648361206 0.66063469648361206 0.66063469648361206
0.69615745544433594 0.69615745544433594 0.69615745544433594
0.72152829170227051 0.72152829170227051 0.72152829170227051
0.74515128135681152 0.74515128135681152 0.74515128135681152
0.76915442943572998 0.76915442943572998 0.76915442943572998
0.79971855878829956 0.79971855878829956 0.79971855878829956
0.83458054065704346 0.83458054065704346 0.83458054065704346
0.72336900234222412 0.72336900234222412 0.72336900234222412
0.75366020202636719 0.75366020202636719 0.75366020202636719
0.77595239877700806 0.77595239877700806 0.77595239877700806
0.80088448524475098 0.80088448524475098 0.80088448524475098
0.82593971490859985 0.82593971490859985 0.82593971490859985
0.85805195569992065 0.85805195569992065 0.85805195569992065
0.89176273345947266 0.89176273345947266 0.89176273345947266
0.80042988061904907 0.80042988061904907 0.80042988061904907
0.80933505296707153 0.80933505296707153 0.80933505296707153
0.82938855886459351 0.82938855886459351 0.82938855886459351
0.85685145854949951 0.85685145854949951 0.85685145854949951
0.88658648729324341 0.88658648729324341 0.88658648729324341
0.91953688859939575 0.91953688859939575 0.91953688859939575
0.95377868413925171 0.95377868413925171 0.95377868413925171
0.82134038209915161 0.82134038209915161 0.82134038209915161
0.81087625026702881 0.81087625026702881 0.81087625026702881
0.82751673460006714 0.82751673460006714 0.82751673460006714
0.87823235988616943 0.87823235988616943 0.87823235988616943
0.91499251127243042 0.91499251127243042 0.91499251127243042
0.94425493478775024 0.94425493478775024 0.94425493478775024
0.9648125171661377 0.9648125171661377 0.9648125171661377
