assets/lut/fujixtransiii fuji xtrans iii classic chrome.cube
# Created by: G'MIC (https://gmic.eu)
TITLE "fuji_xtrans_iii_classic_chrome"
# LUT size
LUT_3D_SIZE 13
# Data domain
DOMAIN_MIN 0.0 0.0 0.0
DOMAIN_MAX 1.0 1.0 1.0
# LUT data points
0.0083547700196504593 0.011983265168964863 0.0083617717027664185
0.02573629654943943 0.014086450450122356 0.0094227958470582962
0.085369259119033813 0.021419016644358635 0.013008596375584602
0.1729520857334137 0.035760931670665741 0.022862348705530167
0.28650665283203125 0.062853254377841949 0.039062082767486572
0.40484833717346191 0.095183432102203369 0.061840429902076721
0.52138590812683105 0.13523241877555847 0.093794561922550201
0.64577227830886841 0.18038064241409302 0.13318584859371185
0.72345072031021118 0.21039268374443054 0.1628233939409256
0.7745247483253479 0.23574090003967285 0.18902395665645599
0.79449522495269775 0.24875037372112274 0.19990865886211395
0.81386572122573853 0.26437816023826599 0.22182789444923401
0.82638055086135864 0.27735006809234619 0.23574559390544891
0.008088340051472187 0.028714079409837723 0.011283889412879944
0.028595210984349251 0.033851519227027893 0.014743370935320854
0.091813154518604279 0.040884669870138168 0.019352393224835396
0.18503302335739136 0.064484961330890656 0.030857639387249947
0.29786840081214905 0.091286033391952515 0.044168822467327118
0.41513702273368835 0.11804638803005219 0.068486638367176056
0.53408408164978027 0.14998668432235718 0.097780503332614899
0.63829463720321655 0.18897300958633423 0.13031548261642456
0.723929762840271 0.21724767982959747 0.15959356725215912
0.78410261869430542 0.24717368185520172 0.19312486052513123
0.80914288759231567 0.2637227475643158 0.20217850804328918
0.83138859272003174 0.28372108936309814 0.21915930509567261
0.85975968837738037 0.31590917706489563 0.25405225157737732
0.0080398712307214737 0.064086243510246277 0.013231539167463779
0.028029467910528183 0.074554786086082458 0.017134422436356544
0.092119164764881134 0.084162451326847076 0.023017793893814087
0.19613796472549438 0.11099091917276382 0.035965368151664734
0.30944573879241943 0.14003801345825195 0.05259430781006813
0.424456387758255 0.1662781685590744 0.076258040964603424
0.54060709476470947 0.19172376394271851 0.098091065883636475
0.64653480052947998 0.22384101152420044 0.12736295163631439
0.73153966665267944 0.25444304943084717 0.15772454440593719
0.79322171211242676 0.2814633846282959 0.18874409794807434
0.82809078693389893 0.29782494902610779 0.20651395618915558
0.86157780885696411 0.33013299107551575 0.2287413626909256
0.88302654027938843 0.3569338321685791 0.2518514096736908
0.011041873134672642 0.1300099790096283 0.016101881861686707
0.038079354912042618 0.13970783352851868 0.019702821969985962
0.085082933306694031 0.14639700949192047 0.024598918855190277
0.19279055297374725 0.17410697042942047 0.039431389421224594
0.31243142485618591 0.20230071246623993 0.058942787349224091
0.42833149433135986 0.22740733623504639 0.076247029006481171
0.54575318098068237 0.25380834937095642 0.089831076562404633
0.65364480018615723 0.28123664855957031 0.12366636842489243
0.73733323812484741 0.30995216965675354 0.15478578209877014
0.80871087312698364 0.33455637097358704 0.18341377377510071
0.86847579479217529 0.36774137616157532 0.21999093890190125
0.8853074312210083 0.37532103061676025 0.23144669830799103
0.89202547073364258 0.38138613104820251 0.23749946057796478
0.009809127077460289 0.20863960683345795 0.014853698201477528
0.026740998029708862 0.23847991228103638 0.019957777112722397
0.065845102071762085 0.25146782398223877 0.024332696571946144
0.17368699610233307 0.27396056056022644 0.036870948970317841
0.3126157820224762 0.29464095830917358 0.061409953981637955
0.4366302490234375 0.30973100662231445 0.07371782511472702
0.55003249645233154 0.33106192946434021 0.084105320274829865
0.65370380878448486 0.35661432147026062 0.11722367256879807
0.73945242166519165 0.38285166025161743 0.15164491534233093
0.80494076013565063 0.40173128247261047 0.18051426112651825
0.8613288402557373 0.41649696230888367 0.21587246656417847
0.88829171657562256 0.39763244986534119 0.22307044267654419
0.90048664808273315 0.41678974032402039 0.23689281940460205
0.0050124372355639935 0.30436784029006958 0.012975939549505711
0.016298884525895119 0.34277111291885376 0.018173068761825562
0.050729818642139435 0.34784650802612305 0.022619852796196938
0.14903181791305542 0.3701745867729187 0.031461767852306366
0.30594709515571594 0.39208632707595825 0.056097593158483505
0.43874445557594299 0.40529808402061462 0.074948221445083618
0.55218338966369629 0.41849923133850098 0.091761298477649689
0.65266323089599609 0.43370446562767029 0.11097102612257004
0.73327624797821045 0.45553052425384521 0.13891330361366272
0.78840357065200806 0.47521871328353882 0.17194588482379913
0.83321720361709595 0.48526662588119507 0.2019975334405899
0.86979848146438599 0.48221158981323242 0.22871313989162445
0.91150271892547607 0.51945489645004272 0.2758273184299469
0.0043468698859214783 0.37107875943183899 0.017086058855056763
0.011799636296927929 0.40527182817459106 0.019631074741482735
0.047930728644132614 0.42086738348007202 0.021872382611036301
0.14103913307189941 0.44365927577018738 0.032549943774938583
0.29321008920669556 0.47135671973228455 0.049434691667556763
0.42543849349021912 0.48461580276489258 0.073644541203975677
0.55534929037094116 0.49814578890800476 0.098217591643333435
0.64889240264892578 0.51781183481216431 0.12652750313282013
0.73193329572677612 0.53417080640792847 0.15305052697658539
0.79548013210296631 0.55362135171890259 0.18036527931690216
0.84012424945831299 0.56421208381652832 0.20981493592262268
0.86119824647903442 0.5707777738571167 0.23386991024017334
0.90140891075134277 0.60082483291625977 0.28350478410720825
0.007449041586369276 0.40269768238067627 0.030875472351908684
0.013144669122993946 0.43916124105453491 0.034493003040552139
0.037777334451675415 0.48938259482383728 0.057222731411457062
0.13418208062648773 0.48686990141868591 0.041961010545492172
0.29389670491218567 0.52404099702835083 0.051552101969718933
0.39132964611053467 0.54271459579467773 0.069918535649776459
0.55687183141708374 0.57065176963806152 0.11287417262792587
0.65167039632797241 0.58910161256790161 0.14510008692741394
0.74052935838699341 0.60374397039413452 0.1779397577047348
0.80951398611068726 0.62252378463745117 0.20026569068431854
0.84343969821929932 0.63082998991012573 0.21895115077495575
0.86635637283325195 0.6444326639175415 0.24851600825786591
0.90057855844497681 0.66494625806808472 0.29575824737548828
0.013052278198301792 0.44961938261985779 0.065709389746189117
0.017184209078550339 0.46197181940078735 0.049857854843139648
0.030253242701292038 0.53429162502288818 0.096281848847866058
0.11111000180244446 0.51578742265701294 0.066654354333877563
0.27794092893600464 0.54951471090316772 0.071305610239505768
0.38003218173980713 0.59217947721481323 0.095814287662506104
0.56123727560043335 0.63308906555175781 0.14056360721588135
0.66225570440292358 0.64310914278030396 0.16591081023216248
0.75623363256454468 0.65195560455322266 0.19735018908977509
0.82255113124847412 0.66091263294219971 0.21520113945007324
0.84823489189147949 0.66664671897888184 0.2343309074640274
0.87431389093399048 0.69363319873809814 0.27083256840705872
0.9012761116027832 0.71333473920822144 0.30744564533233643
0.01554291695356369 0.47609546780586243 0.084270298480987549
0.018219234421849251 0.46218284964561462 0.048385292291641235
0.033777020871639252 0.52680200338363647 0.0889473557472229
0.10368599742650986 0.56048905849456787 0.11639764904975891
0.27701678872108459 0.59215790033340454 0.11691185086965561
0.39766758680343628 0.62466591596603394 0.12680929899215698
0.55110394954681396 0.64681446552276611 0.15375575423240662
0.64845895767211914 0.65583556890487671 0.1672540158033371
0.73710387945175171 0.66485434770584106 0.19384591281414032
0.82155001163482666 0.67206090688705444 0.22122843563556671
0.865730881690979 0.693045973777771 0.26329508423805237
0.90055495500564575 0.72036254405975342 0.30633988976478577
0.92469877004623413 0.73900371789932251 0.33841308951377869
0.017755875363945961 0.4853217601776123 0.086850486695766449
0.022651297971606255 0.48410478234291077 0.064488202333450317
0.053237751126289368 0.62053847312927246 0.17656601965427399
0.097787328064441681 0.65484046936035156 0.20649696886539459
0.26034486293792725 0.65885049104690552 0.18449850380420685
0.40386861562728882 0.65662682056427002 0.15776988863945007
0.56876260042190552 0.67217868566513062 0.18458452820777893
0.64103043079376221 0.67747610807418823 0.19523262977600098
0.72149461507797241 0.68546414375305176 0.22212865948677063
0.82202506065368652 0.68550235033035278 0.23986896872520447
0.88812965154647827 0.72150665521621704 0.30313995480537415
0.92431885004043579 0.74428015947341919 0.34400281310081482
0.93236321210861206 0.74805939197540283 0.35117623209953308
0.024767991155385971 0.5240975022315979 0.086243018507957458
0.025116041302680969 0.52400273084640503 0.083645902574062347
0.058560360223054886 0.64954698085784912 0.20368033647537231
0.10041460394859314 0.6796802282333374 0.23273059725761414
0.25707954168319702 0.68630081415176392 0.21324898302555084
0.40752148628234863 0.69339799880981445 0.19624924659729004
0.5898202657699585 0.70129859447479248 0.21534962952136993
0.64004755020141602 0.70734834671020508 0.23307396471500397
0.72202408313751221 0.72068160772323608 0.26555284857749939
0.81565380096435547 0.72659009695053101 0.29774942994117737
0.86964356899261475 0.74451726675033569 0.33110055327415466
0.91953068971633911 0.75734835863113403 0.36104282736778259
0.93200314044952393 0.75897878408432007 0.36651632189750671
0.024728348478674889 0.52900415658950806 0.09085904061794281
0.023872734978795052 0.52607458829879761 0.085175611078739166
0.064779482781887054 0.65391713380813599 0.21054062247276306
0.099805958569049835 0.68311488628387451 0.23728497326374054
0.25818356871604919 0.69039535522460938 0.21808689832687378
0.40755584836006165 0.69974416494369507 0.20373977720737457
0.59275561571121216 0.71278667449951172 0.23150914907455444
0.61746209859848022 0.73847270011901855 0.27336767315864563
0.72721534967422485 0.75689196586608887 0.31264474987983704
0.82356852293014526 0.76824527978897095 0.35811430215835571
0.86847555637359619 0.78132688999176025 0.38460490107536316
0.91553252935409546 0.78535979986190796 0.4038090705871582
0.92809498310089111 0.78789752721786499 0.41222015023231506
0.0075183343142271042 0.015249992720782757 0.02363891527056694
0.02448006346821785 0.020931003615260124 0.026808122172951698
0.088725253939628601 0.034721855074167252 0.041227109730243683
0.1812824010848999 0.054631836712360382 0.06101347878575325
0.24981904029846191 0.068789012730121613 0.067655585706233978
0.3894616961479187 0.11099507659673691 0.097127281129360199
0.53609591722488403 0.15628166496753693 0.13671712577342987
0.65225517749786377 0.1905854344367981 0.17092014849185944
0.75302666425704956 0.22380605340003967 0.21098090708255768
0.79867130517959595 0.25035369396209717 0.2397703230381012
0.81849771738052368 0.26596328616142273 0.25119629502296448
0.83301621675491333 0.27892574667930603 0.26794001460075378
0.87772971391677856 0.31953614950180054 0.32553726434707642
0.011528613977134228 0.040778141468763351 0.036951117217540741
0.03895404189825058 0.047672197222709656 0.04132327064871788
0.093775443732738495 0.05984203889966011 0.050728920847177505
0.18256732821464539 0.078485928475856781 0.065327934920787811
0.27940842509269714 0.10008290410041809 0.077535323798656464
0.4055541455745697 0.13314695656299591 0.10335902869701385
0.53349369764328003 0.16043944656848907 0.13134443759918213
0.63849061727523804 0.19766367971897125 0.16142876446247101
0.732291579246521 0.23130953311920166 0.19494456052780151
0.79961633682250977 0.26152968406677246 0.23504675924777985
0.82604789733886719 0.27636784315109253 0.25003203749656677
0.86269968748092651 0.31274822354316711 0.28840184211730957
0.89646226167678833 0.34275016188621521 0.33753082156181335
0.015002456493675709 0.086234375834465027 0.045501753687858582
0.044345300644636154 0.08851979672908783 0.049734961241483688
0.092040330171585083 0.096253335475921631 0.055144935846328735
0.18499788641929626 0.116829514503479 0.068850845098495483
0.2987094521522522 0.14716510474681854 0.088736243546009064
0.41980230808258057 0.17348302900791168 0.11086317896842957
0.5412524938583374 0.19801172614097595 0.13376671075820923
0.64130967855453491 0.23170392215251923 0.16259010136127472
0.7300105094909668 0.26599618792533875 0.19420459866523743
0.8066868782043457 0.29635298252105713 0.22914090752601624
0.85653257369995117 0.31953346729278564 0.26699730753898621
0.881367027759552 0.34464263916015625 0.28677323460578918
0.90263265371322632 0.36241257190704346 0.32752954959869385
0.012595786713063717 0.14985501766204834 0.053506635129451752
0.041741974651813507 0.15690334141254425 0.055833283811807632
0.085903719067573547 0.16543567180633545 0.060883495956659317
0.18597456812858582 0.18195466697216034 0.074986189603805542
0.30539935827255249 0.20652931928634644 0.095181725919246674
0.42867833375930786 0.23200525343418121 0.11648345738649368
0.54989689588546753 0.25569590926170349 0.13549287617206573
0.65162432193756104 0.28755643963813782 0.16423405706882477
0.73596060276031494 0.32198774814605713 0.19418516755104065
0.81185358762741089 0.34834486246109009 0.22394402325153351
0.86728203296661377 0.36983159184455872 0.25579601526260376
0.88834333419799805 0.37795433402061462 0.27010148763656616
0.90913909673690796 0.39727860689163208 0.31200259923934937
0.007817242294549942 0.24529993534088135 0.053988095372915268
0.028244482353329659 0.25612547993659973 0.05617484450340271
0.069005228579044342 0.26192602515220642 0.063793465495109558
0.17305049300193787 0.2753695547580719 0.079997137188911438
0.30359029769897461 0.29412040114402771 0.10113854706287384
0.42919939756393433 0.31630203127861023 0.11892562359571457
0.55106401443481445 0.33899351954460144 0.13740059733390808
0.6595490574836731 0.36634913086891174 0.16707867383956909
0.74579429626464844 0.39786839485168457 0.19638738036155701
0.81576967239379883 0.42211493849754333 0.23063462972640991
0.87090611457824707 0.43380820751190186 0.26277855038642883
0.8973509669303894 0.43258869647979736 0.27111420035362244
0.91971689462661743 0.47104546427726746 0.30262342095375061
0.0046386569738388062 0.33689895272254944 0.045786358416080475
0.016916073858737946 0.36161664128303528 0.050813082605600357
0.049320429563522339 0.3660736083984375 0.06393878161907196
0.14353656768798828 0.37407034635543823 0.076460368931293488
0.28967246413230896 0.3893338143825531 0.096763014793395996
0.42970314621925354 0.40837696194648743 0.11701619625091553
0.55195397138595581 0.42697000503540039 0.13947147130966187
0.6609804630279541 0.44824478030204773 0.16813942790031433
0.74697208404541016 0.47157898545265198 0.19559040665626526
0.80677205324172974 0.48987618088722229 0.22256556153297424
0.86116510629653931 0.50524789094924927 0.25359469652175903
0.90688657760620117 0.52067261934280396 0.28325381875038147
0.92650246620178223 0.5488210916519165 0.3080323338508606
0.004606299102306366 0.39911296963691711 0.050469253212213516
0.011906403116881847 0.44368168711662292 0.04932258278131485
0.037397824227809906 0.45732602477073669 0.062119174748659134
0.12815733253955841 0.46197351813316345 0.072615683078765869
0.27547124028205872 0.47839769721031189 0.08951239287853241
0.41918087005615234 0.49410161375999451 0.11245720088481903
0.54553395509719849 0.50312656164169312 0.14061160385608673
0.6558537483215332 0.5236213207244873 0.17581969499588013
0.7407042384147644 0.5467839241027832 0.20311450958251953
0.81066429615020752 0.56546556949615479 0.2281329482793808
0.8648524284362793 0.57896161079406738 0.2621709406375885
0.89634066820144653 0.59006792306900024 0.28121289610862732
0.92218399047851562 0.61663675308227539 0.31267854571342468
0.0081609087064862251 0.48216277360916138 0.10197523236274719
0.014991012401878834 0.49559187889099121 0.062759831547737122
0.035622257739305496 0.5232776403427124 0.087209634482860565
0.11066356301307678 0.52996277809143066 0.08404126763343811
0.26346015930175781 0.54750639200210571 0.10004876554012299
0.39628785848617554 0.56620484590530396 0.11711341887712479
0.54407578706741333 0.58263128995895386 0.15385392308235168
0.65296739339828491 0.59731578826904297 0.18947699666023254
0.73843717575073242 0.61750257015228271 0.22017736732959747
0.80754971504211426 0.63344764709472656 0.23800279200077057
0.86832380294799805 0.65069371461868286 0.26987442374229431
0.90785658359527588 0.66365379095077515 0.30611428618431091
0.92825591564178467 0.68245571851730347 0.32976815104484558
0.018859084695577621 0.51818382740020752 0.10746312141418457
0.024116037413477898 0.53119689226150513 0.088992640376091003
0.031434211879968643 0.56956642866134644 0.12663789093494415
0.084805205464363098 0.57559323310852051 0.1243450716137886
0.24249979853630066 0.59760057926177979 0.13459557294845581
0.38326653838157654 0.61654484272003174 0.1330532431602478
0.54716199636459351 0.64332395792007446 0.16777630150318146
0.65780466794967651 0.65642082691192627 0.20026805996894836
0.74151962995529175 0.66628921031951904 0.23307594656944275
0.80991846323013306 0.68450045585632324 0.26294824481010437
0.86713671684265137 0.70515286922454834 0.28997054696083069
0.91299235820770264 0.71799004077911377 0.32502955198287964
0.94286566972732544 0.73435068130493164 0.35523778200149536
0.024217583239078522 0.53128856420516968 0.097266748547554016
0.028663920238614082 0.54378294944763184 0.099236585199832916
0.044906929135322571 0.61135011911392212 0.16508597135543823
0.085638634860515594 0.6425507664680481 0.19501490890979767
0.24745908379554749 0.65399354696273804 0.18461273610591888
0.39678284525871277 0.65855234861373901 0.16534192860126495
0.57499384880065918 0.68028372526168823 0.1960701048374176
0.65675783157348633 0.69014322757720947 0.21743409335613251
0.73739874362945557 0.69421273469924927 0.24430994689464569
0.81389433145523071 0.71145665645599365 0.27973824739456177
0.87083017826080322 0.7314143180847168 0.31715220212936401
0.92186486721038818 0.74631530046463013 0.34948533773422241
0.93596863746643066 0.75007903575897217 0.35919755697250366
0.023836592212319374 0.53833949565887451 0.11599122732877731
0.030375566333532333 0.54971063137054443 0.10483261942863464
0.056927476078271866 0.64654767513275146 0.19893480837345123
0.09579804539680481 0.67598098516464233 0.22823473811149597
0.25735759735107422 0.6859467625617981 0.2154109925031662
0.40577393770217896 0.69285374879837036 0.19911175966262817
0.59253823757171631 0.70390868186950684 0.22180461883544922
0.64941233396530151 0.71524250507354736 0.24993768334388733
0.72951602935791016 0.72503507137298584 0.27845004200935364
0.81658053398132324 0.73806726932525635 0.31470218300819397
0.8779902458190918 0.760822594165802 0.35716605186462402
0.92181766033172607 0.75815868377685547 0.36280789971351624
0.93248379230499268 0.75758033990859985 0.36442208290100098
0.017831943929195404 0.56048482656478882 0.20079433917999268
0.030031420290470123 0.55103927850723267 0.11021975427865982
0.064007192850112915 0.65869897603988647 0.21489962935447693
0.1080082431435585 0.69559073448181152 0.25797340273857117
0.24745002388954163 0.70336991548538208 0.24751543998718262
0.40063360333442688 0.70472407341003418 0.21988929808139801
0.5832105278968811 0.71563929319381714 0.24087876081466675
0.61398237943649292 0.73865008354187012 0.28068539500236511
0.72281783819198608 0.75217247009277344 0.3100566565990448
0.82064187526702881 0.76838678121566772 0.35911619663238525
0.86853325366973877 0.78367292881011963 0.38608056306838989
0.90902835130691528 0.79223018884658813 0.41080591082572937
0.92812561988830566 0.79367917776107788 0.42000594735145569
0.014097610488533974 0.57624894380569458 0.25673624873161316
0.030011959373950958 0.55803841352462769 0.13780280947685242
0.089973285794258118 0.681060791015625 0.25062918663024902
0.12592168152332306 0.71814441680908203 0.29472178220748901
0.23420645296573639 0.72272688150405884 0.291277676820755
0.39402765035629272 0.71985650062561035 0.26709869503974915
0.58452248573303223 0.71981000900268555 0.25129961967468262
0.60564982891082764 0.74536389112472534 0.28694906830787659
0.7206801176071167 0.76134985685348511 0.31785565614700317
0.81907302141189575 0.77560329437255859 0.36696839332580566
0.86951148509979248 0.78998482227325439 0.39681121706962585
0.91267639398574829 0.81596821546554565 0.44920182228088379
0.92476069927215576 0.82750040292739868 0.47332870960235596
0.0094085391610860825 0.028986478224396706 0.088415823876857758
0.040081307291984558 0.037890970706939697 0.091894678771495819
0.10796822607517242 0.054286494851112366 0.097029559314250946
0.21883943676948547 0.079223707318305969 0.12047138810157776
0.29654982686042786 0.10065498948097229 0.14079876244068146
0.414427250623703 0.14102032780647278 0.17660944163799286
0.54765230417251587 0.17710207402706146 0.21065649390220642
0.66375482082366943 0.2082507312297821 0.23970687389373779
0.75762796401977539 0.23364134132862091 0.25916889309883118
0.80462729930877686 0.25632479786872864 0.28244179487228394
0.82927274703979492 0.27409878373146057 0.29362967610359192
0.87085556983947754 0.30991867184638977 0.34233367443084717
0.92772191762924194 0.35658004879951477 0.41027280688285828
0.01600443571805954 0.058703567832708359 0.087424531579017639
0.050090894103050232 0.065359733998775482 0.093974046409130096
0.1079716831445694 0.079882465302944183 0.10672684013843536
0.19999328255653381 0.098615787923336029 0.12331096827983856
0.3050885796546936 0.12548990547657013 0.1456393301486969
0.42442852258682251 0.15771231055259705 0.17152267694473267
0.54436564445495605 0.18471628427505493 0.19674606621265411
0.65287208557128906 0.22055107355117798 0.22698169946670532
0.74507063627243042 0.25054013729095459 0.25133481621742249
0.81311571598052979 0.28068926930427551 0.28044146299362183
0.8581119179725647 0.30812650918960571 0.30827197432518005
0.8919299840927124 0.33616089820861816 0.34754335880279541
0.92416834831237793 0.36338391900062561 0.38758805394172668
0.019161298871040344 0.10807207971811295 0.10519256442785263
0.049636393785476685 0.10757205635309219 0.10514378547668457
0.10677076131105423 0.11742160469293594 0.11373823881149292
0.19748979806900024 0.14152878522872925 0.13288833200931549
0.30990225076675415 0.16629347205162048 0.15359470248222351
0.43054437637329102 0.19256554543972015 0.17801910638809204
0.54534941911697388 0.21798773109912872 0.1997227668762207
0.64787036180496216 0.25065717101097107 0.22434240579605103
0.73731088638305664 0.28507018089294434 0.25316837430000305
0.81436985731124878 0.31715729832649231 0.28537991642951965
0.87070333957672119 0.34225368499755859 0.32083937525749207
0.90275770425796509 0.35912185907363892 0.34670534729957581
0.9384763240814209 0.39282029867172241 0.39164823293685913
0.01403407659381628 0.17353558540344238 0.11966093629598618
0.041271254420280457 0.1785748302936554 0.11953423917293549
0.09439607709646225 0.18939122557640076 0.12703552842140198
0.19343137741088867 0.20576068758964539 0.14311867952346802
0.31051024794578552 0.2239440381526947 0.16150864958763123
0.43381020426750183 0.24930179119110107 0.18270251154899597
0.55212253332138062 0.27247589826583862 0.20243740081787109
0.65407800674438477 0.30073684453964233 0.22611901164054871
0.73789173364639282 0.33385062217712402 0.25384277105331421
0.81447386741638184 0.36291420459747314 0.28482571244239807
0.87936288118362427 0.38789302110671997 0.32309073209762573
0.92720866203308105 0.41406786441802979 0.36878529191017151
0.95275664329528809 0.43364214897155762 0.39988169074058533
0.0082218991592526436 0.25521785020828247 0.12676626443862915
0.028210628777742386 0.27072077989578247 0.12627170979976654
0.075518496334552765 0.28052079677581787 0.13432292640209198
0.17677028477191925 0.2919485867023468 0.14587168395519257
