assets/lut/fujixtransiii fuji xtrans iii pro neg hi.cube
# Created by: G'MIC (https://gmic.eu)
TITLE "fuji_xtrans_iii_pro_neg_hi"
# LUT size
LUT_3D_SIZE 5
# Data domain
DOMAIN_MIN 0.0 0.0 0.0
DOMAIN_MAX 1.0 1.0 1.0
# LUT data points
0.006800543051213026 0.0085451612249016762 0.0067884707823395729
0.16257201135158539 0.029885057359933853 0.020084066316485405
0.5222892165184021 0.12008726596832275 0.079240225255489349
0.77947479486465454 0.21655687689781189 0.18174540996551514
0.84087961912155151 0.2597406804561615 0.23417893052101135
0.0062694326043128967 0.15858842432498932 0.0061413785442709923
0.18184895813465118 0.18645238876342773 0.013327266089618206
0.54905241727828979 0.25216817855834961 0.044034533202648163
0.81937623023986816 0.32687503099441528 0.14351937174797058
0.91725844144821167 0.38064324855804443 0.21139635145664215
0.002542832400649786 0.4089323878288269 0.0010835087159648538
0.1174737960100174 0.47881194949150085 0
0.54565614461898804 0.50909388065338135 0.0066783083602786064
0.80507886409759521 0.55251622200012207 0.080812819302082062
0.92935198545455933 0.58968669176101685 0.21876862645149231
0.011315110139548779 0.50466233491897583 0.023002056404948235
0.088382765650749207 0.58942568302154541 0.052558418363332748
0.53119683265686035 0.65531939268112183 0.017859261482954025
0.82316780090332031 0.67006784677505493 0.10757137835025787
0.96170681715011597 0.73692530393600464 0.25081288814544678
0.016542142257094383 0.55813539028167725 0.022517245262861252
0.08916742354631424 0.7072259783744812 0.13770100474357605
0.55650246143341064 0.72697728872299194 0.1144360676407814
0.81632912158966064 0.77528393268585205 0.26134255528450012
0.95424789190292358 0.79233169555664062 0.31973806023597717
0.019438454881310463 0.046080481261014938 0.23002889752388
0.27273327112197876 0.095340803265571594 0.26643288135528564
0.55830520391464233 0.16854827105998993 0.36865893006324768
0.82457262277603149 0.25833109021186829 0.43002837896347046
0.98138582706451416 0.34043949842453003 0.53463912010192871
0.015421190299093723 0.20642398297786713 0.20499354600906372
0.20560626685619354 0.2367909848690033 0.21793784201145172
0.551727294921875 0.2899424135684967 0.28756338357925415
0.81796431541442871 0.36842742562294006 0.37169596552848816
0.99015909433364868 0.43795138597488403 0.45400351285934448
0.0068239998072385788 0.48979741334915161 0.17228077352046967
0.13091561198234558 0.51862972974777222 0.1614014059305191
0.51812940835952759 0.53846830129623413 0.22239884734153748
0.80913460254669189 0.57462090253829956 0.31165754795074463
0.98507469892501831 0.60023432970046997 0.3990752100944519
0.0048343883827328682 0.61743950843811035 0.33549809455871582
0.082403950393199921 0.71887868642807007 0.18961067497730255
0.47451108694076538 0.74245786666870117 0.2364887148141861
0.79226118326187134 0.75627470016479492 0.29045394062995911
0.97986781597137451 0.79927045106887817 0.3578580915927887
0.011938790790736675 0.68078321218490601 0.34463837742805481
0.11293210834264755 0.77572000026702881 0.27197912335395813
0.46390664577484131 0.79239571094512939 0.30361160635948181
0.78119087219238281 0.8271365761756897 0.37214362621307373
0.96839070320129395 0.85498321056365967 0.41977569460868835
0.16661718487739563 0.1356835812330246 0.66642725467681885
0.38754230737686157 0.16969418525695801 0.67338031530380249
0.61956429481506348 0.24573877453804016 0.68743348121643066
0.84022170305252075 0.32458320260047913 0.70291030406951904
0.99260485172271729 0.39507433772087097 0.73331904411315918
0.082462027668952942 0.30487087368965149 0.59777122735977173
0.32000619173049927 0.33935338258743286 0.61191362142562866
0.5849112868309021 0.37853920459747314 0.63703387975692749
0.83312302827835083 0.43523633480072021 0.6704334020614624
0.98842024803161621 0.48674330115318298 0.70853638648986816
0.036672718822956085 0.54492175579071045 0.54479837417602539
0.26375415921211243 0.55787056684494019 0.55504906177520752
0.55353164672851562 0.58295625448226929 0.57564568519592285
0.81110149621963501 0.60724693536758423 0.60061681270599365
0.9899667501449585 0.64207535982131958 0.64268171787261963
0.02607961930334568 0.73460966348648071 0.57145845890045166
0.15315940976142883 0.76124942302703857 0.49190101027488708
0.49955680966377258 0.77270233631134033 0.50853967666625977
0.79247486591339111 0.79078727960586548 0.54108446836471558
0.98256224393844604 0.83870804309844971 0.59836435317993164
0.043002814054489136 0.79444330930709839 0.61140733957290649
0.1602729856967926 0.82836580276489258 0.50090998411178589
0.45124983787536621 0.83792567253112793 0.5065428614616394
0.8287355899810791 0.87257570028305054 0.56065410375595093
0.98723697662353516 0.9244457483291626 0.6166345477104187
0.39096939563751221 0.15105815231800079 0.90801715850830078
0.52841854095458984 0.23171694576740265 0.91047078371047974
0.71460980176925659 0.30996093153953552 0.91911524534225464
0.88788998126983643 0.39436623454093933 0.9344172477722168
0.99579966068267822 0.47382786870002747 0.97458720207214355
0.22812402248382568 0.40890240669250488 0.90033227205276489
0.46843770146369934 0.44994023442268372 0.90659052133560181
0.65705960988998413 0.47924917936325073 0.91453635692596436
0.85313820838928223 0.51596271991729736 0.91964709758758545
0.99028629064559937 0.56222879886627197 0.94539707899093628
0.21157152950763702 0.60616421699523926 0.84365600347518921
0.43600219488143921 0.62790548801422119 0.8528180718421936
0.62952721118927002 0.63533657789230347 0.85643398761749268
0.83808159828186035 0.65936362743377686 0.86731976270675659
0.99309462308883667 0.69880402088165283 0.90026366710662842
0.16420531272888184 0.79031217098236084 0.79580110311508179
0.33964574337005615 0.79759675264358521 0.79515230655670166
0.57676035165786743 0.80540645122528076 0.80644261837005615
0.82305777072906494 0.82077300548553467 0.82337284088134766
0.99169450998306274 0.87087607383728027 0.86048156023025513
0.2008906751871109 0.87413793802261353 0.81758826971054077
0.29125532507896423 0.9022710919380188 0.81861484050750732
0.60276907682418823 0.91941916942596436 0.8442651629447937
0.85745996236801147 0.92514693737030029 0.8245549201965332
0.98677194118499756 0.95735359191894531 0.85641169548034668
0.59094387292861938 0.21024543046951294 0.99981796741485596
0.67237657308578491 0.29654300212860107 0.99687808752059937
0.81603747606277466 0.40708652138710022 0.99612569808959961
0.93952715396881104 0.5469125509262085 0.99694311618804932
0.99929547309875488 0.59680420160293579 0.99950194358825684
0.41827082633972168 0.47800090909004211 0.99582690000534058
0.6183505654335022 0.55648314952850342 0.99453866481781006
0.76862901449203491 0.59137237071990967 0.99371528625488281
0.91977709531784058 0.63782703876495361 0.99458390474319458
0.99828898906707764 0.63742178678512573 0.99996554851531982
0.22915448248386383 0.67774277925491333 0.99559080600738525
0.56275218725204468 0.71603721380233765 0.99423927068710327
0.73269325494766235 0.72359877824783325 0.99087393283843994
0.89611721038818359 0.74479234218597412 0.99696046113967896
0.9955553412437439 0.74006235599517822 1
0.3557472825050354 0.85446888208389282 0.99592006206512451
0.51858705282211304 0.8646082878112793 0.99462103843688965
0.69454085826873779 0.86938357353210449 0.99064230918884277
0.87672275304794312 0.88906466960906982 0.98954445123672485
0.99519431591033936 0.91185092926025391 0.99843168258666992
0.39591571688652039 0.94247329235076904 0.96133452653884888
0.44275555014610291 0.94012129306793213 0.9656643271446228
0.66887044906616211 0.94494104385375977 0.99195402860641479
0.90421891212463379 0.96424496173858643 0.99395638704299927
0.98975461721420288 0.98010742664337158 0.98296898603439331
