assets/lut/fujixtransiii fuji xtrans iii sepia.cube
# Created by: G'MIC (https://gmic.eu)
TITLE "fuji_xtrans_iii_sepia"
# LUT size
LUT_3D_SIZE 5
# Data domain
DOMAIN_MIN 0.0 0.0 0.0
DOMAIN_MAX 1.0 1.0 1.0
# LUT data points
0.06481461226940155 0.004897428210824728 0
0.15475256741046906 0.049296945333480835 0.0079581467434763908
0.32036575675010681 0.20250934362411499 0.12065133452415466
0.45898473262786865 0.33793589472770691 0.2535596489906311
0.5060734748840332 0.37829005718231201 0.2981572151184082
0.19158053398132324 0.082125551998615265 0.030324673280119896
0.27226513624191284 0.15783168375492096 0.086118780076503754
0.41029486060142517 0.29004499316215515 0.2082175612449646
0.53834825754165649 0.41111049056053162 0.33482640981674194
0.58664345741271973 0.45758834481239319 0.38250231742858887
0.3841589093208313 0.25976759195327759 0.17430908977985382
0.46634802222251892 0.34349510073661804 0.26149293780326843
0.57469141483306885 0.45554593205451965 0.37995055317878723
0.66963142156600952 0.54767662286758423 0.47040483355522156
0.7276577353477478 0.60343742370605469 0.52462393045425415
0.47140592336654663 0.3481597900390625 0.26361718773841858
0.54471206665039062 0.41967096924781799 0.33840838074684143
0.6710515022277832 0.55216813087463379 0.47503715753555298
0.75315457582473755 0.63057458400726318 0.55087077617645264
0.83303213119506836 0.70456242561340332 0.62230998277664185
0.51049935817718506 0.38868743181228638 0.30594536662101746
0.64553803205490112 0.51630520820617676 0.43747726082801819
0.72916483879089355 0.60156083106994629 0.51956439018249512
0.83453619480133057 0.70881319046020508 0.62698507308959961
0.88156706094741821 0.75054663419723511 0.66672325134277344
0.16259725391864777 0.051854316145181656 0.0086092632263898849
0.27090039849281311 0.15434965491294861 0.076984241604804993
0.39375150203704834 0.2750074565410614 0.18952959775924683
0.51603603363037109 0.39299285411834717 0.31219968199729919
0.59800738096237183 0.47258448600769043 0.3946760892868042
0.2762545645236969 0.16324484348297119 0.087088532745838165
0.34594157338142395 0.23046247661113739 0.1494642049074173
0.46112868189811707 0.34040215611457825 0.25734257698059082
0.57996374368667603 0.45631760358810425 0.37641146779060364
0.65708816051483154 0.53399580717086792 0.45477744936943054
0.47235891222953796 0.35248079895973206 0.26955732703208923
0.51783812046051025 0.39440086483955383 0.31443378329277039
0.62191873788833618 0.50050723552703857 0.42172527313232422
0.7097286581993103 0.58649349212646484 0.50672703981399536
0.77049779891967773 0.64373719692230225 0.56262171268463135
0.57323586940765381 0.44984424114227295 0.37111353874206543
0.65479743480682373 0.52648121118545532 0.44622290134429932
0.74035608768463135 0.61271029710769653 0.53065425157546997
0.82727456092834473 0.70015788078308105 0.6193622350692749
0.89869701862335205 0.76542550325393677 0.68291646242141724
0.62196135520935059 0.49706417322158813 0.41623327136039734
0.70746892690658569 0.5773167610168457 0.49359562993049622
0.78468191623687744 0.65102416276931763 0.56696623563766479
0.87417960166931152 0.74192541837692261 0.65852516889572144
0.93739485740661621 0.80210983753204346 0.717967689037323
0.31212082505226135 0.21974822878837585 0.15730321407318115
0.39355486631393433 0.28628727793693542 0.2121308296918869
0.48830351233482361 0.37054067850112915 0.28838050365447998
0.59182059764862061 0.46996587514877319 0.38970300555229187
0.67513537406921387 0.55064576864242554 0.46981242299079895
0.40807303786277771 0.29135039448738098 0.20846456289291382
0.47115349769592285 0.35274440050125122 0.2699849009513855
0.5588148832321167 0.43859460949897766 0.3587270975112915
0.65706777572631836 0.53468257188796997 0.45690298080444336
0.72319960594177246 0.59869199991226196 0.51867294311523438
0.57234829664230347 0.45097339153289795 0.37178078293800354
0.60483086109161377 0.48267844319343567 0.40165653824806213
0.68446773290634155 0.56167161464691162 0.48328810930252075
0.76106733083724976 0.63675165176391602 0.55835187435150146
0.82803404331207275 0.70113718509674072 0.62005996704101562
0.70227408409118652 0.58115893602371216 0.50102382898330688
0.73412030935287476 0.60606509447097778 0.52353084087371826
0.8085823655128479 0.67595034837722778 0.59237730503082275
0.87285840511322021 0.74194169044494629 0.65962368249893188
0.95221102237701416 0.81859487295150757 0.73452281951904297
0.74849623441696167 0.6217847466468811 0.54049330949783325
0.78348952531814575 0.64955788850784302 0.56531769037246704
0.8394579291343689 0.7028384804725647 0.61754363775253296
0.93944120407104492 0.79957109689712524 0.71569287776947021
0.99189072847366333 0.86452585458755493 0.77951347827911377
0.46161761879920959 0.36543890833854675 0.31103277206420898
0.52198141813278198 0.41728335618972778 0.35469713807106018
0.60720938444137573 0.49083396792411804 0.42088139057159424
0.68916124105453491 0.5681338906288147 0.49117535352706909
0.76265895366668701 0.63864314556121826 0.55926042795181274
0.55041676759719849 0.43043416738510132 0.35703405737876892
0.61062490940093994 0.49251845479011536 0.41839143633842468
0.66389411687850952 0.54217731952667236 0.46366751194000244
0.73733276128768921 0.61335033178329468 0.53492867946624756
0.79754972457885742 0.67112302780151367 0.59130555391311646
0.67468887567520142 0.55149632692337036 0.47268107533454895
0.7062910795211792 0.58191072940826416 0.50178545713424683
0.75317859649658203 0.62720805406570435 0.54689747095108032
0.82020473480224609 0.69368767738342285 0.6144481897354126
0.88678079843521118 0.75545310974121094 0.67563712596893311
0.79966455698013306 0.67182570695877075 0.59029883146286011
0.81657689809799194 0.68387413024902344 0.60014402866363525
0.86691641807556152 0.7313079833984375 0.64623868465423584
0.92007350921630859 0.78801482915878296 0.7058025598526001
0.98574948310852051 0.87057411670684814 0.78824210166931152
0.84928596019744873 0.71504098176956177 0.63243371248245239
0.88955628871917725 0.74996668100357056 0.66404515504837036
0.9590875506401062 0.81328314542770386 0.72518712282180786
0.9950568675994873 0.86875432729721069 0.78296232223510742
0.99827510118484497 0.91370707750320435 0.83120167255401611
0.60247856378555298 0.4864506721496582 0.41647079586982727
0.65098786354064941 0.53249251842498779 0.45693123340606689
0.72618043422698975 0.60255837440490723 0.52708148956298828
0.79636615514755249 0.67156732082366943 0.59256887435913086
0.83859437704086304 0.71137940883636475 0.62923943996429443
0.67851120233535767 0.55835497379302979 0.48302575945854187
0.73422390222549438 0.61111992597579956 0.53143292665481567
0.7788880467414856 0.65391957759857178 0.57438498735427856
0.83005768060684204 0.70467311143875122 0.62297630310058594
0.86815446615219116 0.73906487226486206 0.65620821714401245
0.76754683256149292 0.64564818143844604 0.56563425064086914
0.80496883392333984 0.67721641063690186 0.59366631507873535
0.84515362977981567 0.71728700399398804 0.63267183303833008
0.89891308546066284 0.77179914712905884 0.68729031085968018
0.95251309871673584 0.81772834062576294 0.73395323753356934
0.87547761201858521 0.74153828620910645 0.65645170211791992
0.90419846773147583 0.76544559001922607 0.67683643102645874
0.93650591373443604 0.80481564998626709 0.7146378755569458
0.9761013388633728 0.85691660642623901 0.77057462930679321
0.99544030427932739 0.90276128053665161 0.82366538047790527
0.93856179714202881 0.79476886987686157 0.70507353544235229
0.93562716245651245 0.7937200665473938 0.70700603723526001
0.99436330795288086 0.8560478687286377 0.76932090520858765
0.99607843160629272 0.89889985322952271 0.81493085622787476
1 0.94372296333312988 0.86838001012802124
