assets/lut/fujixtransiii fuji xtrans iii pro neg hi.cube
# Created by: G'MIC (https://gmic.eu)
TITLE "fuji_xtrans_iii_pro_neg_hi"
# LUT size
LUT_3D_SIZE 13
# Data domain
DOMAIN_MIN 0.0 0.0 0.0
DOMAIN_MAX 1.0 1.0 1.0
# LUT data points
0.006800543051213026 0.0085451612249016762 0.0067884707823395729
0.021615585312247276 0.011255885474383831 0.0081886593252420425
0.073961608111858368 0.017451446503400803 0.012238416820764542
0.16257201135158539 0.029885057359933853 0.020084066316485405
0.2822871208190918 0.049616482108831406 0.028631381690502167
0.40819764137268066 0.082195520401000977 0.048743229359388351
0.5222892165184021 0.12008726596832275 0.079240225255489349
0.64659613370895386 0.16468493640422821 0.12216009944677353
0.72480154037475586 0.19205112755298615 0.15788550674915314
0.77947479486465454 0.21655687689781189 0.18174540996551514
0.81003201007843018 0.23549994826316833 0.19494630396366119
0.82716572284698486 0.24821071326732635 0.22382605075836182
0.84087961912155151 0.2597406804561615 0.23417893052101135
0.0074790655635297298 0.025638729333877563 0.0085819168016314507
0.024666311219334602 0.036044761538505554 0.011762522161006927
0.079506784677505493 0.044725559651851654 0.01599782332777977
0.1687152236700058 0.062058497220277786 0.023470904678106308
0.28651991486549377 0.085330769419670105 0.032139722257852554
0.41488006711006165 0.1119062528014183 0.048435285687446594
0.53597217798233032 0.13666938245296478 0.076535500586032867
0.64544087648391724 0.17583036422729492 0.11361949890851974
0.73111742734909058 0.20281530916690826 0.14756025373935699
0.797504723072052 0.23221400380134583 0.18065144121646881
0.82589006423950195 0.25190389156341553 0.19115553796291351
0.84116756916046143 0.26535668969154358 0.21223889291286469
0.87843400239944458 0.30437076091766357 0.2483011931180954
0.0056471130810678005 0.067261636257171631 0.0086659304797649384
0.021553833037614822 0.080480284988880157 0.0091370074078440666
0.08438892662525177 0.084461629390716553 0.011983743868768215
0.17812532186508179 0.10507314652204514 0.020602865144610405
0.29696163535118103 0.12590555846691132 0.032194729894399643
0.42819848656654358 0.15465207397937775 0.040109716355800629
0.54442858695983887 0.18052738904953003 0.062246046960353851
0.6477501392364502 0.21168336272239685 0.098811879754066467
0.73977494239807129 0.24121004343032837 0.13206939399242401
0.80872261524200439 0.26810067892074585 0.16280053555965424
0.84627121686935425 0.2870069146156311 0.18654537200927734
0.87748128175735474 0.31992504000663757 0.21258094906806946
0.90771329402923584 0.35848790407180786 0.23332221806049347
0.0062694326043128967 0.15858842432498932 0.0061413785442709923
0.023276085034012794 0.16322943568229675 0.0062514510937035084
0.073976941406726837 0.15845511853694916 0.0061971326358616352
0.18184895813465118 0.18645238876342773 0.013327266089618206
0.3031458854675293 0.20411977171897888 0.021284859627485275
0.43347501754760742 0.22739586234092712 0.028540845960378647
0.54905241727828979 0.25216817855834961 0.044034533202648163
0.64593106508255005 0.28313997387886047 0.074021853506565094
0.73677307367324829 0.3079039454460144 0.10778195410966873
0.81937623023986816 0.32687503099441528 0.14351937174797058
0.8903656005859375 0.36344832181930542 0.19229564070701599
0.90889382362365723 0.37579840421676636 0.20324595272541046
0.91725844144821167 0.38064324855804443 0.21139635145664215
0.0060691982507705688 0.24665553867816925 0.0029758976306766272
0.020531509071588516 0.26995036005973816 0.0029801761265844107
0.054156899452209473 0.27693554759025574 0.0022201687097549438
0.16478841006755829 0.29499721527099609 0.0044913794845342636
0.30512750148773193 0.30742326378822327 0.0065989773720502853
0.43941327929496765 0.32107046246528625 0.012409105896949768
0.54995489120483398 0.34393146634101868 0.030943851917982101
0.64183789491653442 0.36537313461303711 0.047777693718671799
0.72835266590118408 0.38338318467140198 0.079368457198143005
0.81234627962112427 0.39924642443656921 0.12221190333366394
0.87907671928405762 0.41611611843109131 0.16838383674621582
0.91217571496963501 0.4000343382358551 0.18804991245269775
0.92907023429870605 0.41459640860557556 0.20263837277889252
0.0020010105799883604 0.33730337023735046 0.00023869532742537558
0.012557549402117729 0.3789273202419281 0.00036568735959008336
0.03758615255355835 0.37999656796455383 0.00025814279797486961
0.12715049088001251 0.40129232406616211 0.00036977132549509406
0.29433983564376831 0.4159514307975769 0.0026628831401467323
0.43602281808853149 0.41732195019721985 0.0074719446711242199
0.54839396476745605 0.42814487218856812 0.01397883053869009
0.64154607057571411 0.44431990385055542 0.022154055535793304
0.72465348243713379 0.46056166291236877 0.053989920765161514
0.8038678765296936 0.47811707854270935 0.10225410014390945
0.84787958860397339 0.48670175671577454 0.13249631226062775
0.8937494158744812 0.48025190830230713 0.1746971607208252
0.94535017013549805 0.51197296380996704 0.23144462704658508
0.002542832400649786 0.4089323878288269 0.0010835087159648538
0.0087332930415868759 0.44301575422286987 0.0002653533301781863
0.037339020520448685 0.45680633187294006 0.00010483685764484107
0.1174737960100174 0.47881194949150085 0
0.27814850211143494 0.49538826942443848 0.00045188455260358751
0.41756749153137207 0.49728375673294067 0.0047859791666269302
0.54565614461898804 0.50909388065338135 0.0066783083602786064
0.63712948560714722 0.52342194318771362 0.011923801153898239
0.72605413198471069 0.53927206993103027 0.039506576955318451
0.80507886409759521 0.55251622200012207 0.080812819302082062
0.85547131299972534 0.56324642896652222 0.12611876428127289
0.88069361448287964 0.57041627168655396 0.15397392213344574
0.92935198545455933 0.58968669176101685 0.21876862645149231
0.0056591406464576721 0.43785962462425232 0.0039011486805975437
0.0092367138713598251 0.4733491837978363 0.0028157401829957962
0.028905965387821198 0.52046012878417969 0.0042781904339790344
0.12353687733411789 0.51815837621688843 0.00087829289259389043
0.29071444272994995 0.54825496673583984 0.00059750129003077745
0.3773549497127533 0.55608600378036499 0.00091347785200923681
0.53467482328414917 0.57913070917129517 0.0042141932062804699
0.63123410940170288 0.59652626514434814 0.015080680139362812
0.73323804140090942 0.6073991060256958 0.042012203484773636
0.81424152851104736 0.62079238891601562 0.087122946977615356
0.85890752077102661 0.62032532691955566 0.12594936788082123
0.88941174745559692 0.63776737451553345 0.16530978679656982
0.93031156063079834 0.65483957529067993 0.22175118327140808
0.009308280423283577 0.47770339250564575 0.013378352858126163
0.01159483939409256 0.49258622527122498 0.0043821148574352264
0.025574015453457832 0.56525158882141113 0.011246071197092533
0.097496464848518372 0.54021161794662476 0.0040970146656036377
0.26213040947914124 0.56806379556655884 0.0037404079921543598
0.37136217951774597 0.60231423377990723 0.0056403367780148983
0.54439282417297363 0.64248752593994141 0.01015020627528429
0.64004480838775635 0.64801532030105591 0.026621365919709206
0.74382507801055908 0.65087246894836426 0.058321516960859299
0.82142096757888794 0.66113513708114624 0.098001040518283844
0.86352932453155518 0.66727465391159058 0.13664805889129639
0.89294236898422241 0.68899244070053101 0.17957821488380432
0.92914390563964844 0.71131992340087891 0.21970486640930176
0.011315110139548779 0.50466233491897583 0.023002056404948235
0.012634008191525936 0.49501517415046692 0.0053647956810891628
0.027763396501541138 0.55480873584747314 0.023909430950880051
0.088382765650749207 0.58942568302154541 0.052558418363332748
0.26076596975326538 0.61168843507766724 0.029288467019796371
0.38633477687835693 0.63995659351348877 0.013878033496439457
0.53119683265686035 0.65531939268112183 0.017859261482954025
0.62423479557037354 0.65996891260147095 0.029984641820192337
0.72296756505966187 0.66496199369430542 0.063747435808181763
0.82316780090332031 0.67006784677505493 0.10757137835025787
0.87840187549591064 0.68858200311660767 0.16129864752292633
0.92869120836257935 0.71779519319534302 0.21778185665607452
0.96170681715011597 0.73692530393600464 0.25081288814544678
0.011394171975553036 0.51166367530822754 0.029409671202301979
0.014988738112151623 0.50622320175170898 0.014850107952952385
0.044204413890838623 0.64863526821136475 0.095722302794456482
0.087586842477321625 0.68131458759307861 0.11693844944238663
0.24087142944335938 0.67681878805160522 0.077571183443069458
0.38335421681404114 0.67584854364395142 0.03848615288734436
0.54497617483139038 0.68486565351486206 0.056526005268096924
0.6190912127494812 0.68633311986923218 0.072676114737987518
0.70701378583908081 0.69033992290496826 0.10402859002351761
0.82603830099105835 0.6825181245803833 0.13105872273445129
0.90737044811248779 0.71518737077713013 0.20492814481258392
0.95613038539886475 0.74148458242416382 0.25512611865997314
0.96926259994506836 0.74586004018783569 0.2648540735244751
0.015558519400656223 0.54243844747543335 0.017379520460963249
0.018254432827234268 0.54839348793029785 0.022164229303598404
0.04962698370218277 0.67420679330825806 0.11148235946893692
0.08938492089509964 0.70425432920455933 0.13391943275928497
0.23610995709896088 0.70459890365600586 0.096000954508781433
0.37706351280212402 0.71140336990356445 0.067459747195243835
0.56314384937286377 0.71719014644622803 0.098905883729457855
0.60960865020751953 0.72119230031967163 0.11899023503065109
0.69758856296539307 0.73176854848861694 0.15650902688503265
0.81358629465103149 0.73062598705291748 0.19346579909324646
0.87982618808746338 0.74554330110549927 0.23318257927894592
0.94338738918304443 0.75704210996627808 0.27038705348968506
0.96341210603713989 0.75934559106826782 0.28096300363540649
0.016542142257094383 0.55813539028167725 0.022517245262861252
0.019161822274327278 0.56046712398529053 0.024110771715641022
0.051247704774141312 0.67825251817703247 0.11510102450847626
0.08916742354631424 0.7072259783744812 0.13770100474357605
0.23861683905124664 0.71181690692901611 0.10322210192680359
0.3745332658290863 0.71840089559555054 0.075485199689865112
0.55650246143341064 0.72697728872299194 0.1144360676407814
0.57939106225967407 0.75455743074417114 0.16609096527099609
0.70408231019973755 0.76659071445465088 0.21005524694919586
0.81632912158966064 0.77528393268585205 0.26134255528450012
0.87235039472579956 0.78597623109817505 0.28636947274208069
0.93092000484466553 0.78851401805877686 0.30686283111572266
0.95424789190292358 0.79233169555664062 0.31973806023597717
0.0067975958809256554 0.011703565716743469 0.02553284540772438
0.020980790257453918 0.015683820471167564 0.02706533670425415
0.080024853348731995 0.02767251618206501 0.040062699466943741
0.16473732888698578 0.043376639485359192 0.058245550841093063
0.24023348093032837 0.055857475847005844 0.066102288663387299
0.39059507846832275 0.0958113893866539 0.091234348714351654
0.53572237491607666 0.13668815791606903 0.12725308537483215
0.6527019739151001 0.17117896676063538 0.16864611208438873
0.76124715805053711 0.20278751850128174 0.22354221343994141
0.81047779321670532 0.22900556027889252 0.25609076023101807
0.82867932319641113 0.24400325119495392 0.26124519109725952
0.84121119976043701 0.25518146157264709 0.27605220675468445
0.89573633670806885 0.29887539148330688 0.34449252486228943
0.010253741405904293 0.03658028319478035 0.033612120896577835
0.029811201617121696 0.037246435880661011 0.035083547234535217
0.086884409189224243 0.050140410661697388 0.045152433216571808
0.16677755117416382 0.066799849271774292 0.058545101433992386
0.25800645351409912 0.085832469165325165 0.07355518639087677
0.40590241551399231 0.12010191380977631 0.097658358514308929
0.53657358884811401 0.14385026693344116 0.12169521301984787
0.64265662431716919 0.17946963012218475 0.15796287357807159
0.7396240234375 0.21009299159049988 0.19371242821216583
0.81073856353759766 0.24093945324420929 0.2358814924955368
0.83976715803146362 0.26089257001876831 0.25525078177452087
0.87827903032302856 0.2949778139591217 0.3000580370426178
0.91976737976074219 0.32643440365791321 0.35574668645858765
0.0083120306953787804 0.079397223889827728 0.037727102637290955
0.03059856966137886 0.092387780547142029 0.038070276379585266
0.085743695497512817 0.098410584032535553 0.0444931760430336
0.17940138280391693 0.11477342247962952 0.056783206760883331
0.29577749967575073 0.13427124917507172 0.079720467329025269
0.4238114058971405 0.16134703159332275 0.097067318856716156
0.54540407657623291 0.18728886544704437 0.11408179998397827
0.64709752798080444 0.21307143568992615 0.14332114160060883
0.73830801248550415 0.24628406763076782 0.17674723267555237
0.81365525722503662 0.27632468938827515 0.21508252620697021
0.86965042352676392 0.30634137988090515 0.26485726237297058
0.90338397026062012 0.33582288026809692 0.29150605201721191
0.92893111705780029 0.35042938590049744 0.33778509497642517
0.0066664451733231544 0.16072222590446472 0.030185339972376823
0.024153571575880051 0.16678714752197266 0.028691057115793228
0.072331927716732025 0.17804449796676636 0.029490062966942787
0.17683877050876617 0.19739502668380737 0.042041316628456116
0.29997152090072632 0.21483193337917328 0.05785663053393364
0.43508672714233398 0.23506723344326019 0.076748281717300415
0.5530669093132019 0.25815004110336304 0.094859853386878967
0.64454919099807739 0.28799253702163696 0.1200127974152565
0.73202550411224365 0.31586810946464539 0.15461602807044983
0.81621021032333374 0.34025582671165466 0.19889120757579803
0.88510489463806152 0.3631819486618042 0.23974119126796722
0.91033482551574707 0.37424728274345398 0.25600281357765198
0.93728780746459961 0.3878624439239502 0.30602920055389404
0.0049822786822915077 0.26467984914779663 0.016374386847019196
0.017453990876674652 0.27196192741394043 0.016806390136480331
0.053327746689319611 0.28266161680221558 0.014765825122594833
0.16300971806049347 0.29687580466270447 0.019578596577048302
0.29870873689651489 0.31245288252830505 0.029764391481876373
0.43672773241996765 0.330975741147995 0.047418169677257538
0.5511932373046875 0.35156148672103882 0.062295936048030853
0.64232331514358521 0.37466546893119812 0.09185173362493515
0.72532671689987183 0.39462125301361084 0.13367336988449097
0.81068706512451172 0.41381564736366272 0.17979133129119873
0.88541758060455322 0.42888984084129333 0.22141969203948975
0.91999822854995728 0.43560826778411865 0.24036963284015656
0.9539448618888855 0.46520769596099854 0.27865678071975708
0.002785910852253437 0.37540748715400696 0.008246702142059803
0.014685357920825481 0.39167067408561707 0.0099822999909520149
0.041491936892271042 0.3977510929107666 0.0090631674975156784
0.12573489546775818 0.40463560819625854 0.0078150434419512749
0.28477644920349121 0.41255509853363037 0.01503460481762886
0.42646557092666626 0.42563739418983459 0.029914826154708862
0.54262202978134155 0.44172081351280212 0.042380239814519882
0.64040344953536987 0.4586208164691925 0.067552901804447174
0.72107857465744019 0.47212636470794678 0.11073187738656998
0.79914861917495728 0.48687559366226196 0.15417993068695068
0.87097233533859253 0.50242757797241211 0.19620069861412048
0.93989044427871704 0.52000218629837036 0.24300140142440796
0.96516603231430054 0.5452924370765686 0.26454737782478333
0.0037668563891202211 0.43631291389465332 0.011517962440848351
0.011250843293964863 0.47569695115089417 0.0078081316314637661
0.039190780371427536 0.48831796646118164 0.0069012809544801712
0.10906735807657242 0.49030569195747375 0.0055532120168209076
0.2649330198764801 0.50295597314834595 0.011267762631177902
0.40983879566192627 0.51177060604095459 0.019329311326146126
0.5343894362449646 0.51848483085632324 0.031129127368330956
0.63736104965209961 0.53433686494827271 0.052943974733352661
0.72337883710861206 0.54651349782943726 0.094471096992492676
0.80568557977676392 0.55857038497924805 0.14188437163829803
0.87846910953521729 0.57147121429443359 0.19325713813304901
0.9307863712310791 0.5843578577041626 0.22708708047866821
0.96228474378585815 0.60177028179168701 0.25968250632286072
0.0063900216482579708 0.51086187362670898 0.039029035717248917
0.012661234475672245 0.53223425149917603 0.01038722600787878
0.03068624809384346 0.55458474159240723 0.01124414149671793
0.099490039050579071 0.55402088165283203 0.010906354524195194
0.25625160336494446 0.56484168767929077 0.011327915824949741
0.38418501615524292 0.57859247922897339 0.012961803004145622
0.52408963441848755 0.5907973051071167 0.025861673057079315
0.6322171688079834 0.60488396883010864 0.054114442318677902
0.72572493553161621 0.61675512790679932 0.093430131673812866
0.80547499656677246 0.62978059053421021 0.13480459153652191
0.88362890481948853 0.64146542549133301 0.19138902425765991
0.94062513113021851 0.65445739030838013 0.23832379281520844
0.96300947666168213 0.67051404714584351 0.2628537118434906
0.012590968981385231 0.54611372947692871 0.029281122609972954
0.01653473824262619 0.56261050701141357 0.012087968178093433
0.027447599917650223 0.5938912034034729 0.023214183747768402
0.072122134268283844 0.59878867864608765 0.023749586194753647
0.22941632568836212 0.61270493268966675 0.026306137442588806
0.37199461460113525 0.62928444147109985 0.021631024777889252
0.5251765251159668 0.65555965900421143 0.034282386302947998
0.6329658031463623 0.66454845666885376 0.071490161120891571
0.72672790288925171 0.66665315628051758 0.11135441064834595
0.80617678165435791 0.68523263931274414 0.15170815587043762
0.88126623630523682 0.7011878490447998 0.19588640332221985
0.94111102819442749 0.71306729316711426 0.2399599552154541
0.96552902460098267 0.73002868890762329 0.26952242851257324
0.015896262601017952 0.55669385194778442 0.022020092234015465
0.019136540591716766 0.56896167993545532 0.014404132030904293
0.03753376379609108 0.64030259847640991 0.072948887944221497
0.076749540865421295 0.67206358909606934 0.096869267523288727
0.23391692340373993 0.67388594150543213 0.072822257876396179
0.37558579444885254 0.67759865522384644 0.046318352222442627
0.54733484983444214 0.69245409965515137 0.069077886641025543
0.62776243686676025 0.70018678903579712 0.095786392688751221
0.71838098764419556 0.69927763938903809 0.13177822530269623
0.80840218067169189 0.71677929162979126 0.18047362565994263
0.88189208507537842 0.73123383522033691 0.22092251479625702
0.9517751932144165 0.74361687898635864 0.25897961854934692
0.96883499622344971 0.74671941995620728 0.26923081278800964
0.016213675960898399 0.56323564052581787 0.040499966591596603
0.02195434644818306 0.57650721073150635 0.022852221503853798
0.04766387864947319 0.67515856027603149 0.10565333813428879
0.086559638381004333 0.70217454433441162 0.13094606995582581
0.23249590396881104 0.70633041858673096 0.10326901823282242
0.37361246347427368 0.71121913194656372 0.070418022572994232
0.55902743339538574 0.72027432918548584 0.1043083518743515
0.6096503734588623 0.73406332731246948 0.13877229392528534
0.69877761602401733 0.74052888154983521 0.17589980363845825
0.81001573801040649 0.7460445761680603 0.21952404081821442
0.89531898498535156 0.76091349124908447 0.26252409815788269
0.95344322919845581 0.75754070281982422 0.27484878897666931
0.97018355131149292 0.7570379376411438 0.2792280912399292
0.012934471480548382 0.58192574977874756 0.13298043608665466
0.0223885178565979 0.5772092342376709 0.029060887172818184
0.053398266434669495 0.68493539094924927 0.11936069279909134
0.089580073952674866 0.72186625003814697 0.16107973456382751
0.2231120765209198 0.72440081834793091 0.1354156881570816
0.3714635968208313 0.72389137744903564 0.093443915247917175
0.54826295375823975 0.73122102022171021 0.12654289603233337
0.57497727870941162 0.75626760721206665 0.17474156618118286
0.70093280076980591 0.76720243692398071 0.20897847414016724
0.81667947769165039 0.77512377500534058 0.25817376375198364
0.8789362907409668 0.78538036346435547 0.28581809997558594
0.93165743350982666 0.79633522033691406 0.31712791323661804
0.95787447690963745 0.79643481969833374 0.32786145806312561
0.010605860501527786 0.59517484903335571 0.19986516237258911
0.021978085860610008 0.58351361751556396 0.057814266532659531
0.070694908499717712 0.70760852098464966 0.15509963035583496
0.10598496347665787 0.74813073873519897 0.20546658337116241
0.20413278043270111 0.7494361400604248 0.19538268446922302
0.36121648550033569 0.74125659465789795 0.15586236119270325
0.547707200050354 0.73611652851104736 0.14065636694431305
0.56566959619522095 0.76493418216705322 0.18780021369457245
0.69821584224700928 0.77472281455993652 0.21664537489414215
0.81278306245803833 0.78408145904541016 0.2668609619140625
0.87916940450668335 0.79607832431793213 0.29923272132873535
0.93285322189331055 0.82285720109939575 0.35216039419174194
0.95083439350128174 0.83472102880477905 0.37626025080680847
0.0089320316910743713 0.01986256055533886 0.10119064897298813
0.038656227290630341 0.029465857893228531 0.10018057376146317
0.10241957753896713 0.044601544737815857 0.10637535899877548
0.20747283101081848 0.064415797591209412 0.13169975578784943
0.29089519381523132 0.087921351194381714 0.16224640607833862
0.41678521037101746 0.1210315153002739 0.19384142756462097
0.54368215799331665 0.15288630127906799 0.22492644190788269
0.65906113386154175 0.18336513638496399 0.26211583614349365
0.75956004858016968 0.20870469510555267 0.28956407308578491
0.81477624177932739 0.23175089061260223 0.3050040602684021
0.84277826547622681 0.2504132091999054 0.31969958543777466
0.89186078310012817 0.28949195146560669 0.37909457087516785
0.95994651317596436 0.33754795789718628 0.45514276623725891
0.015780715271830559 0.052395045757293701 0.093617595732212067
0.04541860893368721 0.057969335466623306 0.10041683167219162
0.10276474058628082 0.068153217434883118 0.10863439738750458
0.20025685429573059 0.086955860257148743 0.12992501258850098
0.30714285373687744 0.11346197873353958 0.16106538474559784
0.42565339803695679 0.13674157857894897 0.18184101581573486
0.54150450229644775 0.16036595404148102 0.20380966365337372
0.64744484424591064 0.19675138592720032 0.23825232684612274
0.74647814035415649 0.22660109400749207 0.26662448048591614
0.82175731658935547 0.26116445660591125 0.29552930593490601
0.87488460540771484 0.2920474112033844 0.32708674669265747
0.91381180286407471 0.32003962993621826 0.37302759289741516
0.95524036884307861 0.34776365756988525 0.41887298226356506
0.014315556734800339 0.098858088254928589 0.10600191354751587
0.044831354171037674 0.10955041646957397 0.10696277767419815
0.10107485949993134 0.12064309418201447 0.11033333837985992
0.19471724331378937 0.13228030502796173 0.12716028094291687
0.31267544627189636 0.15521959960460663 0.15413239598274231
0.43322139978408813 0.17846532166004181 0.17262712121009827
0.54644608497619629 0.20159575343132019 0.19220727682113647
0.64583402872085571 0.23099002242088318 0.22821573913097382
0.73761165142059326 0.26444697380065918 0.25873750448226929
0.81987458467483521 0.2984764575958252 0.28989985585212708
0.88617110252380371 0.32933124899864197 0.33040180802345276
0.93030744791030884 0.34581023454666138 0.3650364875793457
0.96459066867828369 0.37038400769233704 0.41429707407951355
0.011305117048323154 0.1777990311384201 0.10234422981739044
0.036440305411815643 0.18509452044963837 0.10019324719905853
0.085573814809322357 0.19305838644504547 0.09593094140291214
0.18781459331512451 0.21151779592037201 0.1079113557934761
0.30997678637504578 0.23191536962985992 0.12711243331432343
0.43729954957962036 0.2482769638299942 0.14891283214092255
0.55145680904388428 0.26669743657112122 0.17111830413341522
0.64265042543411255 0.29826924204826355 0.20356924831867218
0.73088341951370239 0.32804495096206665 0.2368282675743103
0.81544643640518188 0.35208359360694885 0.27201327681541443
0.89352643489837646 0.3778252899646759 0.31690812110900879
0.95779561996459961 0.40455320477485657 0.37485983967781067
0.97751957178115845 0.42005318403244019 0.41441872715950012
0.007117162924259901 0.28533920645713806 0.077263012528419495
0.024036137387156487 0.28818634152412415 0.078600488603115082
