assets/lut/fujixtransiii fuji xtrans iii mono+r.cube
# Created by: G'MIC (https://gmic.eu)
TITLE "fuji_xtrans_iii_mono+r"
# LUT size
LUT_3D_SIZE 5
# Data domain
DOMAIN_MIN 0.0 0.0 0.0
DOMAIN_MAX 1.0 1.0 1.0
# LUT data points
0.011478603817522526 0.011478603817522526 0.011478603817522526
0.1402275413274765 0.1402275413274765 0.1402275413274765
0.40992444753646851 0.40992444753646851 0.40992444753646851
0.60504907369613647 0.60504907369613647 0.60504907369613647
0.66206693649291992 0.66206693649291992 0.66206693649291992
0.079543232917785645 0.079543232917785645 0.079543232917785645
0.21227677166461945 0.21227677166461945 0.21227677166461945
0.44919928908348083 0.44919928908348083 0.44919928908348083
0.64747947454452515 0.64747947454452515 0.64747947454452515
0.71051287651062012 0.71051287651062012 0.71051287651062012
0.23622936010360718 0.23622936010360718 0.23622936010360718
0.34683263301849365 0.34683263301849365 0.34683263301849365
0.53833878040313721 0.53833878040313721 0.53833878040313721
0.68831378221511841 0.68831378221511841 0.68831378221511841
0.76796269416809082 0.76796269416809082 0.76796269416809082
0.31746238470077515 0.31746238470077515 0.31746238470077515
0.40795025229454041 0.40795025229454041 0.40795025229454041
0.59349566698074341 0.59349566698074341 0.59349566698074341
0.73206347227096558 0.73206347227096558 0.73206347227096558
0.8267894983291626 0.8267894983291626 0.8267894983291626
0.36195912957191467 0.36195912957191467 0.36195912957191467
0.48665225505828857 0.48665225505828857 0.48665225505828857
0.64264822006225586 0.64264822006225586 0.64264822006225586
0.78360629081726074 0.78360629081726074 0.78360629081726074
0.84675276279449463 0.84675276279449463 0.84675276279449463
0.018733693286776543 0.018733693286776543 0.018733693286776543
0.21774439513683319 0.21774439513683319 0.21774439513683319
0.44262599945068359 0.44262599945068359 0.44262599945068359
0.6589544415473938 0.6589544415473938 0.6589544415473938
0.75737100839614868 0.75737100839614868 0.75737100839614868
0.11229017376899719 0.11229017376899719 0.11229017376899719
0.24934534728527069 0.24934534728527069 0.24934534728527069
0.47251203656196594 0.47251203656196594 0.47251203656196594
0.67101079225540161 0.67101079225540161 0.67101079225540161
0.80107831954956055 0.80107831954956055 0.80107831954956055
0.29773935675621033 0.29773935675621033 0.29773935675621033
0.38270124793052673 0.38270124793052673 0.38270124793052673
0.54651564359664917 0.54651564359664917 0.54651564359664917
0.7126392126083374 0.7126392126083374 0.7126392126083374
0.82216745615005493 0.82216745615005493 0.82216745615005493
0.37326198816299438 0.37326198816299438 0.37326198816299438
0.48754218220710754 0.48754218220710754 0.48754218220710754
0.62194657325744629 0.62194657325744629 0.62194657325744629
0.7730865478515625 0.7730865478515625 0.7730865478515625
0.86858183145523071 0.86858183145523071 0.86858183145523071
0.42517527937889099 0.42517527937889099 0.42517527937889099
0.53188812732696533 0.53188812732696533 0.53188812732696533
0.65365898609161377 0.65365898609161377 0.65365898609161377
0.79322779178619385 0.79322779178619385 0.79322779178619385
0.88536489009857178 0.88536489009857178 0.88536489009857178
0.063968762755393982 0.065999947488307953 0.065999947488307953
0.21932013332843781 0.21932771801948547 0.21932771801948547
0.45704582333564758 0.45704582333564758 0.45704582333564758
0.66896224021911621 0.66896224021911621 0.66896224021911621
0.8079524040222168 0.8079524040222168 0.8079524040222168
0.13178183138370514 0.13178183138370514 0.13178183138370514
0.29049208760261536 0.29049208760261536 0.29049208760261536
0.49500074982643127 0.49500074982643127 0.49500074982643127
0.67728292942047119 0.67728292942047119 0.67728292942047119
0.82154113054275513 0.82154113054275513 0.82154113054275513
0.32468375563621521 0.32468375563621521 0.32468375563621521
0.4199373722076416 0.4199373722076416 0.4199373722076416
0.57810628414154053 0.57810628414154053 0.57810628414154053
0.72365313768386841 0.72365313768386841 0.72365313768386841
0.84943491220474243 0.84943491220474243 0.84943491220474243
0.46617516875267029 0.46617516875267029 0.46617516875267029
0.53446602821350098 0.53446602821350098 0.53446602821350098
0.6582791805267334 0.6582791805267334 0.6582791805267334
0.79180550575256348 0.79180550575256348 0.79180550575256348
0.91280388832092285 0.91280388832092285 0.91280388832092285
0.50862652063369751 0.50862652063369751 0.50862652063369751
0.5763784646987915 0.5763784646987915 0.5763784646987915
0.67806267738342285 0.67806267738342285 0.67806267738342285
0.84095031023025513 0.84095031023025513 0.84095031023025513
0.93592250347137451 0.93592250347137451 0.93592250347137451
0.18519428372383118 0.18528781831264496 0.18528781831264496
0.26214689016342163 0.26214689016342163 0.26214689016342163
0.45406302809715271 0.45406651496887207 0.45406651496887207
0.67753565311431885 0.67753565311431885 0.67753565311431885
0.81968694925308228 0.81968694925308228 0.81968694925308228
0.14989516139030457 0.14989516139030457 0.14989516139030457
0.30255222320556641 0.30255222320556641 0.30255222320556641
0.50750982761383057 0.50756597518920898 0.50756597518920898
0.70066899061203003 0.70066899061203003 0.70066899061203003
0.83467584848403931 0.83467584848403931 0.83467584848403931
0.33390247821807861 0.33390247821807861 0.33390247821807861
0.44326901435852051 0.44326901435852051 0.44326901435852051
0.59840852022171021 0.59840852022171021 0.59840852022171021
0.74022620916366577 0.74022620916366577 0.74022620916366577
0.8764004111289978 0.8764004111289978 0.8764004111289978
0.50509023666381836 0.50509023666381836 0.50509023666381836
0.56973755359649658 0.56973755359649658 0.56973755359649658
0.68699079751968384 0.68699079751968384 0.68699079751968384
0.81041449308395386 0.81041449308395386 0.81041449308395386
0.94274085760116577 0.94274085760116577 0.94274085760116577
0.57741796970367432 0.57741796970367432 0.57741796970367432
0.63180094957351685 0.63180094957351685 0.63180094957351685
0.76105397939682007 0.76105397939682007 0.76105397939682007
0.88297301530838013 0.88297301530838013 0.88297301530838013
0.96232682466506958 0.96232682466506958 0.96232682466506958
0.35130280256271362 0.35130280256271362 0.35130280256271362
0.3827911913394928 0.38282406330108643 0.38282406330108643
0.49973815679550171 0.49975335597991943 0.49975335597991943
0.67782443761825562 0.67782443761825562 0.67782443761825562
0.78494632244110107 0.78494632244110107 0.78494632244110107
0.20886276662349701 0.20886276662349701 0.20886276662349701
0.32930895686149597 0.32930895686149597 0.32930895686149597
0.5083000659942627 0.5083000659942627 0.5083000659942627
0.70420163869857788 0.70420163869857788 0.70420163869857788
0.81525105237960815 0.81525105237960815 0.81525105237960815
0.28384459018707275 0.28384459018707275 0.28384459018707275
0.43816876411437988 0.43816876411437988 0.43816876411437988
0.60008305311203003 0.60008305311203003 0.60008305311203003
0.7531503438949585 0.7531503438949585 0.7531503438949585
0.87561231851577759 0.87564265727996826 0.87564265727996826
0.51186168193817139 0.51186168193817139 0.51186168193817139
0.5776292085647583 0.5776292085647583 0.5776292085647583
0.70504277944564819 0.70504277944564819 0.70504277944564819
0.82737177610397339 0.82737177610397339 0.82737177610397339
0.94164323806762695 0.94164323806762695 0.94164323806762695
0.63580763339996338 0.63580763339996338 0.63580763339996338
0.65378683805465698 0.65378683805465698 0.65378683805465698
0.78011387586593628 0.78011387586593628 0.78011387586593628
0.89439350366592407 0.89439350366592407 0.89439350366592407
0.96642369031906128 0.96642369031906128 0.96642369031906128
