assets/lut/fujixtransiii fuji xtrans iii mono.cube
# Created by: G'MIC (https://gmic.eu)
TITLE "fuji_xtrans_iii_mono"
# LUT size
LUT_3D_SIZE 5
# Data domain
DOMAIN_MIN 0.0 0.0 0.0
DOMAIN_MAX 1.0 1.0 1.0
# LUT data points
0.010830613784492016 0.010830613784492016 0.010830613784492016
0.062360353767871857 0.062360353767871857 0.062360353767871857
0.21721701323986053 0.21721701323986053 0.21721701323986053
0.35414814949035645 0.35414814949035645 0.35414814949035645
0.40176889300346375 0.40176889300346375 0.40176889300346375
0.098642744123935699 0.098642744123935699 0.098642744123935699
0.18123328685760498 0.18123328685760498 0.18123328685760498
0.31015115976333618 0.31015115976333618 0.31015115976333618
0.43304747343063354 0.43304747343063354 0.43304747343063354
0.47657296061515808 0.47657296061515808 0.47657296061515808
0.2786773145198822 0.2786773145198822 0.2786773145198822
0.35776248574256897 0.35776248574256897 0.35776248574256897
0.47535538673400879 0.47535538673400879 0.47535538673400879
0.56207364797592163 0.56207364797592163 0.56207364797592163
0.62181127071380615 0.62181127071380615 0.62181127071380615
0.36594751477241516 0.36594751477241516 0.36594751477241516
0.44136577844619751 0.44136577844619751 0.44136577844619751
0.56446784734725952 0.56446784734725952 0.56446784734725952
0.64839637279510498 0.64839637279510498 0.64839637279510498
0.72572362422943115 0.72572362422943115 0.72572362422943115
0.40926241874694824 0.40926241874694824 0.40926241874694824
0.53726339340209961 0.53726339340209961 0.53726339340209961
0.61723983287811279 0.61723983287811279 0.61723983287811279
0.72556203603744507 0.72556203603744507 0.72556203603744507
0.76868832111358643 0.76868832111358643 0.76868832111358643
0.074005678296089172 0.074005678296089172 0.074005678296089172
0.17435584962368011 0.17435584962368011 0.17435584962368011
0.29877936840057373 0.29877936840057373 0.29877936840057373
0.41394898295402527 0.41394898295402527 0.41394898295402527
0.49180293083190918 0.49180293083190918 0.49180293083190918
0.18342657387256622 0.18342657387256622 0.18342657387256622
0.23894487321376801 0.23894487321376801 0.23894487321376801
0.35317826271057129 0.35317826271057129 0.35317826271057129
0.47130337357521057 0.47130337357521057 0.47130337357521057
0.5545729398727417 0.5545729398727417 0.5545729398727417
0.37485536932945251 0.37485536932945251 0.37485536932945251
0.40695789456367493 0.40695789456367493 0.40695789456367493
0.49352511763572693 0.49352511763572693 0.49352511763572693
0.59738469123840332 0.59738469123840332 0.59738469123840332
0.658008873462677 0.658008873462677 0.658008873462677
0.46901145577430725 0.46901145577430725 0.46901145577430725
0.54650652408599854 0.54650652408599854 0.54650652408599854
0.62497639656066895 0.62497639656066895 0.62497639656066895
0.71450501680374146 0.71450501680374146 0.71450501680374146
0.78260558843612671 0.78260558843612671 0.78260558843612671
0.51714581251144409 0.51714581251144409 0.51714581251144409
0.59964513778686523 0.59964513778686523 0.59964513778686523
0.66720819473266602 0.66720819473266602 0.66720819473266602
0.75861144065856934 0.75861144065856934 0.75861144065856934
0.8220093846321106 0.8220093846321106 0.8220093846321106
0.2298586368560791 0.2298586368560791 0.2298586368560791
0.2933860719203949 0.2933860719203949 0.2933860719203949
0.38164180517196655 0.38164180517196655 0.38164180517196655
0.48802629113197327 0.48802629113197327 0.48802629113197327
0.56353390216827393 0.56353390216827393 0.56353390216827393
0.30947861075401306 0.30947861075401306 0.30947861075401306
0.35062804818153381 0.35062804818153381 0.35062804818153381
0.44693458080291748 0.44693458080291748 0.44693458080291748
0.54288339614868164 0.54288339614868164 0.54288339614868164
0.61526668071746826 0.61526668071746826 0.61526668071746826
0.46328487992286682 0.46328487992286682 0.46328487992286682
0.48967394232749939 0.48967394232749939 0.48967394232749939
0.57485282421112061 0.57485282421112061 0.57485282421112061
0.65907961130142212 0.65907961130142212 0.65907961130142212
0.71720772981643677 0.71720772981643677 0.71720772981643677
0.59376645088195801 0.59376645088195801 0.59376645088195801
0.61123919486999512 0.61123919486999512 0.61123919486999512
0.69036597013473511 0.69036597013473511 0.69036597013473511
0.76211392879486084 0.76211392879486084 0.76211392879486084
0.84020119905471802 0.84020119905471802 0.84020119905471802
0.63800787925720215 0.63800787925720215 0.63800787925720215
0.66750514507293701 0.66750514507293701 0.66750514507293701
0.71858757734298706 0.71858757734298706 0.71858757734298706
0.81919914484024048 0.81919914484024048 0.81919914484024048
0.88868671655654907 0.88868671655654907 0.88868671655654907
0.37814229726791382 0.37814229726791382 0.37814229726791382
0.43000417947769165 0.43000417947769165 0.43000417947769165
0.50526446104049683 0.50526446104049683 0.50526446104049683
0.58808284997940063 0.58808284997940063 0.58808284997940063
0.65478390455245972 0.65478390455245972 0.65478390455245972
0.45651376247406006 0.45651376247406006 0.45651376247406006
0.50838077068328857 0.50838077068328857 0.50838077068328857
0.56669819355010986 0.56669819355010986 0.56669819355010986
0.63706499338150024 0.63706499338150024 0.63706499338150024
0.69365757703781128 0.69365757703781128 0.69365757703781128
0.56504756212234497 0.56504756212234497 0.56504756212234497
0.60373187065124512 0.60373187065124512 0.60373187065124512
0.64971709251403809 0.64971709251403809 0.64971709251403809
0.7218010425567627 0.7218010425567627 0.7218010425567627
0.77947217226028442 0.77947217226028442 0.77947217226028442
0.68441176414489746 0.68441176414489746 0.68441176414489746
0.70421987771987915 0.70421987771987915 0.70421987771987915
0.75213479995727539 0.75213479995727539 0.75213479995727539
0.81644684076309204 0.81644684076309204 0.81644684076309204
0.8946194052696228 0.8946194052696228 0.8946194052696228
0.73544532060623169 0.73544532060623169 0.73544532060623169
0.76979571580886841 0.76979571580886841 0.76979571580886841
0.84040778875350952 0.84040778875350952 0.84040778875350952
0.88738721609115601 0.88738721609115601 0.88738721609115601
0.93531334400177002 0.93531334400177002 0.93531334400177002
0.50335806608200073 0.50335806608200073 0.50335806608200073
0.5472148060798645 0.5472148060798645 0.5472148060798645
0.61368346214294434 0.61368346214294434 0.61368346214294434
0.69232958555221558 0.69232958555221558 0.69232958555221558
0.72879981994628906 0.72879981994628906 0.72879981994628906
0.57328087091445923 0.57328087091445923 0.57328087091445923
0.63076817989349365 0.63076817989349365 0.63076817989349365
0.67558854818344116 0.67558854818344116 0.67558854818344116
0.72162294387817383 0.72162294387817383 0.72162294387817383
0.75668132305145264 0.75668132305145264 0.75668132305145264
0.66063469648361206 0.66063469648361206 0.66063469648361206
0.70831477642059326 0.70831477642059326 0.70831477642059326
0.74515128135681152 0.74515128135681152 0.74515128135681152
0.7838936448097229 0.7838936448097229 0.7838936448097229
0.83458054065704346 0.83458054065704346 0.83458054065704346
0.76242375373840332 0.76242375373840332 0.76242375373840332
0.79350012540817261 0.79350012540817261 0.79350012540817261
0.82957100868225098 0.82957100868225098 0.82957100868225098
0.87155485153198242 0.87155485153198242 0.87155485153198242
0.92436498403549194 0.92436498403549194 0.92436498403549194
0.82134038209915161 0.82134038209915161 0.82134038209915161
0.82129758596420288 0.82129758596420288 0.82129758596420288
0.87823235988616943 0.87823235988616943 0.87823235988616943
0.93267464637756348 0.93267464637756348 0.93267464637756348
0.9648125171661377 0.9648125171661377 0.9648125171661377
