assets/lut/fujixtransiii fuji xtrans iii acros+ye.cube
# Created by: G'MIC (https://gmic.eu)
TITLE "fuji_xtrans_iii_acros+ye"
# LUT size
LUT_3D_SIZE 7
# Data domain
DOMAIN_MIN 0.0 0.0 0.0
DOMAIN_MAX 1.0 1.0 1.0
# LUT data points
0.014916319400072098 0.014916319400072098 0.014916319400072098
0.06486213207244873 0.06486213207244873 0.06486213207244873
0.16869403421878815 0.16869403421878815 0.16869403421878815
0.32451105117797852 0.32451105117797852 0.32451105117797852
0.468496173620224 0.468496173620224 0.468496173620224
0.52777713537216187 0.52777713537216187 0.52777713537216187
0.56553512811660767 0.56553512811660767 0.56553512811660767
0.044977959245443344 0.044977959245443344 0.044977959245443344
0.099732600152492523 0.099732600152492523 0.099732600152492523
0.21871964633464813 0.21871964633464813 0.21871964633464813
0.35709995031356812 0.35709995031356812 0.35709995031356812
0.48922243714332581 0.48922243714332581 0.48922243714332581
0.56131434440612793 0.56131434440612793 0.56131434440612793
0.61497598886489868 0.61497598886489868 0.61497598886489868
0.14431700110435486 0.14431700110435486 0.14431700110435486
0.19637638330459595 0.19637638330459595 0.19637638330459595
0.30414968729019165 0.30414968729019165 0.30414968729019165
0.42680445313453674 0.42680445313453674 0.42680445313453674
0.53275614976882935 0.53275614976882935 0.53275614976882935
0.61979126930236816 0.61979126930236816 0.61979126930236816
0.64134329557418823 0.64134329557418823 0.64134329557418823
0.25364702939987183 0.25364702939987183 0.25364702939987183
0.30995634198188782 0.30995634198188782 0.30978637933731079
0.4124998152256012 0.4124998152256012 0.41249516606330872
0.50772935152053833 0.50772935152053833 0.50772935152053833
0.60115343332290649 0.60115343332290649 0.60115343332290649
0.66721910238265991 0.66721910238265991 0.66721910238265991
0.71691912412643433 0.71691912412643433 0.71691912412643433
0.31930044293403625 0.31930044293403625 0.31930044293403625
0.3931427001953125 0.3931427001953125 0.39312246441841125
0.45878592133522034 0.45878592133522034 0.45878592133522034
0.58856570720672607 0.58856570720672607 0.58856570720672607
0.67050909996032715 0.67050909996032715 0.67050909996032715
0.71991705894470215 0.71991705894470215 0.71991705894470215
0.77020901441574097 0.77020901441574097 0.77020901441574097
0.35330048203468323 0.35330048203468323 0.35330048203468323
0.46159094572067261 0.46159094572067261 0.46159094572067261
0.54239410161972046 0.54239410161972046 0.54239410161972046
0.61744564771652222 0.61744564771652222 0.61744564771652222
0.67013776302337646 0.67013776302337646 0.67013776302337646
0.76349520683288574 0.76349520683288574 0.76349520683288574
0.80864036083221436 0.80864036083221436 0.80864036083221436
0.39297229051589966 0.39297229051589966 0.39297229051589966
0.48839601874351501 0.48839601874351501 0.48839601874351501
0.56070828437805176 0.56070828437805176 0.56070828437805176
0.6503874659538269 0.6503874659538269 0.6503874659538269
0.72697043418884277 0.72697043418884277 0.72697043418884277
0.80617320537567139 0.80617320537567139 0.80617320537567139
0.83532780408859253 0.83532780408859253 0.83532780408859253
0.019179744645953178 0.019179744645953178 0.019179744645953178
0.091238908469676971 0.091238908469676971 0.091238908469676971
0.19470614194869995 0.19470614194869995 0.19470614194869995
0.35864344239234924 0.35864344239234924 0.35864344239234924
0.50686836242675781 0.50686836242675781 0.50686836242675781
0.56667399406433105 0.56667399406433105 0.56667399406433105
0.65935754776000977 0.65935754776000977 0.65935754776000977
0.070923015475273132 0.070923015475273132 0.070923015475273132
0.12206781655550003 0.12206781655550003 0.12206781655550003
0.23599041998386383 0.23599041998386383 0.23599041998386383
0.37348169088363647 0.37348169088363647 0.37348169088363647
0.50537222623825073 0.50537222623825073 0.50537222623825073
0.61128556728363037 0.61128556728363037 0.61128556728363037
0.67407798767089844 0.67407798767089844 0.67407798767089844
0.17284893989562988 0.17284893989562988 0.17284893989562988
0.22107023000717163 0.22107023000717163 0.22107023000717163
0.31251311302185059 0.31251311302185059 0.31251311302185059
0.43047443032264709 0.43047443032264709 0.43047443032264709
0.54631471633911133 0.54631471633911133 0.54631471633911133
0.65321320295333862 0.65321320295333862 0.65321320295333862
0.70940482616424561 0.70940482616424561 0.70940482616424561
0.30639347434043884 0.30639347434043884 0.30639347434043884
0.35082235932350159 0.35082235932350159 0.35082235932350159
0.42329615354537964 0.42329615354537964 0.42328837513923645
0.52023530006408691 0.52023530006408691 0.52023530006408691
0.60995864868164062 0.60995864868164062 0.60995864868164062
0.69536566734313965 0.69536566734313965 0.69536566734313965
0.7492138147354126 0.7492138147354126 0.7492138147354126
0.38181230425834656 0.38181230425834656 0.38181230425834656
0.44099310040473938 0.44099310040473938 0.44099310040473938
0.51897549629211426 0.51897549629211426 0.51897549629211426
0.60255891084671021 0.60255891084671021 0.60255891084671021
0.67305570840835571 0.67305570840835571 0.67305570840835571
0.76174753904342651 0.76174753904342651 0.76174753904342651
0.82528901100158691 0.82528901100158691 0.82528901100158691
0.41241741180419922 0.41241741180419922 0.41241741180419922
0.50660973787307739 0.50660973787307739 0.50660973787307739
0.56859451532363892 0.56859451532363892 0.56859451532363892
0.64680588245391846 0.64680588245391846 0.64680588245391846
0.72249072790145874 0.72249072790145874 0.72249072790145874
0.80497986078262329 0.80497986078262329 0.80497986078262329
0.8343244194984436 0.8343244194984436 0.8343244194984436
0.44250836968421936 0.44250836968421936 0.44250836968421936
0.54242658615112305 0.54242658615112305 0.54242658615112305
0.5915905237197876 0.5915905237197876 0.5915905237197876
0.65771758556365967 0.65771758556365967 0.65771758556365967
0.72615468502044678 0.72615468502044678 0.72615468502044678
0.81915050745010376 0.81915050745010376 0.81915050745010376
0.8765142560005188 0.8765142560005188 0.8765142560005188
0.086547419428825378 0.086547419428825378 0.086547419428825378
0.15752361714839935 0.15752361714839935 0.15752361714839935
0.25769144296646118 0.25769144296646118 0.25769144296646118
0.39118704199790955 0.39118704199790955 0.39118704199790955
0.53336071968078613 0.53336071968078613 0.53336071968078613
0.63604450225830078 0.63604450225830078 0.63604450225830078
0.69871300458908081 0.69871300458908081 0.69871300458908081
0.1243538036942482 0.1243538036942482 0.1243538036942482
0.17149893939495087 0.17149893939495087 0.17149893939495087
0.28519639372825623 0.28519639372825623 0.28519639372825623
0.40741324424743652 0.40741324424743652 0.40741324424743652
0.53920620679855347 0.53920620679855347 0.53920620679855347
0.64442247152328491 0.64442247152328491 0.64442247152328491
0.72457766532897949 0.72457766532897949 0.72457766532897949
0.22203488647937775 0.22203488647937775 0.22203488647937775
0.26869025826454163 0.26869025826454163 0.26869025826454163
0.35565897822380066 0.35565897822380066 0.35565897822380066
0.4604438841342926 0.4604438841342926 0.4604438841342926
0.57763487100601196 0.57763487100601196 0.57763487100601196
0.67207419872283936 0.67207419872283936 0.67207419872283936
0.74637997150421143 0.74637997150421143 0.74637997150421143
0.35766756534576416 0.35766756534576416 0.35766756534576416
0.38140305876731873 0.38140305876731873 0.38140305876731873
0.45529279112815857 0.45529279112815857 0.45529279112815857
0.54411530494689941 0.54411530494689941 0.54411530494689941
0.62819439172744751 0.62819439172744751 0.62819439172744751
0.71469521522521973 0.71469521522521973 0.71469521522521973
0.78860628604888916 0.78860628604888916 0.78860628604888916
0.4285009503364563 0.4285009503364563 0.4285009503364563
0.49073076248168945 0.49073076248168945 0.49073076248168945
0.54591608047485352 0.54591608047485352 0.54591608047485352
0.62069487571716309 0.62069487571716309 0.62069487571716309
0.69211983680725098 0.69211983680725098 0.69211983680725098
0.77044212818145752 0.77044212818145752 0.77044212818145752
0.83787775039672852 0.83787775039672852 0.83787775039672852
0.53017431497573853 0.53017431497573853 0.53017431497573853
0.55002057552337646 0.55002057552337646 0.55002057552337646
0.5974230170249939 0.5974230170249939 0.5974230170249939
0.67498767375946045 0.67498767375946045 0.67498767375946045
0.75892984867095947 0.75892984867095947 0.75892984867095947
0.82688248157501221 0.82688248157501221 0.82688248157501221
0.88115084171295166 0.88115084171295166 0.88115084171295166
0.54302585124969482 0.54302585124969482 0.54302585124969482
0.55970484018325806 0.55970484018325806 0.55970484018325806
0.63416433334350586 0.63416433334350586 0.63416433334350586
0.70333969593048096 0.70333969593048096 0.70333969593048096
0.76215499639511108 0.76215499639511108 0.76215499639511108
0.86184632778167725 0.86184632778167725 0.86184632778167725
0.89833623170852661 0.89833623170852661 0.89833623170852661
0.17915429174900055 0.17915429174900055 0.17915429174900055
0.23782327771186829 0.23782327771186829 0.23782327771186829
0.32545766234397888 0.32545766234397888 0.32545766234397888
0.43193364143371582 0.43193364143371582 0.43193364143371582
0.55616992712020874 0.55616992712020874 0.55616992712020874
0.66894149780273438 0.66894149780273438 0.66894149780273438
0.74302095174789429 0.74302095174789429 0.74302095174789429
0.18947218358516693 0.18947218358516693 0.18947218358516693
0.24486126005649567 0.24486126005649567 0.24486126005649567
0.34669911861419678 0.34669911861419678 0.34669911861419678
0.45935890078544617 0.45935890078544617 0.45935890078544617
0.57767260074615479 0.57767260074615479 0.57767260074615479
0.6752464771270752 0.6752464771270752 0.6752464771270752
0.75574290752410889 0.75574290752410889 0.75574290752410889
0.28095293045043945 0.28095293045043945 0.28095293045043945
0.32747822999954224 0.32747822999954224 0.32747822999954224
0.40901347994804382 0.40901347994804382 0.40901347994804382
0.51185262203216553 0.51185262203216553 0.51185262203216553
0.61153298616409302 0.61153298616409302 0.61153298616409302
0.70350009202957153 0.70350009202957153 0.70350009202957153
0.77743387222290039 0.77743387222290039 0.77743387222290039
0.40062642097473145 0.40062642097473145 0.40062642097473145
0.43268811702728271 0.43268811702728271 0.43268811702728271
0.49779963493347168 0.49779963493347168 0.49779963493347168
0.57421302795410156 0.57421302795410156 0.57421302795410156
0.65351969003677368 0.65351969003677368 0.65351969003677368
0.74409627914428711 0.74409627914428711 0.74409627914428711
0.80997473001480103 0.80997473001480103 0.80997473001480103
0.50545114278793335 0.50545114278793335 0.50545114278793335
0.51985305547714233 0.51985305547714233 0.51985305547714233
0.57648324966430664 0.57648324966430664 0.57648324966430664
0.64302647113800049 0.64302647113800049 0.64302647113800049
0.71446001529693604 0.71446001529693604 0.71446001529693604
0.7933952808380127 0.7933952808380127 0.7933952808380127
0.85704338550567627 0.85704338550567627 0.85704338550567627
0.56706917285919189 0.56706917285919189 0.56706917285919189
0.59581190347671509 0.59581190347671509 0.59581190347671509
0.64160847663879395 0.64160847663879395 0.64160847663879395
0.70570617914199829 0.70570617914199829 0.70570617914199829
0.77263474464416504 0.77263474464416504 0.77263474464416504
0.85610747337341309 0.85610747337341309 0.85610747337341309
0.92787200212478638 0.92787200212478638 0.92787200212478638
0.58471131324768066 0.58471131324768066 0.58471131324768066
0.61771309375762939 0.61771309375762939 0.61771309375762939
0.66149628162384033 0.66149628162384033 0.66149628162384033
0.7113373875617981 0.7113373875617981 0.7113373875617981
0.79235243797302246 0.79235243797302246 0.79235243797302246
0.89564448595046997 0.89564448595046997 0.89564448595046997
0.94237631559371948 0.94237631559371948 0.94237631559371948
0.28125137090682983 0.28125137090682983 0.28125137090682983
0.33245545625686646 0.33245545625686646 0.33245545625686646
0.39462405443191528 0.39462405443191528 0.39462405443191528
0.48678094148635864 0.48678094148635864 0.48678094148635864
0.59996294975280762 0.59996294975280762 0.59996294975280762
0.70417141914367676 0.70417141914367676 0.70417141914367676
0.77502763271331787 0.77502763271331787 0.77502763271331787
0.2824341356754303 0.2824341356754303 0.2824341356754303
0.33841794729232788 0.33841794729232788 0.33841794729232788
0.41245004534721375 0.41245004534721375 0.41245004534721375
0.51378470659255981 0.51378470659255981 0.51378470659255981
0.61846917867660522 0.61846917867660522 0.61846917867660522
0.7139555811882019 0.7139555811882019 0.7139555811882019
0.78933757543563843 0.78933757543563843 0.78933757543563843
0.34679374098777771 0.34679374098777771 0.34679374098777771
0.40314072370529175 0.40314072370529175 0.40314072370529175
0.47080126404762268 0.47080126404762268 0.47080126404762268
0.55456721782684326 0.55456721782684326 0.55456721782684326
0.6451752781867981 0.6451752781867981 0.6451752781867981
0.73394542932510376 0.73394542932510376 0.73394542932510376
0.80264675617218018 0.80264675617218018 0.80264675617218018
0.43733471632003784 0.43733471632003784 0.43733471632003784
0.47819867730140686 0.47819867730140686 0.47819867730140686
0.54131245613098145 0.54131245613098145 0.54131245613098145
0.61483252048492432 0.61483252048492432 0.61483252048492432
0.68869131803512573 0.68869131803512573 0.68869131803512573
0.77140021324157715 0.77140021324157715 0.77140021324157715
0.84746778011322021 0.84746778011322021 0.84746778011322021
0.53666579723358154 0.53666579723358154 0.53666579723358154
0.5616651177406311 0.5616651177406311 0.5616651177406311
0.61293113231658936 0.61293113231658936 0.61293113231658936
0.68191719055175781 0.68191719055175781 0.68191719055175781
0.7482980489730835 0.7482980489730835 0.7482980489730835
0.81969696283340454 0.81969696283340454 0.81969696283340454
0.88400954008102417 0.88400954008102417 0.88400954008102417
0.62505638599395752 0.62505638599395752 0.62505638599395752
0.631966233253479 0.631966233253479 0.631966233253479
0.67713409662246704 0.67713409662246704 0.67713409662246704
0.73954737186431885 0.73954737186431885 0.73954737186431885
0.80812329053878784 0.80812329053878784 0.80812329053878784
0.87547069787979126 0.87547069787979126 0.87547069787979126
0.94765830039978027 0.94765830039978027 0.94765830039978027
0.63500744104385376 0.63500744104385376 0.63500744104385376
0.68041884899139404 0.68041884899139404 0.68041884899139404
0.71652472019195557 0.71652472019195557 0.71652472019195557
0.78421211242675781 0.78421211242675781 0.78421211242675781
0.84259051084518433 0.84259051084518433 0.84259051084518433
0.91626310348510742 0.91626310348510742 0.91626310348510742
0.96406906843185425 0.96406906843185425 0.96406906843185425
0.3888700008392334 0.3888700008392334 0.3888700008392334
0.42186754941940308 0.42186754941940308 0.42186754941940308
0.47413158416748047 0.47413158416748047 0.47413158416748047
0.55783611536026001 0.55783611536026001 0.55783611536026001
0.65225738286972046 0.65225738286972046 0.65225738286972046
0.74540859460830688 0.74540859460830688 0.74540859460830688
0.80371701717376709 0.80371701717376709 0.80371701717376709
0.38621380925178528 0.38621380925178528 0.38621380925178528
0.43065524101257324 0.43065524101257324 0.43065524101257324
0.49180004000663757 0.49180004000663757 0.49180004000663757
0.57121843099594116 0.57121843099594116 0.57121843099594116
0.66397929191589355 0.66397929191589355 0.66397929191589355
0.75188779830932617 0.75188779830932617 0.75188779830932617
0.81796574592590332 0.81796574592590332 0.81796574592590332
0.41554182767868042 0.41554182767868042 0.41554182767868042
0.47471192479133606 0.47471192479133606 0.47471192479133606
0.52802753448486328 0.52802753448486328 0.52802753448486328
0.60111957788467407 0.60111957788467407 0.60111957788467407
0.68403053283691406 0.68403053283691406 0.68403053283691406
0.76959133148193359 0.76959133148193359 0.76959133148193359
0.83768248558044434 0.83768248558044434 0.83768248558044434
0.49230319261550903 0.49230319261550903 0.49230319261550903
0.53940331935882568 0.53940331935882568 0.53940331935882568
0.59261816740036011 0.59261816740036011 0.59261816740036011
0.66013920307159424 0.66013920307159424 0.66013920307159424
0.73028403520584106 0.73028403520584106 0.73028403520584106
0.80048924684524536 0.80048924684524536 0.80048924684524536
0.86268526315689087 0.86268526315689087 0.86268526315689087
0.58497196435928345 0.58497196435928345 0.58497196435928345
0.61562740802764893 0.61562740802764893 0.61562740802764893
0.65947526693344116 0.65947526693344116 0.65947526693344116
0.72171592712402344 0.72171592712402344 0.72171592712402344
0.7846563458442688 0.7846563458442688 0.7846563458442688
0.84601294994354248 0.84601294994354248 0.84601294994354248
0.90647685527801514 0.90647685527801514 0.90647685527801514
0.65464878082275391 0.65464878082275391 0.65464878082275391
0.68192046880722046 0.68192046880722046 0.68192046880722046
0.7212788462638855 0.7212788462638855 0.7212788462638855
0.77535468339920044 0.77535468339920044 0.77535468339920044
0.83600640296936035 0.83600640296936035 0.83600640296936035
0.89650136232376099 0.89650136232376099 0.89650136232376099
0.96643954515457153 0.96643954515457153 0.96643954515457153
0.7337803840637207 0.7337803840637207 0.7337803840637207
0.71377289295196533 0.71377289295196533 0.71377289295196533
0.74772769212722778 0.74772769212722778 0.74772769212722778
0.8102571964263916 0.8102571964263916 0.8102571964263916
0.86598718166351318 0.86598718166351318 0.86598718166351318
0.92835938930511475 0.92835938930511475 0.92835938930511475
0.97479736804962158 0.97479736804962158 0.97479736804962158
0.49083298444747925 0.49083298444747925 0.49083298444747925
0.51126235723495483 0.51126235723495483 0.51126235723495483
0.55633813142776489 0.55633813142776489 0.55633813142776489
0.62710011005401611 0.62710011005401611 0.62710011005401611
0.69798463582992554 0.69798463582992554 0.69798463582992554
0.7810971736907959 0.7810971736907959 0.7810971736907959
0.81826305389404297 0.81826305389404297 0.81826305389404297
0.4914546012878418 0.4914546012878418 0.4914546012878418
0.53340756893157959 0.53340756893157959 0.53340756893157959
0.57442384958267212 0.57442384958267212 0.57442384958267212
0.64273226261138916 0.64273226261138916 0.64273226261138916
0.71154159307479858 0.71154159307479858 0.71154159307479858
0.7855762243270874 0.7855762243270874 0.7855762243270874
0.82389432191848755 0.82389432191848755 0.82389432191848755
0.48065754771232605 0.48065754771232605 0.48065754771232605
0.54520624876022339 0.54520624876022339 0.54520624876022339
0.59319937229156494 0.59319937229156494 0.59319937229156494
0.66564047336578369 0.66564047336578369 0.66564047336578369
0.7359505295753479 0.7359505295753479 0.7359505295753479
0.80376416444778442 0.80376416444778442 0.80376416444778442
0.85155791044235229 0.85155791044235229 0.85155791044235229
0.53983235359191895 0.53983235359191895 0.53983235359191895
0.58099734783172607 0.58099734783172607 0.58099734783172607
0.65221714973449707 0.65221714973449707 0.65221714973449707
0.71322846412658691 0.71322846412658691 0.71322846412658691
0.77696895599365234 0.77696895599365234 0.77696895599365234
0.82943630218505859 0.82943630218505859 0.82943630218505859
0.88412213325500488 0.88412213325500488 0.88412213325500488
0.63835412263870239 0.63835412263870239 0.63835412263870239
0.65511524677276611 0.65511524677276611 0.65511524677276611
0.70826977491378784 0.70826977491378784 0.70826977491378784
0.7680695652961731 0.7680695652961731 0.7680695652961731
0.82102435827255249 0.82102435827255249 0.82102435827255249
0.87504357099533081 0.87504357099533081 0.87504357099533081
0.92605292797088623 0.92605292797088623 0.92605292797088623
0.71867412328720093 0.71867412328720093 0.71867412328720093
0.72777086496353149 0.72777086496353149 0.72777086496353149
0.7661246657371521 0.7661246657371521 0.7661246657371521
0.80915915966033936 0.80915915966033936 0.80915915966033936
0.87219393253326416 0.87219393253326416 0.87219393253326416
0.92571133375167847 0.92571133375167847 0.92571133375167847
0.97688132524490356 0.97688132524490356 0.97688132524490356
0.74700736999511719 0.74700736999511719 0.74700736999511719
0.73328286409378052 0.73328286409378052 0.73328286409378052
0.77351808547973633 0.77351808547973633 0.77351808547973633
0.8250579833984375 0.8250579833984375 0.8250579833984375
0.89562433958053589 0.89562433958053589 0.89562433958053589
0.95454150438308716 0.95454150438308716 0.95454150438308716
0.98444515466690063 0.98444515466690063 0.98444515466690063
