assets/lut/fujixtransiii fuji xtrans iii acros.cube
# Created by: G'MIC (https://gmic.eu)
TITLE "fuji_xtrans_iii_acros"
# LUT size
LUT_3D_SIZE 5
# Data domain
DOMAIN_MIN 0.0 0.0 0.0
DOMAIN_MAX 1.0 1.0 1.0
# LUT data points
0.018118899315595627 0.018118899315595627 0.018118899315595627
0.078353926539421082 0.078353926539421082 0.078353926539421082
0.22261928021907806 0.22261928021907806 0.22261928021907806
0.37941524386405945 0.37941524386405945 0.37941524386405945
0.42830470204353333 0.42830470204353333 0.42830470204353333
0.10392595082521439 0.10392595082521439 0.10392595082521439
0.16682820022106171 0.16682820022106171 0.16682820022106171
0.31028914451599121 0.31028914451599121 0.31028914451599121
0.44659027457237244 0.44659027457237244 0.44659027457237244
0.50034588575363159 0.50034588575363159 0.50034588575363159
0.27220293879508972 0.27220293879508972 0.27220293879508972
0.35812994837760925 0.35812994837760925 0.35812994837760925
0.47669833898544312 0.47669833898544312 0.47669833898544312
0.57323366403579712 0.57323366403579712 0.57323366403579712
0.64045977592468262 0.64045977592468262 0.64045977592468262
0.36920508742332458 0.36920508742332458 0.36920508742332458
0.44737669825553894 0.44737669825553894 0.44737669825553894
0.58139222860336304 0.58139222860336304 0.58139222860336304
0.66536420583724976 0.66536420583724976 0.66536420583724976
0.74599117040634155 0.74599117040634155 0.74599117040634155
0.41363087296485901 0.41363087296485901 0.41363087296485901
0.5494987964630127 0.5494987964630127 0.5494987964630127
0.63548904657363892 0.63548904657363892 0.63548904657363892
0.74240165948867798 0.74240165948867798 0.74240165948867798
0.78873270750045776 0.78873270750045776 0.78873270750045776
0.07272021472454071 0.07272021472454071 0.07272021472454071
0.17360591888427734 0.17360591888427734 0.17360591888427734
0.30713966488838196 0.30713966488838196 0.30713966488838196
0.44464889168739319 0.44464889168739319 0.44464889168739319
0.54066205024719238 0.54066205024719238 0.54066205024719238
0.17701990902423859 0.17701990902423859 0.17701990902423859
0.23189093172550201 0.23189093172550201 0.23189093172550201
0.35205763578414917 0.35205763578414917 0.35205763578414917
0.49207821488380432 0.49207821488380432 0.49207821488380432
0.59413307905197144 0.59413307905197144 0.59413307905197144
0.37156558036804199 0.37156558036804199 0.37156558036804199
0.41643065214157104 0.41643065214157104 0.41643065214157104
0.51044732332229614 0.51044732332229614 0.51044732332229614
0.60872828960418701 0.60872828960418701 0.60872828960418701
0.68494510650634766 0.68494510650634766 0.68494510650634766
0.4771324098110199 0.4771324098110199 0.4771324098110199
0.56025898456573486 0.56025898456573486 0.56025898456573486
0.64420700073242188 0.64420700073242188 0.64420700073242188
0.73387879133224487 0.73387879133224487 0.73387879133224487
0.80398797988891602 0.80398797988891602 0.80398797988891602
0.52642357349395752 0.52642357349395752 0.52642357349395752
0.61254847049713135 0.61254847049713135 0.61254847049713135
0.68298333883285522 0.68298333883285522 0.68298333883285522
0.77355438470840454 0.77355438470840454 0.77355438470840454
0.84616875648498535 0.84616875648498535 0.84616875648498535
0.23485690355300903 0.23485690355300903 0.23485690355300903
0.30020558834075928 0.30020558834075928 0.30020558834075928
0.40215715765953064 0.40215715765953064 0.40215715765953064
0.52430605888366699 0.52430605888366699 0.52430605888366699
0.62024873495101929 0.62024873495101929 0.62024873495101929
0.29623284935951233 0.29623284935951233 0.29623284935951233
0.35634571313858032 0.35634571313858032 0.35634571313858032
0.45302721858024597 0.45302721858024597 0.45302721858024597
0.57179862260818481 0.57179862260818481 0.57179862260818481
0.66341406106948853 0.66341406106948853 0.66341406106948853
0.46408927440643311 0.46408927440643311 0.46408927440643311
0.50611048936843872 0.50611048936843872 0.50611048936843872
0.58495616912841797 0.58495616912841797 0.58495616912841797
0.6755058765411377 0.6755058765411377 0.6755058765411377
0.74311798810958862 0.74311798810958862 0.74311798810958862
0.60338050127029419 0.60338050127029419 0.60338050127029419
0.62356376647949219 0.62356376647949219 0.62356376647949219
0.7004626989364624 0.7004626989364624 0.7004626989364624
0.77860468626022339 0.77860468626022339 0.77860468626022339
0.86144530773162842 0.86144530773162842 0.86144530773162842
0.64843034744262695 0.64843034744262695 0.64843034744262695
0.68016427755355835 0.68016427755355835 0.68016427755355835
0.73411303758621216 0.73411303758621216 0.73411303758621216
0.83685755729675293 0.83685755729675293 0.83685755729675293
0.91509675979614258 0.91509675979614258 0.91509675979614258
0.37746763229370117 0.37746763229370117 0.37746763229370117
0.43356209993362427 0.43356209993362427 0.43356209993362427
0.51693630218505859 0.51693630218505859 0.51693630218505859
0.6275133490562439 0.6275133490562439 0.6275133490562439
0.72603005170822144 0.72603005170822144 0.72603005170822144
0.44570222496986389 0.44570222496986389 0.44570222496986389
0.50186836719512939 0.50186836719512939 0.50186836719512939
0.57364416122436523 0.57364416122436523 0.57364416122436523
0.65404796600341797 0.65404796600341797 0.65404796600341797
0.72526741027832031 0.72526741027832031 0.72526741027832031
0.55694830417633057 0.55694830417633057 0.55694830417633057
0.60723328590393066 0.60723328590393066 0.60723328590393066
0.6697990894317627 0.6697990894317627 0.6697990894317627
0.73523670434951782 0.73523670434951782 0.73523670434951782
0.81348854303359985 0.81348854303359985 0.81348854303359985
0.6885337233543396 0.6885337233543396 0.6885337233543396
0.71150654554367065 0.71150654554367065 0.71150654554367065
0.76663917303085327 0.76663917303085327 0.76663917303085327
0.82578349113464355 0.82578349113464355 0.82578349113464355
0.91154927015304565 0.91154927015304565 0.91154927015304565
0.73984754085540771 0.73984754085540771 0.73984754085540771
0.77561312913894653 0.77561312913894653 0.77561312913894653
0.84528839588165283 0.84528839588165283 0.84528839588165283
0.90057837963104248 0.90057837963104248 0.90057837963104248
0.95622831583023071 0.95622831583023071 0.95622831583023071
0.53494656085968018 0.53494656085968018 0.53494656085968018
0.56897473335266113 0.56897473335266113 0.56897473335266113
0.64564001560211182 0.64564001560211182 0.64564001560211182
0.73503440618515015 0.73503440618515015 0.73503440618515015
0.78637599945068359 0.78637599945068359 0.78637599945068359
0.57551848888397217 0.57551848888397217 0.57551848888397217
0.63849484920501709 0.63849484920501709 0.63849484920501709
0.69272869825363159 0.69272869825363159 0.69272869825363159
0.7607046365737915 0.7607046365737915 0.7607046365737915
0.79640442132949829 0.79640442132949829 0.79640442132949829
0.65801703929901123 0.65801703929901123 0.65801703929901123
0.72054368257522583 0.72054368257522583 0.72054368257522583
0.76266497373580933 0.76266497373580933 0.76266497373580933
0.81388431787490845 0.81388431787490845 0.81388431787490845
0.85893690586090088 0.85893690586090088 0.85893690586090088
0.77348226308822632 0.77348226308822632 0.77348226308822632
0.80508464574813843 0.80508464574813843 0.80508464574813843
0.84257453680038452 0.84257453680038452 0.84257453680038452
0.89581328630447388 0.89581328630447388 0.89581328630447388
0.94133394956588745 0.94133394956588745 0.94133394956588745
0.82567858695983887 0.82567858695983887 0.82567858695983887
0.83089756965637207 0.83089756965637207 0.83089756965637207
0.87114328145980835 0.87114328145980835 0.87114328145980835
0.94206529855728149 0.94206529855728149 0.94206529855728149
0.98447674512863159 0.98447674512863159 0.98447674512863159
