assets/lut/fujixtransiii fuji xtrans iii acros+r.cube
# Created by: G'MIC (https://gmic.eu)
TITLE "fuji_xtrans_iii_acros+r"
# LUT size
LUT_3D_SIZE 7
# Data domain
DOMAIN_MIN 0.0 0.0 0.0
DOMAIN_MAX 1.0 1.0 1.0
# LUT data points
0.016120506450533867 0.016120506450533867 0.016120506450533867
0.086500160396099091 0.086500160396099091 0.086500160396099091
0.22680540382862091 0.22680540382862091 0.22680540382862091
0.39980459213256836 0.39980459213256836 0.39980459213256836
0.56567370891571045 0.56567370891571045 0.56567370891571045
0.6349949836730957 0.6349949836730957 0.6349949836730957
0.66737067699432373 0.66737067699432373 0.66737067699432373
0.034653548151254654 0.034653548151254654 0.034653548151254654
0.11162556707859039 0.11162556707859039 0.11162556707859039
0.26102706789970398 0.26102706789970398 0.26102706789970398
0.43271100521087646 0.43271100521087646 0.43271100521087646
0.58577871322631836 0.58577871322631836 0.58577871322631836
0.66581648588180542 0.66581648588180542 0.66581648588180542
0.71446746587753296 0.71446746587753296 0.71446746587753296
0.12670868635177612 0.12670868635177612 0.12670868635177612
0.19542936980724335 0.19542936980724335 0.19542936980724335
0.33464258909225464 0.33464258909225464 0.33464258909225464
0.47370061278343201 0.47370061278343201 0.47370061278343201
0.61869508028030396 0.61869508028030396 0.61869508028030396
0.70935964584350586 0.70935964584350586 0.70935964584350586
0.73769682645797729 0.73769682645797729 0.73769682645797729
0.22591668367385864 0.22591668367385864 0.22591668367385864
0.29673820734024048 0.29673820734024048 0.29673820734024048
0.41858848929405212 0.41858848929405212 0.41858848929405212
0.5453452467918396 0.5453452467918396 0.5453452467918396
0.66454792022705078 0.66454792022705078 0.66454792022705078
0.73387235403060913 0.73387235403060913 0.73387235403060913
0.78944051265716553 0.78944051265716553 0.78944051265716553
0.28925538063049316 0.28925538063049316 0.28925538063049316
0.36350834369659424 0.36350834369659424 0.36350834369659424
0.45660579204559326 0.45660579204559326 0.45660579204559326
0.603515625 0.603515625 0.603515625
0.70875471830368042 0.70875471830368042 0.70875471830368042
0.77257484197616577 0.77257484197616577 0.77257484197616577
0.82753217220306396 0.82753217220306396 0.82753217220306396
0.32369005680084229 0.32369005680084229 0.32369005680084229
0.42935973405838013 0.42935973405838013 0.42935973405838013
0.52025300264358521 0.52025300264358521 0.52025300264358521
0.63034933805465698 0.63034933805465698 0.63034933805465698
0.70125120878219604 0.70125120878219604 0.70125120878219604
0.81616979837417603 0.81616979837417603 0.81616979837417603
0.86184626817703247 0.86184626817703247 0.86184626817703247
0.35937261581420898 0.35937261581420898 0.35937261581420898
0.45152124762535095 0.45152124762535095 0.45152124762535095
0.54048418998718262 0.54048418998718262 0.54048418998718262
0.65911179780960083 0.65911179780960083 0.65911179780960083
0.74864894151687622 0.74864894151687622 0.74864894151687622
0.84260213375091553 0.84260213375091553 0.84260213375091553
0.87871009111404419 0.87871009111404419 0.87871009111404419
0.016325423493981361 0.016325423493981361 0.016325423493981361
0.098967291414737701 0.098967291414737701 0.098967291414737701
0.23568017780780792 0.23568017780780792 0.23568017780780792
0.43174523115158081 0.43174523115158081 0.43174523115158081
0.59732472896575928 0.59732472896575928 0.59732472896575928
0.67104285955429077 0.67104285955429077 0.67104285955429077
0.76156872510910034 0.76156872510910034 0.76156872510910034
0.052222277969121933 0.052222277969121933 0.052222277969121933
0.12147817015647888 0.12147817015647888 0.12147817015647888
0.26966691017150879 0.26966691017150879 0.26966691017150879
0.44158059358596802 0.44158059358596802 0.44158059358596802
0.5934678316116333 0.5934678316116333 0.5934678316116333
0.71116071939468384 0.71116071939468384 0.71116071939468384
0.77382802963256836 0.77382802963256836 0.77382802963256836
0.14181488752365112 0.14181488752365112 0.14181488752365112
0.20670689642429352 0.20670689642429352 0.20670689642429352
0.33451399207115173 0.33451399207115173 0.33451399207115173
0.48221597075462341 0.48221597075462341 0.48221597075462341
0.62607699632644653 0.62607699632644653 0.62607699632644653
0.73878633975982666 0.73878633975982666 0.73878633975982666
0.80699169635772705 0.80699169635772705 0.80699169635772705
0.26037141680717468 0.26037141680717468 0.26037141680717468
0.32037094235420227 0.32037094235420227 0.32037094235420227
0.4164731502532959 0.4164731502532959 0.4164731502532959
0.54462295770645142 0.54462295770645142 0.54462295770645142
0.66805851459503174 0.66805851459503174 0.66805851459503174
0.76880842447280884 0.76880842447280884 0.76880842447280884
0.8261411190032959 0.8261411190032959 0.8261411190032959
0.34258547425270081 0.34258547425270081 0.34258547425270081
0.40894690155982971 0.40894690155982971 0.40894690155982971
0.49918559193611145 0.49918559193611145 0.49918559193611145
0.60941725969314575 0.60941725969314575 0.60941725969314575
0.71670389175415039 0.71670389175415039 0.71670389175415039
0.81361162662506104 0.81361162662506104 0.81361162662506104
0.88460344076156616 0.88460344076156616 0.88460344076156616
0.35941743850708008 0.35941743850708008 0.35941743850708008
0.46334975957870483 0.46334975957870483 0.46334975957870483
0.54380589723587036 0.54380589723587036 0.54380589723587036
0.65686464309692383 0.65686464309692383 0.65686464309692383
0.74048471450805664 0.74048471450805664 0.74048471450805664
0.84435915946960449 0.84435915946960449 0.84435915946960449
0.87966698408126831 0.87966698408126831 0.87966698408126831
0.38066548109054565 0.38066548109054565 0.38066548109054565
0.50622832775115967 0.50622832775115967 0.50622832775115967
0.55923753976821899 0.55923753976821899 0.55923753976821899
0.65664768218994141 0.65664768218994141 0.65664768218994141
0.74620705842971802 0.74620705842971802 0.74620705842971802
0.85631281137466431 0.85631281137466431 0.85631281137466431
0.91377067565917969 0.91377067565917969 0.91377067565917969
0.046223793178796768 0.046223793178796768 0.046223793178796768
0.1391904354095459 0.1391904354095459 0.1391904354095459
0.27470523118972778 0.27470523118972778 0.27470523118972778
0.44607248902320862 0.44607248902320862 0.44607248902320862
0.61417680978775024 0.61417680978775024 0.61417680978775024
0.7360072135925293 0.7360072135925293 0.7360072135925293
0.80490666627883911 0.80490666627883911 0.80490666627883911
0.082548536360263824 0.082548536360263824 0.082548536360263824
0.15176430344581604 0.15176430344581604 0.15176430344581604
0.29484254121780396 0.29484254121780396 0.29484254121780396
0.46013543009757996 0.46013543009757996 0.46013543009757996
0.61488509178161621 0.61488509178161621 0.61488509178161621
0.73474454879760742 0.73474454879760742 0.73474454879760742
0.82186496257781982 0.82186496257781982 0.82186496257781982
0.1680355966091156 0.1680355966091156 0.1680355966091156
0.23098763823509216 0.23098763823509216 0.23098763823509216
0.36048674583435059 0.36048674583435059 0.36048674583435059
0.50860261917114258 0.50860261917114258 0.50860261917114258
0.64712440967559814 0.64712440967559814 0.64712440967559814
0.75414109230041504 0.75414109230041504 0.75414109230041504
0.83117663860321045 0.83117663860321045 0.83117663860321045
0.29128041863441467 0.29128041863441467 0.29128041863441467
0.34349220991134644 0.34349220991134644 0.34349220991134644
0.43735799193382263 0.43735799193382263 0.43735799193382263
0.56140965223312378 0.56140965223312378 0.56140965223312378
0.67807143926620483 0.67807143926620483 0.67807143926620483
0.77790147066116333 0.77790147066116333 0.77790147066116333
0.85845613479614258 0.85845613479614258 0.85845613479614258
0.36851546168327332 0.36851546168327332 0.36851546168327332
0.4373871386051178 0.4373871386051178 0.4373871386051178
0.51556265354156494 0.51556265354156494 0.51556265354156494
0.61875277757644653 0.61875277757644653 0.61875277757644653
0.72024863958358765 0.72024863958358765 0.72024863958358765
0.81603866815567017 0.81603866815567017 0.81603866815567017
0.89258986711502075 0.89258986711502075 0.89258986711502075
0.47168824076652527 0.47168824076652527 0.47168824076652527
0.49648627638816833 0.49648627638816833 0.49648627638816833
0.56735396385192871 0.56735396385192871 0.56735396385192871
0.66626465320587158 0.66626465320587158 0.66626465320587158
0.76749318838119507 0.76749318838119507 0.76749318838119507
0.85603857040405273 0.85603857040405273 0.85603857040405273
0.92132818698883057 0.92132818698883057 0.92132818698883057
0.48855555057525635 0.48855555057525635 0.48855555057525635
0.51057273149490356 0.51057273149490356 0.51057273149490356
0.5909913182258606 0.5909913182258606 0.5909913182258606
0.68418979644775391 0.68418979644775391 0.68418979644775391
0.76549583673477173 0.76549583673477173 0.76549583673477173
0.89173120260238647 0.89173120260238647 0.89173120260238647
0.93376576900482178 0.93376576900482178 0.93376576900482178
0.13051432371139526 0.13051432371139526 0.13051432371139526
0.18650369346141815 0.18650369346141815 0.18650369346141815
0.30242985486984253 0.30242985486984253 0.30242985486984253
0.45821043848991394 0.45821043848991394 0.45821043848991394
0.62145513296127319 0.62145513296127319 0.62145513296127319
0.74987483024597168 0.74987483024597168 0.74987483024597168
0.83439284563064575 0.83439284563064575 0.83439284563064575
0.12362547963857651 0.12362547963857651 0.12362547963857651
0.18994775414466858 0.18994775414466858 0.18994775414466858
0.32057338953018188 0.32057338953018188 0.32057338953018188
0.47944715619087219 0.47944715619087219 0.47944715619087219
0.63077729940414429 0.63077729940414429 0.63077729940414429
0.7529720664024353 0.7529720664024353 0.7529720664024353
0.84198874235153198 0.84198874235153198 0.84198874235153198
0.20084200799465179 0.20084200799465179 0.20084200799465179
0.26317015290260315 0.26317015290260315 0.26317015290260315
0.38863304257392883 0.38863304257392883 0.38863304257392883
0.52701860666275024 0.52701860666275024 0.52701860666275024
0.6562926173210144 0.6562926173210144 0.6562926173210144
0.76579469442367554 0.76579469442367554 0.76579469442367554
0.84857058525085449 0.84857058525085449 0.84857058525085449
0.31503242254257202 0.31503242254257202 0.31503242254257202
0.37190210819244385 0.37190210819244385 0.37190210819244385
0.4557664692401886 0.4557664692401886 0.4557664692401886
0.57706427574157715 0.57706427574157715 0.57706427574157715
0.68092858791351318 0.68092858791351318 0.68092858791351318
0.78829056024551392 0.78829056024551392 0.78829056024551392
0.87372243404388428 0.87372243404388428 0.87372243404388428
0.42453509569168091 0.42453509569168091 0.42453509569168091
0.45381703972816467 0.45381703972816467 0.45381703972816467
0.53472399711608887 0.53472399711608887 0.53472399711608887
0.63766276836395264 0.63766276836395264 0.63766276836395264
0.73062372207641602 0.73062372207641602 0.73062372207641602
0.82674944400787354 0.82674944400787354 0.82674944400787354
0.90736430883407593 0.90736430883407593 0.90736430883407593
0.48572665452957153 0.48572665452957153 0.48572665452957153
0.52688944339752197 0.52688944339752197 0.52688944339752197
0.59410536289215088 0.59410536289215088 0.59410536289215088
0.68342214822769165 0.68342214822769165 0.68342214822769165
0.78266745805740356 0.78266745805740356 0.78266745805740356
0.87717849016189575 0.87717849016189575 0.87717849016189575
0.95819509029388428 0.95819509029388428 0.95819509029388428
0.50080996751785278 0.50080996751785278 0.50080996751785278
0.54297715425491333 0.54297715425491333 0.54297715425491333
0.60204190015792847 0.60204190015792847 0.60204190015792847
0.6837049126625061 0.6837049126625061 0.6837049126625061
0.79440349340438843 0.79440349340438843 0.79440349340438843
0.91402727365493774 0.91402727365493774 0.91402727365493774
0.96096181869506836 0.96096181869506836 0.96096181869506836
0.21744589507579803 0.21744589507579803 0.21744589507579803
0.25638777017593384 0.25638777017593384 0.25638777017593384
0.33822685480117798 0.33822685480117798 0.33822685480117798
0.47060224413871765 0.47060224413871765 0.47060224413871765
0.6199830174446106 0.6199830174446106 0.6199830174446106
0.76175308227539062 0.76175308227539062 0.76175308227539062
0.84498697519302368 0.84498697519302368 0.84498697519302368
0.17938636243343353 0.17938636243343353 0.17938636243343353
0.23720341920852661 0.23720341920852661 0.23720341920852661
0.34995326399803162 0.34995326399803162 0.34995326399803162
0.48977392911911011 0.48977392911911011 0.48977392911911011
0.643413245677948 0.643413245677948 0.643413245677948
0.76799416542053223 0.76799416542053223 0.76799416542053223
0.85703033208847046 0.85703033208847046 0.85703033208847046
0.2353949248790741 0.2353949248790741 0.2353949248790741
0.29463291168212891 0.29463291168212891 0.29463291168212891
0.40847468376159668 0.40847468376159668 0.40847468376159668
0.53302597999572754 0.53302597999572754 0.53302597999572754
0.66657215356826782 0.66657215356826782 0.66657215356826782
0.77861517667770386 0.77861517667770386 0.77861517667770386
0.86610889434814453 0.86610889434814453 0.86610889434814453
0.33836507797241211 0.33836507797241211 0.33836507797241211
0.38888615369796753 0.38888615369796753 0.38888615369796753
0.4756949245929718 0.4756949245929718 0.4756949245929718
0.58904486894607544 0.58904486894607544 0.58904486894607544
0.68995290994644165 0.68995290994644165 0.68995290994644165
0.79794180393218994 0.79794180393218994 0.79794180393218994
0.896270751953125 0.896270751953125 0.896270751953125
0.43537676334381104 0.43537676334381104 0.43537676334381104
0.47589763998985291 0.47589763998985291 0.47589763998985291
0.55155700445175171 0.55155700445175171 0.55155700445175171
0.64820683002471924 0.64820683002471924 0.64820683002471924
0.7397390604019165 0.7397390604019165 0.7397390604019165
0.83943319320678711 0.83943319320678711 0.83943319320678711
0.92822802066802979 0.92822802066802979 0.92822802066802979
0.52842479944229126 0.52842479944229126 0.52842479944229126
0.5501362681388855 0.5501362681388855 0.5501362681388855
0.61120021343231201 0.61120021343231201 0.61120021343231201
0.7041512131690979 0.7041512131690979 0.7041512131690979
0.79165244102478027 0.79165244102478027 0.79165244102478027
0.89154702425003052 0.89154702425003052 0.89154702425003052
0.96554452180862427 0.96554452180862427 0.96554452180862427
0.54159253835678101 0.54159253835678101 0.54159253835678101
0.59093034267425537 0.59093034267425537 0.59093034267425537
0.64700233936309814 0.64700233936309814 0.64700233936309814
0.73561042547225952 0.73561042547225952 0.73561042547225952
0.82816398143768311 0.82816398143768311 0.82816398143768311
0.92587757110595703 0.92587757110595703 0.92587757110595703
0.97629088163375854 0.97629088163375854 0.97629088163375854
0.32375547289848328 0.32375547289848328 0.32375547289848328
0.34681618213653564 0.34681618213653564 0.34681618213653564
0.40762677788734436 0.40762677788734436 0.40762677788734436
0.50647968053817749 0.50647968053817749 0.50647968053817749
0.6436346173286438 0.6436346173286438 0.6436346173286438
0.7671210765838623 0.7671210765838623 0.7671210765838623
0.8576168417930603 0.8576168417930603 0.8576168417930603
0.27067789435386658 0.27067789435386658 0.27067789435386658
0.31233876943588257 0.31233876943588257 0.31233876943588257
0.39411479234695435 0.39411479234695435 0.39411479234695435
0.51278436183929443 0.51278436183929443 0.51278436183929443
0.65585124492645264 0.65585124492645264 0.65585124492645264
0.77591234445571899 0.77591234445571899 0.77591234445571899
0.86258304119110107 0.86258304119110107 0.86258304119110107
0.26810929179191589 0.26810929179191589 0.26810929179191589
0.33274489641189575 0.33274489641189575 0.33274489641189575
0.4276975691318512 0.4276975691318512 0.4276975691318512
0.54938668012619019 0.54938668012619019 0.54938668012619019
0.68075734376907349 0.68075734376907349 0.68075734376907349
0.79350411891937256 0.79350411891937256 0.79350411891937256
0.87871980667114258 0.87871980667114258 0.87871980667114258
0.36412161588668823 0.36412161588668823 0.36412161588668823
0.41790416836738586 0.41790416836738586 0.41790416836738586
0.49862402677536011 0.49862402677536011 0.49862402677536011
0.60525190830230713 0.60525190830230713 0.60525190830230713
0.71209895610809326 0.71209895610809326 0.71209895610809326
0.81786113977432251 0.81786113977432251 0.81786113977432251
0.89812541007995605 0.89812541007995605 0.89812541007995605
0.45872622728347778 0.45872622728347778 0.45872622728347778
0.50213223695755005 0.50213223695755005 0.50213223695755005
0.57315939664840698 0.57315939664840698 0.57315939664840698
0.66542983055114746 0.66542983055114746 0.66542983055114746
0.76198959350585938 0.76198959350585938 0.76198959350585938
0.85670566558837891 0.85670566558837891 0.85670566558837891
0.93499577045440674 0.93499577045440674 0.93499577045440674
0.54261124134063721 0.54261124134063721 0.54261124134063721
0.57774639129638672 0.57774639129638672 0.57774639129638672
0.63904744386672974 0.63904744386672974 0.63904744386672974
0.71949487924575806 0.71949487924575806 0.71949487924575806
0.81717079877853394 0.81717079877853394 0.81717079877853394
0.89433717727661133 0.89433717727661133 0.89433717727661133
0.97364813089370728 0.97364813089370728 0.97364813089370728
0.62950307130813599 0.62950307130813599 0.62950307130813599
0.61561602354049683 0.61561602354049683 0.61561602354049683
0.66635078191757202 0.66635078191757202 0.66635078191757202
0.74492943286895752 0.74492943286895752 0.74492943286895752
0.83903151750564575 0.83903151750564575 0.83903151750564575
0.92063462734222412 0.92063462734222412 0.92063462734222412
0.98091274499893188 0.98091274499893188 0.98091274499893188
0.41941359639167786 0.41941359639167786 0.41941359639167786
0.44085368514060974 0.44085368514060974 0.44085368514060974
0.48861449956893921 0.48861449956893921 0.48861449956893921
0.57226210832595825 0.57226210832595825 0.57226210832595825
0.67178422212600708 0.67178422212600708 0.67178422212600708
0.77715212106704712 0.77715212106704712 0.77715212106704712
0.82424783706665039 0.82424783706665039 0.82424783706665039
0.38730046153068542 0.38730046153068542 0.38730046153068542
0.43500074744224548 0.43500074744224548 0.43500074744224548
0.4838622510433197 0.4838622510433197 0.4838622510433197
0.56834185123443604 0.56834185123443604 0.56834185123443604
0.67982816696166992 0.67982816696166992 0.67982816696166992
0.78507018089294434 0.78507018089294434 0.78507018089294434
0.84847670793533325 0.84847670793533325 0.84847670793533325
0.315492182970047 0.315492182970047 0.315492182970047
0.38063856959342957 0.38063856959342957 0.38063856959342957
0.46758896112442017 0.46758896112442017 0.46758896112442017
0.58627331256866455 0.58627331256866455 0.58627331256866455
0.69992917776107788 0.69992917776107788 0.69992917776107788
0.80619865655899048 0.80619865655899048 0.80619865655899048
0.86904722452163696 0.86904722452163696 0.86904722452163696
0.38036906719207764 0.38036906719207764 0.38036906719207764
0.42871615290641785 0.42871615290641785 0.42871615290641785
0.52856403589248657 0.52856403589248657 0.52856403589248657
0.63379848003387451 0.63379848003387451 0.63379848003387451
0.74134916067123413 0.74134916067123413 0.74134916067123413
0.83057862520217896 0.83057862520217896 0.83057862520217896
0.90437871217727661 0.90437871217727661 0.90437871217727661
0.483926922082901 0.483926922082901 0.483926922082901
0.51875990629196167 0.51875990629196167 0.51875990629196167
0.59739691019058228 0.59739691019058228 0.59739691019058228
0.69093817472457886 0.69093817472457886 0.69093817472457886
0.78918969631195068 0.78918969631195068 0.78918969631195068
0.87129944562911987 0.87129944562911987 0.87129944562911987
0.94191837310791016 0.94191837310791016 0.94191837310791016
0.57981580495834351 0.57981580495834351 0.57981580495834351
0.6004488468170166 0.6004488468170166 0.6004488468170166
0.66137701272964478 0.66137701272964478 0.66137701272964478
0.73668211698532104 0.73668211698532104 0.73668211698532104
0.83510106801986694 0.83510106801986694 0.83510106801986694
0.92141789197921753 0.92141789197921753 0.92141789197921753
0.98059707880020142 0.98059707880020142 0.98059707880020142
0.62918937206268311 0.62918937206268311 0.62918937206268311
0.6251603364944458 0.6251603364944458 0.6251603364944458
0.68368804454803467 0.68368804454803467 0.68368804454803467
0.76457405090332031 0.76457405090332031 0.76457405090332031
0.85071158409118652 0.85071158409118652 0.85071158409118652
0.94352293014526367 0.94352293014526367 0.94352293014526367
0.98042094707489014 0.98042094707489014 0.98042094707489014
