assets/lut/fujixtransiii fuji xtrans iii acros+ye.cube
# Created by: G'MIC (https://gmic.eu)
TITLE "fuji_xtrans_iii_acros+ye"
# LUT size
LUT_3D_SIZE 13
# Data domain
DOMAIN_MIN 0.0 0.0 0.0
DOMAIN_MAX 1.0 1.0 1.0
# LUT data points
0.014916319400072098 0.014916319400072098 0.014916319400072098
0.032101064920425415 0.032101064920425415 0.032101064920425415
0.06486213207244873 0.06486213207244873 0.06486213207244873
0.10998361557722092 0.10998361557722092 0.10998361557722092
0.16869403421878815 0.16869403421878815 0.16869403421878815
0.25039553642272949 0.25039553642272949 0.25039553642272949
0.32451105117797852 0.32451105117797852 0.32451105117797852
0.41432526707649231 0.41432526707649231 0.41432526707649231
0.468496173620224 0.468496173620224 0.468496173620224
0.51237529516220093 0.51237529516220093 0.51237529516220093
0.52777713537216187 0.52777713537216187 0.52777713537216187
0.54289776086807251 0.54289776086807251 0.54289776086807251
0.56553512811660767 0.56553512811660767 0.56553512811660767
0.025046972557902336 0.025046972557902336 0.025046972557902336
0.047322757542133331 0.047322757542133331 0.047322757542133331
0.081724278628826141 0.081724278628826141 0.081724278628826141
0.12861783802509308 0.12861783802509308 0.12861783802509308
0.19244585931301117 0.19244585931301117 0.19244585931301117
0.26576480269432068 0.26576480269432068 0.26576480269432068
0.33721679449081421 0.33721679449081421 0.33721679449081421
0.41704711318016052 0.41704711318016052 0.41704711318016052
0.47388756275177002 0.47388756275177002 0.47388756275177002
0.52278190851211548 0.52278190851211548 0.52278190851211548
0.54203337430953979 0.54203337430953979 0.54203337430953979
0.55982726812362671 0.55982726812362671 0.55982726812362671
0.59094870090484619 0.59094870090484619 0.59094870090484619
0.044977959245443344 0.044977959245443344 0.044977959245443344
0.067511945962905884 0.067511945962905884 0.067511945962905884
0.099732600152492523 0.099732600152492523 0.099732600152492523
0.15283139050006866 0.15283139050006866 0.15283139050006866
0.21871964633464813 0.21871964633464813 0.21871964633464813
0.28477063775062561 0.28477063775062561 0.28477063775062561
0.35709995031356812 0.35709995031356812 0.35709995031356812
0.43377077579498291 0.43377077579498291 0.43377077579498291
0.48922243714332581 0.48922243714332581 0.48922243714332581
0.53156697750091553 0.53156697750091553 0.53156697750091553
0.56131434440612793 0.56131434440612793 0.56131434440612793
0.5910651683807373 0.5910651683807373 0.5910651683807373
0.61497598886489868 0.61497598886489868 0.61497598886489868
0.090630203485488892 0.090630203485488892 0.090630203485488892
0.10886020958423615 0.10886020958423615 0.10886020958423615
0.13137049973011017 0.13137049973011017 0.13137049973011017
0.1856318861246109 0.1856318861246109 0.1856318861246109
0.24936872720718384 0.24936872720718384 0.24936872720718384
0.31605160236358643 0.31605160236358643 0.31605160236358643
0.38791143894195557 0.38791143894195557 0.38791143894195557
0.45499488711357117 0.45499488711357117 0.45499488711357117
0.50794988870620728 0.50794988870620728 0.50794988870620728
0.55608516931533813 0.55608516931533813 0.55608516931533813
0.60567855834960938 0.60567855834960938 0.60567855834960938
0.62048447132110596 0.62048447132110596 0.62048447132110596
0.62428545951843262 0.62428545951843262 0.62428545951843262
0.14431700110435486 0.14431700110435486 0.14431700110435486
0.17181873321533203 0.17181873321533203 0.17181873321533203
0.19637638330459595 0.19637638330459595 0.19637638330459595
0.24788722395896912 0.24788722395896912 0.24788722395896912
0.30414968729019165 0.30414968729019165 0.30414968729019165
0.35882925987243652 0.35882925987243652 0.35882925987243652
0.42680445313453674 0.42680445313453674 0.42680445313453674
0.48193252086639404 0.48193252086639404 0.48193252086639404
0.53275614976882935 0.53275614976882935 0.53275614976882935
0.5805591344833374 0.5805591344833374 0.5805591344833374
0.61979126930236816 0.61979126930236816 0.61979126930236816
0.6293485164642334 0.6293485164642334 0.6293485164642334
0.64134329557418823 0.64134329557418823 0.64134329557418823
0.2042355090379715 0.2042355090379715 0.2042355090379715
0.24063192307949066 0.24063192307949066 0.24063192307949066
0.26238983869552612 0.26238983869552612 0.26238983869552612
0.30363774299621582 0.30363774299621582 0.30362004041671753
0.36607623100280762 0.36607623100280762 0.36607623100280762
0.41746482253074646 0.41746482253074646 0.41746482253074646
0.46956828236579895 0.46956828236579895 0.46956828236579895
0.51873648166656494 0.51873648166656494 0.51873648166656494
0.56362688541412354 0.56362688541412354 0.56362688541412354
0.60648041963577271 0.60648041963577271 0.60648041963577271
0.6327020525932312 0.6327020525932312 0.6327020525932312
0.65603315830230713 0.65603315830230713 0.65603315830230713
0.69277751445770264 0.69277751445770264 0.69277751445770264
0.25364702939987183 0.25364702939987183 0.25364702939987183
0.28511214256286621 0.28511214256286621 0.28511214256286621
0.30995634198188782 0.30995634198188782 0.30978637933731079
0.34949100017547607 0.34949100017547607 0.34936732053756714
0.4124998152256012 0.4124998152256012 0.41249516606330872
0.45198985934257507 0.45198985934257507 0.45198985934257507
0.50772935152053833 0.50772935152053833 0.50772935152053833
0.55871939659118652 0.55871939659118652 0.55871939659118652
0.60115343332290649 0.60115343332290649 0.60115343332290649
0.63821786642074585 0.63821786642074585 0.63821786642074585
0.66721910238265991 0.66721910238265991 0.66721910238265991
0.68368107080459595 0.68368107080459595 0.68368107080459595
0.71691912412643433 0.71691912412643433 0.71691912412643433
0.28048425912857056 0.28048425912857056 0.28048425912857056
0.31279680132865906 0.31279680132865906 0.31279680132865906
0.35877504944801331 0.35877504944801331 0.35845711827278137
0.38289451599121094 0.38289451599121094 0.3822496235370636
0.44807702302932739 0.44807702302932739 0.44806146621704102
0.47942814230918884 0.47942814230918884 0.47942814230918884
0.54720109701156616 0.54720109701156616 0.54720109701156616
0.59848642349243164 0.59848642349243164 0.59848642349243164
0.64078468084335327 0.64078468084335327 0.64078468084335327
0.6744849681854248 0.6744849681854248 0.6744849681854248
0.6993831992149353 0.6993831992149353 0.6993831992149353
0.72203582525253296 0.72203582525253296 0.72203582525253296
0.74522054195404053 0.74522054195404053 0.74522054195404053
0.31930044293403625 0.31930044293403625 0.31930044293403625
0.33436188101768494 0.33436188101768494 0.33436188101768494
0.3931427001953125 0.3931427001953125 0.39312246441841125
0.39710596203804016 0.39710596203804016 0.39710596203804016
0.45878592133522034 0.45878592133522034 0.45878592133522034
0.50721806287765503 0.50721806287765503 0.50721806287765503
0.58856570720672607 0.58856570720672607 0.58856570720672607
0.63395357131958008 0.63395357131958008 0.63395357131958008
0.67050909996032715 0.67050909996032715 0.67050909996032715
0.70317560434341431 0.70317560434341431 0.70317560434341431
0.71991705894470215 0.71991705894470215 0.71991705894470215
0.74715089797973633 0.74715089797973633 0.74715089797973633
0.77020901441574097 0.77020901441574097 0.77020901441574097
0.34849250316619873 0.34849250316619873 0.34849250316619873
0.33547261357307434 0.33547261357307434 0.33547261357307434
0.3871992826461792 0.3871992826461792 0.3871992826461792
0.43151998519897461 0.43151998519897461 0.43151998519897461
0.4922029972076416 0.4922029972076416 0.4922029972076416
0.53504317998886108 0.53504317998886108 0.53504317998886108
0.58859884738922119 0.58859884738922119 0.58859884738922119
0.6283341646194458 0.6283341646194458 0.6283341646194458
0.66554564237594604 0.66554564237594604 0.66554564237594604
0.70778125524520874 0.70778125524520874 0.70778125524520874
0.73976117372512817 0.73976117372512817 0.73976117372512817
0.77170556783676147 0.77170556783676147 0.77170556783676147
0.80041950941085815 0.80041950941085815 0.80041950941085815
0.35330048203468323 0.35330048203468323 0.35330048203468323
0.35173484683036804 0.35173484683036804 0.35173484683036804
0.46159094572067261 0.46159094572067261 0.46159094572067261
0.50119674205780029 0.50119674205780029 0.50119674205780029
0.54239410161972046 0.54239410161972046 0.54239410161972046
0.56355315446853638 0.56355315446853638 0.56355315446853638
0.61744564771652222 0.61744564771652222 0.61744564771652222
0.6433945894241333 0.6433945894241333 0.6433945894241333
0.67013776302337646 0.67013776302337646 0.67013776302337646
0.71390062570571899 0.71390062570571899 0.71390062570571899
0.76349520683288574 0.76349520683288574 0.76349520683288574
0.79878479242324829 0.79878479242324829 0.79878479242324829
0.80864036083221436 0.80864036083221436 0.80864036083221436
0.38845798373222351 0.38845798373222351 0.38845798373222351
0.38271579146385193 0.38271579146385193 0.38271579146385193
0.48768073320388794 0.48768073320388794 0.48768073320388794
0.52709144353866577 0.52709144353866577 0.52709144353866577
0.56078857183456421 0.56078857183456421 0.56078857183456421
0.58999592065811157 0.58999592065811157 0.58999592065811157
0.64383077621459961 0.64383077621459961 0.64383077621459961
0.66030770540237427 0.66030770540237427 0.66030770540237427
0.70048809051513672 0.70048809051513672 0.70048809051513672
0.74059611558914185 0.74059611558914185 0.74059611558914185
0.77528178691864014 0.77528178691864014 0.77528178691864014
0.80696374177932739 0.80696374177932739 0.80696374177932739
0.81850171089172363 0.81850171089172363 0.81850171089172363
0.39297229051589966 0.39297229051589966 0.39297229051589966
0.38200557231903076 0.38200557231903076 0.38200557231903076
0.48839601874351501 0.48839601874351501 0.48839601874351501
0.52583318948745728 0.52583318948745728 0.52583318948745728
0.56070828437805176 0.56070828437805176 0.56070828437805176
0.59492617845535278 0.59492617845535278 0.59492617845535278
0.6503874659538269 0.6503874659538269 0.6503874659538269
0.680278480052948 0.680278480052948 0.680278480052948
0.72697043418884277 0.72697043418884277 0.72697043418884277
0.77359288930892944 0.77359288930892944 0.77359288930892944
0.80617320537567139 0.80617320537567139 0.80617320537567139
0.82418256998062134 0.82418256998062134 0.82418256998062134
0.83532780408859253 0.83532780408859253 0.83532780408859253
0.014674751088023186 0.014674751088023186 0.014674751088023186
0.030286721885204315 0.030286721885204315 0.030286721885204315
0.071078173816204071 0.071078173816204071 0.071078173816204071
0.11562971025705338 0.11562971025705338 0.11562971025705338
0.15472474694252014 0.15472474694252014 0.15472474694252014
0.24662522971630096 0.24662522971630096 0.24662522971630096
0.34259366989135742 0.34259366989135742 0.34259366989135742
0.42477655410766602 0.42477655410766602 0.42477655410766602
0.50075602531433105 0.50075602531433105 0.50075602531433105
0.5379442572593689 0.5379442572593689 0.5379442572593689
0.55536586046218872 0.55536586046218872 0.55536586046218872
0.56466031074523926 0.56466031074523926 0.56466031074523926
0.61100149154663086 0.61100149154663086 0.61100149154663086
0.030480777844786644 0.030480777844786644 0.030480777844786644
0.053604695945978165 0.053604695945978165 0.053604695945978165
0.090274080634117126 0.090274080634117126 0.090274080634117126
0.1364034116268158 0.1364034116268158 0.1364034116268158
0.18621501326560974 0.18621501326560974 0.18621501326560974
0.2630612850189209 0.2630612850189209 0.2630612850189209
0.34536772966384888 0.34536772966384888 0.34536772966384888
0.41847839951515198 0.41847839951515198 0.41847839951515198
0.48223400115966797 0.48223400115966797 0.48223400115966797
0.53523975610733032 0.53523975610733032 0.53523975610733032
0.56280303001403809 0.56280303001403809 0.56280303001403809
0.59506964683532715 0.59506964683532715 0.59506964683532715
0.63431936502456665 0.63431936502456665 0.63431936502456665
0.058194536715745926 0.058194536715745926 0.058194536715745926
0.079903185367584229 0.079903185367584229 0.079903185367584229
0.11043113470077515 0.11043113470077515 0.11043113470077515
0.15947256982326508 0.15947256982326508 0.15947256982326508
0.22029691934585571 0.22029691934585571 0.22029691934585571
0.29187408089637756 0.29187408089637756 0.29187408089637756
0.36468362808227539 0.36468362808227539 0.36468362808227539
0.43514218926429749 0.43514218926429749 0.43514218926429749
0.49428659677505493 0.49428659677505493 0.49428659677505493
0.54925298690795898 0.54925298690795898 0.54925298690795898
0.59256249666213989 0.59256249666213989 0.59256249666213989
0.61769372224807739 0.61769372224807739 0.61769372224807739
0.6414635181427002 0.6414635181427002 0.6414635181427002
0.10126350075006485 0.10126350075006485 0.10126350075006485
0.1200876459479332 0.1200876459479332 0.1200876459479332
0.14956262707710266 0.14956262707710266 0.14956262707710266
0.19798120856285095 0.19798120856285095 0.19798120856285095
0.25518324971199036 0.25518324971199036 0.25518324971199036
0.32196313142776489 0.32196313142776489 0.32196313142776489
0.3929254412651062 0.3929254412651062 0.3929254412651062
0.45742851495742798 0.45742851495742798 0.45742851495742798
0.51446926593780518 0.51446926593780518 0.51446926593780518
0.56884312629699707 0.56884312629699707 0.56884312629699707
0.61067432165145874 0.61067432165145874 0.61067432165145874
0.62871009111404419 0.62871009111404419 0.62871009111404419
0.64969676733016968 0.64969676733016968 0.64969676733016968
0.16152757406234741 0.16152757406234741 0.16152757406234741
0.17771391570568085 0.17771391570568085 0.17771391570568085
0.20618468523025513 0.20618468523025513 0.20618468523025513
0.25278177857398987 0.25278177857398987 0.25278177857398987
0.30455538630485535 0.30455538630485535 0.30455538630485535
0.3602750301361084 0.3602750301361084 0.3602750301361084
0.42446190118789673 0.42446190118789673 0.42446190118789673
0.48151832818984985 0.48151832818984985 0.48151832818984985
0.53705984354019165 0.53705984354019165 0.53705984354019165
0.59227049350738525 0.59227049350738525 0.59227049350738525
0.63980066776275635 0.63980066776275635 0.63980066776275635
0.65576696395874023 0.65576696395874023 0.65576696395874023
0.67879879474639893 0.67879879474639893 0.67879879474639893
0.22536523640155792 0.22536523640155792 0.22536523640155792
0.24765801429748535 0.24765801429748535 0.24765801429748535
0.26994648575782776 0.26994648575782776 0.26994648575782776
0.30971679091453552 0.30971679091453552 0.30971679091453552
0.3627469539642334 0.3627469539642334 0.3627469539642334
0.41375234723091125 0.41375234723091125 0.41375234723091125
0.46371811628341675 0.46371811628341675 0.46371811628341675
0.51694142818450928 0.51694142818450928 0.51694142818450928
0.56616932153701782 0.56616932153701782 0.56616932153701782
0.60965931415557861 0.60965931415557861 0.60965931415557861
0.65801852941513062 0.65801852941513062 0.65801852941513062
0.69617277383804321 0.69617277383804321 0.69617277383804321
0.71662461757659912 0.71662461757659912 0.71662461757659912
0.2697683572769165 0.2697683572769165 0.2697683572769165
0.30582016706466675 0.30582016706466675 0.30582016706466675
0.33377254009246826 0.33377254009246826 0.33377254009246826
0.3614928126335144 0.3614928126335144 0.3614928126335144
0.42042100429534912 0.42042100429534912 0.42042100429534912
0.45769611001014709 0.45769611001014709 0.45769611001014709
0.50756281614303589 0.50756281614303589 0.50756281614303589
0.56067061424255371 0.56067061424255371 0.56067061424255371
0.60312378406524658 0.60312378406524658 0.60312378406524658
0.64183217287063599 0.64183217287063599 0.64183217287063599
0.6864733099937439 0.6864733099937439 0.6864733099937439
0.71626782417297363 0.71626782417297363 0.71626782417297363
0.73456758260726929 0.73456758260726929 0.73456758260726929
0.33923345804214478 0.33923345804214478 0.33923345804214478
0.35495561361312866 0.35495561361312866 0.35495561361312866
0.38460087776184082 0.38460087776184082 0.38460087776184082
0.40428894758224487 0.40428894758224487 0.40428894758224487
0.45835936069488525 0.45835936069488525 0.45835936069488525
0.49656888842582703 0.49656888842582703 0.49656888842582703
0.55326724052429199 0.55326724052429199 0.55326724052429199
0.60038191080093384 0.60038191080093384 0.60038191080093384
0.64296364784240723 0.64296364784240723 0.64296364784240723
0.68142992258071899 0.68142992258071899 0.68142992258071899
0.72087639570236206 0.72087639570236206 0.72087639570236206
0.74685204029083252 0.74685204029083252 0.74685204029083252
0.76870381832122803 0.76870381832122803 0.76870381832122803
0.37674391269683838 0.37674391269683838 0.37674391269683838
0.39593368768692017 0.39593368768692017 0.39593368768692017
0.41817936301231384 0.41817936301231384 0.41817936301231384
0.43770602345466614 0.43770602345466614 0.4376731812953949
0.48878353834152222 0.48878353834152222 0.48878353834152222
0.52729302644729614 0.52729302644729614 0.52729302644729614
0.59147757291793823 0.59147757291793823 0.59147757291793823
0.63805586099624634 0.63805586099624634 0.63805586099624634
0.66854184865951538 0.66854184865951538 0.66854184865951538
0.71072095632553101 0.71072095632553101 0.71072095632553101
0.7519945502281189 0.7519945502281189 0.7519945502281189
0.77770715951919556 0.77770715951919556 0.77770715951919556
0.80361759662628174 0.80361759662628174 0.80361759662628174
0.39284986257553101 0.39284986257553101 0.39284986257553101
0.40289276838302612 0.40289276838302612 0.40289276838302612
0.45771101117134094 0.45771101117134094 0.45771101117134094
0.48859947919845581 0.48859947919845581 0.48859947919845581
0.52955591678619385 0.52955591678619385 0.52955591678619385
0.56694275140762329 0.56694275140762329 0.56694275140762329
0.62099474668502808 0.62099474668502808 0.62099474668502808
0.65271425247192383 0.65271425247192383 0.65271425247192383
0.68450748920440674 0.68450748920440674 0.68450748920440674
0.72956633567810059 0.72956633567810059 0.72956633567810059
0.77053266763687134 0.77053266763687134 0.77053266763687134
0.79823344945907593 0.79823344945907593 0.79823344945907593
0.81245648860931396 0.81245648860931396 0.81245648860931396
0.39676001667976379 0.39676001667976379 0.39676001667976379
0.41075873374938965 0.41075873374938965 0.41075873374938965
0.48690029978752136 0.48690029978752136 0.48690029978752136
0.51726746559143066 0.51726746559143066 0.51726746559143066
0.5548216700553894 0.5548216700553894 0.5548216700553894
0.59232831001281738 0.59232831001281738 0.59232831001281738
0.64369714260101318 0.64369714260101318 0.64369714260101318
0.66892498731613159 0.66892498731613159 0.66892498731613159
0.70982956886291504 0.70982956886291504 0.70982956886291504
0.7491118311882019 0.7491118311882019 0.7491118311882019
0.78999406099319458 0.78999406099319458 0.78999406099319458
0.80773711204528809 0.80773711204528809 0.80773711204528809
0.81412738561630249 0.81412738561630249 0.81412738561630249
0.41162624955177307 0.41162624955177307 0.41162624955177307
0.41045999526977539 0.41045999526977539 0.41045999526977539
0.49995046854019165 0.49995046854019165 0.49995046854019165
0.53750592470169067 0.53750592470169067 0.53750592470169067
0.56706863641738892 0.56706863641738892 0.56706863641738892
0.59557676315307617 0.59557676315307617 0.59557676315307617
0.65064221620559692 0.65064221620559692 0.65064221620559692
0.68127113580703735 0.68127113580703735 0.68127113580703735
0.72853142023086548 0.72853142023086548 0.72853142023086548
0.77052122354507446 0.77052122354507446 0.77052122354507446
0.80043214559555054 0.80043214559555054 0.80043214559555054
0.82476067543029785 0.82476067543029785 0.82476067543029785
0.83621466159820557 0.83621466159820557 0.83621466159820557
0.4184337854385376 0.4184337854385376 0.4184337854385376
0.41424098610877991 0.41424098610877991 0.41424098610877991
0.51731950044631958 0.51731950044631958 0.51731950044631958
0.5578727126121521 0.5578727126121521 0.5578727126121521
0.58187365531921387 0.58187365531921387 0.58187365531921387
0.60631799697875977 0.60631799697875977 0.60631799697875977
0.65364366769790649 0.65364366769790649 0.65364366769790649
0.68325871229171753 0.68325871229171753 0.68325871229171753
0.72795683145523071 0.72795683145523071 0.72795683145523071
0.77555340528488159 0.77555340528488159 0.77555340528488159
0.8116949200630188 0.8116949200630188 0.8116949200630188
0.85218816995620728 0.85218816995620728 0.85218816995620728
0.8623511791229248 0.8623511791229248 0.8623511791229248
0.019179744645953178 0.019179744645953178 0.019179744645953178
0.049409154802560806 0.049409154802560806 0.049409154802560806
0.091238908469676971 0.091238908469676971 0.091238908469676971
0.1475023478269577 0.1475023478269577 0.1475023478269577
0.19470614194869995 0.19470614194869995 0.19470614194869995
0.27529403567314148 0.27529403567314148 0.27529403567314148
0.35864344239234924 0.35864344239234924 0.35864344239234924
0.43658187985420227 0.43658187985420227 0.43658187985420227
0.50686836242675781 0.50686836242675781 0.50686836242675781
0.54161399602890015 0.54161399602890015 0.54161399602890015
0.56667399406433105 0.56667399406433105 0.56667399406433105
0.60979169607162476 0.60979169607162476 0.60979169607162476
0.65935754776000977 0.65935754776000977 0.65935754776000977
0.040444377809762955 0.040444377809762955 0.040444377809762955
0.068758897483348846 0.068758897483348846 0.068758897483348846
0.10161904990673065 0.10161904990673065 0.10161904990673065
0.15056297183036804 0.15056297183036804 0.15056297183036804
0.21563781797885895 0.21563781797885895 0.21563781797885895
0.28484454751014709 0.28484454751014709 0.28484454751014709
0.35941776633262634 0.35941776633262634 0.35941776633262634
0.43312069773674011 0.43312069773674011 0.43312069773674011
0.49345657229423523 0.49345657229423523 0.49345657229423523
0.54719185829162598 0.54719185829162598 0.54719185829162598
0.59373646974563599 0.59373646974563599 0.59373646974563599
0.62675172090530396 0.62675172090530396 0.62675172090530396
0.66046500205993652 0.66046500205993652 0.66046500205993652
0.070923015475273132 0.070923015475273132 0.070923015475273132
0.092806704342365265 0.092806704342365265 0.092806704342365265
0.12206781655550003 0.12206781655550003 0.12206781655550003
0.1738673597574234 0.1738673597574234 0.1738673597574234
0.23599041998386383 0.23599041998386383 0.23599041998386383
0.30413508415222168 0.30413508415222168 0.30413508415222168
0.37348169088363647 0.37348169088363647 0.37348169088363647
0.44151440262794495 0.44151440262794495 0.44151440262794495
0.50537222623825073 0.50537222623825073 0.50537222623825073
0.56336885690689087 0.56336885690689087 0.56336885690689087
0.61128556728363037 0.61128556728363037 0.61128556728363037
0.63948220014572144 0.63948220014572144 0.63948220014572144
0.67407798767089844 0.67407798767089844 0.67407798767089844
0.11656972765922546 0.11656972765922546 0.11656972765922546
0.13330751657485962 0.13330751657485962 0.13330751657485962
0.16485373675823212 0.16485373675823212 0.16485373675823212
0.21092104911804199 0.21092104911804199 0.21092104911804199
0.2682512104511261 0.2682512104511261 0.2682512104511261
0.33277857303619385 0.33277857303619385 0.33277857303619385
0.39920192956924438 0.39920192956924438 0.39920192956924438
0.46415004134178162 0.46415004134178162 0.46415004134178162
0.52509671449661255 0.52509671449661255 0.52509671449661255
0.58127564191818237 0.58127564191818237 0.58127564191818237
0.63333076238632202 0.63333076238632202 0.63333076238632202
0.675018310546875 0.675018310546875 0.675018310546875
0.69814401865005493 0.69814401865005493 0.69814401865005493
0.17284893989562988 0.17284893989562988 0.17284893989562988
0.19185528159141541 0.19185528159141541 0.19185528159141541
0.22107023000717163 0.22107023000717163 0.22107023000717163
0.2600020170211792 0.2600020170211792 0.2600020170211792
0.31251311302185059 0.31251311302185059 0.31251311302185059
0.3700447678565979 0.3700447678565979 0.3700447678565979
0.43047443032264709 0.43047443032264709 0.43047443032264709
0.48913034796714783 0.48913034796714783 0.48913034796714783
