assets/lut/fujixtransiii fuji xtrans iii provia.cube
# Created by: G'MIC (https://gmic.eu)
TITLE "fuji_xtrans_iii_provia"
# LUT size
LUT_3D_SIZE 5
# Data domain
DOMAIN_MIN 0.0 0.0 0.0
DOMAIN_MAX 1.0 1.0 1.0
# LUT data points
0.0061679165810346603 0.011925715953111649 0.012044121511280537
0.21376346051692963 0.02902640588581562 0.016811594367027283
0.57573401927947998 0.10542713105678558 0.040199354290962219
0.84499108791351318 0.18998719751834869 0.121782086789608
0.91368991136550903 0.23392190039157867 0.18028745055198669
0.0078060375526547432 0.17520555853843689 0.0058823530562222004
0.2015225738286972 0.20727591216564178 0.0092988554388284683
0.58568781614303589 0.25075799226760864 0.021758748218417168
0.87586730718612671 0.31376487016677856 0.062705859541893005
0.98318910598754883 0.34715312719345093 0.13840660452842712
0.00056756712729111314 0.43839812278747559 0.0015959496377035975
0.079732753336429596 0.49930897355079651 0
0.53217977285385132 0.51973623037338257 0.0041291629895567894
0.83423739671707153 0.55211925506591797 0.012043897062540054
0.9527934193611145 0.58306282758712769 0.1224474161863327
0.0020900052040815353 0.53265798091888428 0.029715385288000107
0.043891578912734985 0.61280661821365356 0.027851134538650513
0.48692026734352112 0.6762397289276123 0.0025726617313921452
0.83092594146728516 0.67709660530090332 0.011330458335578442
0.95936506986618042 0.73814761638641357 0.14622397720813751
0.0039215688593685627 0.5805397629737854 0.013217432424426079
0.036497078835964203 0.73625123500823975 0.078371785581111908
0.51266509294509888 0.74293708801269531 0.02955678291618824
0.80442583560943604 0.78381425142288208 0.17210300266742706
0.94491416215896606 0.79394733905792236 0.23934578895568848
0.029874091967940331 0.052565868943929672 0.27917525172233582
0.32538187503814697 0.088194169104099274 0.28462746739387512
0.6171385645866394 0.1553303599357605 0.35379266738891602
0.89733129739761353 0.21708774566650391 0.38011893630027771
0.99707621335983276 0.29079326987266541 0.48147127032279968
0.010316437110304832 0.22726044058799744 0.23003362119197845
0.22336603701114655 0.25728148221969604 0.23412200808525085
0.59624403715133667 0.28570741415023804 0.27564182877540588
0.88423818349838257 0.34643471240997314 0.31729897856712341
0.99913126230239868 0.39225918054580688 0.38967427611351013
0.0034238179214298725 0.52520298957824707 0.18792741000652313
0.081504091620445251 0.53514575958251953 0.15429973602294922
0.52136856317520142 0.55228453874588013 0.19282734394073486
0.8313060998916626 0.57394301891326904 0.24350030720233917
0.99496328830718994 0.59039747714996338 0.3351043164730072
0.00013499541091732681 0.63981705904006958 0.34516379237174988
0.024788232520222664 0.74720931053161621 0.1463494598865509
0.4026547372341156 0.75835740566253662 0.17389874160289764
0.78608924150466919 0.76719361543655396 0.22176888585090637
0.96364456415176392 0.80139750242233276 0.27742573618888855
0.0022085302043706179 0.7030479907989502 0.34645146131515503
0.032169941812753677 0.8003164529800415 0.23980638384819031
0.37269160151481628 0.81218010187149048 0.2742866575717926
0.75805318355560303 0.83585566282272339 0.32024273276329041
0.9447517991065979 0.85600906610488892 0.35983467102050781
0.19605235755443573 0.12754113972187042 0.67774021625518799
0.42647966742515564 0.15265367925167084 0.68211358785629272
0.67293941974639893 0.21858139336109161 0.67742645740509033
0.89637953042984009 0.28437715768814087 0.68275421857833862
0.99798858165740967 0.35072740912437439 0.70187002420425415
0.082696251571178436 0.31240963935852051 0.62234508991241455
0.34430193901062012 0.33560267090797424 0.62911969423294067
0.63111776113510132 0.36077126860618591 0.62651538848876953
0.88701581954956055 0.40968531370162964 0.64207559823989868
0.9960014820098877 0.44727760553359985 0.6773076057434082
0.014292069710791111 0.56252270936965942 0.57034546136856079
0.17874258756637573 0.56947004795074463 0.5631253719329834
0.54850202798843384 0.57606619596481323 0.57163798809051514
0.82903015613555908 0.59724700450897217 0.5942157506942749
0.99037379026412964 0.62318819761276245 0.60639017820358276
0.00082081812433898449 0.75826859474182129 0.60296386480331421
0.055662296712398529 0.77687287330627441 0.50392246246337891
0.43864396214485168 0.78310877084732056 0.51350289583206177
0.78867805004119873 0.78991401195526123 0.53222882747650146
0.97743695974349976 0.83161479234695435 0.56173312664031982
0.0013128841528669 0.81278407573699951 0.63832622766494751
0.045547336339950562 0.84472215175628662 0.51489359140396118
0.36309623718261719 0.85064011812210083 0.50304359197616577
0.80945950746536255 0.8736453652381897 0.54516470432281494
0.96448773145675659 0.91253447532653809 0.57636946439743042
0.43782323598861694 0.097557276487350464 0.90581279993057251
0.57467770576477051 0.18014831840991974 0.90818434953689575
0.76183217763900757 0.2719205915927887 0.91150939464569092
0.92997419834136963 0.35195571184158325 0.90531420707702637
0.99792599678039551 0.42646932601928711 0.95479291677474976
0.22311462461948395 0.39896038174629211 0.91092199087142944
0.48071983456611633 0.43029293417930603 0.90889281034469604
0.69478929042816162 0.45605048537254333 0.90029811859130859
0.90015655755996704 0.4922848641872406 0.89972430467605591
0.99458211660385132 0.5279814600944519 0.90964019298553467
0.12399468570947647 0.61226314306259155 0.86189478635787964
0.37776872515678406 0.62199562788009644 0.85593843460083008
0.64587509632110596 0.62841987609863281 0.86274141073226929
0.84959971904754639 0.65074330568313599 0.85577189922332764
0.99317783117294312 0.68258124589920044 0.87122863531112671
0.031627774238586426 0.80245250463485718 0.8204571008682251
0.21039655804634094 0.80301773548126221 0.81077110767364502
0.55102312564849854 0.80687171220779419 0.8141283392906189
0.81361347436904907 0.81702202558517456 0.81806254386901855
0.98076194524765015 0.86838161945343018 0.8450281023979187
0.069230005145072937 0.87711697816848755 0.8370482325553894
0.13777565956115723 0.90339487791061401 0.83748680353164673
0.53765249252319336 0.91260075569152832 0.84642136096954346
0.83950901031494141 0.91238749027252197 0.821338951587677
0.97343927621841431 0.94105803966522217 0.8427128791809082
0.63992762565612793 0.15384052693843842 0.99929487705230713
0.71611273288726807 0.24172458052635193 0.9975547194480896
0.84796988964080811 0.35906115174293518 0.99489015340805054
0.96618157625198364 0.48549935221672058 0.99660181999206543
0.99986213445663452 0.5406874418258667 0.99852627515792847
0.43389460444450378 0.45923522114753723 0.9969896674156189
0.63853716850280762 0.53773891925811768 0.99548155069351196
0.79410135746002197 0.5669439435005188 0.99512749910354614
0.93790256977081299 0.61711174249649048 0.99224722385406494
0.99876374006271362 0.60181772708892822 0.99916785955429077
0.21976061165332794 0.6760256290435791 0.99652367830276489
0.54924529790878296 0.71314549446105957 0.99554634094238281
0.73137575387954712 0.72123247385025024 0.99174994230270386
0.89796274900436401 0.73231971263885498 0.99279677867889404
0.99457687139511108 0.72290563583374023 0.99753463268280029
0.21889567375183105 0.85176795721054077 0.99576473236083984
0.44439846277236938 0.86249405145645142 0.99331390857696533
0.68022418022155762 0.86609774827957153 0.98734349012374878
0.87030082941055298 0.87291222810745239 0.98314172029495239
0.99316412210464478 0.88830423355102539 0.99524980783462524
0.26757648587226868 0.93327558040618896 0.97071188688278198
0.33307728171348572 0.93172013759613037 0.96479791402816772
0.63826394081115723 0.93208611011505127 0.98034721612930298
0.88433241844177246 0.94428014755249023 0.9901161789894104
0.98461127281188965 0.96154606342315674 0.98539966344833374
