assets/lut/fujixtransiii fuji xtrans iii mono+g.cube
# Created by: G'MIC (https://gmic.eu)
TITLE "fuji_xtrans_iii_mono+g"
# LUT size
LUT_3D_SIZE 5
# Data domain
DOMAIN_MIN 0.0 0.0 0.0
DOMAIN_MAX 1.0 1.0 1.0
# LUT data points
0.012222649529576302 0.012222649529576302 0.012222649529576302
0.042545799165964127 0.042545799165964127 0.042545799165964127
0.15921337902545929 0.15921337902545929 0.15921337902545929
0.25144472718238831 0.25144472718238831 0.25144472718238831
0.28478598594665527 0.28478598594665527 0.28478598594665527
0.12619350850582123 0.12619350850582123 0.12619350850582123
0.18117538094520569 0.18117538094520569 0.18117538094520569
0.26256754994392395 0.26256754994392395 0.26256754994392395
0.33498385548591614 0.33498385548591614 0.33498385548591614
0.36758625507354736 0.36758625507354736 0.36758625507354736
0.32957890629768372 0.32957890629768372 0.32957890629768372
0.40140482783317566 0.40140482783317566 0.40140482783317566
0.46510925889015198 0.46510925889015198 0.46510925889015198
0.51646178960800171 0.51646178960800171 0.51646178960800171
0.55059409141540527 0.55059409141540527 0.55059409141540527
0.42183429002761841 0.42183429002761841 0.42183429002761841
0.49530944228172302 0.49530944228172302 0.49530944228172302
0.58417731523513794 0.58417731523513794 0.58417731523513794
0.60954320430755615 0.60954320430755615 0.60954320430755615
0.66862422227859497 0.66862422227859497 0.66862422227859497
0.46576544642448425 0.46576544642448425 0.46576544642448425
0.60300368070602417 0.60300368070602417 0.60300368070602417
0.65225529670715332 0.65225529670715332 0.65225529670715332
0.70871025323867798 0.70871025323867798 0.70871025323867798
0.72525858879089355 0.72525858879089355 0.72525858879089355
0.079811230301856995 0.079811230301856995 0.079811230301856995
0.14278274774551392 0.14278274774551392 0.14278274774551392
0.22590205073356628 0.22590205073356628 0.22590205073356628
0.27695581316947937 0.27695581316947937 0.27695581316947937
0.33219814300537109 0.33219814300537109 0.33219814300537109
0.20735754072666168 0.20735754072666168 0.20735754072666168
0.24148018658161163 0.24148018658161163 0.24148018658161163
0.31334143877029419 0.31334143877029419 0.31334143877029419
0.36829447746276855 0.36829447746276855 0.36829447746276855
0.41373646259307861 0.41373646259307861 0.41373646259307861
0.42722007632255554 0.42722007632255554 0.42722007632255554
0.46600496768951416 0.46600496768951416 0.46600496768951416
0.51254576444625854 0.51254576444625854 0.51254576444625854
0.54390138387680054 0.54390138387680054 0.54390138387680054
0.56591469049453735 0.56591469049453735 0.56591469049453735
0.52734917402267456 0.52734917402267456 0.52734917402267456
0.610870361328125 0.610870361328125 0.610870361328125
0.66462951898574829 0.66462951898574829 0.66462951898574829
0.70720911026000977 0.70720911026000977 0.70720911026000977
0.73272275924682617 0.73272275924682617 0.73272275924682617
0.57915228605270386 0.57915228605270386 0.57915228605270386
0.66962820291519165 0.66962820291519165 0.66962820291519165
0.70935571193695068 0.70935571193695068 0.70935571193695068
0.76459199190139771 0.76459199190139771 0.76459199190139771
0.79607516527175903 0.79607516527175903 0.79607516527175903
0.23173306882381439 0.23173306882381439 0.23266567289829254
0.27703136205673218 0.27703136205673218 0.27703487873077393
0.34026575088500977 0.34026575088500977 0.34026575088500977
0.38339287042617798 0.38339287042617798 0.38339287042617798
0.40068191289901733 0.40068191289901733 0.40068191289901733
0.32786718010902405 0.32786718010902405 0.3279191255569458
0.36823135614395142 0.36823135614395142 0.36826661229133606
0.42104253172874451 0.42104253172874451 0.42104253172874451
0.46249619126319885 0.46249619126319885 0.46249619126319885
0.48364719748497009 0.48364719748497009 0.48364719748497009
0.50626510381698608 0.50626510381698608 0.50629794597625732
0.5421217679977417 0.5421217679977417 0.5421217679977417
0.589275062084198 0.589275062084198 0.589275062084198
0.61150604486465454 0.61150604486465454 0.61150604486465454
0.6241610050201416 0.6241610050201416 0.6241610050201416
0.65380847454071045 0.65380847454071045 0.65380847454071045
0.67343711853027344 0.67343711853027344 0.67343711853027344
0.7197914719581604 0.7197914719581604 0.7197914719581604
0.75825387239456177 0.75825387239456177 0.75825387239456177
0.80198132991790771 0.80198132991790771 0.80198132991790771
0.69917011260986328 0.69917011260986328 0.69917011260986328
0.7236170768737793 0.7236170768737793 0.7236170768737793
0.76634508371353149 0.76634508371353149 0.76634508371353149
0.82513695955276489 0.82513695955276489 0.82513695955276489
0.87080258131027222 0.87080258131027222 0.87080258131027222
0.33918330073356628 0.33918330073356628 0.33948186039924622
0.39807948470115662 0.39807948470115662 0.39807948470115662
0.47206312417984009 0.47206312417984009 0.47206312417984009
0.52579623460769653 0.52579623460769653 0.52579623460769653
0.5655444860458374 0.5655444860458374 0.5655444860458374
0.45759254693984985 0.45759254693984985 0.45759254693984985
0.49698185920715332 0.49698185920715332 0.49702095985412598
0.54783129692077637 0.54783129692077637 0.54783129692077637
0.58601933717727661 0.58601933717727661 0.58601933717727661
0.61277979612350464 0.61277979612350464 0.61277979612350464
0.58767962455749512 0.58767962455749512 0.58768665790557861
0.61723619699478149 0.61723619699478149 0.61723619699478149
0.64311832189559937 0.64311832189559937 0.64311832189559937
0.6904793381690979 0.6904793381690979 0.6904793381690979
0.7276642918586731 0.7276642918586731 0.7276642918586731
0.72729790210723877 0.72729790210723877 0.72729790210723877
0.73722416162490845 0.73722416162490845 0.73722416162490845
0.76338189840316772 0.76338189840316772 0.76338189840316772
0.81127691268920898 0.81127691268920898 0.81127691268920898
0.8735886812210083 0.8735886812210083 0.8735886812210083
0.78243482112884521 0.78243482112884521 0.78243482112884521
0.81879210472106934 0.81879210472106934 0.81879210472106934
0.86381316184997559 0.86381316184997559 0.86381316184997559
0.89501756429672241 0.89501756429672241 0.89501756429672241
0.92197829484939575 0.92197829484939575 0.92197829484939575
0.42360049486160278 0.42360049486160278 0.42356765270233154
0.47401344776153564 0.47401344776153564 0.47402104735374451
0.5538596510887146 0.5538596510887146 0.5538596510887146
0.63816332817077637 0.63816332817077637 0.63816332817077637
0.6764330267906189 0.6764330267906189 0.6764330267906189
0.56575387716293335 0.56575387716293335 0.56575387716293335
0.61403810977935791 0.61403810977935791 0.61403810977935791
0.6585925817489624 0.6585925817489624 0.6585925817489624
0.69751721620559692 0.69751721620559692 0.69751721620559692
0.71151119470596313 0.71151119470596313 0.71151119470596313
0.67501646280288696 0.67501646280288696 0.67501646280288696
0.70494455099105835 0.70494455099105835 0.70493704080581665
0.73553669452667236 0.73553669452667236 0.73553669452667236
0.77388548851013184 0.77388548851013184 0.77388548851013184
0.80573177337646484 0.80573177337646484 0.80573177337646484
0.78773325681686401 0.78773325681686401 0.78773325681686401
0.80900603532791138 0.80900603532791138 0.80900603532791138
0.83673340082168579 0.83673340082168579 0.83673340082168579
0.8784756064414978 0.8784756064414978 0.8784756064414978
0.91653084754943848 0.91653084754943848 0.91653084754943848
0.8607027530670166 0.8607027530670166 0.8607027530670166
0.85469722747802734 0.85469722747802734 0.85469722747802734
0.88968664407730103 0.88968664407730103 0.88968664407730103
0.92635262012481689 0.92635262012481689 0.92635262012481689
0.95675075054168701 0.95675075054168701 0.95675075054168701
