assets/lut/fujixtransiii fuji xtrans iii pro neg std.cube
# Created by: G'MIC (https://gmic.eu)
TITLE "fuji_xtrans_iii_pro_neg_std"
# LUT size
LUT_3D_SIZE 13
# Data domain
DOMAIN_MIN 0.0 0.0 0.0
DOMAIN_MAX 1.0 1.0 1.0
# LUT data points
0.020537402480840683 0.028101259842514992 0.026639018207788467
0.049331337213516235 0.029591429978609085 0.024435169994831085
0.11078639328479767 0.042426720261573792 0.036405183374881744
0.18834862112998962 0.060602031648159027 0.054888766258955002
0.28452956676483154 0.080484874546527863 0.074198059737682343
0.39205196499824524 0.10978677868843079 0.098588861525058746
0.49936741590499878 0.15030260384082794 0.12939079105854034
0.61894947290420532 0.19072221219539642 0.16881904006004333
0.687796950340271 0.21173998713493347 0.19762043654918671
0.74326610565185547 0.23108650743961334 0.21791301667690277
0.77216494083404541 0.24459545314311981 0.23308615386486053
0.79131609201431274 0.25531351566314697 0.25128188729286194
0.8088071346282959 0.26930391788482666 0.26190993189811707
0.016979068517684937 0.053204897791147232 0.023851746693253517
0.053594715893268585 0.058992631733417511 0.030413264408707619
0.11920427531003952 0.071754574775695801 0.042714856564998627
0.19659236073493958 0.087687201797962189 0.055781077593564987
0.29025560617446899 0.11364062130451202 0.076228104531764984
0.4020744264125824 0.14228352904319763 0.10031908750534058
0.51351994276046753 0.16695062816143036 0.1281924694776535
0.62211704254150391 0.20332711935043335 0.16376875340938568
0.69856482744216919 0.22745993733406067 0.1949218213558197
0.76017910242080688 0.24609531462192535 0.21952265501022339
0.78600698709487915 0.25686734914779663 0.22923710942268372
0.80272811651229858 0.26969844102859497 0.24277156591415405
0.83782964944839478 0.3039402961730957 0.27252942323684692
0.016857491806149483 0.10984060168266296 0.027544118463993073
0.054956607520580292 0.11744128912687302 0.029678808525204659
0.12181806564331055 0.1226457804441452 0.043989188969135284
0.20603762567043304 0.14050766825675964 0.057398088276386261
0.3039136528968811 0.16541734337806702 0.071683220565319061
0.40901198983192444 0.18954335153102875 0.088250212371349335
0.5189204216003418 0.20678997039794922 0.11869626492261887
0.62153255939483643 0.22859713435173035 0.15144576132297516
0.70691907405853271 0.25753676891326904 0.18123047053813934
0.76931470632553101 0.27973243594169617 0.20420545339584351
0.80457735061645508 0.28703159093856812 0.22328236699104309
0.83641666173934937 0.31923162937164307 0.24491612613201141
0.85963243246078491 0.34640699625015259 0.25912368297576904
0.017128080129623413 0.18781685829162598 0.022244308143854141
0.0457320436835289 0.19690249860286713 0.020809099078178406
0.10871318727731705 0.19549396634101868 0.033893853425979614
0.20392502844333649 0.21162426471710205 0.050455596297979355
0.30972540378570557 0.23103179037570953 0.066166490316390991
0.41530781984329224 0.24922020733356476 0.0769973024725914
0.52112656831741333 0.26850172877311707 0.098034262657165527
0.61463081836700439 0.28524982929229736 0.12451066821813583
0.70063692331314087 0.30500680208206177 0.15579405426979065
0.77998167276382446 0.32861262559890747 0.18310181796550751
0.8441925048828125 0.35351532697677612 0.22623877227306366
0.86044847965240479 0.36349916458129883 0.24125613272190094
0.86649799346923828 0.36919969320297241 0.2487318366765976
0.011807415634393692 0.26458302140235901 0.011616501025855541
0.032934658229351044 0.29516151547431946 0.012162062339484692
0.084051512181758881 0.30107954144477844 0.018859010189771652
0.18548741936683655 0.31126624345779419 0.031533438712358475
0.31032902002334595 0.32308170199394226 0.046536672860383987
0.41412591934204102 0.3290831446647644 0.06118113175034523
0.5207635760307312 0.34373688697814941 0.077417992055416107
0.61473780870437622 0.35712292790412903 0.1035136952996254
0.70148420333862305 0.37156718969345093 0.14334447681903839
0.77571791410446167 0.38638874888420105 0.17306099832057953
0.83188730478286743 0.40378427505493164 0.2074839323759079
0.86191713809967041 0.38551658391952515 0.22686612606048584
0.87516039609909058 0.40765345096588135 0.24303945899009705
0.005909354891628027 0.35352909564971924 0.0029111376497894526
0.020660145208239555 0.39099264144897461 0.0063548218458890915
0.067605413496494293 0.39425039291381836 0.0078013553284108639
0.16767352819442749 0.40537205338478088 0.014108620584011078
0.30107012391090393 0.41981932520866394 0.024068061262369156
0.41011220216751099 0.42276671528816223 0.040553178638219833
0.51731902360916138 0.43245568871498108 0.061109937727451324
0.61638766527175903 0.44240590929985046 0.089918307960033417
0.6991850733757019 0.45546546578407288 0.1265510767698288
0.76156759262084961 0.47250860929489136 0.1576286256313324
0.80090153217315674 0.47858899831771851 0.18139679729938507
0.84310519695281982 0.47058284282684326 0.21072918176651001
0.88746106624603271 0.50177818536758423 0.25180059671401978
0.0053167156875133514 0.41090041399002075 0.0050267535261809826
0.016964048147201538 0.44473686814308167 0.005482363048940897
0.058722164481878281 0.45859673619270325 0.0065554003231227398
0.14976105093955994 0.48040449619293213 0.0098077068105340004
0.28436827659606934 0.4973675012588501 0.017561804503202438
0.39804962277412415 0.50323313474655151 0.027085920795798302
0.51836341619491577 0.5138319730758667 0.056229069828987122
0.61206567287445068 0.52639704942703247 0.085476741194725037
0.69423556327819824 0.53454750776290894 0.11172892153263092
0.76342153549194336 0.55230069160461426 0.14568093419075012
0.80611050128936768 0.56075161695480347 0.17515139281749725
0.83035427331924438 0.56703126430511475 0.19627431035041809
0.87511914968490601 0.58753889799118042 0.24301430583000183
0.0097681079059839249 0.44258770346641541 0.010412134230136871
0.018612252548336983 0.4718986451625824 0.011573372408747673
0.04731280729174614 0.51683473587036133 0.024427585303783417
0.14685557782649994 0.5176314115524292 0.01263955794274807
0.29008471965789795 0.54379379749298096 0.0153466472402215
0.36948129534721375 0.55611640214920044 0.024924678727984428
0.51533395051956177 0.58251065015792847 0.063611529767513275
0.60511761903762817 0.5975995659828186 0.09148203581571579
0.69530802965164185 0.606758713722229 0.12650428712368011
0.7643972635269165 0.61990576982498169 0.14865207672119141
0.80742353200912476 0.62375104427337646 0.17049945890903473
0.83369666337966919 0.63816136121749878 0.19897863268852234
0.87178307771682739 0.65105921030044556 0.2427966445684433
0.020320607349276543 0.48156976699829102 0.035650424659252167
0.024938067421317101 0.4921906590461731 0.020810371264815331
0.042199317365884781 0.55615073442459106 0.049695692956447601
0.12426780164241791 0.54112714529037476 0.026967665180563927
0.28073570132255554 0.57232224941253662 0.030701521784067154
0.36808678507804871 0.607982337474823 0.050358086824417114
0.51995617151260376 0.64771872758865356 0.085411041975021362
0.61068189144134521 0.65132242441177368 0.10073037445545197
0.70353692770004272 0.65352934598922729 0.13771133124828339
0.77250576019287109 0.66349512338638306 0.15856058895587921
0.80928272008895874 0.6663212776184082 0.17625688016414642
0.83659899234771729 0.68884211778640747 0.20842547714710236
0.86863714456558228 0.70795351266860962 0.24324381351470947
0.023075267672538757 0.5077674388885498 0.051722254604101181
0.026527853682637215 0.49643483757972717 0.021847071126103401
0.046682722866535187 0.55334603786468506 0.052156068384647369
0.11644238978624344 0.58944153785705566 0.081522740423679352
0.26967513561248779 0.6152498722076416 0.07556837797164917
0.37479990720748901 0.64078396558761597 0.076119907200336456
0.51191389560699463 0.66131097078323364 0.096434272825717926
0.59772604703903198 0.66504842042922974 0.10476084798574448
0.68237966299057007 0.6668274998664856 0.13694165647029877
0.77431726455688477 0.66931068897247314 0.16046777367591858
0.82494920492172241 0.68812310695648193 0.19828231632709503
0.86668813228607178 0.71672755479812622 0.24408148229122162
0.89481061697006226 0.73522895574569702 0.27432778477668762
0.023932123556733131 0.51641535758972168 0.058045823127031326
0.029748775064945221 0.51217007637023926 0.032527685165405273
0.06438630074262619 0.65352523326873779 0.14139704406261444
0.10863267630338669 0.68600350618362427 0.1687437891960144
0.25897383689880371 0.68316590785980225 0.13818278908729553
0.37785831093788147 0.68169128894805908 0.1138349175453186
0.52117305994033813 0.68800336122512817 0.12894995510578156
0.59366583824157715 0.68843799829483032 0.13446052372455597
0.66924560070037842 0.69371479749679565 0.16507403552532196
0.7762567400932312 0.68534255027770996 0.17989523708820343
0.84867238998413086 0.71739614009857178 0.23722822964191437
0.89155405759811401 0.74112904071807861 0.27891772985458374
0.90061712265014648 0.74385738372802734 0.28556340932846069
0.035257961601018906 0.55257338285446167 0.038349661976099014
0.032534997910261154 0.55272454023361206 0.042767692357301712
0.067019008100032806 0.67996621131896973 0.1608334481716156
0.10855653136968613 0.7071765661239624 0.18717840313911438
0.25256389379501343 0.71080207824707031 0.16598406434059143
0.3759063184261322 0.71757489442825317 0.14966811239719391
0.5394933819770813 0.71919119358062744 0.16496701538562775
0.58750909566879272 0.72304755449295044 0.17353732883930206
0.66773051023483276 0.7334563136100769 0.20499391853809357
0.76853430271148682 0.73502635955810547 0.23984932899475098
0.83152246475219727 0.7479395866394043 0.26928547024726868
0.88601303100585938 0.75469517707824707 0.29311725497245789
0.89838838577270508 0.75823497772216797 0.30152851343154907
0.036488179117441177 0.55695432424545288 0.03918476402759552
0.033659286797046661 0.55872547626495361 0.045534588396549225
0.070441089570522308 0.68045324087142944 0.16209526360034943
0.10617858171463013 0.70947158336639404 0.1923428475856781
0.25251400470733643 0.71504384279251099 0.17271487414836884
0.37216103076934814 0.72230112552642822 0.1569363921880722
0.53508150577545166 0.73084330558776855 0.18162734806537628
0.56205034255981445 0.75769323110580444 0.22306931018829346
0.6754690408706665 0.77163630723953247 0.25418826937675476
0.7781827449798584 0.77613180875778198 0.29433652758598328
0.82909387350082397 0.78470194339752197 0.31475287675857544
0.87743473052978516 0.78767609596252441 0.33473259210586548
0.89505386352539062 0.79007673263549805 0.34369373321533203
0.020802412182092667 0.033942025154829025 0.050030533224344254
0.047578863799571991 0.042160708457231522 0.055066276341676712
0.11769507825374603 0.060716353356838226 0.076156944036483765
0.19512826204299927 0.080360189080238342 0.097433678805828094
0.26042068004608154 0.094998754560947418 0.11126682162284851
0.38714849948883057 0.13101309537887573 0.13964347541332245
0.51681196689605713 0.16978457570075989 0.1719193160533905
0.62792593240737915 0.1982862651348114 0.21054965257644653
0.7272154688835144 0.22230717539787292 0.25047311186790466
0.77528035640716553 0.24294157326221466 0.27233603596687317
0.79496049880981445 0.2542080283164978 0.2799498438835144
0.80910128355026245 0.26335719227790833 0.29493075609207153
0.86061394214630127 0.29868939518928528 0.35052350163459778
0.02514202706515789 0.069873705506324768 0.060637082904577255
0.062036670744419098 0.075619667768478394 0.067516535520553589
0.12614424526691437 0.088048763573169708 0.082339026033878326
0.20368276536464691 0.10666149109601974 0.10225906223058701
0.28667160868644714 0.12645444273948669 0.11906283348798752
0.4026261568069458 0.15642787516117096 0.14237856864929199
0.51729702949523926 0.17927780747413635 0.16996800899505615
0.61898660659790039 0.20625156164169312 0.2000996470451355
0.70705181360244751 0.23484794795513153 0.23356474936008453
0.77480530738830566 0.25348374247550964 0.26608449220657349
0.80585187673568726 0.26819941401481628 0.28046515583992004
0.839252769947052 0.29446551203727722 0.31120023131370544
0.88160008192062378 0.32233071327209473 0.35820940136909485
0.026120817288756371 0.12557491660118103 0.071017667651176453
0.067486993968486786 0.13109517097473145 0.071160458028316498
0.13188304007053375 0.13988012075424194 0.08372478187084198
0.21376669406890869 0.15655478835105896 0.10325143486261368
0.31190741062164307 0.17730718851089478 0.12244503200054169
0.41466283798217773 0.1994168609380722 0.14161871373653412
0.52163225412368774 0.21604223549365997 0.16829328238964081
0.62047475576400757 0.23737995326519012 0.19426523149013519
0.70655834674835205 0.26662662625312805 0.22407783567905426
0.7808833122253418 0.28915727138519287 0.25443875789642334
0.83394837379455566 0.30695620179176331 0.28781589865684509
0.85986793041229248 0.32898834347724915 0.30474922060966492
0.88653934001922607 0.34039732813835144 0.34521108865737915
0.01982562430202961 0.2018907219171524 0.066127747297286987
0.06065388023853302 0.20656992495059967 0.063613727688789368
0.12614858150482178 0.21171535551548004 0.07619292289018631
0.21217690408229828 0.22689084708690643 0.094201110303401947
0.31231975555419922 0.24132464826107025 0.11449459195137024
0.41877880692481995 0.25742694735527039 0.13411074876785278
0.52455836534500122 0.27508220076560974 0.15816314518451691
0.62136006355285645 0.29037061333656311 0.17930392920970917
0.70491605997085571 0.31384557485580444 0.20741096138954163
0.78525811433792114 0.33723419904708862 0.2377287894487381
0.84384560585021973 0.35559716820716858 0.26914343237876892
0.86481380462646484 0.36428162455558777 0.28100645542144775
0.88821792602539062 0.37472361326217651 0.31572067737579346
0.010794919915497303 0.29549452662467957 0.04283001646399498
0.04506823793053627 0.30618298053741455 0.047299478203058243
0.10572905838489532 0.31103906035423279 0.064372822642326355
0.19847173988819122 0.31378206610679626 0.079701200127601624
0.30625784397125244 0.32401552796363831 0.097071580588817596
0.41427561640739441 0.3384215235710144 0.11921551078557968
0.52308857440948486 0.3543013334274292 0.14607547223567963
0.6204034686088562 0.36788749694824219 0.1684645414352417
0.70691585540771484 0.38899371027946472 0.19740328192710876
0.78295743465423584 0.40911602973937988 0.22910971939563751
0.84077852964401245 0.41835948824882507 0.25346678495407104
0.870097815990448 0.42380475997924805 0.26590713858604431
0.89966505765914917 0.45446932315826416 0.29252132773399353
0.0057084178552031517 0.38453477621078491 0.022152859717607498
0.029697822406888008 0.40452703833580017 0.032119572162628174
0.076528303325176239 0.40775763988494873 0.045992609113454819
0.17236174643039703 0.40824884176254272 0.057812605053186417
0.29729929566383362 0.41637334227561951 0.074922166764736176
0.40942537784576416 0.42756214737892151 0.09965050220489502
0.51808631420135498 0.44142577052116394 0.126975417137146
0.62034100294113159 0.45322170853614807 0.15516340732574463
0.70499509572982788 0.46927887201309204 0.1825028657913208
0.76738262176513672 0.48503309488296509 0.20638993382453918
0.82773041725158691 0.49484080076217651 0.23377865552902222
0.88363420963287354 0.50900781154632568 0.26129725575447083
0.9080386757850647 0.53750860691070557 0.28260335326194763
0.0050160577520728111 0.44317919015884399 0.032579474151134491
0.01654389314353466 0.48167845606803894 0.023474898189306259
0.055405441671609879 0.49136680364608765 0.031803175806999207
0.14242665469646454 0.49161550402641296 0.040891129523515701
0.2768186628818512 0.50121200084686279 0.059225402772426605
0.39950171113014221 0.5096050500869751 0.082633554935455322
0.51260149478912354 0.51991534233093262 0.11546246707439423
0.6142154335975647 0.53774964809417725 0.14560103416442871
0.70064955949783325 0.54860711097717285 0.1689378023147583
0.76982408761978149 0.56056177616119385 0.1938965916633606
0.83019924163818359 0.5696415901184082 0.22678501904010773
0.8767889142036438 0.57827723026275635 0.25047257542610168
0.90502184629440308 0.59745317697525024 0.27624964714050293
0.010122187435626984 0.51199853420257568 0.075859993696212769
0.020496204495429993 0.52535474300384521 0.030015593394637108
0.045985773205757141 0.55224305391311646 0.044724244624376297
0.1243215799331665 0.55534666776657104 0.04240824282169342
0.26436668634414673 0.56795471906661987 0.056847471743822098
0.37515917420387268 0.57897627353668213 0.075163431465625763
0.50441455841064453 0.59309148788452148 0.11039992421865463
0.60642993450164795 0.60763978958129883 0.14543284475803375
0.69512879848480225 0.61847984790802002 0.17442305386066437
0.76828628778457642 0.6286923885345459 0.18978671729564667
0.83683210611343384 0.64098179340362549 0.22513721883296967
0.88323169946670532 0.65105462074279785 0.25684192776679993
0.90534144639968872 0.66394680738449097 0.27633965015411377
0.026544982567429543 0.54708325862884521 0.066856160759925842
0.033367816358804703 0.55755770206451416 0.041488677263259888
0.04281076043844223 0.58983784914016724 0.074176326394081116
0.099980823695659637 0.59829223155975342 0.078185930848121643
0.24508193135261536 0.61513793468475342 0.088796921074390411
0.36437448859214783 0.6309470534324646 0.085123412311077118
0.50412815809249878 0.65681785345077515 0.1151115894317627
0.60381871461868286 0.66896593570709229 0.14536592364311218
0.69267058372497559 0.66646474599838257 0.1774698793888092
0.76427274942398071 0.68667119741439819 0.20570731163024902
0.82802760601043701 0.70338642597198486 0.22698509693145752
0.88113343715667725 0.71136987209320068 0.26116570830345154
0.91181015968322754 0.72565603256225586 0.28508156538009644
0.03380400687456131 0.55795109272003174 0.048731755465269089
0.039532948285341263 0.56996244192123413 0.047903653234243393
0.056086491793394089 0.63913094997406006 0.11953066289424896
0.10020706802606583 0.6708868145942688 0.15400600433349609
0.24694398045539856 0.67716270685195923 0.14176981151103973
0.37080523371696472 0.67903918027877808 0.11925043165683746
0.5260390043258667 0.69327634572982788 0.14124713838100433
0.60035538673400879 0.70359325408935547 0.16437599062919617
0.68807172775268555 0.69894015789031982 0.19025127589702606
0.76723223924636841 0.7172737717628479 0.22310243546962738
0.83290088176727295 0.737601637840271 0.26087436079978943
0.88826417922973633 0.74513882398605347 0.28537502884864807
0.90348953008651733 0.74467283487319946 0.28876754641532898
0.033652584999799728 0.56411367654800415 0.067988134920597076
0.040805742144584656 0.57495683431625366 0.053535297513008118
0.069882683455944061 0.67925065755844116 0.1584327220916748
0.10946857184171677 0.70427113771438599 0.18600581586360931
0.25067868828773499 0.71126711368560791 0.17164862155914307
0.37585073709487915 0.71707785129547119 0.15270648896694183
0.54403096437454224 0.72256612777709961 0.1714467853307724
0.5949631929397583 0.73335236310958862 0.195383220911026
0.67194283008575439 0.74267351627349854 0.22561661899089813
0.76915889978408813 0.74932360649108887 0.26034238934516907
0.8416825532913208 0.76463484764099121 0.29427909851074219
0.88618975877761841 0.75780820846557617 0.29734212160110474
0.89967674016952515 0.75721049308776855 0.29974871873855591
0.028135905042290688 0.58278465270996094 0.15100941061973572
0.040982130914926529 0.57665419578552246 0.060232080519199371
0.076123088598251343 0.68926787376403809 0.17191950976848602
0.11656160652637482 0.72377908229827881 0.21273012459278107
0.24252995848655701 0.72865301370620728 0.20185203850269318
0.3708711564540863 0.72885143756866455 0.1732393354177475
0.53710442781448364 0.73322761058807373 0.19005022943019867
0.56236326694488525 0.7576059103012085 0.22440564632415771
0.6717524528503418 0.77083683013916016 0.25115823745727539
0.77143257856369019 0.77639514207839966 0.29190719127655029
0.8325275182723999 0.7877846360206604 0.31966033577919006
0.87444418668746948 0.79637449979782104 0.34311714768409729
0.8920864462852478 0.79637783765792847 0.350534588098526
0.023724274709820747 0.59603190422058105 0.21232995390892029
0.040709089487791061 0.58331441879272461 0.087484158575534821
0.10005729645490646 0.71201527118682861 0.20381447672843933
0.13332249224185944 0.75138753652572632 0.25130927562713623
0.23291261494159698 0.75294274091720581 0.24917776882648468
0.36453443765640259 0.7432553768157959 0.21733328700065613
0.53234714269638062 0.73817020654678345 0.20115737617015839
0.55124306678771973 0.76524841785430908 0.23610565066337585
0.66333168745040894 0.77665656805038452 0.25501731038093567
0.77352416515350342 0.78459185361862183 0.30121293663978577
0.83183020353317261 0.79258787631988525 0.32449689507484436
0.87940806150436401 0.8224489688873291 0.38052013516426086
0.89274090528488159 0.83493781089782715 0.40424200892448425
0.029932329431176186 0.058863606303930283 0.13215017318725586
0.073850773274898529 0.070217370986938477 0.13437230885028839
0.14521750807762146 0.087091661989688873 0.14626628160476685
0.23919227719306946 0.10683150589466095 0.16955432295799255
0.31060266494750977 0.12518526613712311 0.1953626275062561
0.41139352321624756 0.15896494686603546 0.22922468185424805
0.53291958570480347 0.18996007740497589 0.25577190518379211
0.64224588871002197 0.21262980997562408 0.28431570529937744
0.73593223094940186 0.22867751121520996 0.3005974292755127
0.78652417659759521 0.24524888396263123 0.31785669922828674
0.81328994035720825 0.26171362400054932 0.33410131931304932
0.86001980304718018 0.29253163933753967 0.38166818022727966
0.91955041885375977 0.32813525199890137 0.44399288296699524
0.034809097647666931 0.090924598276615143 0.13261358439922333
0.082250632345676422 0.10014192014932632 0.13667766749858856
0.14742600917816162 0.11375562101602554 0.15137317776679993
0.22956210374832153 0.12946072220802307 0.16912291944026947
0.32146179676055908 0.1484081894159317 0.19288469851016998
0.42172732949256897 0.17235520482063293 0.21683266758918762
0.52935713529586792 0.19901631772518158 0.24059125781059265
0.629474937915802 0.2215324193239212 0.2676728367805481
0.7185213565826416 0.24352607131004333 0.29162919521331787
0.78801965713500977 0.26758930087089539 0.31465449929237366
0.83799701929092407 0.29114505648612976 0.33629047870635986
0.87841963768005371 0.31603997945785522 0.37463212013244629
0.91452741622924805 0.33743074536323547 0.41302597522735596
0.034706324338912964 0.1451374739408493 0.13997219502925873
0.082111850380897522 0.14978677034378052 0.14075584709644318
0.14770464599132538 0.16181899607181549 0.15135809779167175
0.22563382983207703 0.1794491708278656 0.16571716964244843
0.3230588436126709 0.19514612853527069 0.18798111379146576
0.42559754848480225 0.21224324405193329 0.20955632627010345
0.5279841423034668 0.23218631744384766 0.2332192063331604
0.62645214796066284 0.2531067430973053 0.25788334012031555
0.71388256549835205 0.27860835194587708 0.28608089685440063
0.78978663682937622 0.30383598804473877 0.31113418936729431
0.85024505853652954 0.32445508241653442 0.33979770541191101
0.88894784450531006 0.339162677526474 0.36544489860534668
0.92506676912307739 0.36071789264678955 0.40857416391372681
0.028044532984495163 0.21629880368709564 0.14060316979885101
0.07633151113986969 0.22255606949329376 0.14180672168731689
0.14575953781604767 0.23137308657169342 0.14883707463741302
0.2257402092218399 0.24687258899211884 0.16056960821151733
0.32258450984954834 0.25777658820152283 0.17951679229736328
0.42628085613250732 0.26849451661109924 0.19829271733760834
0.52725791931152344 0.2852499783039093 0.22361278533935547
0.62775373458862305 0.30331000685691833 0.24734014272689819
0.71465456485748291 0.3278948962688446 0.27409917116165161
0.79060876369476318 0.35046541690826416 0.29909387230873108
0.85662472248077393 0.37134075164794922 0.3329315185546875
0.9126703143119812 0.39122948050498962 0.37490415573120117
0.94080656766891479 0.40256041288375854 0.40408653020858765
0.017035361379384995 0.29861953854560852 0.13144879043102264
0.057816032320261002 0.31271618604660034 0.13295426964759827
0.12510225176811218 0.3191857635974884 0.13915082812309265
0.21507157385349274 0.32611370086669922 0.14894144237041473
0.31404775381088257 0.33593893051147461 0.16591483354568481
