assets/lut/fujixtransiii fuji xtrans iii classic chrome.cube
# Created by: G'MIC (https://gmic.eu)
TITLE "fuji_xtrans_iii_classic_chrome"
# LUT size
LUT_3D_SIZE 5
# Data domain
DOMAIN_MIN 0.0 0.0 0.0
DOMAIN_MAX 1.0 1.0 1.0
# LUT data points
0.0083547700196504593 0.011983265168964863 0.0083617717027664185
0.1729520857334137 0.035760931670665741 0.022862348705530167
0.52138590812683105 0.13523241877555847 0.093794561922550201
0.7745247483253479 0.23574090003967285 0.18902395665645599
0.82638055086135864 0.27735006809234619 0.23574559390544891
0.011041873134672642 0.1300099790096283 0.016101881861686707
0.19279055297374725 0.17410697042942047 0.039431389421224594
0.54575318098068237 0.25380834937095642 0.089831076562404633
0.80871087312698364 0.33455637097358704 0.18341377377510071
0.89202547073364258 0.38138613104820251 0.23749946057796478
0.0043468698859214783 0.37107875943183899 0.017086058855056763
0.14103913307189941 0.44365927577018738 0.032549943774938583
0.55534929037094116 0.49814578890800476 0.098217591643333435
0.79548013210296631 0.55362135171890259 0.18036527931690216
0.90140891075134277 0.60082483291625977 0.28350478410720825
0.01554291695356369 0.47609546780586243 0.084270298480987549
0.10368599742650986 0.56048905849456787 0.11639764904975891
0.55110394954681396 0.64681446552276611 0.15375575423240662
0.82155001163482666 0.67206090688705444 0.22122843563556671
0.92469877004623413 0.73900371789932251 0.33841308951377869
0.024728348478674889 0.52900415658950806 0.09085904061794281
0.099805958569049835 0.68311488628387451 0.23728497326374054
0.59275561571121216 0.71278667449951172 0.23150914907455444
0.82356852293014526 0.76824527978897095 0.35811430215835571
0.92809498310089111 0.78789752721786499 0.41222015023231506
0.019063523039221764 0.061282679438591003 0.19793762266635895
0.27585843205451965 0.11667401343584061 0.2295030802488327
0.5644037127494812 0.20039024949073792 0.31604501605033875
0.82085525989532471 0.28360956907272339 0.37494590878486633
0.94794410467147827 0.36823901534080505 0.48225119709968567
0.019075790420174599 0.20033352077007294 0.20082584023475647
0.21280798316001892 0.24011598527431488 0.23034292459487915
0.5534476637840271 0.29636335372924805 0.28465571999549866
0.81885033845901489 0.38103428483009338 0.36294028162956238
0.9737357497215271 0.44985362887382507 0.43503177165985107
0.0070485430769622326 0.48048931360244751 0.2467333972454071
0.13124750554561615 0.49748161435127258 0.23271763324737549
0.54281222820281982 0.53033065795898438 0.2971663773059845
0.81243515014648438 0.58167403936386108 0.35736048221588135
0.9635888934135437 0.62065041065216064 0.44299748539924622
0.0055509381927549839 0.60454905033111572 0.38708221912384033
0.096930786967277527 0.68955135345458984 0.27770307660102844
0.5157172679901123 0.73094642162322998 0.33363199234008789
0.80227947235107422 0.7585180401802063 0.38609623908996582
0.94280248880386353 0.7970813512802124 0.44712859392166138
0.013004646636545658 0.65687000751495361 0.4059855043888092
0.13959570229053497 0.74582874774932861 0.35570055246353149
0.50932788848876953 0.77349704504013062 0.40180090069770813
0.79448890686035156 0.81512761116027832 0.46979731321334839
0.93945109844207764 0.84731340408325195 0.52105176448822021
0.18514434993267059 0.18094606697559357 0.52756631374359131
0.38805261254310608 0.22786198556423187 0.55645751953125
0.62625598907470703 0.29659900069236755 0.58493638038635254
0.84071207046508789 0.37716883420944214 0.62318331003189087
0.98791497945785522 0.4481891393661499 0.67122840881347656
0.058497156947851181 0.31154781579971313 0.52533972263336182
0.29825124144554138 0.3423459529876709 0.54294759035110474
0.60011875629425049 0.40762412548065186 0.57576572895050049
0.82929068803787231 0.4705243706703186 0.61700958013534546
0.98138225078582764 0.53581124544143677 0.66907709836959839
0.023130230605602264 0.54889130592346191 0.55429732799530029
0.23035918176174164 0.56631255149841309 0.55111730098724365
0.57602560520172119 0.60217607021331787 0.59931749105453491
0.81002891063690186 0.63530319929122925 0.63036966323852539
0.9777105450630188 0.67969828844070435 0.67234247922897339
0.020382855087518692 0.72224181890487671 0.62579089403152466
0.16841979324817657 0.73387855291366577 0.55263298749923706
0.5420835018157959 0.76411628723144531 0.58886003494262695
0.80261003971099854 0.78695976734161377 0.62576401233673096
0.97102946043014526 0.8426935076713562 0.67664653062820435
0.042964126914739609 0.77345222234725952 0.6622733473777771
0.19622668623924255 0.80128836631774902 0.58166521787643433
0.50049424171447754 0.81927883625030518 0.59288126230239868
0.83993148803710938 0.8596113920211792 0.65015327930450439
0.96588540077209473 0.90495032072067261 0.69913828372955322
0.44501259922981262 0.26209449768066406 0.78108209371566772
0.54195988178253174 0.33078455924987793 0.78320944309234619
0.70843517780303955 0.40760976076126099 0.79510927200317383
0.87989312410354614 0.49082732200622559 0.81811231374740601
0.99352347850799561 0.57050627470016479 0.87019777297973633
0.21246567368507385 0.44198045134544373 0.7733767032623291
0.42780038714408875 0.48588749766349792 0.78656131029129028
0.6451801061630249 0.52700257301330566 0.79936647415161133
0.8375847339630127 0.58928412199020386 0.82106000185012817
0.97888433933258057 0.62791341543197632 0.84530866146087646
0.12796296179294586 0.62555783987045288 0.78279733657836914
0.38359710574150085 0.64649116992950439 0.78618788719177246
0.63569742441177368 0.672718346118927 0.80763190984725952
0.82120877504348755 0.71069425344467163 0.83153831958770752
0.98091274499893188 0.74741166830062866 0.85265898704528809
0.11882089078426361 0.77811485528945923 0.79135149717330933
0.33803635835647583 0.79485571384429932 0.79264110326766968
0.59731882810592651 0.80962687730789185 0.8131980299949646
0.81931775808334351 0.83063590526580811 0.83477503061294556
0.9770234227180481 0.88681185245513916 0.87388467788696289
0.18760320544242859 0.8486400842666626 0.82012075185775757
0.32729464769363403 0.87684923410415649 0.83812671899795532
0.63754689693450928 0.89837223291397095 0.85923916101455688
0.8665655255317688 0.91215717792510986 0.86099177598953247
0.97908687591552734 0.94739967584609985 0.88982701301574707
0.6512991189956665 0.34758689999580383 0.95267277956008911
0.71102303266525269 0.40101674199104309 0.95432674884796143
0.82583272457122803 0.48251533508300781 0.9677618145942688
0.94198012351989746 0.57967627048492432 0.97235095500946045
0.99585616588592529 0.64990919828414917 0.97272628545761108
0.42514404654502869 0.54892063140869141 0.93890589475631714
0.59189695119857788 0.61731749773025513 0.94970798492431641
0.74821442365646362 0.65209037065505981 0.95492279529571533
0.8984646201133728 0.68779736757278442 0.96460872888565063
0.9821016788482666 0.71055525541305542 0.96844899654388428
0.20169757306575775 0.70644950866699219 0.93306702375411987
0.51059353351593018 0.75233626365661621 0.94741308689117432
0.69890308380126953 0.76753956079483032 0.94582206010818481
0.86373013257980347 0.7916027307510376 0.95672112703323364
0.984730064868927 0.80408120155334473 0.96895956993103027
0.33102050423622131 0.85412704944610596 0.95192092657089233
0.49302619695663452 0.86765199899673462 0.95891910791397095
0.69718343019485474 0.88129246234893799 0.95963585376739502
0.87465423345565796 0.89491897821426392 0.96640640497207642
0.98634982109069824 0.92286622524261475 0.9808545708656311
0.40335062146186829 0.91634231805801392 0.94582319259643555
0.4568539559841156 0.9165615439414978 0.94442325830459595
0.69269853830337524 0.93016612529754639 0.95624279975891113
0.90118002891540527 0.95387649536132812 0.97604167461395264
0.98935526609420776 0.97624403238296509 0.97798818349838257
