assets/lut/fujixtransiii fuji xtrans iii mono+ye.cube
# Created by: G'MIC (https://gmic.eu)
TITLE "fuji_xtrans_iii_mono+ye"
# LUT size
LUT_3D_SIZE 5
# Data domain
DOMAIN_MIN 0.0 0.0 0.0
DOMAIN_MAX 1.0 1.0 1.0
# LUT data points
0.01133391447365284 0.01133391447365284 0.01133391447365284
0.10129814594984055 0.10129814594984055 0.10129814594984055
0.32365527749061584 0.32365527749061584 0.32365527749061584
0.50276249647140503 0.50276249647140503 0.50276249647140503
0.55068743228912354 0.55068743228912354 0.55068743228912354
0.094278626143932343 0.094278626143932343 0.094278626143932343
0.19640521705150604 0.19640521705150604 0.19640521705150604
0.38968822360038757 0.38968822360038757 0.38968822360038757
0.55214977264404297 0.55214977264404297 0.55214977264404297
0.60512155294418335 0.60512155294418335 0.60512155294418335
0.25632795691490173 0.25632795691490173 0.25632795691490173
0.35164457559585571 0.35164457559585571 0.35164457559585571
0.5037650465965271 0.5037650465965271 0.5037650465965271
0.62405800819396973 0.62405800819396973 0.62405800819396973
0.70305401086807251 0.70305401086807251 0.70305401086807251
0.35116750001907349 0.35116750001907349 0.35116750001907349
0.43033605813980103 0.43033605813980103 0.43033605813980103
0.57589930295944214 0.57589930295944214 0.57589930295944214
0.68902462720870972 0.68902462720870972 0.68902462720870972
0.77199572324752808 0.77199572324752808 0.77199572324752808
0.38974848389625549 0.38974848389625549 0.38974848389625549
0.51558303833007812 0.51558303833007812 0.51558303833007812
0.6287912130355835 0.6287912130355835 0.6287912130355835
0.74868482351303101 0.74868482351303101 0.74868482351303101
0.80789446830749512 0.80789446830749512 0.80789446830749512
0.040925987064838409 0.043129384517669678 0.043129384517669678
0.19343765079975128 0.19343765079975128 0.19343765079975128
0.37603908777236938 0.37603908777236938 0.37603908777236938
0.55552685260772705 0.55552685260772705 0.55552685260772705
0.65186440944671631 0.65186440944671631 0.65186440944671631
0.14996284246444702 0.14996284246444702 0.14996284246444702
0.24138340353965759 0.24138340353965759 0.24138340353965759
0.42394709587097168 0.42394709587097168 0.42394709587097168
0.57982522249221802 0.57982522249221802 0.57982522249221802
0.70021158456802368 0.70021158456802368 0.70021158456802368
0.33988103270530701 0.33988103270530701 0.33988103270530701
0.39676520228385925 0.39676520228385925 0.39676520228385925
0.52821850776672363 0.52821850776672363 0.52821850776672363
0.66264998912811279 0.66264998912811279 0.66264998912811279
0.75334841012954712 0.75334841012954712 0.75334841012954712
0.43033537268638611 0.43033537268638611 0.43033537268638611
0.52096748352050781 0.52096748352050781 0.52096748352050781
0.62697035074234009 0.62697035074234009 0.62697035074234009
0.74110311269760132 0.74110311269760132 0.74110311269760132
0.82335329055786133 0.82335329055786133 0.82335329055786133
0.47831606864929199 0.47831606864929199 0.47831606864929199
0.57543826103210449 0.57543826103210449 0.57543826103210449
0.66216164827346802 0.66216164827346802 0.66216164827346802
0.77407795190811157 0.77407795190811157 0.77407795190811157
0.85071307420730591 0.85071307420730591 0.85071307420730591
0.16612531244754791 0.16612531244754791 0.16612531244754791
0.26983875036239624 0.26983875036239624 0.26983875036239624
0.41102749109268188 0.41102749109268188 0.41102749109268188
0.5898735523223877 0.5898735523223877 0.5898735523223877
0.70609337091445923 0.70609337091445923 0.70609337091445923
0.23005704581737518 0.23005704581737518 0.23005704581737518
0.32950526475906372 0.32950526475906372 0.32950526475906372
0.46939754486083984 0.46939754486083984 0.46939754486083984
0.62871289253234863 0.62871289253234863 0.62871289253234863
0.73994582891464233 0.73994582891464233 0.73994582891464233
0.408517986536026 0.408517986536026 0.408517986536026
0.4548460841178894 0.4548460841178894 0.4548460841178894
0.57216799259185791 0.57216799259185791 0.57216799259185791
0.70769411325454712 0.70769411325454712 0.70769411325454712
0.7911684513092041 0.7911684513092041 0.7911684513092041
0.54014497995376587 0.54014497995376587 0.54014497995376587
0.57004094123840332 0.57004094123840332 0.57004094123840332
0.67353361845016479 0.67353361845016479 0.67353361845016479
0.77813720703125 0.77813720703125 0.77813720703125
0.87787508964538574 0.87787508964538574 0.87787508964538574
0.58538711071014404 0.58538711071014404 0.58538711071014404
0.62919443845748901 0.62919443845748901 0.62919443845748901
0.70271652936935425 0.70271652936935425 0.70271652936935425
0.83076828718185425 0.83076828718185425 0.83076828718185425
0.91080224514007568 0.91080224514007568 0.91080224514007568
0.30673888325691223 0.30673888325691223 0.30673888325691223
0.37769186496734619 0.37769186496734619 0.37769186496734619
0.49588963389396667 0.49588963389396667 0.49588963389396667
0.64657914638519287 0.64657914638519287 0.64657914638519287
0.7498822808265686 0.7498822808265686 0.7498822808265686
0.33497589826583862 0.33497589826583862 0.33497589826583862
0.43038490414619446 0.43038490414619446 0.43038490414619446
0.53971821069717407 0.53971821069717407 0.53971821069717407
0.66643762588500977 0.66643762588500977 0.66643762588500977
0.7681235671043396 0.7681235671043396 0.7681235671043396
0.46869271993637085 0.46869271993637085 0.46869271993637085
0.53638201951980591 0.53638201951980591 0.53638201951980591
0.63861751556396484 0.63861751556396484 0.63861751556396484
0.74910742044448853 0.74910742044448853 0.74910742044448853
0.83526712656021118 0.83526712656021118 0.83526712656021118
0.60375392436981201 0.60375392436981201 0.60375392436981201
0.64925217628479004 0.64925217628479004 0.64925217628479004
0.7304617166519165 0.7304617166519165 0.7304617166519165
0.8247794508934021 0.8247794508934021 0.8247794508934021
0.92062616348266602 0.92062616348266602 0.92062616348266602
0.67383044958114624 0.67383044958114624 0.67383044958114624
0.71000015735626221 0.71000015735626221 0.71000015735626221
0.80075913667678833 0.80075913667678833 0.80075913667678833
0.88923549652099609 0.88923549652099609 0.88923549652099609
0.95262312889099121 0.95262312889099121 0.95262312889099121
0.46269652247428894 0.46269652247428894 0.46269652247428894
0.50504124164581299 0.50504124164581299 0.50504124164581299
0.57259202003479004 0.57259202003479004 0.57259202003479004
0.70141315460205078 0.70141315460205078 0.70141315460205078
0.76749950647354126 0.76749950647354126 0.76749950647354126
0.44638985395431519 0.44638985395431519 0.44638985395431519
0.52457094192504883 0.52457094192504883 0.52457094192504883
0.62268245220184326 0.62268245220184326 0.62268245220184326
0.72349047660827637 0.72349047660827637 0.72349047660827637
0.78802269697189331 0.78802269697189331 0.78802269697189331
0.51250386238098145 0.51250386238098145 0.51250386238098145
0.6075979471206665 0.6075979471206665 0.6075979471206665
0.69166159629821777 0.69166159629821777 0.69166159629821777
0.77570736408233643 0.77570736408233643 0.77570736408233643
0.8617321252822876 0.8617321252822876 0.8617321252822876
0.66824799776077271 0.66824799776077271 0.66824799776077271
0.71180981397628784 0.71180981397628784 0.71180981397628784
0.78509533405303955 0.78509533405303955 0.78509533405303955
0.86960726976394653 0.86960726976394653 0.86960726976394653
0.93970853090286255 0.93970853090286255 0.93970853090286255
0.74687916040420532 0.74687916040420532 0.74687916040420532
0.75245553255081177 0.75245553255081177 0.75245553255081177
0.83172935247421265 0.83172935247421265 0.83172935247421265
0.91600781679153442 0.91600781679153442 0.91600781679153442
0.97389078140258789 0.97389078140258789 0.97389078140258789
