assets/lut/fujixtransiii fuji xtrans iii acros+g.cube
# Created by: G'MIC (https://gmic.eu)
TITLE "fuji_xtrans_iii_acros+g"
# LUT size
LUT_3D_SIZE 7
# Data domain
DOMAIN_MIN 0.0 0.0 0.0
DOMAIN_MAX 1.0 1.0 1.0
# LUT data points
0.01796448603272438 0.01796448603272438 0.01796448603272438
0.034993607550859451 0.034993607550859451 0.034993607550859451
0.091485284268856049 0.091485284268856049 0.091485284268856049
0.17325703799724579 0.17325703799724579 0.17325703799724579
0.25963228940963745 0.25963228940963745 0.25963228940963745
0.29912206530570984 0.29912206530570984 0.29912206530570984
0.33236461877822876 0.33236461877822876 0.33236461877822876
0.063631065189838409 0.063631065189838409 0.063631065189838409
0.086133755743503571 0.086133755743503571 0.086133755743503571
0.14753766357898712 0.14753766357898712 0.14753766357898712
0.2196321040391922 0.2196321040391922 0.2196321040391922
0.28735151886940002 0.28735151886940002 0.28735151886940002
0.34048900008201599 0.34048900008201599 0.34048900008201599
0.39385136961936951 0.39385136961936951 0.39385136961936951
0.19079212844371796 0.19079212844371796 0.19079212844371796
0.21942874789237976 0.21942874789237976 0.21942874789237976
0.27357161045074463 0.27357161045074463 0.27357161045074463
0.3204352855682373 0.3204352855682373 0.3204352855682373
0.3764989972114563 0.3764989972114563 0.3764989972114563
0.42894884943962097 0.42894884943962097 0.42894884943962097
0.43954041600227356 0.43954041600227356 0.43954041600227356
0.31401696801185608 0.31401696801185608 0.31401696801185608
0.35921874642372131 0.35921874642372131 0.35921874642372131
0.42558696866035461 0.42558696866035461 0.42558696866035461
0.4672696590423584 0.4672696590423584 0.4672696590423584
0.50327968597412109 0.50327968597412109 0.50327968597412109
0.53557556867599487 0.53557556867599487 0.53557556867599487
0.5708886981010437 0.5708886981010437 0.5708886981010437
0.38674670457839966 0.38674670457839966 0.38674670457839966
0.46540504693984985 0.46540504693984985 0.46540504693984985
0.49005654454231262 0.49005654454231262 0.49005654454231262
0.58427327871322632 0.58427327871322632 0.58427327871322632
0.6004682183265686 0.6004682183265686 0.6004682183265686
0.6140860915184021 0.6140860915184021 0.6140860915184021
0.65955048799514771 0.65955048799514771 0.65955048799514771
0.41468662023544312 0.41468662023544312 0.41468662023544312
0.53746217489242554 0.53746217489242554 0.53746217489242554
0.58521509170532227 0.58521509170532227 0.58521509170532227
0.61735671758651733 0.61735671758651733 0.61735671758651733
0.63248968124389648 0.63248968124389648 0.63248968124389648
0.662772536277771 0.662772536277771 0.662772536277771
0.69120121002197266 0.69120121002197266 0.69120121002197266
0.45682221651077271 0.45682221651077271 0.45682221651077271
0.56892114877700806 0.56892114877700806 0.56892114877700806
0.61574316024780273 0.61574316024780273 0.61574316024780273
0.66009765863418579 0.66009765863418579 0.66009765863418579
0.70238697528839111 0.70238697528839111 0.70238697528839111
0.74393630027770996 0.74393630027770996 0.74393630027770996
0.74520087242126465 0.74520087242126465 0.74520087242126465
0.043858800083398819 0.043858800083398819 0.043858800083398819
0.076217308640480042 0.076217308640480042 0.076217308640480042
0.12540921568870544 0.12540921568870544 0.12540921568870544
0.21903041005134583 0.21903041005134583 0.21903041005134583
0.29265135526657104 0.29265135526657104 0.29265135526657104
0.32449251413345337 0.32449251413345337 0.32449251413345337
0.39562812447547913 0.39562812447547913 0.39562812447547913
0.11034149676561356 0.11034149676561356 0.11034149676561356
0.12238292396068573 0.12238292396068573 0.12238292396068573
0.17568120360374451 0.17568120360374451 0.17568120360374451
0.24436500668525696 0.24436500668525696 0.24436500668525696
0.31378442049026489 0.31378442049026489 0.31378442049026489
0.37960556149482727 0.37960556149482727 0.37960556149482727
0.4175998866558075 0.4175998866558075 0.4175998866558075
0.22599244117736816 0.22599244117736816 0.22599244117736816
0.24840393662452698 0.24840393662452698 0.24840393662452698
0.29489511251449585 0.29489511251449585 0.29489511251449585
0.34775891900062561 0.34775891900062561 0.34775891900062561
0.40492263436317444 0.40492263436317444 0.40492263436317444
0.46424826979637146 0.46424826979637146 0.46424826979637146
0.49405691027641296 0.49405691027641296 0.49405691027641296
0.37767776846885681 0.37767776846885681 0.37767776846885681
0.41322430968284607 0.41322430968284607 0.41322430968284607
0.44062763452529907 0.44062763452529907 0.44062763452529907
0.49114581942558289 0.49114581942558289 0.49114581942558289
0.52975583076477051 0.52975583076477051 0.52975583076477051
0.56030035018920898 0.56030035018920898 0.56030035018920898
0.58172249794006348 0.58172249794006348 0.58172249794006348
0.46314245462417603 0.46314245462417603 0.46314245462417603
0.52066826820373535 0.52066826820373535 0.52066826820373535
0.5675843358039856 0.5675843358039856 0.5675843358039856
0.60829788446426392 0.60829788446426392 0.60829788446426392
0.63538831472396851 0.63538831472396851 0.63538831472396851
0.67051833868026733 0.67051833868026733 0.67051833868026733
0.69783538579940796 0.69783538579940796 0.69783538579940796
0.50104612112045288 0.50104612112045288 0.50104612112045288
0.59102445840835571 0.59102445840835571 0.59102445840835571
0.63807696104049683 0.63807696104049683 0.63807696104049683
0.6698792576789856 0.6698792576789856 0.6698792576789856
0.70471793413162231 0.70471793413162231 0.70471793413162231
0.74636179208755493 0.74636179208755493 0.74636179208755493
0.73809009790420532 0.73809009790420532 0.73809009790420532
0.5344843864440918 0.5344843864440918 0.5344843864440918
0.62782496213912964 0.62782496213912964 0.62782496213912964
0.66812914609909058 0.66812914609909058 0.66812914609909058
0.68647176027297974 0.68647176027297974 0.68647176027297974
0.72087568044662476 0.72087568044662476 0.72087568044662476
0.76646214723587036 0.76646214723587036 0.76646214723587036
0.80784809589385986 0.80784809589385986 0.80784809589385986
0.12436278164386749 0.12436278164386749 0.12436278164386749
0.16653694212436676 0.16653694212436676 0.16653694212436676
0.21448639035224915 0.21448639035224915 0.21448639035224915
0.28337827324867249 0.28337827324867249 0.28337827324867249
0.32753989100456238 0.32753989100456238 0.32753989100456238
0.39252230525016785 0.39252230525016785 0.39252230525016785
0.43166923522949219 0.43166923522949219 0.43166923522949219
0.17514677345752716 0.17514677345752716 0.17514677345752716
0.19860009849071503 0.19860009849071503 0.19860009849071503
0.25111892819404602 0.25111892819404602 0.25111892819404602
0.30646255612373352 0.30646255612373352 0.30646255612373352
0.36116212606430054 0.36116212606430054 0.36116212606430054
0.41653266549110413 0.41653266549110413 0.41653266549110413
0.46554756164550781 0.46554756164550781 0.46554756164550781
0.29197090864181519 0.29197090864181519 0.29197090864181519
0.31085994839668274 0.31085994839668274 0.31085994839668274
0.35861241817474365 0.35861241817474365 0.35861241817474365
0.40562105178833008 0.40562105178833008 0.40562105178833008
0.4477158784866333 0.4477158784866333 0.4477158784866333
0.48293617367744446 0.48293617367744446 0.48293617367744446
0.50830131769180298 0.50830131769180298 0.50830131769180298
0.43809157609939575 0.43809157609939575 0.43809157609939575
0.44849458336830139 0.44849458336830139 0.44849458336830139
0.48830842971801758 0.48830842971801758 0.48830842971801758
0.52750468254089355 0.52750468254089355 0.52750468254089355
0.56284224987030029 0.56284224987030029 0.56284224987030029
0.58662903308868408 0.58662903308868408 0.58662903308868408
0.6117321252822876 0.6117321252822876 0.6117321252822876
0.52245521545410156 0.52245521545410156 0.52245521545410156
0.57619887590408325 0.57619887590408325 0.57619887590408325
0.60523831844329834 0.60523831844329834 0.60523831844329834
0.64017415046691895 0.64017415046691895 0.64017415046691895
0.67474967241287231 0.67474967241287231 0.67474967241287231
0.69943302869796753 0.69943302869796753 0.69943302869796753
0.72068673372268677 0.72068673372268677 0.72068673372268677
0.62763416767120361 0.62763416767120361 0.62763416767120361
0.64974880218505859 0.64974880218505859 0.64974880218505859
0.67543751001358032 0.67543751001358032 0.67543751001358032
0.71292698383331299 0.71292698383331299 0.71292698383331299
0.76033264398574829 0.76033264398574829 0.76033264398574829
0.77397924661636353 0.77397924661636353 0.77397924661636353
0.80310952663421631 0.80310952663421631 0.80310952663421631
0.64538991451263428 0.64538991451263428 0.64538991451263428
0.65704566240310669 0.65704566240310669 0.65704566240310669
0.71252721548080444 0.71252721548080444 0.71252721548080444
0.75141221284866333 0.75141221284866333 0.75141221284866333
0.77552145719528198 0.77552145719528198 0.77552145719528198
0.81916600465774536 0.81916600465774536 0.81916600465774536
0.83859610557556152 0.83859610557556152 0.83859610557556152
0.21829588711261749 0.21829588711261749 0.21829588711261749
0.2564195990562439 0.2564195990562439 0.2564195990562439
0.30202206969261169 0.30202206969261169 0.30202206969261169
0.35299116373062134 0.35299116373062134 0.35299116373062134
0.41867402195930481 0.41867402195930481 0.41867402195930481
0.46502974629402161 0.46502974629402161 0.46502974629402161
0.48365700244903564 0.48365700244903564 0.48365700244903564
0.26322656869888306 0.26322656869888306 0.26322656869888306
0.29647424817085266 0.29647424817085266 0.29647424817085266
0.34520843625068665 0.34520843625068665 0.34520843625068665
0.38995248079299927 0.38995248079299927 0.38995248079299927
0.42787405848503113 0.42787405848503113 0.42787405848503113
0.47516995668411255 0.47516995668411255 0.47516995668411255
0.50296437740325928 0.50296437740325928 0.50296437740325928
0.36425170302391052 0.36425170302391052 0.36425170302391052
0.39557939767837524 0.39557939767837524 0.39557939767837524
0.44055551290512085 0.44055551290512085 0.44055551290512085
0.47492396831512451 0.47492396831512451 0.47492396831512451
0.50558406114578247 0.50558406114578247 0.50558406114578247
0.53900986909866333 0.53900986909866333 0.53900986909866333
0.56746780872344971 0.56746780872344971 0.56746780872344971
0.4940190315246582 0.4940190315246582 0.4940190315246582
0.50086641311645508 0.50086641311645508 0.50086641311645508
0.5416836142539978 0.5416836142539978 0.5416836142539978
0.58481109142303467 0.58481109142303467 0.58481109142303467
0.6153072714805603 0.6153072714805603 0.6153072714805603
0.64048260450363159 0.64048260450363159 0.64048260450363159
0.66133028268814087 0.66133028268814087 0.66133028268814087
0.61024206876754761 0.61024206876754761 0.61024206876754761
0.61979526281356812 0.61979526281356812 0.61979526281356812
0.64542138576507568 0.64542138576507568 0.64542138576507568
0.68022787570953369 0.68022787570953369 0.68022787570953369
0.71647948026657104 0.71647948026657104 0.71647948026657104
0.74696403741836548 0.74696403741836548 0.74696403741836548
0.76862651109695435 0.76862651109695435 0.76862651109695435
0.68233269453048706 0.68233269453048706 0.68233269453048706
0.69856363534927368 0.69856363534927368 0.69856363534927368
0.72487431764602661 0.72487431764602661 0.72487431764602661
0.755420982837677 0.755420982837677 0.755420982837677
0.7916332483291626 0.7916332483291626 0.7916332483291626
0.83046716451644897 0.83046716451644897 0.83046716451644897
0.8633844256401062 0.8633844256401062 0.8633844256401062
0.69869107007980347 0.69869107007980347 0.69869107007980347
0.71540957689285278 0.71540957689285278 0.71540957689285278
0.73544168472290039 0.73544168472290039 0.73544168472290039
0.76910340785980225 0.76910340785980225 0.76910340785980225
0.80408495664596558 0.80408495664596558 0.80408495664596558
0.87128335237503052 0.87128335237503052 0.87128335237503052
0.89522659778594971 0.89522659778594971 0.89522659778594971
0.29794555902481079 0.29794555902481079 0.29794555902481079
0.33412647247314453 0.33412647247314453 0.33412647247314453
0.37986075878143311 0.37986075878143311 0.37986075878143311
0.43289297819137573 0.43289297819137573 0.43289297819137573
0.49547004699707031 0.49547004699707031 0.49547004699707031
0.5582917332649231 0.5582917332649231 0.5582917332649231
0.60204720497131348 0.60204720497131348 0.60204720497131348
0.35804444551467896 0.35804444551467896 0.35804444551467896
0.39541566371917725 0.39541566371917725 0.39541566371917725
0.43537503480911255 0.43537503480911255 0.43537503480911255
0.47311258316040039 0.47311258316040039 0.47311258316040039
0.51541942358016968 0.51541942358016968 0.51541942358016968
0.56503158807754517 0.56503158807754517 0.56503158807754517
0.59875410795211792 0.59875410795211792 0.59875410795211792
0.45078238844871521 0.45078238844871521 0.45078238844871521
0.47836586833000183 0.47836586833000183 0.47836586833000183
0.51156455278396606 0.51156455278396606 0.51156455278396606
0.54141974449157715 0.54141974449157715 0.54141974449157715
0.57244199514389038 0.57244199514389038 0.57244199514389038
0.61596584320068359 0.61596584320068359 0.61596584320068359
0.65744888782501221 0.65744888782501221 0.65744888782501221
0.5603032112121582 0.5603032112121582 0.5603032112121582
0.56953120231628418 0.56953120231628418 0.56953120231628418
0.60195070505142212 0.60195070505142212 0.60195070505142212
0.63371729850769043 0.63371729850769043 0.63371729850769043
0.66586983203887939 0.66586983203887939 0.66586983203887939
0.69619041681289673 0.69619041681289673 0.69619041681289673
0.72398555278778076 0.72398555278778076 0.72398555278778076
0.65885263681411743 0.65885263681411743 0.65885263681411743
0.66943520307540894 0.66943520307540894 0.66943520307540894
0.69032865762710571 0.69032865762710571 0.69032865762710571
0.72359758615493774 0.72359758615493774 0.72359758615493774
0.75585311651229858 0.75585311651229858 0.75585311651229858
0.79187256097793579 0.79187256097793579 0.79187256097793579
0.81625628471374512 0.81625628471374512 0.81625628471374512
0.74688869714736938 0.74688869714736938 0.74688869714736938
0.73962134122848511 0.73962134122848511 0.73962134122848511
0.75482696294784546 0.75482696294784546 0.75482696294784546
0.79891949892044067 0.79891949892044067 0.79891949892044067
0.8280174732208252 0.8280174732208252 0.8280174732208252
0.86385172605514526 0.86385172605514526 0.86385172605514526
0.9025307297706604 0.9025307297706604 0.9025307297706604
0.7532612681388855 0.7532612681388855 0.7532612681388855
0.79093360900878906 0.79093360900878906 0.79093360900878906
0.80696737766265869 0.80696737766265869 0.80696737766265869
0.84413117170333862 0.84413117170333862 0.84413117170333862
0.86982583999633789 0.86982583999633789 0.86982583999633789
0.90055489540100098 0.90055489540100098 0.90055489540100098
0.93229573965072632 0.93229573965072632 0.93229573965072632
0.38228002190589905 0.38228002190589905 0.38228002190589905
0.42341986298561096 0.42341986298561096 0.42341986298561096
0.46694383025169373 0.46694383025169373 0.46694383025169373
0.51872450113296509 0.51872450113296509 0.51872450113296509
0.57456183433532715 0.57456183433532715 0.57456183433532715
0.63854968547821045 0.63854968547821045 0.63854968547821045
0.67445617914199829 0.67445617914199829 0.67445617914199829
0.45264542102813721 0.45264542102813721 0.45264542102813721
0.4924396276473999 0.4924396276473999 0.4924396276473999
0.52726691961288452 0.52726691961288452 0.52726691961288452
0.56510961055755615 0.56510961055755615 0.56510961055755615
0.61057764291763306 0.61057764291763306 0.61057764291763306
0.66036969423294067 0.66036969423294067 0.66036969423294067
0.68180805444717407 0.68180805444717407 0.68180805444717407
0.53514808416366577 0.53514808416366577 0.53514808416366577
0.56578487157821655 0.56578487157821655 0.56578487157821655
0.5942375659942627 0.5942375659942627 0.5942375659942627
0.62501055002212524 0.62501055002212524 0.62501055002212524
0.6585613489151001 0.6585613489151001 0.6585613489151001
0.69805467128753662 0.69805467128753662 0.69805467128753662
0.72172993421554565 0.72172993421554565 0.72172993421554565
0.62285530567169189 0.62285530567169189 0.62285530567169189
0.6403803825378418 0.6403803825378418 0.6403803825378418
0.66218024492263794 0.66218024492263794 0.66218024492263794
0.69192129373550415 0.69192129373550415 0.69192129373550415
0.72364503145217896 0.72364503145217896 0.72364503145217896
0.75551629066467285 0.75551629066467285 0.75551629066467285
0.78170698881149292 0.78170698881149292 0.78170698881149292
0.71346467733383179 0.71346467733383179 0.71346467733383179
0.72025507688522339 0.72025507688522339 0.72025507688522339
0.73792737722396851 0.73792737722396851 0.73792737722396851
0.76567047834396362 0.76567047834396362 0.76567047834396362
0.79465985298156738 0.79465985298156738 0.79465985298156738
0.83039635419845581 0.83039635419845581 0.83039635419845581
0.85978466272354126 0.85978466272354126 0.85978466272354126
0.77749115228652954 0.77749115228652954 0.77749115228652954
0.7984691858291626 0.7984691858291626 0.7984691858291626
0.81210780143737793 0.81210780143737793 0.81210780143737793
0.84239321947097778 0.84239321947097778 0.84239321947097778
0.86409986019134521 0.86409986019134521 0.86409986019134521
0.89633703231811523 0.89633703231811523 0.89633703231811523
0.93639159202575684 0.93639159202575684 0.93639159202575684
0.84216004610061646 0.84216004610061646 0.84216004610061646
0.82579082250595093 0.82579082250595093 0.82579082250595093
0.83992749452590942 0.83992749452590942 0.83992749452590942
0.87159717082977295 0.87159717082977295 0.87159717082977295
0.90066051483154297 0.90066051483154297 0.90066051483154297
0.92922204732894897 0.92922204732894897 0.92922204732894897
0.95876872539520264 0.95876872539520264 0.95876872539520264
0.46505233645439148 0.46505233645439148 0.46505233645439148
0.49892660975456238 0.49892660975456238 0.49892660975456238
0.53188490867614746 0.53188490867614746 0.53188490867614746
0.58563578128814697 0.58563578128814697 0.58563578128814697
0.64466601610183716 0.64466601610183716 0.64466601610183716
0.70277899503707886 0.70277899503707886 0.70277899503707886
0.7253793478012085 0.7253793478012085 0.7253793478012085
0.51555287837982178 0.51555287837982178 0.51555287837982178
0.56047326326370239 0.56047326326370239 0.56047326326370239
0.60023176670074463 0.60023176670074463 0.60023176670074463
0.63793039321899414 0.63793039321899414 0.63793039321899414
0.68585580587387085 0.68585580587387085 0.68585580587387085
0.72897851467132568 0.72897851467132568 0.72897851467132568
0.74141919612884521 0.74141919612884521 0.74141919612884521
0.61490118503570557 0.61490118503570557 0.61490118503570557
0.65266400575637817 0.65266400575637817 0.65266400575637817
0.68155014514923096 0.68155014514923096 0.68155014514923096
0.71058601140975952 0.71058601140975952 0.71058601140975952
0.74152296781539917 0.74152296781539917 0.74152296781539917
0.76655459403991699 0.76655459403991699 0.76655459403991699
0.78713327646255493 0.78713327646255493 0.78713327646255493
0.68798792362213135 0.68798792362213135 0.68798792362213135
0.71369493007659912 0.71369493007659912 0.71369493007659912
0.73837924003601074 0.73837924003601074 0.73837924003601074
0.7650834321975708 0.7650834321975708 0.7650834321975708
0.79329377412796021 0.79329377412796021 0.79329377412796021
0.81926560401916504 0.81926560401916504 0.81926560401916504
0.82666492462158203 0.82666492462158203 0.82666492462158203
0.76594007015228271 0.76594007015228271 0.76594007015228271
0.78227400779724121 0.78227400779724121 0.78227400779724121
0.79773718118667603 0.79773718118667603 0.79773718118667603
0.82260453701019287 0.82260453701019287 0.82260453701019287
0.85310274362564087 0.85310274362564087 0.85310274362564087
0.88248717784881592 0.88248717784881592 0.88248717784881592
0.89688259363174438 0.89688259363174438 0.89688259363174438
0.83754420280456543 0.83754420280456543 0.83754420280456543
0.84690368175506592 0.84690368175506592 0.84690368175506592
0.85990291833877563 0.85990291833877563 0.85990291833877563
0.87875622510910034 0.87875622510910034 0.87875622510910034
0.91631793975830078 0.91631793975830078 0.91631793975830078
0.93789732456207275 0.93789732456207275 0.93789732456207275
0.96496719121932983 0.96496719121932983 0.96496719121932983
0.85324007272720337 0.85324007272720337 0.85324007272720337
0.84930461645126343 0.84930461645126343 0.84930461645126343
0.8693925142288208 0.8693925142288208 0.8693925142288208
0.89764612913131714 0.89764612913131714 0.89764612913131714
0.93037450313568115 0.93037450313568115 0.93037450313568115
0.96091359853744507 0.96091359853744507 0.96091359853744507
0.98184508085250854 0.98184508085250854 0.98184508085250854
