assets/lut/fujixtransiii fuji xtrans iii acros+g.cube
# Created by: G'MIC (https://gmic.eu)
TITLE "fuji_xtrans_iii_acros+g"
# LUT size
LUT_3D_SIZE 5
# Data domain
DOMAIN_MIN 0.0 0.0 0.0
DOMAIN_MAX 1.0 1.0 1.0
# LUT data points
0.01796448603272438 0.01796448603272438 0.01796448603272438
0.060326520353555679 0.060326520353555679 0.060326520353555679
0.17325703799724579 0.17325703799724579 0.17325703799724579
0.28826627135276794 0.28826627135276794 0.28826627135276794
0.33236461877822876 0.33236461877822876 0.33236461877822876
0.12351842969655991 0.12351842969655991 0.12351842969655991
0.16834145784378052 0.16834145784378052 0.16834145784378052
0.26466336846351624 0.26466336846351624 0.26466336846351624
0.36151888966560364 0.36151888966560364 0.36151888966560364
0.41156700253486633 0.41156700253486633 0.41156700253486633
0.31401696801185608 0.31401696801185608 0.31401696801185608
0.39133846759796143 0.39133846759796143 0.39133846759796143
0.4672696590423584 0.4672696590423584 0.4672696590423584
0.52493429183959961 0.52493429183959961 0.52493429183959961
0.5708886981010437 0.5708886981010437 0.5708886981010437
0.41148066520690918 0.41148066520690918 0.41148066520690918
0.48553213477134705 0.48553213477134705 0.48553213477134705
0.59139811992645264 0.59139811992645264 0.59139811992645264
0.61589330434799194 0.61589330434799194 0.61589330434799194
0.68414062261581421 0.68414062261581421 0.68414062261581421
0.45682221651077271 0.45682221651077271 0.45682221651077271
0.6012645959854126 0.6012645959854126 0.6012645959854126
0.66009765863418579 0.66009765863418579 0.66009765863418579
0.72370094060897827 0.72370094060897827 0.72370094060897827
0.74520087242126465 0.74520087242126465 0.74520087242126465
0.07821577787399292 0.07821577787399292 0.07821577787399292
0.14578844606876373 0.14578844606876373 0.14578844606876373
0.25030052661895752 0.25030052661895752 0.25030052661895752
0.32964661717414856 0.32964661717414856 0.32964661717414856
0.41016536951065063 0.41016536951065063 0.41016536951065063
0.19728559255599976 0.19728559255599976 0.19728559255599976
0.23012939095497131 0.23012939095497131 0.23012939095497131
0.30884405970573425 0.30884405970573425 0.30884405970573425
0.40362441539764404 0.40362441539764404 0.40362441539764404
0.47102236747741699 0.47102236747741699 0.47102236747741699
0.40987968444824219 0.40987968444824219 0.40987968444824219
0.44272449612617493 0.44272449612617493 0.44272449612617493
0.50467830896377563 0.50467830896377563 0.50467830896377563
0.55761975049972534 0.55761975049972534 0.55761975049972534
0.59108799695968628 0.59108799695968628 0.59108799695968628
0.52661317586898804 0.52661317586898804 0.52661317586898804
0.61199808120727539 0.61199808120727539 0.61199808120727539
0.66943877935409546 0.66943877935409546 0.66943877935409546
0.71810317039489746 0.71810317039489746 0.71810317039489746
0.75468474626541138 0.75468474626541138 0.75468474626541138
0.57394587993621826 0.57394587993621826 0.57394587993621826
0.67016488313674927 0.67016488313674927 0.67016488313674927
0.71816331148147583 0.71816331148147583 0.71816331148147583
0.77768528461456299 0.77768528461456299 0.77768528461456299
0.81554436683654785 0.81554436683654785 0.81554436683654785
0.21829588711261749 0.21829588711261749 0.21829588711261749
0.27881380915641785 0.27881380915641785 0.27881380915641785
0.35299116373062134 0.35299116373062134 0.35299116373062134
0.43922242522239685 0.43922242522239685 0.43922242522239685
0.48365700244903564 0.48365700244903564 0.48365700244903564
0.31219682097434998 0.31219682097434998 0.31219682097434998
0.36484608054161072 0.36484608054161072 0.36484608054161072
0.42455571889877319 0.42455571889877319 0.42455571889877319
0.48431459069252014 0.48431459069252014 0.48431459069252014
0.53385961055755615 0.53385961055755615 0.53385961055755615
0.4940190315246582 0.4940190315246582 0.4940190315246582
0.51697158813476562 0.51697158813476562 0.51697158813476562
0.58481109142303467 0.58481109142303467 0.58481109142303467
0.62935370206832886 0.62935370206832886 0.62935370206832886
0.66133028268814087 0.66133028268814087 0.66133028268814087
0.64925110340118408 0.64925110340118408 0.64925110340118408
0.67345356941223145 0.67345356941223145 0.67345356941223145
0.7217717170715332 0.7217717170715332 0.7217717170715332
0.77487534284591675 0.77487534284591675 0.77487534284591675
0.82416898012161255 0.82416898012161255 0.82416898012161255
0.69869107007980347 0.69869107007980347 0.69869107007980347
0.72634410858154297 0.72634410858154297 0.72634410858154297
0.76910340785980225 0.76910340785980225 0.76910340785980225
0.83898544311523438 0.83898544311523438 0.83898544311523438
0.89522659778594971 0.89522659778594971 0.89522659778594971
0.34089642763137817 0.34089642763137817 0.34089642763137817
0.40010124444961548 0.40010124444961548 0.40010124444961548
0.47580727934837341 0.47580727934837341 0.47580727934837341
0.56792634725570679 0.56792634725570679 0.56792634725570679
0.6498568058013916 0.6498568058013916 0.6498568058013916
0.44997593760490417 0.44997593760490417 0.44997593760490417
0.49803987145423889 0.49803987145423889 0.49803987145423889
0.54776370525360107 0.54776370525360107 0.54776370525360107
0.60652762651443481 0.60652762651443481 0.60652762651443481
0.65774327516555786 0.65774327516555786 0.65774327516555786
0.59281450510025024 0.59281450510025024 0.59281450510025024
0.61688530445098877 0.61688530445098877 0.61688530445098877
0.66046547889709473 0.66046547889709473 0.66046547889709473
0.70932412147521973 0.70932412147521973 0.70932412147521973
0.7533574104309082 0.7533574104309082 0.7533574104309082
0.73103475570678711 0.73103475570678711 0.73103475570678711
0.74048918485641479 0.74048918485641479 0.74048918485641479
0.78194361925125122 0.78194361925125122 0.78194361925125122
0.8238103985786438 0.8238103985786438 0.8238103985786438
0.88968789577484131 0.88968789577484131 0.88968789577484131
0.78346675634384155 0.78346675634384155 0.78346675634384155
0.81667202711105347 0.81667202711105347 0.81667202711105347
0.86582595109939575 0.86582595109939575 0.86582595109939575
0.90330767631530762 0.90330767631530762 0.90330767631530762
0.94523429870605469 0.94523429870605469 0.94523429870605469
0.46505233645439148 0.46505233645439148 0.46505233645439148
0.51707559823989868 0.51707559823989868 0.51707559823989868
0.58563578128814697 0.58563578128814697 0.58563578128814697
0.67167955636978149 0.67167955636978149 0.67167955636978149
0.7253793478012085 0.7253793478012085 0.7253793478012085
0.57106131315231323 0.57106131315231323 0.57106131315231323
0.62713503837585449 0.62713503837585449 0.62713503837585449
0.67541581392288208 0.67541581392288208 0.67541581392288208
0.73027306795120239 0.73027306795120239 0.73027306795120239
0.75879907608032227 0.75879907608032227 0.75879907608032227
0.68798792362213135 0.68798792362213135 0.68798792362213135
0.72718650102615356 0.72718650102615356 0.72718650102615356
0.7650834321975708 0.7650834321975708 0.7650834321975708
0.80730754137039185 0.80730754137039185 0.80730754137039185
0.82666492462158203 0.82666492462158203 0.82666492462158203
0.80594825744628906 0.80594825744628906 0.80594825744628906
0.8226897120475769 0.8226897120475769 0.8226897120475769
0.85277807712554932 0.85277807712554932 0.85277807712554932
0.89959108829498291 0.89959108829498291 0.89959108829498291
0.93468946218490601 0.93468946218490601 0.93468946218490601
0.85324007272720337 0.85324007272720337 0.85324007272720337
0.8579980731010437 0.8579980731010437 0.8579980731010437
0.89764612913131714 0.89764612913131714 0.89764612913131714
0.94494795799255371 0.94494795799255371 0.94494795799255371
0.98184508085250854 0.98184508085250854 0.98184508085250854
