assets/lut/fujixtransiii fuji xtrans iii astia.cube
# Created by: G'MIC (https://gmic.eu)
TITLE "fuji_xtrans_iii_astia"
# LUT size
LUT_3D_SIZE 7
# Data domain
DOMAIN_MIN 0.0 0.0 0.0
DOMAIN_MAX 1.0 1.0 1.0
# LUT data points
0.0087544163689017296 0.013643287122249603 0.010940102860331535
0.10545700788497925 0.020502950996160507 0.01221624668687582
0.33573064208030701 0.034052036702632904 0.0075420155189931393
0.58784860372543335 0.1002117395401001 0.023365603759884834
0.79362624883651733 0.15811216831207275 0.10787294805049896
0.86312144994735718 0.18919351696968079 0.17128762602806091
0.89575314521789551 0.2165483683347702 0.20759584009647369
0.0063876733183860779 0.089660242199897766 0.0096572423353791237
0.10821975767612457 0.097771525382995605 0.0073669133707880974
0.34294632077217102 0.1299193799495697 0.0089248204603791237
0.59595119953155518 0.17613212764263153 0.021806694567203522
0.79498720169067383 0.21461457014083862 0.085152000188827515
0.89066874980926514 0.24586758017539978 0.16131363809108734
0.94021672010421753 0.31376031041145325 0.20994766056537628
0.0065861120820045471 0.28516599535942078 0.0018133275443688035
0.059164486825466156 0.3152831494808197 0.00034618002246133983
0.33512446284294128 0.34555593132972717 0.0047890455462038517
0.58524143695831299 0.35426744818687439 0.010085835121572018
0.76846963167190552 0.37946075201034546 0.03809826448559761
0.90146762132644653 0.38952368497848511 0.12981534004211426
0.94789707660675049 0.38626900315284729 0.17677152156829834
0.0028792736120522022 0.44753524661064148 0.0016235650982707739
0.042939834296703339 0.49536114931106567 0
0.2921806275844574 0.53186917304992676 0.00012413473450578749
0.56276476383209229 0.5450516939163208 0.00050149054732173681
0.73231160640716553 0.55799442529678345 0.014794084243476391
0.84502393007278442 0.573494553565979 0.059543520212173462
0.91319048404693604 0.59825479984283447 0.16710814833641052
0.01128724031150341 0.51440626382827759 0.013234770856797695
0.031543191522359848 0.60693919658660889 0.0033792234025895596
0.27708381414413452 0.61161315441131592 0.00094546150648966432
0.55055111646652222 0.68006867170333862 0.0027395510114729404
0.73911374807357788 0.6741366982460022 0.010419927537441254
0.83827191591262817 0.68342369794845581 0.053918875753879547
0.89757353067398071 0.71665382385253906 0.16338968276977539
0.015151439234614372 0.55393862724304199 0.02650928869843483
0.069016806781291962 0.67911934852600098 0.054730746895074844
0.27991673350334167 0.71153056621551514 0.035271737724542618
0.55625486373901367 0.71693927049636841 0.013209234923124313
0.69484949111938477 0.71442562341690063 0.043282035738229752
0.87363195419311523 0.72285693883895874 0.13429781794548035
0.9302445650100708 0.74757903814315796 0.23157128691673279
0.023412726819515228 0.59990233182907104 0.013678127899765968
0.080230265855789185 0.71030747890472412 0.07078196108341217
0.28011935949325562 0.74231880903244019 0.049001343548297882
0.57589513063430786 0.74938195943832397 0.038761526346206665
0.70743447542190552 0.77666813135147095 0.14316783845424652
0.85049402713775635 0.78696423768997192 0.24333664774894714
0.91832429170608521 0.78890371322631836 0.29034754633903503
0.0080773597583174706 0.024416126310825348 0.14609305560588837
0.1295877993106842 0.044480074197053909 0.13149325549602509
0.34609973430633545 0.078309260308742523 0.14724913239479065
0.61026984453201294 0.13828963041305542 0.18866518139839172
0.82409954071044922 0.1660582572221756 0.26136603951454163
0.89780455827713013 0.19867803156375885 0.29723474383354187
0.98914253711700439 0.28203430771827698 0.43600708246231079
0.0097615709528326988 0.11870332807302475 0.13813842833042145
0.11583644151687622 0.13056918978691101 0.12116815894842148
0.35751911997795105 0.16894437372684479 0.12444788962602615
0.60357540845870972 0.1951899379491806 0.15152117609977722
0.80156153440475464 0.2377779632806778 0.22269542515277863
0.93097233772277832 0.28475958108901978 0.30707511305809021
0.99083793163299561 0.3142319917678833 0.39126589894294739
0.0049248789437115192 0.31666532158851624 0.093359746038913727
0.064094170928001404 0.32793918251991272 0.068217366933822632
0.33604469895362854 0.3455950915813446 0.071407556533813477
0.58683556318283081 0.36223378777503967 0.095951870083808899
0.7707982063293457 0.3988158106803894 0.1639343649148941
0.91167336702346802 0.41757562756538391 0.26561763882637024
0.97912490367889404 0.43996641039848328 0.35099783539772034
0.003474261611700058 0.51177501678466797 0.051271624863147736
0.041501257568597794 0.5350610613822937 0.034560080617666245
0.27427694201469421 0.54892140626907349 0.033919405192136765
0.55191481113433838 0.55961805582046509 0.048205148428678513
0.73904263973236084 0.5694231390953064 0.098196066915988922
0.87774527072906494 0.58201724290847778 0.19962614774703979
0.96083801984786987 0.59795308113098145 0.26053813099861145
0.0076512354426085949 0.59889882802963257 0.14131426811218262
0.035684220492839813 0.65934962034225464 0.031080642715096474
0.23936456441879272 0.69015556573867798 0.046015452593564987
0.52603930234909058 0.70523464679718018 0.058922488242387772
0.71490359306335449 0.70415800809860229 0.096944414079189301
0.85529631376266479 0.72277772426605225 0.1981329619884491
0.96213561296463013 0.74694669246673584 0.26982250809669495
0.011296724900603294 0.62942147254943848 0.22266606986522675
0.079868108034133911 0.72893285751342773 0.11575908213853836
0.25639858841896057 0.76088553667068481 0.14800249040126801
0.55585289001464844 0.76033324003219604 0.090117089450359344
0.69408702850341797 0.77677708864212036 0.1349198967218399
0.85676842927932739 0.7926744818687439 0.2649233341217041
0.91849565505981445 0.79115325212478638 0.2913060188293457
0.0093552237376570702 0.65475988388061523 0.38131794333457947
0.13508260250091553 0.76033329963684082 0.20246791839599609
0.26196157932281494 0.78420746326446533 0.21622808277606964
0.51180011034011841 0.78027784824371338 0.18683558702468872
0.6842382550239563 0.79271394014358521 0.1763855516910553
0.86061662435531616 0.8102993369102478 0.29226052761077881
0.92015796899795532 0.83956742286682129 0.37506744265556335
0.026368908584117889 0.090289637446403503 0.48143866658210754
0.19061180949211121 0.10214947164058685 0.48676231503486633
0.39393565058708191 0.13251061737537384 0.46013525128364563
0.62124896049499512 0.17566345632076263 0.4812561571598053
0.81954872608184814 0.21088403463363647 0.47976893186569214
0.93602001667022705 0.25619962811470032 0.52532476186752319
0.9984668493270874 0.2987886369228363 0.59727334976196289
0.018370354548096657 0.17670387029647827 0.431841641664505
0.1485200822353363 0.19265033304691315 0.42646646499633789
0.37498807907104492 0.21480919420719147 0.40508133172988892
0.60682743787765503 0.24609802663326263 0.41468542814254761
0.80051529407501221 0.28825193643569946 0.44308102130889893
0.93502748012542725 0.32221579551696777 0.48419341444969177
0.99853348731994629 0.36446639895439148 0.50408405065536499
0.0083024566993117332 0.34943071007728577 0.38447850942611694
0.10328874737024307 0.36118090152740479 0.36930355429649353
0.35518079996109009 0.37210071086883545 0.36662548780441284
0.58575361967086792 0.39156177639961243 0.36739596724510193
0.77738124132156372 0.41738274693489075 0.40865790843963623
0.91393041610717773 0.44447895884513855 0.46105358004570007
0.99277967214584351 0.45080304145812988 0.4799409806728363
0.0084298672154545784 0.54186218976974487 0.36079281568527222
0.061439231038093567 0.54919975996017456 0.31901925802230835
0.30924767255783081 0.5544247031211853 0.31197455525398254
0.55212223529815674 0.56702405214309692 0.3219725489616394
0.73795205354690552 0.57787585258483887 0.35029780864715576
0.87497645616531372 0.59507352113723755 0.39992576837539673
0.98687946796417236 0.61342334747314453 0.45132768154144287
0.0077862609177827835 0.63572686910629272 0.3994596004486084
0.065243497490882874 0.6909564733505249 0.31524455547332764
0.26535290479660034 0.70163810253143311 0.27300170063972473
0.52820241451263428 0.70165646076202393 0.28859680891036987
0.71576166152954102 0.7105940580368042 0.32592004537582397
0.86128908395767212 0.72840261459350586 0.36939883232116699
0.97608059644699097 0.74872446060180664 0.39397379755973816
0.061842646449804306 0.75296932458877563 0.37686082720756531
0.099227204918861389 0.77460175752639771 0.33406439423561096
0.26838240027427673 0.78664886951446533 0.29194536805152893
0.51346665620803833 0.79546922445297241 0.31081101298332214
0.69733899831771851 0.81290906667709351 0.35779222846031189
0.85902273654937744 0.81571668386459351 0.37761494517326355
0.95205432176589966 0.8308301568031311 0.42079633474349976
0.070702403783798218 0.76998406648635864 0.35373499989509583
0.11152473837137222 0.78301888704299927 0.3471837043762207
0.28678971529006958 0.81687766313552856 0.41294041275978088
0.49741402268409729 0.83102512359619141 0.41107302904129028
0.6824653148651123 0.83142155408859253 0.38768327236175537
0.87277448177337646 0.85096079111099243 0.42399165034294128
0.94604617357254028 0.86417967081069946 0.45705112814903259
0.085148938000202179 0.14049807190895081 0.73978447914123535
0.26504024863243103 0.16065184772014618 0.74395573139190674
0.45394256711006165 0.19229170680046082 0.72447055578231812
0.6362074613571167 0.23376038670539856 0.6941419243812561
0.8084036111831665 0.2805919349193573 0.69416123628616333
0.93418747186660767 0.31590050458908081 0.68836706876754761
0.99738764762878418 0.35445129871368408 0.71088773012161255
0.035636976361274719 0.24116052687168121 0.72228056192398071
0.20569649338722229 0.2650282084941864 0.7235034704208374
0.4115978479385376 0.29584690928459167 0.69411027431488037
0.61717504262924194 0.32040891051292419 0.67282617092132568
0.79814988374710083 0.35901960730552673 0.67215311527252197
0.93002140522003174 0.3810155987739563 0.66886264085769653
0.9926334023475647 0.40353640913963318 0.68485337495803833
0.015475074760615826 0.40004825592041016 0.67816710472106934
0.15239962935447693 0.40997898578643799 0.67248797416687012
0.3833354115486145 0.42177131772041321 0.65320825576782227
0.59691852331161499 0.44077855348587036 0.64593613147735596
0.78039723634719849 0.46042609214782715 0.64130455255508423
0.90526533126831055 0.48414856195449829 0.65338438749313354
0.99398523569107056 0.50305664539337158 0.66510879993438721
0.01513259019702673 0.56522434949874878 0.62354987859725952
0.11253122240304947 0.5669141411781311 0.60971784591674805
0.33989709615707397 0.56933903694152832 0.5892181396484375
0.56630045175552368 0.57814991474151611 0.58136451244354248
0.74749088287353516 0.59028011560440063 0.5966835618019104
0.88198709487915039 0.61308282613754272 0.61256653070449829
0.98771059513092041 0.63265705108642578 0.61856579780578613
0.024312680587172508 0.69075131416320801 0.62846821546554565
0.11468498408794403 0.70168924331665039 0.56812781095504761
0.32165208458900452 0.70597708225250244 0.53820693492889404
0.54640448093414307 0.70943558216094971 0.5461161732673645
0.72212761640548706 0.71817350387573242 0.54494631290435791
0.86344093084335327 0.73675966262817383 0.55554282665252686
0.97597610950469971 0.75892490148544312 0.57971346378326416
0.055026859045028687 0.76967287063598633 0.66918522119522095
0.15191386640071869 0.79228407144546509 0.58273333311080933
0.30940350890159607 0.80613189935684204 0.53813588619232178
0.50677603483200073 0.81691884994506836 0.52537709474563599
0.71211779117584229 0.81198251247406006 0.51795101165771484
0.86250466108322144 0.83705306053161621 0.5537993311882019
0.97293657064437866 0.86686193943023682 0.58040314912796021
0.065105438232421875 0.78487563133239746 0.68768489360809326
0.1780678778886795 0.81344044208526611 0.61790823936462402
0.30888935923576355 0.82562494277954102 0.54703342914581299
0.50445717573165894 0.83134299516677856 0.5262259840965271
0.7135392427444458 0.83673810958862305 0.53248304128646851
0.8816293478012085 0.88346379995346069 0.56997144222259521
0.97153204679489136 0.90035474300384521 0.59766477346420288
0.23299901187419891 0.16388475894927979 0.8629794716835022
0.35205474495887756 0.19814904034137726 0.87158834934234619
0.50828468799591064 0.24904190003871918 0.87226945161819458
0.66871738433837891 0.29857543110847473 0.86964875459671021
0.81290024518966675 0.34429711103439331 0.85227066278457642
0.93077349662780762 0.38249492645263672 0.8461877703666687
0.99223345518112183 0.40771591663360596 0.86679023504257202
0.097789421677589417 0.31367951631546021 0.91398566961288452
0.27515384554862976 0.35009101033210754 0.92162483930587769
0.45708134770393372 0.37450292706489563 0.88533806800842285
0.63387435674667358 0.39875581860542297 0.86137145757675171
0.79138743877410889 0.42727330327033997 0.84094667434692383
0.92051607370376587 0.44900086522102356 0.82717710733413696
0.99133396148681641 0.46704298257827759 0.83252394199371338
0.057419151067733765 0.45516878366470337 0.87696218490600586
0.22786843776702881 0.47819459438323975 0.87637180089950562
0.42693811655044556 0.48669111728668213 0.85208350419998169
0.6053728461265564 0.50455820560455322 0.82897073030471802
0.77205038070678711 0.52289432287216187 0.81120878458023071
0.90030008554458618 0.53796356916427612 0.80912929773330688
0.99338853359222412 0.56288707256317139 0.81113183498382568
0.043041691184043884 0.5911564826965332 0.82913893461227417
0.19381295144557953 0.59984427690505981 0.82688313722610474
0.39367407560348511 0.60255241394042969 0.80228406190872192
0.59171879291534424 0.61449939012527466 0.78538477420806885
0.75361174345016479 0.62577205896377563 0.78400146961212158
0.88565230369567871 0.63990688323974609 0.78589922189712524
0.98763364553451538 0.66897457838058472 0.77934271097183228
0.05516299232840538 0.71379774808883667 0.79300278425216675
0.20200979709625244 0.71241092681884766 0.78380089998245239
0.3857940137386322 0.7217094898223877 0.76067566871643066
0.57366549968719482 0.7291107177734375 0.74616742134094238
0.73339444398880005 0.73425883054733276 0.74394816160202026
0.87151592969894409 0.74940389394760132 0.74332273006439209
0.9820406436920166 0.78660690784454346 0.75075656175613403
0.12960663437843323 0.81649047136306763 0.78331714868545532
0.22262388467788696 0.81628286838531494 0.75809890031814575
0.37720772624015808 0.81310325860977173 0.7416306734085083
0.56049680709838867 0.8291587233543396 0.73131251335144043
0.72895771265029907 0.82891654968261719 0.73335230350494385
0.87291634082794189 0.84427738189697266 0.71975791454315186
0.97444123029708862 0.88568222522735596 0.73385494947433472
0.14359106123447418 0.82906413078308105 0.78753858804702759
0.27124795317649841 0.85474014282226562 0.8043326735496521
0.3989555835723877 0.86432904005050659 0.79243475198745728
0.58377504348754883 0.87187516689300537 0.78795516490936279
0.73673522472381592 0.87878251075744629 0.76085805892944336
0.89536464214324951 0.89261132478713989 0.71691477298736572
0.97401624917984009 0.92292189598083496 0.72602427005767822
0.37297257781028748 0.15723796188831329 0.95676338672637939
0.45703938603401184 0.21562106907367706 0.95481586456298828
0.57674509286880493 0.27857640385627747 0.95290815830230713
0.71360069513320923 0.34175074100494385 0.95591771602630615
0.83769255876541138 0.3904263973236084 0.94902712106704712
0.93921339511871338 0.44186109304428101 0.95563304424285889
0.99471533298492432 0.4944935142993927 0.98929131031036377
0.22302617132663727 0.36224609613418579 0.96860533952713013
0.36815375089645386 0.4177614152431488 0.97872686386108398
0.5126609206199646 0.44061782956123352 0.97581052780151367
0.65884363651275635 0.46889683604240417 0.97226452827453613
0.8018001914024353 0.49646508693695068 0.96942681074142456
0.91548830270767212 0.51832360029220581 0.95330524444580078
0.9928516149520874 0.53190714120864868 0.96406149864196777
0.11941228806972504 0.51346671581268311 0.98227286338806152
0.31564247608184814 0.54410648345947266 0.98806697130203247
0.47205150127410889 0.55198705196380615 0.98279231786727905
0.63041442632675171 0.56545388698577881 0.96259725093841553
0.77409845590591431 0.58285027742385864 0.953480064868927
0.89569723606109619 0.60472756624221802 0.94555425643920898
0.99023687839508057 0.60830819606781006 0.94288229942321777
0.11131187528371811 0.63105154037475586 0.9688643217086792
0.29874232411384583 0.64405250549316406 0.96361440420150757
0.4560873806476593 0.64919537305831909 0.94862908124923706
0.62451642751693726 0.659027099609375 0.93239748477935791
0.76222676038742065 0.66892451047897339 0.92813622951507568
0.88820189237594604 0.67645776271820068 0.93075931072235107
0.99146872758865356 0.6914868950843811 0.93268316984176636
0.13415411114692688 0.73762553930282593 0.94638961553573608
0.30174171924591064 0.7424318790435791 0.93953317403793335
0.44898459315299988 0.75003862380981445 0.91855764389038086
0.60942286252975464 0.75527358055114746 0.90548926591873169
0.75484305620193481 0.76099127531051636 0.89923810958862305
0.87866181135177612 0.77371722459793091 0.89810961484909058
0.9869534969329834 0.80055874586105347 0.90300959348678589
0.21176548302173615 0.82940959930419922 0.93198591470718384
0.30956712365150452 0.83873647451400757 0.92771166563034058
0.43922880291938782 0.84778726100921631 0.91376334428787231
0.59493410587310791 0.85312759876251221 0.89822757244110107
0.75401121377944946 0.85408949851989746 0.88501560688018799
0.87309557199478149 0.86352455615997314 0.87996369600296021
0.98072963953018188 0.90229839086532593 0.89540666341781616
0.34181240200996399 0.89597427845001221 0.96016067266464233
0.31858199834823608 0.88277316093444824 0.92356413602828979
0.43361371755599976 0.89032763242721558 0.90839582681655884
0.59151339530944824 0.89822614192962646 0.91441851854324341
0.7547764778137207 0.90234136581420898 0.87845700979232788
0.88734215497970581 0.91515129804611206 0.87755930423736572
0.98290956020355225 0.93671709299087524 0.88746470212936401
0.50070732831954956 0.21995940804481506 1
0.55982953310012817 0.26623305678367615 0.99919462203979492
0.65280771255493164 0.32198294997215271 0.99761909246444702
0.76741409301757812 0.39867842197418213 0.99540060758590698
0.87303876876831055 0.47914230823516846 0.99363678693771362
0.95718169212341309 0.54847168922424316 0.99610787630081177
0.98815405368804932 0.57421362400054932 0.99837946891784668
0.40353873372077942 0.36803421378135681 0.99629122018814087
0.51105833053588867 0.43425095081329346 0.99430429935455322
0.61553990840911865 0.48341849446296692 0.99201971292495728
0.73340356349945068 0.52761960029602051 0.99067729711532593
0.85363495349884033 0.57358443737030029 0.99281781911849976
0.94550472497940063 0.59941577911376953 0.99476701021194458
0.9873160719871521 0.59663957357406616 0.99931931495666504
0.17280924320220947 0.5628277063369751 0.99935412406921387
0.37392142415046692 0.6020510196685791 0.99763959646224976
0.54209655523300171 0.62513452768325806 0.99608463048934937
0.67678296566009521 0.64216715097427368 0.9960668683052063
0.81565976142883301 0.64966493844985962 0.99529922008514404
0.92637783288955688 0.66142219305038452 0.99570685625076294
0.98781216144561768 0.67347157001495361 0.99939602613449097
0.18492579460144043 0.67338460683822632 0.99935472011566162
0.35511475801467896 0.69797694683074951 0.99988186359405518
0.52514958381652832 0.7150159478187561 0.99756360054016113
0.66566616296768188 0.72170901298522949 0.99408280849456787
0.79770338535308838 0.72866261005401611 0.99000257253646851
0.91662609577178955 0.73615121841430664 0.99084889888763428
0.99089264869689941 0.73924463987350464 0.99848055839538574
0.19290290772914886 0.77766716480255127 0.99976193904876709
0.35447531938552856 0.78770804405212402 0.99930769205093384
0.52320271730422974 0.79942107200622559 0.99599283933639526
0.65591037273406982 0.8050076961517334 0.99117344617843628
0.7848057746887207 0.81112921237945557 0.99064505100250244
0.89996439218521118 0.8215407133102417 0.99238091707229614
0.9902229905128479 0.83219426870346069 0.99074321985244751
0.29983100295066833 0.87791109085083008 0.99710726737976074
0.3767257034778595 0.88516193628311157 0.99578511714935303
0.50596177577972412 0.87972033023834229 0.99058020114898682
0.64564067125320435 0.89132660627365112 0.98705440759658813
0.78545355796813965 0.89706182479858398 0.98863691091537476
0.91061824560165405 0.90587079524993896 0.9913666844367981
0.99020969867706299 0.9243161678314209 0.9853019118309021
0.35796496272087097 0.90911275148391724 0.98643797636032104
0.36220386624336243 0.90070635080337524 0.97863781452178955
0.48635193705558777 0.90395426750183105 0.9729124903678894
0.6392168402671814 0.91245031356811523 0.98600715398788452
0.77927672863006592 0.92675888538360596 0.98763370513916016
0.9077908992767334 0.93470096588134766 0.98727554082870483
0.98806202411651611 0.95587754249572754 0.98142796754837036
