assets/lut/fujixtransiii fuji xtrans iii acros.cube
# Created by: G'MIC (https://gmic.eu)
TITLE "fuji_xtrans_iii_acros"
# LUT size
LUT_3D_SIZE 7
# Data domain
DOMAIN_MIN 0.0 0.0 0.0
DOMAIN_MAX 1.0 1.0 1.0
# LUT data points
0.018118899315595627 0.018118899315595627 0.018118899315595627
0.045657962560653687 0.045657962560653687 0.045657962560653687
0.11814766377210617 0.11814766377210617 0.11814766377210617
0.22261928021907806 0.22261928021907806 0.22261928021907806
0.34643957018852234 0.34643957018852234 0.34643957018852234
0.39535814523696899 0.39535814523696899 0.39535814523696899
0.42830470204353333 0.42830470204353333 0.42830470204353333
0.052228488028049469 0.052228488028049469 0.052228488028049469
0.089169822633266449 0.089169822633266449 0.089169822633266449
0.17095541954040527 0.17095541954040527 0.17095541954040527
0.27178391814231873 0.27178391814231873 0.27178391814231873
0.37188684940338135 0.37188684940338135 0.37188684940338135
0.43089067935943604 0.43089067935943604 0.43089067935943604
0.49190554022789001 0.49190554022789001 0.49190554022789001
0.15986433625221252 0.15986433625221252 0.15986433625221252
0.19674265384674072 0.19674265384674072 0.19674265384674072
0.27894234657287598 0.27894234657287598 0.27894234657287598
0.36292529106140137 0.36292529106140137 0.36292529106140137
0.44005849957466125 0.44005849957466125 0.44005849957466125
0.51048815250396729 0.51048815250396729 0.51048815250396729
0.52356493473052979 0.52356493473052979 0.52356493473052979
0.27220293879508972 0.27220293879508972 0.27220293879508972
0.31671500205993652 0.31671500205993652 0.31671500205993652
0.40934622287750244 0.40934622287750244 0.40934622287750244
0.47669833898544312 0.47669833898544312 0.47669833898544312
0.54473972320556641 0.54473972320556641 0.54473972320556641
0.60109066963195801 0.60109066963195801 0.60109066963195801
0.64045977592468262 0.64045977592468262 0.64045977592468262
0.34065845608711243 0.34065845608711243 0.34065845608711243
0.4176751971244812 0.4176751971244812 0.4176751971244812
0.46248456835746765 0.46248456835746765 0.46248456835746765
0.57591742277145386 0.57591742277145386 0.57591742277145386
0.63084268569946289 0.63084268569946289 0.63084268569946289
0.66841340065002441 0.66841340065002441 0.66841340065002441
0.72106695175170898 0.72106695175170898 0.72106695175170898
0.37640106678009033 0.37640106678009033 0.37640106678009033
0.48961469531059265 0.48961469531059265 0.48961469531059265
0.54850786924362183 0.54850786924362183 0.54850786924362183
0.60780918598175049 0.60780918598175049 0.60780918598175049
0.64567738771438599 0.64567738771438599 0.64567738771438599
0.71398591995239258 0.71398591995239258 0.71398591995239258
0.75403565168380737 0.75403565168380737 0.75403565168380737
0.41363087296485901 0.41363087296485901 0.41363087296485901
0.51587259769439697 0.51587259769439697 0.51587259769439697
0.57261794805526733 0.57261794805526733 0.57261794805526733
0.63548904657363892 0.63548904657363892 0.63548904657363892
0.71154415607452393 0.71154415607452393 0.71154415607452393
0.76850694417953491 0.76850694417953491 0.76850694417953491
0.78873270750045776 0.78873270750045776 0.78873270750045776
0.037133954465389252 0.037133954465389252 0.037133954465389252
0.081295758485794067 0.081295758485794067 0.081295758485794067
0.1607586145401001 0.1607586145401001 0.1607586145401001
0.27477598190307617 0.27477598190307617 0.27477598190307617
0.37835326790809631 0.37835326790809631 0.37835326790809631
0.4336717426776886 0.4336717426776886 0.4336717426776886
0.52050966024398804 0.52050966024398804 0.52050966024398804
0.093652255833148956 0.093652255833148956 0.093652255833148956
0.12215632945299149 0.12215632945299149 0.12215632945299149
0.20019993185997009 0.20019993185997009 0.20019993185997009
0.29689958691596985 0.29689958691596985 0.29689958691596985
0.39409610629081726 0.39409610629081726 0.39409610629081726
0.48567384481430054 0.48567384481430054 0.48567384481430054
0.53880971670150757 0.53880971670150757 0.53880971670150757
0.20016330480575562 0.20016330480575562 0.20016330480575562
0.23595154285430908 0.23595154285430908 0.23595154285430908
0.2977423369884491 0.2977423369884491 0.2977423369884491
0.38043245673179626 0.38043245673179626 0.38043245673179626
0.46538844704627991 0.46538844704627991 0.46538844704627991
0.54558718204498291 0.54558718204498291 0.54558718204498291
0.59645646810531616 0.59645646810531616 0.59645646810531616
0.33341839909553528 0.33341839909553528 0.33341839909553528
0.37371179461479187 0.37371179461479187 0.37371179461479187
0.42392700910568237 0.42392700910568237 0.42392700910568237
0.49512800574302673 0.49512800574302673 0.49512800574302673
0.56711924076080322 0.56711924076080322 0.56711924076080322
0.62334465980529785 0.62334465980529785 0.62334465980529785
0.66662561893463135 0.66662561893463135 0.66662561893463135
0.41868022084236145 0.41868022084236145 0.41868022084236145
0.471486896276474 0.471486896276474 0.471486896276474
0.5291135311126709 0.5291135311126709 0.5291135311126709
0.59235745668411255 0.59235745668411255 0.59235745668411255
0.65331923961639404 0.65331923961639404 0.65331923961639404
0.71922999620437622 0.71922999620437622 0.71922999620437622
0.7676471471786499 0.7676471471786499 0.7676471471786499
0.45089617371559143 0.45089617371559143 0.45089617371559143
0.53701412677764893 0.53701412677764893 0.53701412677764893
0.59192812442779541 0.59192812442779541 0.59192812442779541
0.64428770542144775 0.64428770542144775 0.64428770542144775
0.70073229074478149 0.70073229074478149 0.70073229074478149
0.76936036348342896 0.76936036348342896 0.76936036348342896
0.7892727255821228 0.7892727255821228 0.7892727255821228
0.49042552709579468 0.49042552709579468 0.49042552709579468
0.57200217247009277 0.57200217247009277 0.57200217247009277
0.61450409889221191 0.61450409889221191 0.61450409889221191
0.66022384166717529 0.66022384166717529 0.66022384166717529
0.71733218431472778 0.71733218431472778 0.71733218431472778
0.78721922636032104 0.78721922636032104 0.78721922636032104
0.83999240398406982 0.83999240398406982 0.83999240398406982
0.12220306694507599 0.12220306694507599 0.12220306694507599
0.17487011849880219 0.17487011849880219 0.17487011849880219
0.24266041815280914 0.24266041815280914 0.24266041815280914
0.33114743232727051 0.33114743232727051 0.33114743232727051
0.43289729952812195 0.43289729952812195 0.43289729952812195
0.5153278112411499 0.5153278112411499 0.5153278112411499
0.56573134660720825 0.56573134660720825 0.56573134660720825
0.15953086316585541 0.15953086316585541 0.15953086316585541
0.19556009769439697 0.19556009769439697 0.19556009769439697
0.26719650626182556 0.26719650626182556 0.26719650626182556
0.35907730460166931 0.35907730460166931 0.35907730460166931
0.45724749565124512 0.45724749565124512 0.45724749565124512
0.530784010887146 0.530784010887146 0.530784010887146
0.5903935432434082 0.5903935432434082 0.5903935432434082
0.26848301291465759 0.26848301291465759 0.26848301291465759
0.29635316133499146 0.29635316133499146 0.29635316133499146
0.35279750823974609 0.35279750823974609 0.35279750823974609
0.42078787088394165 0.42078787088394165 0.42078787088394165
0.50787866115570068 0.50787866115570068 0.50787866115570068
0.58653104305267334 0.58653104305267334 0.58653104305267334
0.62909132242202759 0.62909132242202759 0.62909132242202759
0.3912624716758728 0.3912624716758728 0.3912624716758728
0.41734462976455688 0.41734462976455688 0.41734462976455688
0.4642433226108551 0.4642433226108551 0.4642433226108551
0.52502197027206421 0.52502197027206421 0.52502197027206421
0.59520471096038818 0.59520471096038818 0.59520471096038818
0.65226703882217407 0.65226703882217407 0.65226703882217407
0.70486360788345337 0.70486360788345337 0.70486360788345337
0.47565889358520508 0.47565889358520508 0.47565889358520508
0.52532994747161865 0.52532994747161865 0.52532994747161865
0.56705671548843384 0.56705671548843384 0.56705671548843384
0.62103235721588135 0.62103235721588135 0.62103235721588135
0.68023055791854858 0.68023055791854858 0.68023055791854858
0.73744571208953857 0.73744571208953857 0.73744571208953857
0.78692895174026489 0.78692895174026489 0.78692895174026489
0.57626664638519287 0.57626664638519287 0.57626664638519287
0.58581358194351196 0.58581358194351196 0.58581358194351196
0.62627369165420532 0.62627369165420532 0.62627369165420532
0.68355005979537964 0.68355005979537964 0.68355005979537964
0.75160640478134155 0.75160640478134155 0.75160640478134155
0.79681539535522461 0.79681539535522461 0.79681539535522461
0.84584450721740723 0.84584450721740723 0.84584450721740723
0.58594906330108643 0.58594906330108643 0.58594906330108643
0.60208457708358765 0.60208457708358765 0.60208457708358765
0.66771334409713745 0.66771334409713745 0.66771334409713745
0.72297400236129761 0.72297400236129761 0.72297400236129761
0.76527422666549683 0.76527422666549683 0.76527422666549683
0.83559983968734741 0.83559983968734741 0.83559983968734741
0.86312472820281982 0.86312472820281982 0.86312472820281982
0.23485690355300903 0.23485690355300903 0.23485690355300903
0.2741161584854126 0.2741161584854126 0.2741161584854126
0.33215519785881042 0.33215519785881042 0.33215519785881042
0.40215715765953064 0.40215715765953064 0.40215715765953064
0.48554214835166931 0.48554214835166931 0.48554214835166931
0.56506025791168213 0.56506025791168213 0.56506025791168213
0.62024873495101929 0.62024873495101929 0.62024873495101929
0.25358855724334717 0.25358855724334717 0.25358855724334717
0.29833370447158813 0.29833370447158813 0.29833370447158813
0.35116240382194519 0.35116240382194519 0.35116240382194519
0.42525804042816162 0.42525804042816162 0.42525804042816162
0.51349759101867676 0.51349759101867676 0.51349759101867676
0.57955127954483032 0.57955127954483032 0.57955127954483032
0.63521116971969604 0.63521116971969604 0.63521116971969604
0.34546244144439697 0.34546244144439697 0.34546244144439697
0.37987902760505676 0.37987902760505676 0.37987902760505676
0.42883923649787903 0.42883923649787903 0.42883923649787903
0.49299716949462891 0.49299716949462891 0.49299716949462891
0.56822282075881958 0.56822282075881958 0.56822282075881958
0.63546419143676758 0.63546419143676758 0.63546419143676758
0.68753927946090698 0.68753927946090698 0.68753927946090698
0.46408927440643311 0.46408927440643311 0.46408927440643311
0.48738399147987366 0.48738399147987366 0.48738399147987366
0.52956026792526245 0.52956026792526245 0.52956026792526245
0.58495616912841797 0.58495616912841797 0.58495616912841797
0.64463752508163452 0.64463752508163452 0.64463752508163452
0.70526814460754395 0.70526814460754395 0.70526814460754395
0.74311798810958862 0.74311798810958862 0.74311798810958862
0.56578642129898071 0.56578642129898071 0.56578642129898071
0.5760154128074646 0.5760154128074646 0.5760154128074646
0.61870115995407104 0.61870115995407104 0.61870115995407104
0.66999572515487671 0.66999572515487671 0.66999572515487671
0.71555548906326294 0.71555548906326294 0.71555548906326294
0.77546042203903198 0.77546042203903198 0.77546042203903198
0.81748056411743164 0.81748056411743164 0.81748056411743164
0.63262146711349487 0.63262146711349487 0.63262146711349487
0.64804762601852417 0.64804762601852417 0.64804762601852417
0.68425589799880981 0.68425589799880981 0.68425589799880981
0.72045248746871948 0.72045248746871948 0.72045248746871948
0.77186852693557739 0.77186852693557739 0.77186852693557739
0.83688533306121826 0.83688533306121826 0.83688533306121826
0.89259439706802368 0.89259439706802368 0.89259439706802368
0.64843034744262695 0.64843034744262695 0.64843034744262695
0.66642695665359497 0.66642695665359497 0.66642695665359497
0.69481319189071655 0.69481319189071655 0.69481319189071655
0.73411303758621216 0.73411303758621216 0.73411303758621216
0.79378855228424072 0.79378855228424072 0.79378855228424072
0.88075286149978638 0.88075286149978638 0.88075286149978638
0.91509675979614258 0.91509675979614258 0.91509675979614258
0.33036687970161438 0.33036687970161438 0.33036687970161438
0.36871388554573059 0.36871388554573059 0.36871388554573059
0.41205856204032898 0.41205856204032898 0.41205856204032898
0.47567003965377808 0.47567003965377808 0.47567003965377808
0.55881857872009277 0.55881857872009277 0.55881857872009277
0.62322896718978882 0.62322896718978882 0.62322896718978882
0.68641799688339233 0.68641799688339233 0.68641799688339233
0.36601284146308899 0.36601284146308899 0.36601284146308899
0.40912607312202454 0.40912607312202454 0.40912607312202454
0.45297539234161377 0.45297539234161377 0.45297539234161377
0.50746536254882812 0.50746536254882812 0.50746536254882812
0.57747811079025269 0.57747811079025269 0.57747811079025269
0.64036476612091064 0.64036476612091064 0.64036476612091064
0.69370293617248535 0.69370293617248535 0.69370293617248535
0.43546950817108154 0.43546950817108154 0.43546950817108154
0.46905142068862915 0.46905142068862915 0.46905142068862915
0.51158738136291504 0.51158738136291504 0.51158738136291504
0.56760901212692261 0.56760901212692261 0.56760901212692261
0.61929583549499512 0.61929583549499512 0.61929583549499512
0.67350250482559204 0.67350250482559204 0.67350250482559204
0.72117269039154053 0.72117269039154053 0.72117269039154053
0.52392745018005371 0.52392745018005371 0.52392745018005371
0.55562752485275269 0.55562752485275269 0.55562752485275269
0.59820836782455444 0.59820836782455444 0.59820836782455444
0.64613014459609985 0.64613014459609985 0.64613014459609985
0.68805128335952759 0.68805128335952759 0.68805128335952759
0.74248200654983521 0.74248200654983521 0.74248200654983521
0.79419445991516113 0.79419445991516113 0.79419445991516113
0.60736984014511108 0.60736984014511108 0.60736984014511108
0.63437265157699585 0.63437265157699585 0.63437265157699585
0.67194932699203491 0.67194932699203491 0.67194932699203491
0.71238917112350464 0.71238917112350464 0.71238917112350464
0.75471758842468262 0.75471758842468262 0.75471758842468262
0.80917549133300781 0.80917549133300781 0.80917549133300781
0.85067594051361084 0.85067594051361084 0.85067594051361084
0.69834977388381958 0.69834977388381958 0.69834977388381958
0.69845461845397949 0.69845461845397949 0.69845461845397949
0.72387999296188354 0.72387999296188354 0.72387999296188354
0.77113920450210571 0.77113920450210571 0.77113920450210571
0.81277555227279663 0.81277555227279663 0.81277555227279663
0.86999279260635376 0.86999279260635376 0.86999279260635376
0.92543971538543701 0.92543971538543701 0.92543971538543701
0.70514160394668579 0.70514160394668579 0.70514160394668579
0.74506872892379761 0.74506872892379761 0.74506872892379761
0.77027773857116699 0.77027773857116699 0.77027773857116699
0.81598180532455444 0.81598180532455444 0.81598180532455444
0.85579794645309448 0.85579794645309448 0.85579794645309448
0.90575772523880005 0.90575772523880005 0.90575772523880005
0.94532209634780884 0.94532209634780884 0.94532209634780884
0.43309006094932556 0.43309006094932556 0.43309006094932556
0.4609760046005249 0.4609760046005249 0.4609760046005249
0.50206172466278076 0.50206172466278076 0.50206172466278076
0.557972252368927 0.557972252368927 0.557972252368927
0.62894457578659058 0.62894457578659058 0.62894457578659058
0.6975594162940979 0.6975594162940979 0.6975594162940979
0.73697245121002197 0.73697245121002197 0.73697245121002197
0.46750977635383606 0.46750977635383606 0.46750977635383606
0.5053638219833374 0.5053638219833374 0.5053638219833374
0.54099792242050171 0.54099792242050171 0.54099792242050171
0.58882361650466919 0.58882361650466919 0.58882361650466919
0.6503065824508667 0.6503065824508667 0.6503065824508667
0.71323037147521973 0.71323037147521973 0.71323037147521973
0.74315410852432251 0.74315410852432251 0.74315410852432251
0.52325701713562012 0.52325701713562012 0.52325701713562012
0.56228393316268921 0.56228393316268921 0.56228393316268921
0.59493011236190796 0.59493011236190796 0.59493011236190796
0.63848876953125 0.63848876953125 0.63848876953125
0.68440777063369751 0.68440777063369751 0.68440777063369751
0.73426276445388794 0.73426276445388794 0.73426276445388794
0.77023786306381226 0.77023786306381226 0.77023786306381226
0.59390860795974731 0.59390860795974731 0.59390860795974731
0.62542980909347534 0.62542980909347534 0.62542980909347534
0.6565859317779541 0.6565859317779541 0.6565859317779541
0.69430398941040039 0.69430398941040039 0.69430398941040039
0.73797088861465454 0.73797088861465454 0.73797088861465454
0.78641527891159058 0.78641527891159058 0.78641527891159058
0.83090823888778687 0.83090823888778687 0.83090823888778687
0.67282009124755859 0.67282009124755859 0.67282009124755859
0.69264358282089233 0.69264358282089233 0.69264358282089233
0.7238277792930603 0.7238277792930603 0.7238277792930603
0.75857889652252197 0.75857889652252197 0.75857889652252197
0.79527121782302856 0.79527121782302856 0.79527121782302856
0.83838701248168945 0.83838701248168945 0.83838701248168945
0.88395756483078003 0.88395756483078003 0.88395756483078003
0.73818659782409668 0.73818659782409668 0.73818659782409668
0.75920885801315308 0.75920885801315308 0.75920885801315308
0.7830083966255188 0.7830083966255188 0.7830083966255188
0.81713283061981201 0.81713283061981201 0.81713283061981201
0.85533064603805542 0.85533064603805542 0.85533064603805542
0.89286649227142334 0.89286649227142334 0.89286649227142334
0.94858467578887939 0.94858467578887939 0.94858467578887939
0.80513471364974976 0.80513471364974976 0.80513471364974976
0.78774565458297729 0.78774565458297729 0.78774565458297729
0.81005954742431641 0.81005954742431641 0.81005954742431641
0.85038542747497559 0.85038542747497559 0.85038542747497559
0.88551002740859985 0.88551002740859985 0.88551002740859985
0.9284055233001709 0.9284055233001709 0.9284055233001709
0.96732026338577271 0.96732026338577271 0.96732026338577271
0.53494656085968018 0.53494656085968018 0.53494656085968018
0.55064469575881958 0.55064469575881958 0.55064469575881958
0.59067350625991821 0.59067350625991821 0.59067350625991821
0.64564001560211182 0.64564001560211182 0.64564001560211182
0.70819425582885742 0.70819425582885742 0.70819425582885742
0.76412284374237061 0.76412284374237061 0.76412284374237061
0.78637599945068359 0.78637599945068359 0.78637599945068359
0.55453455448150635 0.55453455448150635 0.55453455448150635
0.59309035539627075 0.59309035539627075 0.59309035539627075
0.63002520799636841 0.63002520799636841 0.63002520799636841
0.67158162593841553 0.67158162593841553 0.67158162593841553
0.72582811117172241 0.72582811117172241 0.72582811117172241
0.77344650030136108 0.77344650030136108 0.77344650030136108
0.78831523656845093 0.78831523656845093 0.78831523656845093
0.60320228338241577 0.60320228338241577 0.60320228338241577
0.64874130487442017 0.64874130487442017 0.64874130487442017
0.68260282278060913 0.68260282278060913 0.68260282278060913
0.71460390090942383 0.71460390090942383 0.71460390090942383
0.75621223449707031 0.75621223449707031 0.75621223449707031
0.79105281829833984 0.79105281829833984 0.79105281829833984
0.81901091337203979 0.81901091337203979 0.81901091337203979
0.65801703929901123 0.65801703929901123 0.65801703929901123
0.70440965890884399 0.70440965890884399 0.70440965890884399
0.73325806856155396 0.73325806856155396 0.73325806856155396
0.76266497373580933 0.76266497373580933 0.76266497373580933
0.79456323385238647 0.79456323385238647 0.79456323385238647
0.83411866426467896 0.83411866426467896 0.83411866426467896
0.85893690586090088 0.85893690586090088 0.85893690586090088
0.73482680320739746 0.73482680320739746 0.73482680320739746
0.75994569063186646 0.75994569063186646 0.75994569063186646
0.78632080554962158 0.78632080554962158 0.78632080554962158
0.81409627199172974 0.81409627199172974 0.81409627199172974
0.84802651405334473 0.84802651405334473 0.84802651405334473
0.88691896200180054 0.88691896200180054 0.88691896200180054
0.91096615791320801 0.91096615791320801 0.91096615791320801
0.8129844069480896 0.8129844069480896 0.8129844069480896
0.82190787792205811 0.82190787792205811 0.82190787792205811
0.84111082553863525 0.84111082553863525 0.84111082553863525
0.86891353130340576 0.86891353130340576 0.86891353130340576
0.9079582691192627 0.9079582691192627 0.9079582691192627
0.93770968914031982 0.93770968914031982 0.93770968914031982
0.97181606292724609 0.97181606292724609 0.97181606292724609
0.82567858695983887 0.82567858695983887 0.82567858695983887
0.81612265110015869 0.81612265110015869 0.81612265110015869
0.8400421142578125 0.8400421142578125 0.8400421142578125
0.87114328145980835 0.87114328145980835 0.87114328145980835
0.91705220937728882 0.91705220937728882 0.91705220937728882
0.9615291953086853 0.9615291953086853 0.9615291953086853
0.98447674512863159 0.98447674512863159 0.98447674512863159
