assets/lut/fujixtransiii fuji xtrans iii velvia.cube
# Created by: G'MIC (https://gmic.eu)
TITLE "fuji_xtrans_iii_velvia"
# LUT size
LUT_3D_SIZE 5
# Data domain
DOMAIN_MIN 0.0 0.0 0.0
DOMAIN_MAX 1.0 1.0 1.0
# LUT data points
0.0077789458446204662 0.007825230248272419 0.0052902521565556526
0.18629138171672821 0.015001933090388775 0.0082734497264027596
0.64212864637374878 0.066136769950389862 0.0061477660201489925
0.91212385892868042 0.15316490828990936 0.033818848431110382
0.96346747875213623 0.19752801954746246 0.082582332193851471
0.003369499696418643 0.17797370254993439 0.0013414120767265558
0.18322999775409698 0.20342171192169189 0.002315581077709794
0.6287798285484314 0.24312013387680054 0.0054317251779139042
0.91476935148239136 0.30840185284614563 0.0068093989975750446
0.99867159128189087 0.35005328059196472 0.019207702949643135
0.00060568418120965362 0.48036637902259827 2.8004365958622657e-05
0.054222017526626587 0.54642534255981445 0
0.53965109586715698 0.55283212661743164 0.00025679645477794111
0.84831225872039795 0.56926774978637695 0.00048168408102355897
0.980305016040802 0.59215641021728516 0.011136926710605621
0.0014256795402616262 0.57483398914337158 0.0077039082534611225
0.029640316963195801 0.65298324823379517 0.004652105737477541
0.48019152879714966 0.69854676723480225 0
0.8437996506690979 0.68582886457443237 0.00074201100505888462
0.98838627338409424 0.7359623908996582 0.008288918063044548
0.0039215688593685627 0.62804043292999268 0.01646982878446579
0.025887014344334602 0.76010328531265259 0.022023743018507957
0.4892393946647644 0.75714224576950073 0.0034055223222821951
0.80954986810684204 0.79190319776535034 0.04245898500084877
0.9831811785697937 0.80386590957641602 0.091888397932052612
0.022618850693106651 0.026595396921038628 0.33005049824714661
0.34065553545951843 0.037964466959238052 0.32299274206161499
0.66891109943389893 0.083608441054821014 0.39981141686439514
0.94396805763244629 0.15519438683986664 0.3848051130771637
1 0.24466453492641449 0.50555717945098877
0.0065827164798974991 0.22591449320316315 0.23407305777072906
0.22108928859233856 0.24022255837917328 0.22108340263366699
0.6368681788444519 0.27515634894371033 0.23310267925262451
0.92344874143600464 0.32719701528549194 0.26433596014976501
0.99996447563171387 0.38164302706718445 0.33148568868637085
0.0016706727910786867 0.55878537893295288 0.11771553009748459
0.048059903085231781 0.57008874416351318 0.08395068347454071
0.53134500980377197 0.56380242109298706 0.10094321519136429
0.85196053981781006 0.58052265644073486 0.13625285029411316
0.99949520826339722 0.58078557252883911 0.24583019316196442
7.0010914896556642e-06 0.66796934604644775 0.32453769445419312
0.018314272165298462 0.76626932621002197 0.082462027668952942
0.36270421743392944 0.77470666170120239 0.086317293345928192
0.78574436902999878 0.78112351894378662 0.087394416332244873
0.98957192897796631 0.80957973003387451 0.13895381987094879
0.0013480392517521977 0.72268271446228027 0.32324704527854919
0.021078715100884438 0.82703274488449097 0.16809386014938354
0.30940809845924377 0.83304715156555176 0.19041864573955536
0.74150931835174561 0.85546541213989258 0.20986327528953552
0.98758441209793091 0.88130539655685425 0.2232033908367157
0.14402790367603302 0.038916103541851044 0.80573153495788574
0.44218695163726807 0.05990937352180481 0.80322301387786865
0.69601535797119141 0.12571233510971069 0.78116083145141602
0.92389094829559326 0.20444141328334808 0.74844026565551758
0.9989243745803833 0.29558402299880981 0.74916863441467285
0.062532000243663788 0.28894132375717163 0.72230625152587891
0.34995341300964355 0.30519774556159973 0.72575384378433228
0.65641325712203979 0.32679629325866699 0.69881385564804077
0.91418522596359253 0.37077531218528748 0.67525637149810791
0.99626398086547852 0.41807264089584351 0.68750876188278198
0.0089314477518200874 0.56626182794570923 0.59794360399246216
0.14866611361503601 0.57785266637802124 0.57666909694671631
0.56513488292694092 0.57276767492294312 0.57206004858016968
0.85316801071166992 0.5935748815536499 0.56259810924530029
0.99558478593826294 0.59978467226028442 0.58309793472290039
0.00018391328922007233 0.76210659742355347 0.58365130424499512
0.035854864865541458 0.78811812400817871 0.47043061256408691
0.39748147130012512 0.79297435283660889 0.46555718779563904
0.78047877550125122 0.79674273729324341 0.45870178937911987
0.99123978614807129 0.83573263883590698 0.46348696947097778
0 0.82800143957138062 0.60979986190795898
0.020770099014043808 0.87720274925231934 0.44951364398002625
0.27858203649520874 0.87963533401489258 0.44439440965652466
0.79592424631118774 0.90271919965744019 0.44440677762031555
0.99406802654266357 0.95498591661453247 0.43597719073295593
0.40262392163276672 0.014536689035594463 0.93600624799728394
0.56767767667770386 0.064302660524845123 0.93737906217575073
0.77168607711791992 0.14754162728786469 0.94647818803787231
0.94368493556976318 0.24192507565021515 0.95077097415924072
0.99803739786148071 0.33353796601295471 0.9777454137802124
0.2130720466375351 0.35603392124176025 0.980335533618927
0.49713310599327087 0.38500583171844482 0.98405963182449341
0.70140063762664795 0.39888006448745728 0.97411054372787476
0.92205089330673218 0.43750116229057312 0.96520167589187622
0.99882078170776367 0.46754717826843262 0.97314924001693726
0.12549322843551636 0.59134370088577271 0.92455941438674927
0.38947972655296326 0.59093278646469116 0.9189642071723938
0.63220208883285522 0.60065841674804688 0.91848087310791016
0.87640023231506348 0.61220163106918335 0.90616768598556519
0.99603617191314697 0.62614262104034424 0.92284488677978516
0.013494005426764488 0.80425077676773071 0.84356397390365601
0.15045399963855743 0.80754035711288452 0.82628804445266724
0.51007819175720215 0.80215996503829956 0.81944644451141357
0.80840647220611572 0.81277626752853394 0.80881983041763306
0.99161148071289062 0.86608749628067017 0.83432471752166748
0.001419127220287919 0.90349096059799194 0.84141743183135986
0.026910429820418358 0.94716978073120117 0.8401450514793396
0.44115498661994934 0.95325475931167603 0.84356117248535156
0.82779961824417114 0.94580775499343872 0.79586416482925415
0.99558764696121216 0.97345846891403198 0.79519766569137573
0.58817756175994873 0.18021918833255768 0.99997413158416748
0.6943356990814209 0.22163735330104828 0.99794656038284302
0.84333330392837524 0.31278055906295776 0.99753367900848389
0.97011077404022217 0.44169756770133972 0.99622821807861328
1 0.44056916236877441 0.99780303239822388
0.40353855490684509 0.39493593573570251 0.99710303544998169
0.64068835973739624 0.46134528517723083 0.9954037070274353
0.79939550161361694 0.50122857093811035 0.99606060981750488
0.96888953447341919 0.54202240705490112 0.99808144569396973
1 0.52513980865478516 0.99729090929031372
0.286100834608078 0.63874548673629761 1
0.54971003532409668 0.66491734981536865 0.99787592887878418
0.73576945066452026 0.67428040504455566 0.99521422386169434
0.94538289308547974 0.67804497480392456 0.9988713264465332
0.99978405237197876 0.67316132783889771 1
0.15164977312088013 0.85265654325485229 1
0.40383473038673401 0.85974013805389404 0.9992336630821228
0.64474833011627197 0.86749988794326782 0.99785834550857544
0.89099991321563721 0.87107586860656738 0.99414551258087158
0.99601596593856812 0.88687050342559814 0.99469393491744995
0.039140872657299042 0.9776729941368103 0.99897164106369019
0.2023988664150238 0.97058135271072388 0.99760276079177856
0.54303872585296631 0.9657599925994873 0.99891155958175659
0.87874865531921387 0.9727596640586853 0.99835085868835449
0.99797511100769043 0.98605263233184814 0.99125117063522339
