assets/lut/inavision hitman.cube
# Created by: G'MIC (https://gmic.eu)
TITLE "hitman"
# LUT size
LUT_3D_SIZE 7
# Data domain
DOMAIN_MIN 0.0 0.0 0.0
DOMAIN_MAX 1.0 1.0 1.0
# LUT data points
0.00022654814529232681 0.0014944936847314239 0.0026743870694190264
0.096825964748859406 0.03462798148393631 0.028258379548788071
0.30982527136802673 0.067911170423030853 0.067036636173725128
0.55793005228042603 0.11257922649383545 0.11447691172361374
0.7023169994354248 0.15081892907619476 0.14531750977039337
0.80493992567062378 0.18096281588077545 0.16440880298614502
0.88564932346343994 0.19960306584835052 0.19104991853237152
0.066898331046104431 0.1686989963054657 0.065145112574100494
0.18909221887588501 0.18093356490135193 0.067674778401851654
0.40393969416618347 0.20100648701190948 0.093886353075504303
0.59537768363952637 0.22145684063434601 0.13137298822402954
0.71947163343429565 0.23932990431785583 0.15888457000255585
0.8214295506477356 0.25709456205368042 0.17874902486801147
0.89976495504379272 0.26691824197769165 0.20096197724342346
0.13466426730155945 0.37941211462020874 0.12927559018135071
0.23468895256519318 0.38702228665351868 0.13638506829738617
0.44273778796195984 0.39233824610710144 0.14828211069107056
0.62785792350769043 0.41082543134689331 0.17964063584804535
0.75039380788803101 0.42427882552146912 0.20519594848155975
0.84963470697402954 0.41757076978683472 0.2165599912405014
0.92159527540206909 0.40066632628440857 0.22824344038963318
0.21309244632720947 0.5897032618522644 0.21262891590595245
0.3124067485332489 0.59627920389175415 0.21954827010631561
0.52079784870147705 0.60170066356658936 0.23370698094367981
0.71494007110595703 0.61945027112960815 0.26442787051200867
0.83180594444274902 0.63140332698822021 0.2928241491317749
0.91893696784973145 0.61249548196792603 0.29577633738517761
0.96009784936904907 0.57537955045700073 0.28333878517150879
0.32737606763839722 0.78098905086517334 0.30627182126045227
0.41516420245170593 0.78926026821136475 0.31235033273696899
0.5957149863243103 0.79094374179840088 0.32429984211921692
0.79308897256851196 0.80042970180511475 0.35223928093910217
0.91822654008865356 0.81236433982849121 0.39464566111564636
0.97981554269790649 0.79508298635482788 0.40944775938987732
0.98613470792770386 0.74522602558135986 0.36727136373519897
0.4247111976146698 0.90693795680999756 0.37723997235298157
0.49921563267707825 0.91346067190170288 0.38536766171455383
0.64191603660583496 0.90935605764389038 0.39980930089950562
0.82089567184448242 0.91031557321548462 0.43682566285133362
0.94595468044281006 0.9221034049987793 0.50288045406341553
0.99447304010391235 0.92559343576431274 0.56272155046463013
0.99167031049728394 0.89176422357559204 0.52183991670608521
0.48952105641365051 0.96665340662002563 0.42594209313392639
0.560566246509552 0.96659255027770996 0.43860149383544922
0.67348325252532959 0.95573508739471436 0.46077445149421692
0.82896256446838379 0.95010268688201904 0.50985336303710938
0.94251668453216553 0.9505499005317688 0.57837110757827759
0.99012041091918945 0.95713680982589722 0.65585291385650635
0.99624025821685791 0.96045076847076416 0.71035075187683105
0.014565306715667248 0.016367100179195404 0.042904917150735855
0.084714166820049286 0.03654053807258606 0.072837233543395996
0.28031665086746216 0.067464821040630341 0.11970251053571701
0.53398090600967407 0.11408212780952454 0.16811151802539825
0.68112492561340332 0.14202985167503357 0.19460663199424744
0.79909759759902954 0.1769566535949707 0.2121448814868927
0.88265252113342285 0.19371534883975983 0.22836573421955109
0.066722780466079712 0.17533646523952484 0.14738710224628448
0.17723284661769867 0.1836262047290802 0.14799556136131287
0.39015835523605347 0.19791273772716522 0.16374164819717407
0.58891624212265015 0.2164960652589798 0.18767692148685455
0.7188488245010376 0.23833395540714264 0.20793038606643677
0.82551676034927368 0.26116743683815002 0.22702744603157043
0.90310412645339966 0.27585148811340332 0.24423457682132721
0.12783895432949066 0.38321614265441895 0.19062601029872894
0.23179358243942261 0.39103671908378601 0.1982988566160202
0.4382825493812561 0.39732140302658081 0.20774735510349274
0.62264978885650635 0.41483920812606812 0.22695237398147583
0.75131207704544067 0.4307156503200531 0.25117167830467224
0.85808360576629639 0.43504121899604797 0.26909652352333069
0.93174433708190918 0.42895784974098206 0.28149360418319702
0.21292418241500854 0.59563839435577393 0.26584643125534058
0.3147035539150238 0.60213029384613037 0.27306279540061951
0.51773083209991455 0.6094861626625061 0.28576767444610596
0.71024668216705322 0.62563043832778931 0.31222993135452271
0.83218109607696533 0.63848382234573364 0.33808982372283936
0.92054265737533569 0.6260039210319519 0.34580203890800476
0.96477550268173218 0.59281367063522339 0.33648160099983215
0.32232701778411865 0.78273779153823853 0.34884291887283325
0.41840502619743347 0.79210007190704346 0.35609245300292969
0.60091203451156616 0.79651224613189697 0.37031957507133484
0.79518938064575195 0.8040657639503479 0.39862039685249329
0.91683083772659302 0.81829851865768433 0.43530142307281494
0.97573137283325195 0.80252277851104736 0.45080330967903137
0.98603397607803345 0.75551819801330566 0.415740966796875
0.42199060320854187 0.90647965669631958 0.41176241636276245
0.50862032175064087 0.91519647836685181 0.42452895641326904
0.65527832508087158 0.91807717084884644 0.44644647836685181
0.82842397689819336 0.91679614782333374 0.48331224918365479
0.94500941038131714 0.92591565847396851 0.53986495733261108
0.99083000421524048 0.92815250158309937 0.59862267971038818
0.99212765693664551 0.89508175849914551 0.56378895044326782
0.49851152300834656 0.96676754951477051 0.45656690001487732
0.58205819129943848 0.96804094314575195 0.47757777571678162
0.70849072933197021 0.96115016937255859 0.51206237077713013
0.84803581237792969 0.95441073179244995 0.55809313058853149
0.94729137420654297 0.95253276824951172 0.6143796443939209
0.99058538675308228 0.95787942409515381 0.68128424882888794
0.99624025821685791 0.96075379848480225 0.72294169664382935
0.031353909522294998 0.036208625882863998 0.10748938471078873
0.112176813185215 0.050947435200214386 0.14439229667186737
0.24889318645000458 0.074835769832134247 0.16983957588672638
0.46322882175445557 0.11292299628257751 0.22664205729961395
0.63779270648956299 0.15076626837253571 0.26838064193725586
0.76821398735046387 0.18071545660495758 0.2800230085849762
0.86078667640686035 0.19313192367553711 0.2836240828037262
0.071603395044803619 0.18871048092842102 0.24174028635025024
0.18313701450824738 0.19476591050624847 0.24816645681858063
0.34950920939445496 0.21175837516784668 0.2374768853187561
0.56039577722549438 0.22489278018474579 0.26980608701705933
0.70112490653991699 0.25179940462112427 0.29349681735038757
0.81756305694580078 0.27616050839424133 0.30625814199447632
0.90202218294143677 0.29614555835723877 0.31279757618904114
0.13274167478084564 0.39161962270736694 0.27845016121864319
0.24099567532539368 0.40034717321395874 0.29021361470222473
0.43600860238075256 0.41054558753967285 0.29618015885353088
0.62918186187744141 0.4292357861995697 0.31624415516853333
0.76012307405471802 0.45595744252204895 0.33947676420211792
0.87340283393859863 0.47555834054946899 0.35986945033073425
0.94841009378433228 0.48797357082366943 0.37318170070648193
0.22354164719581604 0.6029813289642334 0.34883171319961548
0.3247610330581665 0.61087208986282349 0.35683274269104004
0.52038592100143433 0.62519490718841553 0.37156051397323608
0.71143633127212524 0.64431142807006836 0.39727559685707092
0.84038388729095459 0.66409343481063843 0.42035803198814392
0.93307459354400635 0.6623232364654541 0.43312603235244751
0.97729945182800293 0.64764761924743652 0.43313819169998169
0.33415642380714417 0.78804802894592285 0.42190337181091309
0.43423280119895935 0.79770594835281372 0.43104696273803711
0.6132473349571228 0.80834317207336426 0.450336754322052
0.7942238450050354 0.81928801536560059 0.48292595148086548
0.91628235578536987 0.82955449819564819 0.51543521881103516
0.97724723815917969 0.8198169469833374 0.52799582481384277
0.98805701732635498 0.78701269626617432 0.508098304271698
0.43194934725761414 0.90785503387451172 0.47260859608650208
0.53208714723587036 0.91640710830688477 0.48971229791641235
0.69140535593032837 0.92063182592391968 0.52336090803146362
0.84669649600982666 0.9228285551071167 0.56429153680801392
0.94696223735809326 0.92911404371261597 0.61227744817733765
0.99092787504196167 0.9331061840057373 0.66303533315658569
0.9921690821647644 0.91079813241958618 0.63985556364059448
0.51110541820526123 0.96478873491287231 0.50652378797531128
0.61056441068649292 0.96564000844955444 0.53491890430450439
0.76184850931167603 0.95939761400222778 0.58745461702346802
0.88465505838394165 0.95622563362121582 0.63479995727539062
0.95764696598052979 0.95760518312454224 0.6783982515335083
0.99414300918579102 0.96355873346328735 0.73457014560699463
0.99743640422821045 0.97046643495559692 0.7679295539855957
0.046901434659957886 0.048807568848133087 0.20123142004013062
0.13780911266803741 0.056626472622156143 0.25091102719306946
0.26281368732452393 0.085758909583091736 0.24568627774715424
0.41324424743652344 0.12543071806430817 0.27685433626174927
0.5612257719039917 0.16485808789730072 0.32373189926147461
0.69555854797363281 0.18884111940860748 0.3409685492515564
0.81508743762969971 0.20676076412200928 0.34537515044212341
0.084717288613319397 0.20285347104072571 0.35477012395858765
0.19241780042648315 0.20258761942386627 0.35480797290802002
0.34792336821556091 0.22559210658073425 0.32643800973892212
0.49652966856956482 0.25375533103942871 0.33444333076477051
0.63449728488922119 0.27671611309051514 0.36972931027412415
0.77410072088241577 0.29297685623168945 0.38178178668022156
0.87693077325820923 0.30961549282073975 0.38156953454017639
0.14675648510456085 0.39855921268463135 0.38621661067008972
0.24832360446453094 0.40725976228713989 0.39465188980102539
0.43616613745689392 0.42681294679641724 0.39921954274177551
0.6093742847442627 0.45186349749565125 0.41277864575386047
0.74199551343917847 0.48029738664627075 0.44364690780639648
0.87329554557800293 0.49986833333969116 0.4583529531955719
0.94972491264343262 0.51438850164413452 0.45916059613227844
0.24385516345500946 0.61240690946578979 0.45515793561935425
0.34149083495140076 0.6213107705116272 0.4616716206073761
0.5289146900177002 0.63755697011947632 0.47848284244537354
0.71142292022705078 0.66196006536483765 0.5013355016708374
0.84181243181228638 0.68774807453155518 0.5259096622467041
0.94470560550689697 0.70220744609832764 0.539989173412323
0.98343831300735474 0.71116036176681519 0.54518651962280273
0.35950616002082825 0.80356794595718384 0.52771246433258057
0.4563942551612854 0.81045180559158325 0.53678411245346069
0.63057923316955566 0.82126474380493164 0.55240732431411743
0.79984837770462036 0.83454424142837524 0.58309626579284668
0.91682463884353638 0.84663611650466919 0.61086201667785645
0.98042470216751099 0.84853321313858032 0.62526148557662964
0.99045866727828979 0.84256267547607422 0.62938803434371948
0.44947683811187744 0.918751060962677 0.56477969884872437
0.55089724063873291 0.92366993427276611 0.5794602632522583
0.71799665689468384 0.92624872922897339 0.61195582151412964
0.8679046630859375 0.9307243824005127 0.65290367603302002
0.95581620931625366 0.93639767169952393 0.69105595350265503
0.99219381809234619 0.93726170063018799 0.72259974479675293
0.99426931142807007 0.92953741550445557 0.72163206338882446
0.52199316024780273 0.96705049276351929 0.57899767160415649
0.62074333429336548 0.96445232629776001 0.5990939736366272
0.78665173053741455 0.95867323875427246 0.65602707862854004
0.91806954145431519 0.95868867635726929 0.70877856016159058
0.97912442684173584 0.96532583236694336 0.74774307012557983
0.99856108427047729 0.97579872608184814 0.78724890947341919
0.9996907114982605 0.98837560415267944 0.80547857284545898
0.062900081276893616 0.066211462020874023 0.32758736610412598
0.15925279259681702 0.077441573143005371 0.39457380771636963
0.29349684715270996 0.10213017463684082 0.38532081246376038
0.40898445248603821 0.13851597905158997 0.36687126755714417
0.51187670230865479 0.17795924842357635 0.38864356279373169
0.6190180778503418 0.20709747076034546 0.40563729405403137
0.73031729459762573 0.22252310812473297 0.40549740195274353
0.10364915430545807 0.2096816748380661 0.50179147720336914
0.20574846863746643 0.21027569472789764 0.49381542205810547
0.36773261427879333 0.22894474864006042 0.46034905314445496
0.47944813966751099 0.26349523663520813 0.42675262689590454
0.57763934135437012 0.30040210485458374 0.44058337807655334
0.68873292207717896 0.32124519348144531 0.45238035917282104
0.79451590776443481 0.33426353335380554 0.44980734586715698
0.15559223294258118 0.39548352360725403 0.51808565855026245
0.2535436749458313 0.40470463037490845 0.52202081680297852
0.44651657342910767 0.42989036440849304 0.53007298707962036
0.58310335874557495 0.46830189228057861 0.51323002576828003
0.68719607591629028 0.50790321826934814 0.52949917316436768
0.81152033805847168 0.52681362628936768 0.54908400774002075
0.91060709953308105 0.52926504611968994 0.54193961620330811
0.24059346318244934 0.60157543420791626 0.57265156507492065
0.33893898129463196 0.61244320869445801 0.58202928304672241
0.53181630373001099 0.63529020547866821 0.60092312097549438
0.70559233427047729 0.67047303915023804 0.61847615242004395
0.81718039512634277 0.70831382274627686 0.63441294431686401
0.92714548110961914 0.72426712512969971 0.64836162328720093
0.98453295230865479 0.7303130030632019 0.64716637134552002
0.36040288209915161 0.80130988359451294 0.64989751577377319
0.45594489574432373 0.80830156803131104 0.66587114334106445
0.63454663753509521 0.81922543048858643 0.67249566316604614
0.80499619245529175 0.83726382255554199 0.6936458945274353
0.91330081224441528 0.85938674211502075 0.71439880132675171
0.97849452495574951 0.87047469615936279 0.7300751805305481
0.99342560768127441 0.87648463249206543 0.73431932926177979
0.4677584171295166 0.92890810966491699 0.6806260347366333
0.56202185153961182 0.92905855178833008 0.69164526462554932
0.73018139600753784 0.92902499437332153 0.70957636833190918
0.8808782696723938 0.93481272459030151 0.73678046464920044
0.96480625867843628 0.94213736057281494 0.76378196477890015
0.99468898773193359 0.9466172456741333 0.78395640850067139
0.99607998132705688 0.94529986381530762 0.79268699884414673
0.54345947504043579 0.96504700183868408 0.66925013065338135
0.64127832651138306 0.9625849723815918 0.68075162172317505
0.80094331502914429 0.95709776878356934 0.72233152389526367
0.93651127815246582 0.96017104387283325 0.76621657609939575
0.99294739961624146 0.97141587734222412 0.7998775839805603
1 0.98728358745574951 0.82823055982589722
1 0.99543774127960205 0.84117007255554199
0.078550852835178375 0.07957024872303009 0.45357322692871094
0.17252299189567566 0.096761040389537811 0.53992539644241333
0.3104347288608551 0.11793069541454315 0.52666217088699341
0.42160698771476746 0.14311257004737854 0.46570244431495667
0.50078356266021729 0.17214353382587433 0.45932036638259888
0.59420806169509888 0.22228612005710602 0.48149660229682922
0.66740411520004272 0.23309457302093506 0.4683816134929657
0.11490360647439957 0.20652821660041809 0.59743410348892212
0.21517206728458405 0.21878008544445038 0.60908031463623047
0.37024950981140137 0.23345893621444702 0.58361637592315674
0.48586064577102661 0.25717014074325562 0.53198987245559692
0.56806910037994385 0.29933834075927734 0.51762956380844116
0.6552240252494812 0.34402638673782349 0.52999991178512573
0.72681617736816406 0.35526609420776367 0.51739835739135742
0.16012479364871979 0.37506210803985596 0.6142159104347229
0.25876083970069885 0.39413353800773621 0.62499517202377319
0.44532269239425659 0.43095996975898743 0.64299112558364868
0.59152555465698242 0.46779665350914001 0.62804216146469116
0.67633599042892456 0.50716292858123779 0.61438345909118652
0.76126837730407715 0.54796439409255981 0.61864572763442993
0.84925669431686401 0.55909878015518188 0.61557048559188843
0.22640104591846466 0.56305944919586182 0.6641610860824585
0.32412505149841309 0.57822144031524658 0.67279064655303955
0.52839499711990356 0.61961877346038818 0.69888192415237427
0.71738004684448242 0.67790848016738892 0.72453016042709351
0.80917155742645264 0.71100598573684692 0.72955310344696045
0.88762485980987549 0.73848962783813477 0.72291380167007446
0.95559942722320557 0.74821943044662476 0.72079288959503174
0.33653676509857178 0.76200681924819946 0.74771445989608765
0.43292331695556641 0.77423417568206787 0.75767767429351807
0.62412375211715698 0.79255217313766479 0.76854825019836426
0.79995626211166382 0.82377499341964722 0.78920549154281616
0.90926045179367065 0.86071133613586426 0.8034137487411499
0.96578538417816162 0.88234275579452515 0.79748517274856567
0.99046367406845093 0.89346456527709961 0.79165011644363403
0.46659836173057556 0.91552501916885376 0.80918711423873901
0.55794095993041992 0.91775631904602051 0.81053286790847778
0.73427480459213257 0.91688364744186401 0.8008769154548645
0.87916982173919678 0.92668312788009644 0.80575823783874512
0.96326255798339844 0.94138365983963013 0.82095623016357422
0.99224203824996948 0.95382535457611084 0.83411121368408203
0.9978020191192627 0.9601936936378479 0.84205800294876099
0.58505725860595703 0.97087651491165161 0.76676732301712036
0.6752888560295105 0.96645599603652954 0.77276813983917236
0.83219051361083984 0.95953273773193359 0.78422635793685913
0.94795268774032593 0.96011996269226074 0.80725222826004028
0.99127471446990967 0.97378933429718018 0.83947539329528809
0.9987608790397644 0.9943813681602478 0.87826049327850342
1 0.99773281812667847 0.90232837200164795
0.1044083833694458 0.10556533187627792 0.57253217697143555
0.17192655801773071 0.10245738178491592 0.6007809042930603
0.3001924455165863 0.11940563470125198 0.59087842702865601
0.41214162111282349 0.13969919085502625 0.5342215895652771
0.48540231585502625 0.16003236174583435 0.49531391263008118
0.56658935546875 0.20395630598068237 0.50852322578430176
0.66017633676528931 0.25476893782615662 0.53092968463897705
0.13077469170093536 0.20225854218006134 0.65220749378204346
0.21898621320724487 0.21966554224491119 0.65743076801300049
0.35852900147438049 0.2355310469865799 0.64224433898925781
0.47835829854011536 0.25885185599327087 0.60153305530548096
0.55529606342315674 0.29068660736083984 0.56546157598495483
0.63066107034683228 0.33179759979248047 0.56489670276641846
0.71983158588409424 0.36783877015113831 0.57891738414764404
0.16058012843132019 0.34614101052284241 0.66397285461425781
0.25870835781097412 0.37372478842735291 0.67409634590148926
0.44384908676147461 0.43258130550384521 0.69387167692184448
0.59152936935424805 0.47118067741394043 0.69352906942367554
0.67253941297531128 0.49666330218315125 0.67239683866500854
0.74771571159362793 0.53963452577590942 0.65886175632476807
0.83265703916549683 0.57610201835632324 0.67118000984191895
0.22079770267009735 0.51713770627975464 0.70363205671310425
0.31333810091018677 0.53763681650161743 0.70920908451080322
0.52665144205093384 0.6023714542388916 0.74256682395935059
0.72296583652496338 0.68152815103530884 0.77190423011779785
0.81282800436019897 0.70856863260269165 0.78441798686981201
0.8767278790473938 0.73754733800888062 0.76945412158966064
0.93600565195083618 0.76077866554260254 0.76434105634689331
0.31477150321006775 0.70238012075424194 0.76620632410049438
0.406171053647995 0.71758627891540527 0.77788931131362915
0.60255414247512817 0.75348979234695435 0.80275720357894897
0.79132819175720215 0.80724531412124634 0.82990568876266479
0.91200685501098633 0.86094838380813599 0.84503507614135742
0.96409428119659424 0.88659965991973877 0.83071267604827881
0.9864240288734436 0.89977222681045532 0.81645578145980835
0.43043488264083862 0.867576003074646 0.86127442121505737
0.52481025457382202 0.87349033355712891 0.8703877329826355
0.70886337757110596 0.88528585433959961 0.84594416618347168
0.86158925294876099 0.90768885612487793 0.8406670093536377
0.95589864253997803 0.93849366903305054 0.84949237108230591
0.99186092615127563 0.95620012283325195 0.85932832956314087
0.99852317571640015 0.96526753902435303 0.86050224304199219
0.59197282791137695 0.9613335132598877 0.86903965473175049
0.67317003011703491 0.96101188659667969 0.8621286153793335
0.83545374870300293 0.95550417900085449 0.83527243137359619
0.94810181856155396 0.95918142795562744 0.84042185544967651
0.99264270067214966 0.97831118106842041 0.878612220287323
0.99970346689224243 0.99638903141021729 0.90845984220504761
0.99974077939987183 0.99773281812667847 0.90929210186004639
