assets/lut/inavision gremerta.cube
# Created by: G'MIC (https://gmic.eu)
TITLE "gremerta"
# LUT size
LUT_3D_SIZE 7
# Data domain
DOMAIN_MIN 0.0 0.0 0.0
DOMAIN_MAX 1.0 1.0 1.0
# LUT data points
0.0025639103259891272 0.0020526212174445391 0.0028004066552966833
0.11750757694244385 0.00081763172056525946 0.0014970666961744428
0.23922610282897949 0.0016179701779037714 0.0055461060255765915
0.36432716250419617 0.0085233505815267563 0.0017338921315968037
0.49409371614456177 0.0018736596684902906 0.013722752220928669
0.62687093019485474 0.012046918272972107 0.0088226469233632088
0.75862067937850952 0.032196853309869766 0.0061678867787122726
0.001261602621525526 0.13306958973407745 0.0065294899977743626
0.11853612214326859 0.1326223611831665 0.0025492948479950428
0.23884354531764984 0.12694054841995239 0.0010887894313782454
0.36307978630065918 0.13374270498752594 0.0004583022091537714
0.49399510025978088 0.13675099611282349 0.00049582088831812143
0.62693154811859131 0.14775928854942322 0.0013124952092766762
0.76010048389434814 0.15951107442378998 0.0037162033841013908
0.0015945135382935405 0.25487890839576721 0.016702106222510338
0.11422821879386902 0.25347638130187988 0.0008863561088219285
0.24373777210712433 0.25611802935600281 0.010968436487019062
0.36663147807121277 0.26509803533554077 0.0094491094350814819
0.49319854378700256 0.27401289343833923 0.0046984804794192314
0.62524509429931641 0.28184330463409424 0.0029008754063397646
0.75962388515472412 0.28948530554771423 0.0037291282787919044
0.0043809628114104271 0.38431373238563538 0.010889524593949318
0.11495473235845566 0.38433706760406494 0.002282251138240099
0.24906338751316071 0.38657289743423462 0.002743829507380724
0.37071838974952698 0.3906148374080658 0.011748699471354485
0.49396225810050964 0.39818331599235535 0.015670193359255791
0.62529057264328003 0.40889444947242737 0.010072192177176476
0.76036173105239868 0.41905757784843445 0.0063165551982820034
0.016290642321109772 0.52658200263977051 0.0027458041440695524
0.12787126004695892 0.52541345357894897 0.00085018383106216788
0.25591790676116943 0.52468585968017578 0.00030822755070403218
0.37731575965881348 0.52321368455886841 0.0087365247309207916
0.49934512376785278 0.52813631296157837 0.019317418336868286
0.62949442863464355 0.53921818733215332 0.015305387787520885
0.76408815383911133 0.55084705352783203 0.0094459233805537224
0.033480025827884674 0.67177093029022217 0.0014705882640555501
0.14343656599521637 0.66992700099945068 0.0014788459520787001
0.26367756724357605 0.66693317890167236 0.002497564535588026
0.38556668162345886 0.66478872299194336 0.0086572384461760521
0.50912362337112427 0.66842830181121826 0.015425259247422218
0.63786739110946655 0.67707633972167969 0.014581941999495029
0.77151435613632202 0.6878778338432312 0.0099256476387381554
0.044621024280786514 0.81628942489624023 0.0031064948998391628
0.15713798999786377 0.81481003761291504 0.003511151997372508
0.274667888879776 0.81255602836608887 0.0051940917037427425
0.39596527814865112 0.81168609857559204 0.008806595578789711
0.5202755331993103 0.81394857168197632 0.011684313416481018
0.64882564544677734 0.82061249017715454 0.011560821905732155
0.78169697523117065 0.82980036735534668 0.0088214650750160217
0.0053723352029919624 0.00077460793545469642 0.10548795759677887
0.11870450526475906 0.00063476560171693563 0.10658341646194458
0.23702619969844818 0.0008839326910674572 0.1103220209479332
0.36143463850021362 0.00084156711818650365 0.11520034074783325
0.49308189749717712 0.00013589297304861248 0.1246759295463562
0.62786602973937988 0.0026638854760676622 0.12732678651809692
0.75842154026031494 0.018583394587039948 0.11787338554859161
0.0067991516552865505 0.12998925149440765 0.11229494959115982
0.12077035009860992 0.12769420444965363 0.10745637118816376
0.23643974959850311 0.12372897565364838 0.10766110569238663
0.36079156398773193 0.12614196538925171 0.1108386293053627
0.49244001507759094 0.12612281739711761 0.10575185716152191
0.62758374214172363 0.12873956561088562 0.10961737483739853
0.75949949026107788 0.14308840036392212 0.1112709641456604
0.017507979646325111 0.25516870617866516 0.11067307740449905
0.1260451078414917 0.25352180004119873 0.095798507332801819
0.24355418980121613 0.25792643427848816 0.10445258766412735
0.36537307500839233 0.26557964086532593 0.11154458671808243
0.49319854378700256 0.27106127142906189 0.10576175153255463
0.62518906593322754 0.27290990948677063 0.1035245880484581
0.75808823108673096 0.2782101035118103 0.10523667931556702
0.0088616311550140381 0.38425558805465698 0.11395722627639771
0.11679195612668991 0.38505819439888 0.097088456153869629
0.24612414836883545 0.38868653774261475 0.09480120986700058
0.37027174234390259 0.39263111352920532 0.1081572026014328
0.49479171633720398 0.3981783390045166 0.11404754221439362
0.62453430891036987 0.40468057990074158 0.11065369844436646
0.75808823108673096 0.41195258498191833 0.10763131082057953
0.0039888718165457249 0.52645093202590942 0.11308322846889496
0.11275599151849747 0.52604317665100098 0.10177181661128998
0.24732352793216705 0.52597349882125854 0.095151163637638092
0.37443020939826965 0.52491134405136108 0.10961614549160004
0.49854400753974915 0.52879554033279419 0.11906177550554276
0.62734293937683105 0.53722941875457764 0.11640876531600952
0.76094096899032593 0.54642403125762939 0.11052162200212479
0.014808849431574345 0.67261028289794922 0.11015857011079788
0.12769132852554321 0.67145663499832153 0.10833770036697388
0.25352916121482849 0.66851639747619629 0.1063380092382431
0.37954956293106079 0.66673582792282104 0.11311711370944977
0.50493705272674561 0.66899305582046509 0.11887460201978683
0.63383078575134277 0.67585605382919312 0.11735822260379791
0.76711612939834595 0.68475437164306641 0.11212854087352753
0.029642112553119659 0.81770831346511841 0.11318987607955933
0.14407800137996674 0.81687647104263306 0.11318326741456985
0.26450291275978088 0.81425333023071289 0.11280137300491333
0.38803833723068237 0.81271284818649292 0.11544117331504822
0.51373618841171265 0.81430292129516602 0.11746199429035187
0.64291054010391235 0.81948035955429077 0.11607305705547333
0.77594524621963501 0.82726466655731201 0.11181426793336868
0.0018872579094022512 0.0045185014605522156 0.22028133273124695
0.12052983045578003 0.00053746841149404645 0.21997962892055511
0.24356052279472351 0.0021109187509864569 0.22793364524841309
0.36528798937797546 0.001337208435870707 0.23702092468738556
0.49441826343536377 0.00011650533997453749 0.2440304309129715
0.62704944610595703 0.0002741196658462286 0.24808970093727112
0.75850993394851685 0.0043065985664725304 0.24251684546470642
0.00059416529256850481 0.12794065475463867 0.21911489963531494
0.11913591623306274 0.12803560495376587 0.21948648989200592
0.24198980629444122 0.12609682977199554 0.22398370504379272
0.3638974130153656 0.12352307140827179 0.22982262074947357
0.49370881915092468 0.11788462847471237 0.2315228283405304
0.62634706497192383 0.11401285231113434 0.23600900173187256
0.75829267501831055 0.12326256185770035 0.23456329107284546
0.010042467154562473 0.25847116112709045 0.22361348569393158
0.12017528712749481 0.25612229108810425 0.21687418222427368
0.24093259871006012 0.2586594820022583 0.21778520941734314
0.36473932862281799 0.26126310229301453 0.22283594310283661
0.49319854378700256 0.26124584674835205 0.2233474999666214
0.62413716316223145 0.25972220301628113 0.22363437712192535
0.75668084621429443 0.2634044885635376 0.22433087229728699
0.0070074941031634808 0.38593730330467224 0.23290614783763885
0.11486228555440903 0.38657268881797791 0.22028551995754242
0.24073603749275208 0.38848817348480225 0.21556659042835236
0.36679968237876892 0.3906492292881012 0.21952694654464722
0.49346575140953064 0.39324671030044556 0.22246529161930084
0.62363386154174805 0.39702588319778442 0.22084556519985199
0.75649511814117432 0.40231916308403015 0.21948529779911041
0.00073619169415906072 0.52591484785079956 0.24328102171421051
0.10505539923906326 0.52625900506973267 0.23195925354957581
0.23907414078712463 0.52720397710800171 0.22080272436141968
0.36826089024543762 0.52772831916809082 0.22177143394947052
0.49583563208580017 0.52923774719238281 0.22447711229324341
0.62555909156799316 0.53395938873291016 0.22291918098926544
0.75860518217086792 0.54069036245346069 0.21942593157291412
0.0055636088363826275 0.6718137264251709 0.24480761587619781
0.11669111251831055 0.67166906595230103 0.24062487483024597
0.24430578947067261 0.67082250118255615 0.22963395714759827
0.37212708592414856 0.67011409997940063 0.2268216609954834
0.50010484457015991 0.67078655958175659 0.22683236002922058
0.63035476207733154 0.67465806007385254 0.22435125708580017
0.76382637023925781 0.68117725849151611 0.22035406529903412
0.01717924140393734 0.81770831346511841 0.24164943397045135
0.13263624906539917 0.81700432300567627 0.23996531963348389
0.25489664077758789 0.8152700662612915 0.23422630131244659
0.38010811805725098 0.81441980600357056 0.23101696372032166
0.5076175332069397 0.81491374969482422 0.22762550413608551
0.63796508312225342 0.81844586133956909 0.22600626945495605
0.77154117822647095 0.82466697692871094 0.22239422798156738
0.015954485163092613 0.0013786765048280358 0.33529412746429443
0.12518817186355591 0.0048013124614953995 0.33529412746429443
0.24838775396347046 0.0046371161006391048 0.3400675356388092
0.3709600567817688 0.0032859803177416325 0.34768387675285339
0.49647048115730286 0.0016849293606355786 0.35457733273506165
0.62604165077209473 0.00044394101132638752 0.36013966798782349
0.75808823108673096 0.00056367763318121433 0.36073675751686096
0.005206134170293808 0.12336289882659912 0.33250805735588074
0.11785531044006348 0.13139429688453674 0.33145004510879517
0.24513944983482361 0.12589477002620697 0.33610755205154419
0.36861062049865723 0.12297587841749191 0.34152749180793762
0.49422097206115723 0.11851640790700912 0.34564021229743958
0.62415975332260132 0.1121024489402771 0.35068094730377197
0.75657075643539429 0.11153299361467361 0.35268092155456543
0.0041755973361432552 0.26050511002540588 0.33663365244865417
0.11292903870344162 0.26066762208938599 0.33141976594924927
0.23982197046279907 0.25691547989845276 0.33271285891532898
0.3656732439994812 0.25602567195892334 0.33540672063827515
0.49225360155105591 0.25507858395576477 0.33801019191741943
0.62251132726669312 0.2531018853187561 0.34027153253555298
0.7552599310874939 0.25366038084030151 0.34188082814216614
0.0060926699079573154 0.39064282178878784 0.34528002142906189
0.11657634377479553 0.3893645703792572 0.33681881427764893
0.23951056599617004 0.38823530077934265 0.33482831716537476
0.36473506689071655 0.38811960816383362 0.33529412746429443
0.49249565601348877 0.38852334022521973 0.33529412746429443
0.6224854588508606 0.39120087027549744 0.33529412746429443
0.75541108846664429 0.3948204517364502 0.33529412746429443
0.0039223614148795605 0.52815300226211548 0.35621696710586548
0.11242396384477615 0.52720934152603149 0.34753134846687317
0.23755128681659698 0.52818787097930908 0.33913084864616394
0.36424943804740906 0.52955168485641479 0.33529412746429443
0.49322846531867981 0.52866870164871216 0.33529412746429443
0.62390357255935669 0.53069156408309937 0.33529412746429443
0.75714331865310669 0.53559833765029907 0.33137255907058716
0.0056752371601760387 0.67146968841552734 0.36256551742553711
0.11557750403881073 0.67101538181304932 0.35652109980583191
0.24036814272403717 0.67130130529403687 0.34657040238380432
0.36677283048629761 0.6718137264251709 0.33985152840614319
0.4960174560546875 0.67102044820785522 0.33907479047775269
0.62752717733383179 0.67266499996185303 0.33538109064102173
0.76141297817230225 0.67771118879318237 0.3326849639415741
0.012145712040364742 0.81691175699234009 0.36274510622024536
0.1259673684835434 0.81569510698318481 0.3587799072265625
0.24832116067409515 0.81480038166046143 0.35128101706504822
0.3737809956073761 0.81454598903656006 0.34540238976478577
0.50241208076477051 0.81460392475128174 0.34226322174072266
0.63394486904144287 0.81713145971298218 0.33919954299926758
0.76835328340530396 0.82193416357040405 0.33529412746429443
0.007516943383961916 0.0058459560386836529 0.45193207263946533
0.1203448548913002 0.0092174755409359932 0.45162120461463928
0.25050085783004761 0.0072012660093605518 0.45510384440422058
0.37617889046669006 0.0058377282693982124 0.45948576927185059
0.49937069416046143 0.0041184369474649429 0.46472188830375671
0.62665814161300659 0.0015659107593819499 0.47069212794303894
0.75809758901596069 0.00040301153785549104 0.47458639740943909
0.003163565881550312 0.1288798600435257 0.45146465301513672
0.11385294795036316 0.13354425132274628 0.45110294222831726
0.2475244551897049 0.12792719900608063 0.45305582880973816
0.37305530905723572 0.12613995373249054 0.45503371953964233
0.4949381947517395 0.12618815898895264 0.45671522617340088
0.62320882081985474 0.11718817055225372 0.46275806427001953
0.75640368461608887 0.1104508638381958 0.4674338698387146
0.0031059414613991976 0.26385796070098877 0.45401450991630554
0.11168228089809418 0.26291573047637939 0.45110294222831726
0.24143821001052856 0.25677004456520081 0.45118957757949829
0.36797294020652771 0.25611501932144165 0.45203337073326111
0.49251624941825867 0.25738292932510376 0.45330145955085754
0.62132662534713745 0.25396201014518738 0.4556373655796051
0.75416666269302368 0.25107935070991516 0.4590248167514801
0.0052696079947054386 0.39570248126983643 0.45902925729751587
0.11526601761579514 0.3920256495475769 0.45419284701347351
0.23950536549091339 0.38829740881919861 0.45240131020545959
0.36533167958259583 0.38823530077934265 0.45340520143508911
0.49247172474861145 0.38827055692672729 0.45326906442642212
0.62212008237838745 0.38998982310295105 0.4527631402015686
0.75423562526702881 0.39110824465751648 0.45339164137840271
0.0054655936546623707 0.53146564960479736 0.4664405882358551
0.11591821163892746 0.52801048755645752 0.45963966846466064
0.23880328238010406 0.52747374773025513 0.45511606335639954
0.36416056752204895 0.52797210216522217 0.45481386780738831
0.49239692091941833 0.52655553817749023 0.4542367160320282
0.62315243482589722 0.52863496541976929 0.45139482617378235
0.75660479068756104 0.53225827217102051 0.45107647776603699
0.0068014706484973431 0.67258739471435547 0.4734630286693573
0.1175973191857338 0.67033308744430542 0.46722680330276489
0.2394898384809494 0.66956520080566406 0.46115100383758545
0.36468121409416199 0.66982424259185791 0.45742446184158325
0.49377572536468506 0.66932231187820435 0.455037921667099
0.62590861320495605 0.67096829414367676 0.45310381054878235
0.76074701547622681 0.67490917444229126 0.45110294222831726
0.01035995502024889 0.81730115413665771 0.47742441296577454
0.12316079437732697 0.81475722789764404 0.47217878699302673
0.24456337094306946 0.81341338157653809 0.46664053201675415
0.36970674991607666 0.81251060962677002 0.46211162209510803
0.49876207113265991 0.81289476156234741 0.4588111937046051
0.63129305839538574 0.81483864784240723 0.4550754725933075
0.76647007465362549 0.81942033767700195 0.45256605744361877
0.0018999885069206357 0.012219537049531937 0.5736691951751709
0.11511144042015076 0.012086127884685993 0.57326763868331909
0.25405856966972351 0.0084453504532575607 0.57478255033493042
0.38167044520378113 0.0066509470343589783 0.57733595371246338
0.50328618288040161 0.0051237517036497593 0.5797344446182251
0.62906312942504883 0.002446791622787714 0.58466571569442749
0.76002365350723267 0.0013399012386798859 0.58882820606231689
0.00040857651038095355 0.13955999910831451 0.57326704263687134
0.11125616729259491 0.13691554963588715 0.57208830118179321
0.25290468335151672 0.12772059440612793 0.57355707883834839
0.37822571396827698 0.12553618848323822 0.57417201995849609
0.49875569343566895 0.12649163603782654 0.57449197769165039
0.62532120943069458 0.12023073434829712 0.57873630523681641
0.75713652372360229 0.11372813582420349 0.58299273252487183
0.0025148428976535797 0.27185645699501038 0.5740354061126709
0.11297010630369186 0.26682659983634949 0.57106184959411621
0.24308757483959198 0.25781762599945068 0.57201379537582397
0.36953181028366089 0.25612199306488037 0.57254904508590698
0.49424141645431519 0.25778478384017944 0.57251167297363281
0.62278372049331665 0.25468897819519043 0.57474857568740845
0.75599592924118042 0.2513185441493988 0.57790505886077881
0.0052579394541680813 0.40346816182136536 0.57568991184234619
0.11557111889123917 0.39753228425979614 0.57102507352828979
0.23904179036617279 0.39247068762779236 0.57142883539199829
0.36438721418380737 0.39159643650054932 0.57396787405014038
0.49215543270111084 0.39022979140281677 0.57383853197097778
0.62216019630432129 0.39019608497619629 0.57341617345809937
0.75632953643798828 0.39019599556922913 0.57411283254623413
0.0068014706484973431 0.53791934251785278 0.58009225130081177
0.11764705926179886 0.53181648254394531 0.57437831163406372
0.23886761069297791 0.53022688627243042 0.57357895374298096
0.3622780442237854 0.53069591522216797 0.57475489377975464
0.49139153957366943 0.5280306339263916 0.57475012540817261
0.62303060293197632 0.52826762199401855 0.57316666841506958
0.75733041763305664 0.53073787689208984 0.57184189558029175
0.0068014706484973431 0.67674404382705688 0.58636581897735596
0.11897759884595871 0.67209315299987793 0.58095234632492065
0.23893076181411743 0.66942089796066284 0.57820504903793335
0.36268830299377441 0.66842609643936157 0.57678645849227905
0.49219650030136108 0.66785979270935059 0.57516020536422729
0.62529873847961426 0.66956359148025513 0.57411384582519531
0.76073706150054932 0.67302006483078003 0.57195436954498291
0.0091299023479223251 0.81910699605941772 0.5914120078086853
0.12151369452476501 0.81513231992721558 0.58680778741836548
0.24218638241291046 0.81176662445068359 0.5828557014465332
0.36671701073646545 0.80991500616073608 0.57984495162963867
0.49633756279945374 0.81022888422012329 0.57826071977615356
0.62988889217376709 0.81326067447662354 0.57518357038497925
0.76579445600509644 0.81773340702056885 0.57356107234954834
0.0030407626181840897 0.015892522409558296 0.69666242599487305
0.11881636083126068 0.013695002533495426 0.69607841968536377
0.2544708251953125 0.0084740733727812767 0.69699203968048096
0.38236469030380249 0.0057095997035503387 0.69826561212539673
0.5061877965927124 0.0043951896950602531 0.70016419887542725
0.63227856159210205 0.0024701287038624287 0.7030712366104126
0.76272308826446533 0.0015265969559550285 0.7062828540802002
0.0031965367961674929 0.14684823155403137 0.69637680053710938
0.11918877810239792 0.14057034254074097 0.69528186321258545
0.25207418203353882 0.12787002325057983 0.69594168663024902
0.37823778390884399 0.12297794222831726 0.69621706008911133
0.50177574157714844 0.12235795706510544 0.69699078798294067
0.62855958938598633 0.11908677220344543 0.69930475950241089
0.7601967453956604 0.11565405130386353 0.70235162973403931
0.005260213278234005 0.27983823418617249 0.69600492715835571
0.11884405463933945 0.27190068364143372 0.69433093070983887
0.24190445244312286 0.25779402256011963 0.69476008415222168
0.3686462938785553 0.25502452254295349 0.69528186321258545
0.49581706523895264 0.25502452254295349 0.6953052282333374
0.62515974044799805 0.25371465086936951 0.69679164886474609
0.7579692006111145 0.25180822610855103 0.69862395524978638
0.006051680538803339 0.41205185651779175 0.69658654928207397
0.1169072762131691 0.40497323870658875 0.69352346658706665
0.23832081258296967 0.39618143439292908 0.69403558969497681
0.36300459504127502 0.39290907979011536 0.69522935152053833
0.49196624755859375 0.39116737246513367 0.69528186321258545
0.62317532300949097 0.39019608497619629 0.69562804698944092
0.75752907991409302 0.39039668440818787 0.69625174999237061
0.0068014706484973431 0.54618453979492188 0.6990465521812439
0.11674177646636963 0.54030460119247437 0.69488692283630371
0.2372346818447113 0.53470367193222046 0.69470125436782837
0.36078432202339172 0.53178948163986206 0.69607377052307129
0.49060544371604919 0.52907967567443848 0.69620096683502197
0.62309020757675171 0.52885723114013672 0.69566673040390015
0.75836551189422607 0.53033089637756348 0.69528186321258545
0.0068014706484973431 0.68270426988601685 0.70423704385757446
0.11774487793445587 0.67727071046829224 0.69974952936172485
0.23754233121871948 0.67187178134918213 0.69818383455276489
0.36098015308380127 0.66819792985916138 0.69814258813858032
0.49152052402496338 0.66728627681732178 0.69761085510253906
0.62565982341766357 0.66933548450469971 0.69636297225952148
0.76157885789871216 0.67254811525344849 0.69522368907928467
0.0090085500851273537 0.8229445219039917 0.70973730087280273
0.11980381608009338 0.81796133518218994 0.70565342903137207
0.24058449268341064 0.81279522180557251 0.70247787237167358
0.36512559652328491 0.80920904874801636 0.70099258422851562
0.49533697962760925 0.80950778722763062 0.69906008243560791
0.62987375259399414 0.81272244453430176 0.6977546215057373
0.76648741960525513 0.81713038682937622 0.6959494948387146
