assets/lut/inavision bc darkum.cube
# Created by: G'MIC (https://gmic.eu)
TITLE "bc_darkum"
# LUT size
LUT_3D_SIZE 5
# Data domain
DOMAIN_MIN 0.0 0.0 0.0
DOMAIN_MAX 1.0 1.0 1.0
# LUT data points
0.073011986911296844 0.033563457429409027 0.0063376929610967636
0.1686507910490036 0.041092082858085632 0.0041100597009062767
0.36225098371505737 0.047666989266872406 0.0038864584639668465
0.54900181293487549 0.036249615252017975 0
0.68697375059127808 0.014979119412600994 0
0.018035814166069031 0.13349461555480957 0.018899431452155113
0.085114210844039917 0.14193817973136902 0.0087586492300033569
0.2585969865322113 0.15962047874927521 0.0051098992116749287
0.48835965991020203 0.16453357040882111 0
0.65832889080047607 0.15265414118766785 0
0.013826318085193634 0.26980787515640259 0.042947206646203995
0.05579414963722229 0.28152215480804443 0.024024005979299545
0.19116304814815521 0.31392678618431091 0.0071689831092953682
0.44464471936225891 0.32781374454498291 0
0.64866417646408081 0.32403019070625305 0
0.015020587481558323 0.40414124727249146 0.069342188537120819
0.025279400870203972 0.41408073902130127 0.039976965636014938
0.14711841940879822 0.44129288196563721 0.011052344925701618
0.40223529934883118 0.47852382063865662 0.0001370598329231143
0.62638384103775024 0.48136836290359497 0
0.0072544622235000134 0.5054619312286377 0.13293619453907013
0.0020209816284477711 0.51590627431869507 0.096315957605838776
0.093922406435012817 0.53859966993331909 0.050832293927669525
0.35083368420600891 0.58177059888839722 0.0092070335522294044
0.59442043304443359 0.60403537750244141 0.0062247482128441334
0.10445649176836014 0.035551812499761581 0.07000211626291275
0.23905208706855774 0.044531308114528656 0.05047544464468956
0.41371956467628479 0.049135558307170868 0.04173571988940239
0.57847821712493896 0.03192075714468956 0.023249143734574318
0.68819528818130493 0.012807120569050312 0.0057520698755979538
0.012627306394279003 0.14353328943252563 0.1585470587015152
0.087723001837730408 0.15034677088260651 0.11560224741697311
0.30510637164115906 0.16513387858867645 0.062337525188922882
0.52448993921279907 0.16162319481372833 0.035087168216705322
0.67658597230911255 0.14670063555240631 0.025358237326145172
0.014847803860902786 0.28536885976791382 0.21385708451271057
0.025530781596899033 0.29764702916145325 0.16685903072357178
0.19314537942409515 0.32407528162002563 0.11278609931468964
0.47702679038047791 0.32536754012107849 0.057023484259843826
0.67787551879882812 0.32124233245849609 0.027105009183287621
0.023313499987125397 0.42103609442710876 0.25377830862998962
0.0081423139199614525 0.43078482151031494 0.21220405399799347
0.1119653582572937 0.45853817462921143 0.15801192820072174
0.41313326358795166 0.48975092172622681 0.086000271141529083
0.64954841136932373 0.48849552869796753 0.040801074355840683
0.021114245057106018 0.51896047592163086 0.30146312713623047
0 0.53219163417816162 0.26639631390571594
0.039834998548030853 0.5593835711479187 0.22114427387714386
0.34153017401695251 0.60160428285598755 0.12863805890083313
0.61078339815139771 0.61950564384460449 0.10240762680768967
0.17497584223747253 0.031590897589921951 0.24899272620677948
0.3541489839553833 0.039947107434272766 0.22652950882911682
0.48477423191070557 0.043653629720211029 0.18231727182865143
0.61898410320281982 0.025206008926033974 0.15096546709537506
0.7168394923210144 0.0099869817495346069 0.12432245165109634
0.0076495450921356678 0.15026019513607025 0.36698299646377563
0.1267789900302887 0.155434250831604 0.30759435892105103
0.36316919326782227 0.17012989521026611 0.23630885779857635
0.56065815687179565 0.17387185990810394 0.19983257353305817
0.70766216516494751 0.15950576961040497 0.17235220968723297
0.0094490498304367065 0.30149656534194946 0.41580599546432495
0.024802427738904953 0.30908966064453125 0.3910096287727356
0.23205448687076569 0.33825373649597168 0.35721534490585327
0.5275457501411438 0.34756475687026978 0.26602956652641296
0.70531922578811646 0.35382196307182312 0.2344902902841568
0.023665394634008408 0.44349074363708496 0.45043063163757324
0.015661098062992096 0.45786738395690918 0.42847424745559692
0.099370457231998444 0.48249158263206482 0.39956647157669067
0.43295183777809143 0.51581096649169922 0.3648408055305481
0.68009215593338013 0.51545995473861694 0.27916574478149414
0.017005771398544312 0.54948407411575317 0.47849246859550476
0.0059231328777968884 0.5623621940612793 0.45653784275054932
0.037723496556282043 0.58561962842941284 0.42309492826461792
0.33416342735290527 0.63071662187576294 0.40228545665740967
0.62448644638061523 0.64750111103057861 0.34917297959327698
0.29877170920372009 0.017099970951676369 0.4039272665977478
0.44767570495605469 0.019607903435826302 0.38058102130889893
0.57529979944229126 0.020974433049559593 0.34891346096992493
0.6628229022026062 0.0087209362536668777 0.31456455588340759
0.74976962804794312 0.0029453202150762081 0.29343953728675842
0.048574365675449371 0.13668280839920044 0.49927845597267151
0.18812589347362518 0.15107144415378571 0.4603792130947113
0.42793023586273193 0.15743730962276459 0.40756171941757202
0.5996289849281311 0.156600221991539 0.37051400542259216
0.72757232189178467 0.14779306948184967 0.3386344313621521
0.0026692408137023449 0.29654201865196228 0.56981605291366577
0.049329973757266998 0.31032806634902954 0.57508164644241333
0.31386202573776245 0.34246686100959778 0.50970983505249023
0.5609012246131897 0.35563838481903076 0.43355479836463928
0.73228234052658081 0.36596584320068359 0.41322678327560425
0.018584711477160454 0.44586348533630371 0.60159122943878174
0.012668505311012268 0.45991089940071106 0.5951877236366272
0.1353270560503006 0.49853309988975525 0.60389065742492676
0.50530248880386353 0.52761882543563843 0.51312732696533203
0.71238255500793457 0.54057508707046509 0.4692634642124176
0.017063334584236145 0.57098424434661865 0.63282841444015503
0.01655946671962738 0.58630955219268799 0.62346923351287842
0.072358101606369019 0.61326289176940918 0.60912090539932251
0.372762531042099 0.65671604871749878 0.60321229696273804
0.64839702844619751 0.67141199111938477 0.57319861650466919
0.44692742824554443 0.0053982003591954708 0.50935101509094238
0.5601162314414978 0.0012692171148955822 0.5014076828956604
0.66062909364700317 0.00051028683083131909 0.47141885757446289
0.74542391300201416 0 0.44362059235572815
0.81579720973968506 0 0.42417258024215698
0.17244556546211243 0.13289445638656616 0.60089284181594849
0.30840751528739929 0.12679921090602875 0.55727559328079224
0.49818187952041626 0.11273181438446045 0.51798290014266968
0.65607863664627075 0.11657799780368805 0.49818503856658936
0.75095176696777344 0.094680890440940857 0.4747186005115509
0.035486482083797455 0.29557883739471436 0.68835604190826416
0.13041029870510101 0.31495451927185059 0.69616931676864624
0.41984397172927856 0.34169304370880127 0.59149539470672607
0.60371321439743042 0.35017484426498413 0.56266844272613525
0.76433449983596802 0.35369890928268433 0.5428917407989502
0.022964926436543465 0.4524078369140625 0.71171873807907104
0.034995988011360168 0.46642079949378967 0.71031969785690308
0.23520699143409729 0.50830399990081787 0.73198843002319336
0.5436890721321106 0.53354930877685547 0.64588391780853271
0.75134384632110596 0.54360789060592651 0.58803242444992065
0.019794538617134094 0.58659225702285767 0.75335144996643066
0.023898106068372726 0.60210227966308594 0.74644798040390015
0.12006545811891556 0.63340139389038086 0.7455330491065979
0.42530438303947449 0.67077004909515381 0.74735265970230103
0.68839830160140991 0.68442988395690918 0.68841278553009033
