assets/lut/inavision bc darkum.cube
# Created by: G'MIC (https://gmic.eu)
TITLE "bc_darkum"
# LUT size
LUT_3D_SIZE 13
# Data domain
DOMAIN_MIN 0.0 0.0 0.0
DOMAIN_MAX 1.0 1.0 1.0
# LUT data points
0.073011986911296844 0.033563457429409027 0.0063376929610967636
0.093308500945568085 0.035089112818241119 0.0061290515586733818
0.12404903024435043 0.038500543683767319 0.0054880478419363499
0.1686507910490036 0.041092082858085632 0.0041100597009062767
0.22743277251720428 0.04204108938574791 0.004141833633184433
0.29301595687866211 0.04452139139175415 0.0043978225439786911
0.36225098371505737 0.047666989266872406 0.0038864584639668465
0.43166384100914001 0.048236817121505737 0.0023966173175722361
0.49491855502128601 0.044208046048879623 0
0.54900181293487549 0.036249615252017975 0
0.59661370515823364 0.027206599712371826 0
0.64133316278457642 0.019851041957736015 0
0.68697375059127808 0.014979119412600994 0
0.045030392706394196 0.061467010527849197 0.010511450469493866
0.066826745867729187 0.059261336922645569 0.0096651259809732437
0.09580579400062561 0.061953958123922348 0.0069980695843696594
0.13165254890918732 0.068763077259063721 0.0046313265338540077
0.18495191633701324 0.072871170938014984 0.0044414447620511055
0.24934935569763184 0.077288955450057983 0.0048816753551363945
0.32183670997619629 0.081807158887386322 0.0040896846912801266
0.39718657732009888 0.083920285105705261 0.0024998832959681749
0.46638780832290649 0.081009887158870697 0
0.52570635080337524 0.07365233451128006 0
0.57668137550354004 0.065009862184524536 0
0.62359368801116943 0.057945072650909424 0
0.670887291431427 0.053723607212305069 0
0.025796912610530853 0.096132256090641022 0.014116803184151649
0.043582573533058167 0.094263099133968353 0.012567841447889805
0.06983242928981781 0.096658430993556976 0.008892732672393322
0.10435943305492401 0.10254029184579849 0.0059111649170517921
0.1517123281955719 0.10875598341226578 0.0053886710666120052
0.21227484941482544 0.11487671732902527 0.0058515211567282677
0.28672432899475098 0.11914172023534775 0.0045181126333773136
0.36688089370727539 0.12283121794462204 0.002333218464627862
0.44198501110076904 0.12265255302190781 0
0.50607901811599731 0.11665405333042145 0
0.56141668558120728 0.10942798852920532 0
0.61208230257034302 0.10356836020946503 0
0.66222268342971802 0.099898934364318848 0
0.018035814166069031 0.13349461555480957 0.018899431452155113
0.030584268271923065 0.1341722309589386 0.015781955793499947
0.052763935178518295 0.13683986663818359 0.011804977431893349
0.085114210844039917 0.14193817973136902 0.0087586492300033569
0.12874938547611237 0.14861847460269928 0.0076791802421212196
0.18642345070838928 0.15488526225090027 0.0070822620764374733
0.2585969865322113 0.15962047874927521 0.0051098992116749287
0.33980837464332581 0.16491362452507019 0.002473045838996768
0.419096440076828 0.16736370325088501 0
0.48835965991020203 0.16453357040882111 0
0.54869264364242554 0.15976335108280182 0
0.60414248704910278 0.15565145015716553 0
0.65832889080047607 0.15265414118766785 0
0.014780411496758461 0.17571483552455902 0.026096103712916374
0.024965085089206696 0.17735126614570618 0.020784085616469383
0.043287854641675949 0.1808256059885025 0.01652182824909687
0.072072871029376984 0.1861928403377533 0.013547216542065144
0.11247693002223969 0.19308219850063324 0.01158441323786974
0.16592700779438019 0.20059823989868164 0.0091509800404310226
0.23410031199455261 0.20749571919441223 0.00582860317081213
0.31435862183570862 0.21363592147827148 0.0028300415724515915
0.39676925539970398 0.21693024039268494 0
0.47162091732025146 0.21664512157440186 0
0.5368688702583313 0.21448886394500732 2.8393315005814657e-05
0.59706217050552368 0.21191848814487457 0.00015110688400454819
0.65543806552886963 0.20913344621658325 0
0.013777504675090313 0.22182267904281616 0.034660819917917252
0.022478200495243073 0.22399653494358063 0.027841605246067047
0.037980172783136368 0.22772158682346344 0.022725332528352737
0.063468694686889648 0.23318597674369812 0.019515333697199821
0.099979743361473083 0.24084845185279846 0.016363570466637611
0.14801575243473053 0.25072872638702393 0.011223422363400459
0.21088927984237671 0.26074746251106262 0.0066695716232061386
0.28969541192054749 0.26846283674240112 0.0035535176284611225
0.37547990679740906 0.27220660448074341 0.00017341165221296251
0.45652613043785095 0.27202534675598145 0
0.52634519338607788 0.27122899889945984 0.00043445662595331669
0.59000521898269653 0.26968228816986084 0.00040995280141942203
0.65209758281707764 0.26684007048606873 0
0.013826318085193634 0.26980787515640259 0.042947206646203995
0.021142788231372833 0.27220514416694641 0.035135816782712936
0.033985480666160583 0.27585017681121826 0.029111256822943687
0.05579414963722229 0.28152215480804443 0.024024005979299545
0.088264718651771545 0.2898593544960022 0.018845262005925179
0.13218265771865845 0.30124768614768982 0.012222843244671822
0.19116304814815521 0.31392678618431091 0.0071689831092953682
0.26704248785972595 0.32470479607582092 0.0044862334616482258
0.35496258735656738 0.32986092567443848 0.0018182642525061965
0.44464471936225891 0.32781374454498291 0
0.5201910138130188 0.32698649168014526 3.2671759981894866e-05
0.58548063039779663 0.32655444741249084 2.8004365958622657e-05
0.64866417646408081 0.32403019070625305 0
0.014629692770540714 0.3175463080406189 0.050562392920255661
0.019814569503068924 0.31988659501075745 0.042284827679395676
0.029297294095158577 0.32353413105010986 0.034843355417251587
0.046856779605150223 0.32909297943115234 0.02731730230152607
0.075507789850234985 0.33741730451583862 0.019631044939160347
0.1180645078420639 0.34872531890869141 0.012545357458293438
0.17641644179821014 0.36203935742378235 0.0084045557305216789
0.25000354647636414 0.37580206990242004 0.0063659069128334522
0.33740285038948059 0.38374024629592896 0.0040275724604725838
0.43176615238189697 0.38244399428367615 0.00017727122758515179
0.51280742883682251 0.38117897510528564 0
0.5805317759513855 0.38131120800971985 0
0.64372682571411133 0.37986958026885986 0
0.015418288297951221 0.36304715275764465 0.058097314089536667
0.017397113144397736 0.36505332589149475 0.049807500094175339
0.023546600714325905 0.36814546585083008 0.041630133986473083
0.036619611084461212 0.37347209453582764 0.032047048211097717
0.061736911535263062 0.38142049312591553 0.022039929404854774
0.10346459597349167 0.39151269197463989 0.01392415352165699
0.16372589766979218 0.40304291248321533 0.010385251604020596
0.2389771044254303 0.41677722334861755 0.0083753848448395729
0.32544592022895813 0.42837512493133545 0.0047522000968456268
0.41658720374107361 0.43323910236358643 0.00052930047968402505
0.49942556023597717 0.43430033326148987 0
0.5707859992980957 0.43441316485404968 0
0.63603246212005615 0.43296694755554199 0
0.015020587481558323 0.40414124727249146 0.069342188537120819
0.014853638596832752 0.40588799118995667 0.060899622738361359
0.016815559938549995 0.40880665183067322 0.051505278795957565
0.025279400870203972 0.41408073902130127 0.039976965636014938
0.046311158686876297 0.42171391844749451 0.027371201664209366
0.085769549012184143 0.43118521571159363 0.016567783430218697
0.14711841940879822 0.44129288196563721 0.011052344925701618
0.22557149827480316 0.45408922433853149 0.0074708377942442894
0.31294596195220947 0.46815550327301025 0.0028984369710087776
0.40223529934883118 0.47852382063865662 0.0001370598329231143
0.48507270216941833 0.48338744044303894 0
0.55876898765563965 0.48336502909660339 0
0.62638384103775024 0.48136836290359497 0
0.012774568051099777 0.44027122855186462 0.08709978312253952
0.011043967679142952 0.44198736548423767 0.077197805047035217
0.01020762138068676 0.44519659876823425 0.066488556563854218
0.014621241018176079 0.45058831572532654 0.053133226931095123
0.031029824167490005 0.45819318294525146 0.038322076201438904
0.066665306687355042 0.46747830510139465 0.023617718368768692
0.12671799957752228 0.4774269163608551 0.013371291570365429
0.20684488117694855 0.48989424109458923 0.0065475464798510075
0.29673483967781067 0.50488853454589844 0.0012921352172270417
0.38702726364135742 0.51848381757736206 0
0.47107285261154175 0.52627456188201904 0
0.54655617475509644 0.52687686681747437 0
0.61629617214202881 0.52551603317260742 0
0.010588507167994976 0.47315722703933716 0.10910427570343018
0.0073394477367401123 0.47511190176010132 0.098302267491817474
0.0042835013009607792 0.47858765721321106 0.086342543363571167
0.0060165105387568474 0.48394355177879333 0.072348803281784058
0.019034292548894882 0.49102279543876648 0.05688101053237915
0.051005031913518906 0.49954020977020264 0.040984224528074265
0.1076284646987915 0.50912773609161377 0.027189800515770912
0.18672113120555878 0.52140575647354126 0.015037506818771362
0.27770182490348816 0.53694534301757812 0.005244565661996603
0.36967107653617859 0.55184853076934814 0.00050523044774308801
0.45573633909225464 0.56183445453643799 0
0.53383630514144897 0.56533324718475342 0
0.60607445240020752 0.56556606292724609 0.00017599966668058187
0.0072544622235000134 0.5054619312286377 0.13293619453907013
0.0036456238012760878 0.50746172666549683 0.12195002287626266
0.00074973015580326319 0.51086825132369995 0.10986623167991638
0.0020209816284477711 0.51590627431869507 0.096315957605838776
0.012209215201437473 0.52223652601242065 0.081605888903141022
0.041502486914396286 0.52978056669235229 0.066394522786140442
0.093922406435012817 0.53859966993331909 0.050832293927669525
0.16917599737644196 0.55045813322067261 0.035076681524515152
0.25833031535148621 0.56630551815032959 0.020345291122794151
0.35083368420600891 0.58177059888839722 0.0092070335522294044
0.43882161378860474 0.59352511167526245 0.0035024904645979404
0.51964002847671509 0.60053133964538574 0.0028951456770300865
0.59442043304443359 0.60403537750244141 0.0062247482128441334
0.079542584717273712 0.034420311450958252 0.015317445620894432
0.1014094203710556 0.037488870322704315 0.012900408357381821
0.13943161070346832 0.039077416062355042 0.010836686939001083
0.18749573826789856 0.040194194763898849 0.0093505112454295158
0.2459893673658371 0.040762417018413544 0.009270806796848774
0.3100469708442688 0.043134786188602448 0.0092921387404203415
0.37729853391647339 0.046295568346977234 0.0083070341497659683
0.44447439908981323 0.045762695372104645 0.0054300045594573021
0.50547301769256592 0.04034118726849556 0.0014673569239675999
0.55703794956207275 0.031196609139442444 0
0.60109049081802368 0.021613087505102158 0
0.64082169532775879 0.013777879066765308 0
0.68309926986694336 0.0096865184605121613 0
0.043711643666028976 0.062983855605125427 0.02936217375099659
0.066862531006336212 0.062518402934074402 0.023391349241137505
0.10258247703313828 0.06306738406419754 0.016110528260469437
0.14429226517677307 0.066975072026252747 0.011147502809762955
0.19919890165328979 0.070652708411216736 0.0099190054461359978
0.2635103166103363 0.075852654874324799 0.0097105586901307106
0.33558031916618347 0.080753862857818604 0.008257637731730938
0.41011646389961243 0.081325903534889221 0.0049761007539927959
0.47793826460838318 0.076334260404109955 0.0011832293821498752
0.53487646579742432 0.066844642162322998 0
0.58240967988967896 0.057340703904628754 0
0.62432539463043213 0.049739044159650803 0
0.66733014583587646 0.045281354337930679 0
0.020035658031702042 0.099393762648105621 0.041600365191698074
0.037795510143041611 0.098102390766143799 0.035035900771617889
0.069683641195297241 0.097886405885219574 0.024598589166998863
0.10996679961681366 0.10178008675575256 0.016713984310626984
0.16115525364875793 0.10703439265489578 0.013541067950427532
0.22382840514183044 0.11398418992757797 0.012199984863400459
0.29945763945579529 0.1191846951842308 0.0093162683770060539
0.38007435202598572 0.12039429694414139 0.0052082138136029243
0.45435544848442078 0.11746910214424133 0.0012438157573342323
0.51690685749053955 0.10948801785707474 1.4810000720899552e-05
0.56877225637435913 0.10135085135698318 0
0.61506640911102295 0.095190338790416718 0
0.66138523817062378 0.091535516083240509 0
0.014716922305524349 0.13587689399719238 0.050138302147388458
0.025197945535182953 0.13684083521366119 0.042857781052589417
0.04852643609046936 0.13901488482952118 0.032886400818824768
0.083895601332187653 0.14303921163082123 0.024239588528871536
0.1315782368183136 0.14908084273338318 0.019571805372834206
0.19284944236278534 0.15595941245555878 0.0162506103515625
0.26882323622703552 0.16116687655448914 0.011699437163770199
0.35288846492767334 0.16395413875579834 0.0064710578881204128
0.43280327320098877 0.16297455132007599 0.0019856023136526346
0.50056856870651245 0.15828116238117218 0.00016965679242275655
0.5578276515007019 0.15293663740158081 0
0.60997116565704346 0.14837495982646942 0
0.66115176677703857 0.14529167115688324 0
0.012471172958612442 0.17846719920635223 0.061657309532165527
0.019727310165762901 0.18025527894496918 0.052085578441619873
0.03650728240609169 0.18379645049571991 0.041426252573728561
0.065538980066776276 0.18893507122993469 0.031769547611474991
0.10826903581619263 0.19572953879833221 0.02514304406940937
0.16572627425193787 0.20337940752506256 0.019855888560414314
0.23933999240398407 0.20954442024230957 0.014263646677136421
0.32573473453521729 0.21285170316696167 0.008222946897149086
0.41125345230102539 0.21298138797283173 0.0029815374873578548
0.48458215594291687 0.21124446392059326 0.00046448054490610957
0.54707300662994385 0.20897161960601807 0
0.60493659973144531 0.20582638680934906 0
0.66158509254455566 0.20285435020923615 0
0.012103690765798092 0.22534090280532837 0.074607565999031067
0.017697935923933983 0.22761860489845276 0.063332021236419678
0.030200628563761711 0.23149475455284119 0.051470931619405746
0.053775683045387268 0.23707349598407745 0.040116973221302032
0.090968459844589233 0.24483048915863037 0.030275486409664154
0.14223280549049377 0.25432494282722473 0.022563859820365906
0.20987395942211151 0.26323619484901428 0.016358694061636925
0.29662439227104187 0.26859930157661438 0.0099741769954562187
0.38804128766059875 0.26887241005897522 0.0042845332063734531
0.46814373135566711 0.26798012852668762 0.00097090780036523938
0.53598654270172119 0.26712274551391602 3.2911113521549851e-05
0.59895795583724976 0.2649652361869812 0
0.66028863191604614 0.26191949844360352 0
0.013228906318545341 0.2744641900062561 0.087245464324951172
0.017512766644358635 0.27703976631164551 0.075073614716529846
0.026547914370894432 0.28080809116363525 0.062698200345039368
0.045351229608058929 0.28616225719451904 0.049622777849435806
0.077593438327312469 0.29395699501037598 0.036696042865514755
0.12410394847393036 0.30500859022140503 0.025881195440888405
0.18717817962169647 0.31652870774269104 0.018485723063349724
0.27050888538360596 0.32477715611457825 0.01218261756002903
0.36412432789802551 0.32742980122566223 0.0063455021008849144
0.45214861631393433 0.32649680972099304 0.0019982729572802782
0.52708309888839722 0.32453301548957825 0.00020158056577201933
0.59354442358016968 0.32345259189605713 0
0.65687209367752075 0.32058236002922058 0
0.015418093651533127 0.32312765717506409 0.09834945946931839
0.017048615962266922 0.32561039924621582 0.086225442588329315
0.023194078356027603 0.32891193032264709 0.07352796196937561
0.037158440798521042 0.33384948968887329 0.059420026838779449
0.064692631363868713 0.34166178107261658 0.044571671634912491
0.10878303647041321 0.35243743658065796 0.031387776136398315
0.17174392938613892 0.36443081498146057 0.022629024460911751
0.25267261266708374 0.37532821297645569 0.016549458727240562
0.3447258472442627 0.38159045577049255 0.010184388607740402
0.43702423572540283 0.38193440437316895 0.003979118075221777
0.51769179105758667 0.38119891285896301 0.00039411059697158635
0.58721309900283813 0.38009750843048096 0
0.65119463205337524 0.3776988685131073 0
0.015945509076118469 0.36879405379295349 0.10833198577165604
0.015905596315860748 0.37095546722412109 0.097146652638912201
0.018468460068106651 0.37372300028800964 0.084765307605266571
0.027594307437539101 0.37863877415657043 0.069962881505489349
0.050255406647920609 0.38599655032157898 0.053462669253349304
0.092481799423694611 0.39567655324935913 0.038660567253828049
0.15701091289520264 0.40603038668632507 0.02962036058306694
0.23883172869682312 0.4173944890499115 0.022971449419856071
0.32963913679122925 0.42806971073150635 0.014071984216570854
0.42182263731956482 0.43339404463768005 0.0056964498944580555
0.50497817993164062 0.43442162871360779 0.00057435879716649652
0.57710939645767212 0.43338713049888611 0
0.64269071817398071 0.43142029643058777 0
0.016891239210963249 0.40951213240623474 0.12094931304454803
0.014797435142099857 0.41127485036849976 0.11049479991197586
0.01274470891803503 0.41401231288909912 0.098082646727561951
0.016338303685188293 0.4190680980682373 0.082237347960472107
0.033224787563085556 0.42666280269622803 0.064027629792690277
0.071250453591346741 0.43599489331245422 0.046428278088569641
0.13618254661560059 0.44533541798591614 0.03499501571059227
0.22144588828086853 0.4566541314125061 0.025713708251714706
0.31463295221328735 0.46990948915481567 0.014383427798748016
0.4065575897693634 0.47937822341918945 0.0050923367962241173
0.49085760116577148 0.48310932517051697 0.00047445858945138752
0.56482195854187012 0.48208266496658325 0
0.63220715522766113 0.47995492815971375 0
0.016649538651108742 0.44476121664047241 0.13910752534866333
0.012071317993104458 0.44640970230102539 0.12805269658565521
0.0063168546184897423 0.44962531328201294 0.11498475819826126
0.0052083930931985378 0.45529341697692871 0.099136948585510254
0.015787476673722267 0.46344074606895447 0.078628242015838623
0.047586120665073395 0.47336497902870178 0.057397566735744476
0.11034112423658371 0.48330837488174438 0.040622051805257797
0.19884876906871796 0.49481669068336487 0.026361428201198578
0.29608279466629028 0.50855177640914917 0.013030407018959522
0.3907833993434906 0.52011984586715698 0.0039637847803533077
0.47681158781051636 0.52632004022598267 0.00027431413764134049
0.55243700742721558 0.52617722749710083 1.1025223102478776e-05
0.62196487188339233 0.52482044696807861 0.0004936367622576654
0.015062788501381874 0.47677791118621826 0.16090762615203857
0.0090416856110095978 0.47855088114738464 0.14973761141300201
0.0014645744813606143 0.48236402869224548 0.13620012998580933
0.00013744877651333809 0.48824077844619751 0.11981780081987381
0.0038966909050941467 0.49593070149421692 0.10078247636556625
0.029399393126368523 0.50515133142471313 0.080292873084545135
0.087270341813564301 0.51522707939147949 0.059863056987524033
0.1749279648065567 0.52765476703643799 0.038798552006483078
0.27468466758728027 0.54211372137069702 0.020133702084422112
0.37263751029968262 0.55508631467819214 0.0075876573100686073
0.46152684092521667 0.56328761577606201 0.0017887788126245141
0.54033976793289185 0.56587100028991699 0.0018272100714966655
0.61217039823532104 0.56714779138565063 0.005805326160043478
0.011649725958704948 0.50842881202697754 0.18437471985816956
0.0051417779177427292 0.51018810272216797 0.17313557863235474
4.1647519537946209e-05 0.51403772830963135 0.16006694734096527
0 0.51964527368545532 0.14493143558502197
0.000741053547244519 0.52657896280288696 0.12832164764404297
0.018687184900045395 0.53462487459182739 0.11069896817207336
0.070274055004119873 0.54424160718917847 0.090808957815170288
0.15200409293174744 0.5570518970489502 0.066705860197544098
0.25065904855728149 0.57220613956451416 0.04275188222527504
0.35041618347167969 0.58629053831100464 0.023845687508583069
0.44342565536499023 0.59680330753326416 0.01374918594956398
0.52529901266098022 0.60333156585693359 0.013807647861540318
0.59995943307876587 0.60727804899215698 0.020472627133131027
0.086976088583469391 0.036825336515903473 0.036782238632440567
0.11971643567085266 0.037332586944103241 0.029235899448394775
0.16353099048137665 0.039286114275455475 0.024153705686330795
0.2113851010799408 0.041983898729085922 0.022406185045838356
0.26645705103874207 0.043912671506404877 0.021123385056853294
0.32848551869392395 0.045864779502153397 0.0204645786434412
0.39456355571746826 0.047348503023386002 0.018900882452726364
0.45951774716377258 0.045304540544748306 0.01503417082130909
0.51767760515213013 0.038933247327804565 0.010206753388047218
0.56697839498519897 0.029482493177056313 0.0048699770122766495
0.60823988914489746 0.020248172804713249 0.0012047861237078905
0.64471685886383057 0.012643956579267979 6.4475862018298358e-05
0.6828119158744812 0.0086787352338433266 0
0.044416584074497223 0.065819069743156433 0.061683237552642822
0.076010279357433319 0.063231602311134338 0.042420689016580582
0.11454758048057556 0.064737759530544281 0.032134845852851868
0.1578361839056015 0.069158203899860382 0.025809433311223984
0.21287846565246582 0.073190025985240936 0.022960752248764038
0.27941972017288208 0.07764192670583725 0.021570751443505287
0.35276696085929871 0.081355482339859009 0.018731255084276199
0.42560350894927979 0.081188783049583435 0.014362843707203865
0.49086639285087585 0.074850581586360931 0.0099263209849596024
0.54583585262298584 0.064696304500102997 0.0056024440564215183
0.59057128429412842 0.055205117911100388 0.0025533789303153753
0.6288331151008606 0.047668952494859695 0.0013406192883849144
0.66774445772171021 0.042582195252180099 0.0011229122756049037
0.018822239711880684 0.1026705875992775 0.08249606192111969
0.038271345198154449 0.1005040630698204 0.067938096821308136
0.073208466172218323 0.10070184618234634 0.051871161907911301
0.11786838620901108 0.10349880903959274 0.038554441183805466
0.17369852960109711 0.10790913552045822 0.031886156648397446
0.2406684011220932 0.1143452376127243 0.027610853314399719
0.31739115715026855 0.11984484642744064 0.022051658481359482
0.39665642380714417 0.1207609623670578 0.015960574150085449
0.46843495965003967 0.11612783372402191 0.011113155633211136
0.52873152494430542 0.10719529539346695 0.0071342019364237785
0.57840621471405029 0.099298633635044098 0.0044204560108482838
0.62170302867889404 0.09298599511384964 0.0035932802129536867
0.66448986530303955 0.088703781366348267 0.0038923823740333319
0.012709569185972214 0.13993522524833679 0.096620179712772369
0.021567026153206825 0.14024502038955688 0.086628936231136322
0.04588337242603302 0.14257529377937317 0.070936210453510284
0.08508860319852829 0.14616125822067261 0.057068634778261185
0.13865505158901215 0.15095092356204987 0.047162462025880814
0.20553193986415863 0.15762509405612946 0.038440853357315063
0.28527927398681641 0.16303907334804535 0.029183780774474144
0.37027493119239807 0.16436302661895752 0.020725354552268982
0.44806972146034241 0.16152811050415039 0.014006087556481361
0.51333022117614746 0.15641745924949646 0.0090654706582427025
0.56866955757141113 0.1510632336139679 0.0058184005320072174
0.61881309747695923 0.1463136225938797 0.005000005941838026
0.66724252700805664 0.14237701892852783 0.0049579995684325695
0.011766142211854458 0.18184114992618561 0.11183972656726837
0.015525070019066334 0.18378421664237976 0.099910542368888855
0.030213240534067154 0.18822333216667175 0.085341207683086395
0.059260215610265732 0.1936342716217041 0.070984572172164917
0.10621150583028793 0.19998177886009216 0.059107087552547455
0.17070646584033966 0.20736673474311829 0.048795782029628754
0.25152623653411865 0.21227583289146423 0.037623729556798935
0.34245395660400391 0.21310769021511078 0.026737228035926819
0.42836287617683411 0.21093471348285675 0.017396021634340286
0.49849334359169006 0.20858077704906464 0.010667494498193264
0.55908089876174927 0.20607703924179077 0.0066707986406981945
0.61584234237670898 0.20319479703903198 0.004433860071003437
0.67040187120437622 0.19989684224128723 0.0037600647192448378
0.011764706112444401 0.22937242686748505 0.1286986768245697
0.013569416478276253 0.23193806409835815 0.11499430239200592
0.02220122329890728 0.23673607409000397 0.099359579384326935
0.043584320694208145 0.24246679246425629 0.082212485373020172
0.083418466150760651 0.24988937377929688 0.066222935914993286
