assets/lut/inavision brown mobster.cube
# Created by: G'MIC (https://gmic.eu)
TITLE "brown_mobster"
# LUT size
LUT_3D_SIZE 7
# Data domain
DOMAIN_MIN 0.0 0.0 0.0
DOMAIN_MAX 1.0 1.0 1.0
# LUT data points
0.001219521276652813 0.0010627746814861894 0.0019431619439274073
0.18690897524356842 0.0032806096132844687 0.011285041458904743
0.46611747145652771 0.0067245783284306526 0.02057514525949955
0.62253057956695557 0.011127128265798092 0.018779844045639038
0.69001978635787964 0.0061430986970663071 0.0091240974143147469
0.69957458972930908 0.023441972211003304 0.014626013115048409
0.68861711025238037 0.01184559240937233 0.0094667617231607437
0.0061113694682717323 0.14428366720676422 0.014977024868130684
0.20584733784198761 0.16247105598449707 0.01477336511015892
0.48699495196342468 0.15979085862636566 0.024572573602199554
0.64202064275741577 0.12802764773368835 0.032034315168857574
0.71273994445800781 0.093409746885299683 0.033989999443292618
0.74157047271728516 0.066935203969478607 0.03656330332159996
0.73987293243408203 0.056542042642831802 0.035870272666215897
0.075995728373527527 0.36346679925918579 0.021575270220637321
0.21851916611194611 0.38522666692733765 0.02070402167737484
0.51139968633651733 0.40650388598442078 0.024931695312261581
0.66657251119613647 0.36756452918052673 0.030195035040378571
0.72908270359039307 0.30529192090034485 0.034572869539260864
0.75111252069473267 0.24554169178009033 0.036434412002563477
0.7528805136680603 0.20821937918663025 0.039249002933502197
0.10622615367174149 0.45935621857643127 0.025485813617706299
0.21782869100570679 0.48434898257255554 0.02741597406566143
0.46846383810043335 0.51243692636489868 0.02742219902575016
0.68124550580978394 0.5236365795135498 0.031414017081260681
0.75302070379257202 0.46507126092910767 0.032412584871053696
0.76730042695999146 0.39100196957588196 0.031853079795837402
0.76400351524353027 0.3484988808631897 0.035280115902423859
0.10424402356147766 0.4970666766166687 0.023529412224888802
0.19499972462654114 0.52188503742218018 0.028021181002259254
0.39009955525398254 0.54795980453491211 0.027518657967448235
0.59614843130111694 0.56654161214828491 0.031670186668634415
0.76116687059402466 0.5740208625793457 0.035294119268655777
0.78641676902770996 0.51133489608764648 0.032627720385789871
0.78018414974212646 0.47416254878044128 0.03162853792309761
0.10802226513624191 0.50999027490615845 0.023529412224888802
0.16762737929821014 0.5297359824180603 0.027450980618596077
0.32250198721885681 0.5542188286781311 0.027450980618596077
0.50569236278533936 0.57319444417953491 0.031358156353235245
0.66170179843902588 0.58733928203582764 0.032904800027608871
0.78779464960098267 0.59013628959655762 0.035294119268655777
0.79402291774749756 0.56102150678634644 0.035492677241563797
0.10554590821266174 0.54061782360076904 0.020439222455024719
0.14463485777378082 0.56549537181854248 0.027328431606292725
0.22691333293914795 0.59026044607162476 0.031289972364902496
0.39991611242294312 0.60478657484054565 0.030734192579984665
0.58669811487197876 0.62318944931030273 0.032740350812673569
0.73855900764465332 0.63357776403427124 0.035233441740274429
0.81980645656585693 0.64143991470336914 0.038480393588542938
0.00090726965572685003 0.002537895692512393 0.063729181885719299
0.17460350692272186 0.00081463984679430723 0.076859444379806519
0.46530267596244812 0.0022587645798921585 0.082084968686103821
0.61460286378860474 0.00028572831070050597 0.069936729967594147
0.68542575836181641 0.00018944834300782531 0.056755214929580688
0.69781202077865601 0.0028207218274474144 0.044691123068332672
0.69180649518966675 0.0036751991137862206 0.037947487086057663
0.007613492663949728 0.14036305248737335 0.078845560550689697
0.2229938805103302 0.17250652611255646 0.080494672060012817
0.50400930643081665 0.16530025005340576 0.083154790103435516
0.66187363862991333 0.1622326523065567 0.0829201340675354
0.73712277412414551 0.15986520051956177 0.084170699119567871
0.76206833124160767 0.153375044465065 0.081192240118980408
0.76127618551254272 0.15616254508495331 0.078972280025482178
0.036742653697729111 0.36344468593597412 0.078345388174057007
0.23412123322486877 0.39572978019714355 0.057417463511228561
0.52497559785842896 0.41104000806808472 0.057038042694330215
0.68387472629547119 0.38633084297180176 0.063670262694358826
0.75355130434036255 0.34775009751319885 0.083962894976139069
0.77480167150497437 0.30906921625137329 0.089999012649059296
0.77334779500961304 0.28966718912124634 0.092934504151344299
0.063477732241153717 0.46266165375709534 0.051432784646749496
0.24976643919944763 0.49835199117660522 0.053786903619766235
0.49903643131256104 0.52082818746566772 0.057029470801353455
0.7015501856803894 0.53241276741027832 0.059082269668579102
0.77251839637756348 0.4797530472278595 0.061389759182929993
0.78913694620132446 0.42395350337028503 0.071068018674850464
0.78550034761428833 0.39472201466560364 0.073649421334266663
0.059569563716650009 0.49977496266365051 0.037665095180273056
0.25494149327278137 0.54004466533660889 0.050638474524021149
0.45380163192749023 0.56003284454345703 0.059251569211483002
0.62843954563140869 0.57321226596832275 0.065904103219509125
0.77547639608383179 0.57894045114517212 0.062108881771564484
0.80280834436416626 0.52491205930709839 0.062942668795585632
0.80027902126312256 0.4947655200958252 0.068731091916561127
0.080324925482273102 0.51378268003463745 0.029500879347324371
0.25455173850059509 0.55303019285202026 0.048258133232593536
0.42070630192756653 0.57269692420959473 0.06107291579246521
0.55219906568527222 0.58395087718963623 0.06320248544216156
0.6870119571685791 0.59416371583938599 0.059913530945777893
0.80217307806015015 0.59723919630050659 0.055893033742904663
0.80924373865127563 0.57349997758865356 0.059592526406049728
0.10369466245174408 0.55123817920684814 0.0063652936369180679
0.26012584567070007 0.59350138902664185 0.030129570513963699
0.37368679046630859 0.60944849252700806 0.046714350581169128
0.49048814177513123 0.62099653482437134 0.052325215190649033
0.63339424133300781 0.63329392671585083 0.054464630782604218
0.76868695020675659 0.64308178424835205 0.057420544326305389
0.82850480079650879 0.63902932405471802 0.065909996628761292
0.0043356353417038918 3.6621095205191523e-05 0.2236800342798233
0.15540103614330292 0.0013097127666696906 0.24785251915454865
0.44816523790359497 0.0007825514767318964 0.2555936872959137
0.61038148403167725 0.00019531250291038305 0.20444369316101074
0.68224143981933594 4.308364077587612e-05 0.13977731764316559
0.69634783267974854 0.0016248516039922833 0.082286208868026733
0.6902233362197876 0.00011201746383449063 0.057406093925237656
0.017616810277104378 0.11726567894220352 0.24309830367565155
0.23350043594837189 0.17292241752147675 0.27465224266052246
0.51453477144241333 0.16660009324550629 0.28549551963806152
0.67726653814315796 0.1580163836479187 0.24752341210842133
0.75360202789306641 0.14385873079299927 0.19428975880146027
0.77495986223220825 0.14779190719127655 0.15662597119808197
0.77528733015060425 0.15641380846500397 0.14160105586051941
0.05653013288974762 0.36070770025253296 0.25771790742874146
0.24010108411312103 0.39913442730903625 0.27711522579193115
0.54755556583404541 0.4164879322052002 0.28049156069755554
0.70891767740249634 0.4151286780834198 0.28321331739425659
0.78436458110809326 0.4109722375869751 0.28111627697944641
0.80843156576156616 0.40623989701271057 0.27523612976074219
0.80870938301086426 0.40367835760116577 0.27580925822257996
0.044185981154441833 0.46388387680053711 0.20883673429489136
0.23895981907844543 0.50733590126037598 0.22455234825611115
0.55549567937850952 0.52944934368133545 0.25420442223548889
0.72107493877410889 0.53085875511169434 0.26950335502624512
0.8013189435005188 0.50149834156036377 0.2707676887512207
0.81674081087112427 0.47843089699745178 0.29098588228225708
0.81787675619125366 0.47009393572807312 0.28956931829452515
0.039461683481931686 0.50436222553253174 0.14172267913818359
0.24199220538139343 0.54875391721725464 0.15879850089550018
0.55487805604934692 0.57627004384994507 0.23919142782688141
0.68745678663253784 0.57879316806793213 0.26696106791496277
0.80351549386978149 0.57764315605163574 0.26168110966682434
0.82920116186141968 0.54093486070632935 0.27024573087692261
0.830619215965271 0.52588993310928345 0.26265162229537964
0.024674344807863235 0.517497718334198 0.087970301508903503
0.25206053256988525 0.56183689832687378 0.11469412595033646
0.55131393671035767 0.59088248014450073 0.2279810905456543
0.65050846338272095 0.5934683084487915 0.25655961036682129
0.74596220254898071 0.59607362747192383 0.2579193115234375
0.82965630292892456 0.59019768238067627 0.25178661942481995
0.838226318359375 0.58015424013137817 0.25446060299873352
0.053564559668302536 0.55425679683685303 0.015740936622023582
0.27131474018096924 0.60245174169540405 0.032931983470916748
0.55819529294967651 0.63507884740829468 0.19166651368141174
0.63758152723312378 0.63513290882110596 0.24083051085472107
0.7273942232131958 0.63691681623458862 0.2585608959197998
0.82587987184524536 0.63942247629165649 0.2601923942565918
0.86196380853652954 0.64322245121002197 0.26296284794807434
0.067415662109851837 0 0.38836356997489929
0.14514614641666412 0.0010149488225579262 0.42442247271537781
0.37864753603935242 0.00081188726471737027 0.44656503200531006
0.61196327209472656 0.00010627297888277099 0.44192343950271606
0.68449097871780396 0.0043143327347934246 0.29319825768470764
0.69567573070526123 0.0020100611727684736 0.14173403382301331
0.69111388921737671 0.00045399385271593928 0.082907013595104218
0.045791313052177429 0.061181504279375076 0.41488516330718994
0.25190827250480652 0.14853429794311523 0.46074885129928589
0.48747065663337708 0.160638228058815 0.47687321901321411
0.68588471412658691 0.14369262754917145 0.48596587777137756
0.76067167520523071 0.15370488166809082 0.3831336498260498
0.78257375955581665 0.14005094766616821 0.28379422426223755
0.78085470199584961 0.15010708570480347 0.24436403810977936
0.07889162003993988 0.30264180898666382 0.43236148357391357
0.26520800590515137 0.36242708563804626 0.4756653904914856
0.5516541600227356 0.41150620579719543 0.49648702144622803
0.70897561311721802 0.41615176200866699 0.4966789186000824
0.79057884216308594 0.41780334711074829 0.44370704889297485
0.81262904405593872 0.41838163137435913 0.39492249488830566
0.81276243925094604 0.41689038276672363 0.38088768720626831
0.09331965446472168 0.45639389753341675 0.43904677033424377
0.26316121220588684 0.5028194785118103 0.48031467199325562
0.56670606136322021 0.52349275350570679 0.50256931781768799
0.72685420513153076 0.53077548742294312 0.50964927673339844
0.80211520195007324 0.53207284212112427 0.50862175226211548
0.82673972845077515 0.52996492385864258 0.50476628541946411
0.82726716995239258 0.53160637617111206 0.50695121288299561
0.075623065233230591 0.5047878623008728 0.31858161091804504
0.25511625409126282 0.54948776960372925 0.3683411180973053
0.56789755821228027 0.57480031251907349 0.44255739450454712
0.73050498962402344 0.58069998025894165 0.50902444124221802
0.80371236801147461 0.57762563228607178 0.51245594024658203
0.8296058177947998 0.56299644708633423 0.51336467266082764
0.83036124706268311 0.56285899877548218 0.51177984476089478
0.057244859635829926 0.51830297708511353 0.22317421436309814
0.2451331615447998 0.5643996000289917 0.2690434455871582
0.56638133525848389 0.59231376647949219 0.37844106554985046
0.73149794340133667 0.59663623571395874 0.50722676515579224
0.78231716156005859 0.59569108486175537 0.51281446218490601
0.82713371515274048 0.59068799018859863 0.51324832439422607
0.83467912673950195 0.58978891372680664 0.5119016170501709
0.056146014481782913 0.55548441410064697 0.045473404228687286
0.24898822605609894 0.60577523708343506 0.10615653544664383
0.58946317434310913 0.63748759031295776 0.32142803072929382
0.75132697820663452 0.64172607660293579 0.5048026442527771
0.79967933893203735 0.64169371128082275 0.52873039245605469
0.84174644947052002 0.6321340799331665 0.53665310144424438
0.85625910758972168 0.641124427318573 0.54549950361251831
0.095905542373657227 0.0020861157681792974 0.47380149364471436
0.12649126350879669 0.00030414355569519103 0.51159894466400146
0.26648280024528503 0.00044809977407567203 0.52983748912811279
0.49277177453041077 0.0016846450744196773 0.53446036577224731
0.67884337902069092 0.0027469410561025143 0.52613788843154907
0.70564144849777222 0.010407391935586929 0.36462125182151794
0.70067769289016724 0.0058926749043166637 0.25304961204528809
0.096804633736610413 0.021600954234600067 0.50641292333602905
0.2658848762512207 0.13808231055736542 0.56226009130477905
0.44850853085517883 0.15649957954883575 0.57387268543243408
0.61273163557052612 0.15119399130344391 0.5848240852355957
0.76113831996917725 0.14668263494968414 0.57864165306091309
0.79212993383407593 0.15191419422626495 0.46716228127479553
0.78950470685958862 0.14794544875621796 0.40507581830024719
0.096567057073116302 0.22051820158958435 0.5309404730796814
0.28140616416931152 0.30926886200904846 0.57556605339050293
0.5584070086479187 0.40665397047996521 0.60042518377304077
0.67918264865875244 0.41480591893196106 0.60367280244827271
0.7877659797668457 0.41255882382392883 0.59769248962402344
0.81983596086502075 0.41683775186538696 0.52285575866699219
0.81817686557769775 0.41724878549575806 0.48690912127494812
0.11074472963809967 0.3862747848033905 0.54049789905548096
0.27622684836387634 0.44225403666496277 0.58092015981674194
0.56850028038024902 0.4898720383644104 0.60527610778808594
0.73247939348220825 0.52725327014923096 0.61218857765197754
0.8056948184967041 0.52930307388305664 0.61057603359222412
0.82946419715881348 0.53273242712020874 0.58022969961166382
0.83196353912353516 0.53025394678115845 0.57801532745361328
0.10938562452793121 0.48918020725250244 0.53143769502639771
0.27238243818283081 0.5409163236618042 0.5759015679359436
0.5714525580406189 0.56050628423690796 0.59631389379501343
0.73450613021850586 0.57201063632965088 0.61236280202865601
0.81149411201477051 0.57659679651260376 0.61680459976196289
0.8339417576789856 0.57402819395065308 0.61168938875198364
0.83794742822647095 0.57553070783615112 0.61539989709854126
0.080970779061317444 0.5165107250213623 0.39409294724464417
0.26785105466842651 0.56303352117538452 0.44987785816192627
0.57127857208251953 0.58679521083831787 0.52193266153335571
0.7354578971862793 0.59081584215164185 0.58221417665481567
0.80997079610824585 0.59121036529541016 0.61706745624542236
0.83359986543655396 0.59025514125823975 0.6167067289352417
0.83961582183837891 0.59546476602554321 0.61684077978134155
0.070583507418632507 0.5526963472366333 0.2831883430480957
0.26499268412590027 0.60512518882751465 0.3594423234462738
0.60241240262985229 0.63330668210983276 0.48598238825798035
0.76821309328079224 0.63457709550857544 0.58690363168716431
0.83521193265914917 0.63292211294174194 0.62694710493087769
0.85487353801727295 0.62797695398330688 0.63526350259780884
0.85919511318206787 0.63555347919464111 0.64701277017593384
0.096714004874229431 4.4878790504299104e-05 0.48573824763298035
0.080179817974567413 0.0018146589864045382 0.53590351343154907
0.14241047203540802 0.00056448543909937143 0.54242759943008423
0.34408146142959595 0.0025474997237324715 0.55125629901885986
0.55345374345779419 0.0032756731379777193 0.56336343288421631
0.70094114542007446 0.0045202216133475304 0.54613339900970459
0.71544605493545532 0.0061202105134725571 0.46994459629058838
0.11621297150850296 0.004438482690602541 0.53276652097702026
0.26611396670341492 0.12212449312210083 0.59284871816635132
0.40668264031410217 0.1532135009765625 0.60369467735290527
0.54326456785202026 0.14738555252552032 0.61413770914077759
0.682655930519104 0.14509794116020203 0.62147253751754761
0.78958559036254883 0.14516273140907288 0.6102936863899231
0.80056095123291016 0.14660908281803131 0.55791723728179932
0.096480473875999451 0.13859465718269348 0.5588565468788147
0.28537982702255249 0.27285972237586975 0.60454577207565308
0.55959486961364746 0.40502384305000305 0.63127762079238892
0.64632058143615723 0.41265270113945007 0.63527786731719971
0.73691117763519287 0.41283330321311951 0.63898032903671265
0.81964629888534546 0.41234365105628967 0.63184386491775513
0.82524651288986206 0.41296806931495667 0.6048240065574646
0.10405952483415604 0.30657497048377991 0.56861650943756104
0.27873435616493225 0.38455218076705933 0.60975778102874756
0.56920671463012695 0.46780762076377869 0.63475006818771362
0.73359668254852295 0.52635818719863892 0.6450156569480896
0.78575408458709717 0.52901506423950195 0.64684092998504639
0.8293914794921875 0.53018969297409058 0.63822227716445923
0.83697783946990967 0.52910500764846802 0.64321815967559814
0.11618981510400772 0.42707476019859314 0.57738792896270752
0.29543003439903259 0.48527827858924866 0.61732065677642822
0.57158344984054565 0.52475559711456299 0.63842570781707764
0.73612731695175171 0.55675840377807617 0.64634519815444946
0.81150352954864502 0.57546877861022949 0.64806091785430908
0.83841842412948608 0.57593387365341187 0.64529597759246826
0.84108811616897583 0.5759202241897583 0.65017843246459961
0.1178860068321228 0.50259387493133545 0.56099802255630493
0.28228336572647095 0.55307650566101074 0.60479354858398438
0.57464355230331421 0.57621961832046509 0.63040560483932495
0.73610442876815796 0.58345991373062134 0.63666766881942749
0.81147009134292603 0.58939641714096069 0.64410173892974854
0.83932960033416748 0.59100466966629028 0.65006482601165771
0.84313726425170898 0.59205126762390137 0.65263193845748901
0.10483530163764954 0.54766863584518433 0.49257954955101013
0.28877875208854675 0.6022946834564209 0.5567702054977417
0.60571455955505371 0.62232100963592529 0.61886823177337646
0.77649116516113281 0.62956100702285767 0.65362036228179932
0.85075587034225464 0.63310396671295166 0.66592907905578613
0.86197054386138916 0.63081127405166626 0.66395610570907593
0.85983604192733765 0.6317371129989624 0.66549772024154663
0.091524668037891388 0.00014235552225727588 0.4734380841255188
0.080701939761638641 0.0017304214416071773 0.51958638429641724
0.1272088885307312 4.5955883251735941e-05 0.53297412395477295
0.24499017000198364 0.0010469474364072084 0.54525649547576904
0.4828391969203949 0.00074248970486223698 0.55891460180282593
0.64496350288391113 0.0033784753177314997 0.57205110788345337
0.72196453809738159 0.012960725463926792 0.57170265913009644
0.12132672965526581 0.006543267983943224 0.52761101722717285
0.26353198289871216 0.11922242492437363 0.59671401977539062
0.38506120443344116 0.15172286331653595 0.60493946075439453
0.50392371416091919 0.15536735951900482 0.61281633377075195
0.63142663240432739 0.15132181346416473 0.62009459733963013
0.75402671098709106 0.14167693257331848 0.62947952747344971
0.80694848299026489 0.14245761930942535 0.63107860088348389
0.095179721713066101 0.095053717494010925 0.56058084964752197
0.27888554334640503 0.24590842425823212 0.60693877935409546
0.55874979496002197 0.4039103090763092 0.63458240032196045
0.63589590787887573 0.41211500763893127 0.63833856582641602
0.71604365110397339 0.41095277667045593 0.64143675565719604
0.79990100860595703 0.41237649321556091 0.64663302898406982
0.82940518856048584 0.41149201989173889 0.6466098427772522
0.099692627787590027 0.26549825072288513 0.57128196954727173
0.27824690937995911 0.35309457778930664 0.61137527227401733
0.56646031141281128 0.4581916332244873 0.63712036609649658
0.73280507326126099 0.52673864364624023 0.64803922176361084
0.78151339292526245 0.52686679363250732 0.64823406934738159
0.82539480924606323 0.52751845121383667 0.65098041296005249
0.83790212869644165 0.52960509061813354 0.65098041296005249
0.1083553358912468 0.38844987750053406 0.57714521884918213
0.27321237325668335 0.45259967446327209 0.61823803186416626
0.57029634714126587 0.51217830181121826 0.64016693830490112
0.73577189445495605 0.55465215444564819 0.64901959896087646
0.81287878751754761 0.57449686527252197 0.65222024917602539
0.83965778350830078 0.5729600191116333 0.65233981609344482
0.84313726425170898 0.57574462890625 0.65490198135375977
0.12029984593391418 0.47380036115646362 0.57848477363586426
0.28621083498001099 0.52947771549224854 0.62076562643051147
0.5748521089553833 0.5629616379737854 0.64255040884017944
0.73736178874969482 0.58302086591720581 0.6507529616355896
0.81604093313217163 0.59113341569900513 0.65483158826828003
0.84387814998626709 0.59379804134368896 0.65490198135375977
0.84313726425170898 0.59418368339538574 0.65490198135375977
0.12805609405040741 0.52550560235977173 0.58764952421188354
0.29729530215263367 0.57033008337020874 0.62699043750762939
0.58268660306930542 0.58993136882781982 0.64661657810211182
0.7476046085357666 0.5971793532371521 0.65362834930419922
0.82867634296417236 0.60455065965652466 0.6585041880607605
0.84880262613296509 0.60387378931045532 0.65828931331634521
0.84644430875778198 0.60026389360427856 0.65686726570129395
