assets/lut/inavision fogstrated.cube
LUT_3D_SIZE 16
0.000000 0.000000 0.000000
0.037398 0.000000 0.000000
0.096298 0.000000 0.000000
0.161877 0.000000 0.000000
0.226153 0.000000 0.000000
0.289529 0.000000 0.000000
0.352218 0.000000 0.000000
0.414313 0.000000 0.000000
0.476009 0.000000 0.000000
0.537358 0.000000 0.000000
0.598249 0.000000 0.000000
0.658892 0.000000 0.000000
0.719224 0.000000 0.000000
0.779440 0.000000 0.000000
0.839188 0.000000 0.000000
0.898245 0.000000 0.000000
0.000000 0.052529 0.000000
0.037398 0.052529 0.000000
0.096298 0.052529 0.000000
0.161877 0.052529 0.000000
0.226153 0.052529 0.000000
0.289529 0.052529 0.000000
0.352218 0.052529 0.000000
0.414313 0.052529 0.000000
0.476009 0.052529 0.000000
0.537358 0.052529 0.000000
0.598249 0.052529 0.000000
0.658892 0.052529 0.000000
0.719224 0.052529 0.000000
0.779440 0.052529 0.000000
0.839188 0.052529 0.000000
0.898245 0.052529 0.000000
0.000000 0.123555 0.000000
0.037398 0.123555 0.000000
0.096298 0.123555 0.000000
0.161877 0.123555 0.000000
0.226153 0.123555 0.000000
0.289529 0.123555 0.000000
0.352218 0.123555 0.000000
0.414313 0.123555 0.000000
0.476009 0.123555 0.000000
0.537358 0.123555 0.000000
0.598249 0.123555 0.000000
0.658892 0.123555 0.000000
0.719224 0.123555 0.000000
0.779440 0.123555 0.000000
0.839188 0.123555 0.000000
0.898245 0.123555 0.000000
0.000000 0.197450 0.000000
0.037398 0.197450 0.000000
0.096298 0.197450 0.000000
0.161877 0.197450 0.000000
0.226153 0.197450 0.000000
0.289529 0.197450 0.000000
0.352218 0.197450 0.000000
0.414313 0.197450 0.000000
0.476009 0.197450 0.000000
0.537358 0.197450 0.000000
0.598249 0.197450 0.000000
0.658892 0.197450 0.000000
0.719224 0.197450 0.000000
0.779440 0.197450 0.000000
0.839188 0.197450 0.000000
0.898245 0.197450 0.000000
0.000000 0.268099 0.000000
0.037398 0.268099 0.000000
0.096298 0.268099 0.000000
0.161877 0.268099 0.000000
0.226153 0.268099 0.000000
0.289529 0.268099 0.000000
0.352218 0.268099 0.000000
0.414313 0.268099 0.000000
0.476009 0.268099 0.000000
0.537358 0.268099 0.000000
0.598249 0.268099 0.000000
0.658892 0.268099 0.000000
0.719224 0.268099 0.000000
0.779440 0.268099 0.000000
0.839188 0.268099 0.000000
0.898245 0.268099 0.000000
0.000000 0.336509 0.000000
0.037398 0.336509 0.000000
0.096298 0.336509 0.000000
0.161877 0.336509 0.000000
0.226153 0.336509 0.000000
0.289529 0.336509 0.000000
0.352218 0.336509 0.000000
0.414313 0.336509 0.000000
0.476009 0.336509 0.000000
0.537358 0.336509 0.000000
0.598249 0.336509 0.000000
0.658892 0.336509 0.000000
0.719224 0.336509 0.000000
0.779440 0.336509 0.000000
0.839188 0.336509 0.000000
0.898245 0.336509 0.000000
0.000000 0.403347 0.000000
0.037398 0.403347 0.000000
0.096298 0.403347 0.000000
0.161877 0.403347 0.000000
0.226153 0.403347 0.000000
0.289529 0.403347 0.000000
0.352218 0.403347 0.000000
0.414313 0.403347 0.000000
0.476009 0.403347 0.000000
0.537358 0.403347 0.000000
0.598249 0.403347 0.000000
0.658892 0.403347 0.000000
0.719224 0.403347 0.000000
0.779440 0.403347 0.000000
0.839188 0.403347 0.000000
0.898245 0.403347 0.000000
0.000000 0.468797 0.000000
0.037398 0.468797 0.000000
0.096298 0.468797 0.000000
0.161877 0.468797 0.000000
0.226153 0.468797 0.000000
0.289529 0.468797 0.000000
0.352218 0.468797 0.000000
0.414313 0.468797 0.000000
0.476009 0.468797 0.000000
0.537358 0.468797 0.000000
0.598249 0.468797 0.000000
0.658892 0.468797 0.000000
0.719224 0.468797 0.000000
0.779440 0.468797 0.000000
0.839188 0.468797 0.000000
0.898245 0.468797 0.000000
0.000000 0.533214 0.000000
0.037398 0.533214 0.000000
0.096298 0.533214 0.000000
0.161877 0.533214 0.000000
0.226153 0.533214 0.000000
0.289529 0.533214 0.000000
0.352218 0.533214 0.000000
0.414313 0.533214 0.000000
0.476009 0.533214 0.000000
0.537358 0.533214 0.000000
0.598249 0.533214 0.000000
0.658892 0.533214 0.000000
0.719224 0.533214 0.000000
0.779440 0.533214 0.000000
0.839188 0.533214 0.000000
0.898245 0.533214 0.000000
0.000000 0.596748 0.000000
0.037398 0.596748 0.000000
0.096298 0.596748 0.000000
0.161877 0.596748 0.000000
0.226153 0.596748 0.000000
0.289529 0.596748 0.000000
0.352218 0.596748 0.000000
0.414313 0.596748 0.000000
0.476009 0.596748 0.000000
0.537358 0.596748 0.000000
0.598249 0.596748 0.000000
0.658892 0.596748 0.000000
0.719224 0.596748 0.000000
0.779440 0.596748 0.000000
0.839188 0.596748 0.000000
0.898245 0.596748 0.000000
0.000000 0.659424 0.000000
0.037398 0.659424 0.000000
0.096298 0.659424 0.000000
0.161877 0.659424 0.000000
0.226153 0.659424 0.000000
0.289529 0.659424 0.000000
0.352218 0.659424 0.000000
0.414313 0.659424 0.000000
0.476009 0.659424 0.000000
0.537358 0.659424 0.000000
0.598249 0.659424 0.000000
0.658892 0.659424 0.000000
0.719224 0.659424 0.000000
0.779440 0.659424 0.000000
0.839188 0.659424 0.000000
0.898245 0.659424 0.000000
0.000000 0.721435 0.000000
0.037398 0.721435 0.000000
0.096298 0.721435 0.000000
0.161877 0.721435 0.000000
0.226153 0.721435 0.000000
0.289529 0.721435 0.000000
0.352218 0.721435 0.000000
0.414313 0.721435 0.000000
0.476009 0.721435 0.000000
0.537358 0.721435 0.000000
0.598249 0.721435 0.000000
0.658892 0.721435 0.000000
0.719224 0.721435 0.000000
0.779440 0.721435 0.000000
0.839188 0.721435 0.000000
0.898245 0.721435 0.000000
0.000000 0.782713 0.000000
0.037398 0.782713 0.000000
0.096298 0.782713 0.000000
0.161877 0.782713 0.000000
0.226153 0.782713 0.000000
0.289529 0.782713 0.000000
0.352218 0.782713 0.000000
0.414313 0.782713 0.000000
0.476009 0.782713 0.000000
0.537358 0.782713 0.000000
0.598249 0.782713 0.000000
0.658892 0.782713 0.000000
0.719224 0.782713 0.000000
0.779440 0.782713 0.000000
0.839188 0.782713 0.000000
0.898245 0.782713 0.000000
0.000000 0.843624 0.000000
0.037398 0.843624 0.000000
0.096298 0.843624 0.000000
0.161877 0.843624 0.000000
0.226153 0.843624 0.000000
0.289529 0.843624 0.000000
0.352218 0.843624 0.000000
0.414313 0.843624 0.000000
0.476009 0.843624 0.000000
0.537358 0.843624 0.000000
0.598249 0.843624 0.000000
0.658892 0.843624 0.000000
0.719224 0.843624 0.000000
0.779440 0.843624 0.000000
0.839188 0.843624 0.000000
0.898245 0.843624 0.000000
0.000000 0.903672 0.000000
0.037398 0.903672 0.000000
0.096298 0.903672 0.000000
0.161877 0.903672 0.000000
0.226153 0.903672 0.000000
0.289529 0.903672 0.000000
0.352218 0.903672 0.000000
0.414313 0.903672 0.000000
0.476009 0.903672 0.000000
0.537358 0.903672 0.000000
0.598249 0.903672 0.000000
0.658892 0.903672 0.000000
0.719224 0.903672 0.000000
0.779440 0.903672 0.000000
0.839188 0.903672 0.000000
0.898245 0.903672 0.000000
0.000000 0.962829 0.000000
0.037398 0.962829 0.000000
0.096298 0.962829 0.000000
0.161877 0.962829 0.000000
0.226153 0.962829 0.000000
0.289529 0.962829 0.000000
0.352218 0.962829 0.000000
0.414313 0.962829 0.000000
0.476009 0.962829 0.000000
0.537358 0.962829 0.000000
0.598249 0.962829 0.000000
0.658892 0.962829 0.000000
0.719224 0.962829 0.000000
0.779440 0.962829 0.000000
0.839188 0.962829 0.000000
0.898245 0.962829 0.000000
0.000000 0.000000 0.034658
0.037398 0.000000 0.034658
0.096298 0.000000 0.034658
0.161877 0.000000 0.034658
0.226153 0.000000 0.034658
0.289529 0.000000 0.034658
0.352218 0.000000 0.034658
0.414313 0.000000 0.034658
0.476009 0.000000 0.034658
0.537358 0.000000 0.034658
0.598249 0.000000 0.034658
0.658892 0.000000 0.034658
0.719224 0.000000 0.034658
0.779440 0.000000 0.034658
0.839188 0.000000 0.034658
0.898245 0.000000 0.034658
0.000000 0.052529 0.034658
0.037398 0.052529 0.034658
0.096298 0.052529 0.034658
0.161877 0.052529 0.034658
0.226153 0.052529 0.034658
0.289529 0.052529 0.034658
0.352218 0.052529 0.034658
0.414313 0.052529 0.034658
0.476009 0.052529 0.034658
0.537358 0.052529 0.034658
0.598249 0.052529 0.034658
0.658892 0.052529 0.034658
0.719224 0.052529 0.034658
0.779440 0.052529 0.034658
0.839188 0.052529 0.034658
0.898245 0.052529 0.034658
0.000000 0.123555 0.034658
0.037398 0.123555 0.034658
0.096298 0.123555 0.034658
0.161877 0.123555 0.034658
0.226153 0.123555 0.034658
0.289529 0.123555 0.034658
0.352218 0.123555 0.034658
0.414313 0.123555 0.034658
0.476009 0.123555 0.034658
0.537358 0.123555 0.034658
0.598249 0.123555 0.034658
0.658892 0.123555 0.034658
0.719224 0.123555 0.034658
0.779440 0.123555 0.034658
0.839188 0.123555 0.034658
0.898245 0.123555 0.034658
0.000000 0.197450 0.034658
0.037398 0.197450 0.034658
0.096298 0.197450 0.034658
0.161877 0.197450 0.034658
0.226153 0.197450 0.034658
0.289529 0.197450 0.034658
0.352218 0.197450 0.034658
0.414313 0.197450 0.034658
0.476009 0.197450 0.034658
0.537358 0.197450 0.034658
0.598249 0.197450 0.034658
0.658892 0.197450 0.034658
0.719224 0.197450 0.034658
0.779440 0.197450 0.034658
0.839188 0.197450 0.034658
0.898245 0.197450 0.034658
0.000000 0.268099 0.034658
0.037398 0.268099 0.034658
0.096298 0.268099 0.034658
0.161877 0.268099 0.034658
0.226153 0.268099 0.034658
0.289529 0.268099 0.034658
0.352218 0.268099 0.034658
0.414313 0.268099 0.034658
0.476009 0.268099 0.034658
0.537358 0.268099 0.034658
0.598249 0.268099 0.034658
0.658892 0.268099 0.034658
0.719224 0.268099 0.034658
0.779440 0.268099 0.034658
0.839188 0.268099 0.034658
0.898245 0.268099 0.034658
0.000000 0.336509 0.034658
0.037398 0.336509 0.034658
0.096298 0.336509 0.034658
0.161877 0.336509 0.034658
0.226153 0.336509 0.034658
0.289529 0.336509 0.034658
0.352218 0.336509 0.034658
0.414313 0.336509 0.034658
0.476009 0.336509 0.034658
0.537358 0.336509 0.034658
0.598249 0.336509 0.034658
0.658892 0.336509 0.034658
0.719224 0.336509 0.034658
0.779440 0.336509 0.034658
0.839188 0.336509 0.034658
0.898245 0.336509 0.034658
0.000000 0.403347 0.034658
0.037398 0.403347 0.034658
0.096298 0.403347 0.034658
0.161877 0.403347 0.034658
0.226153 0.403347 0.034658
0.289529 0.403347 0.034658
0.352218 0.403347 0.034658
0.414313 0.403347 0.034658
0.476009 0.403347 0.034658
0.537358 0.403347 0.034658
0.598249 0.403347 0.034658
0.658892 0.403347 0.034658
0.719224 0.403347 0.034658
0.779440 0.403347 0.034658
0.839188 0.403347 0.034658
0.898245 0.403347 0.034658
0.000000 0.468797 0.034658
0.037398 0.468797 0.034658
0.096298 0.468797 0.034658
0.161877 0.468797 0.034658
0.226153 0.468797 0.034658
0.289529 0.468797 0.034658
0.352218 0.468797 0.034658
0.414313 0.468797 0.034658
0.476009 0.468797 0.034658
0.537358 0.468797 0.034658
0.598249 0.468797 0.034658
0.658892 0.468797 0.034658
0.719224 0.468797 0.034658
0.779440 0.468797 0.034658
0.839188 0.468797 0.034658
0.898245 0.468797 0.034658
0.000000 0.533214 0.034658
0.037398 0.533214 0.034658
0.096298 0.533214 0.034658
0.161877 0.533214 0.034658
0.226153 0.533214 0.034658
0.289529 0.533214 0.034658
0.352218 0.533214 0.034658
0.414313 0.533214 0.034658
0.476009 0.533214 0.034658
0.537358 0.533214 0.034658
0.598249 0.533214 0.034658
0.658892 0.533214 0.034658
0.719224 0.533214 0.034658
0.779440 0.533214 0.034658
0.839188 0.533214 0.034658
0.898245 0.533214 0.034658
0.000000 0.596748 0.034658
0.037398 0.596748 0.034658
0.096298 0.596748 0.034658
0.161877 0.596748 0.034658
0.226153 0.596748 0.034658
0.289529 0.596748 0.034658
0.352218 0.596748 0.034658
0.414313 0.596748 0.034658
0.476009 0.596748 0.034658
0.537358 0.596748 0.034658
0.598249 0.596748 0.034658
0.658892 0.596748 0.034658
0.719224 0.596748 0.034658
0.779440 0.596748 0.034658
0.839188 0.596748 0.034658
0.898245 0.596748 0.034658
0.000000 0.659424 0.034658
0.037398 0.659424 0.034658
0.096298 0.659424 0.034658
0.161877 0.659424 0.034658
0.226153 0.659424 0.034658
0.289529 0.659424 0.034658
0.352218 0.659424 0.034658
0.414313 0.659424 0.034658
0.476009 0.659424 0.034658
0.537358 0.659424 0.034658
0.598249 0.659424 0.034658
0.658892 0.659424 0.034658
0.719224 0.659424 0.034658
0.779440 0.659424 0.034658
0.839188 0.659424 0.034658
0.898245 0.659424 0.034658
0.000000 0.721435 0.034658
0.037398 0.721435 0.034658
0.096298 0.721435 0.034658
0.161877 0.721435 0.034658
0.226153 0.721435 0.034658
0.289529 0.721435 0.034658
0.352218 0.721435 0.034658
0.414313 0.721435 0.034658
0.476009 0.721435 0.034658
0.537358 0.721435 0.034658
0.598249 0.721435 0.034658
0.658892 0.721435 0.034658
0.719224 0.721435 0.034658
0.779440 0.721435 0.034658
0.839188 0.721435 0.034658
0.898245 0.721435 0.034658
0.000000 0.782713 0.034658
0.037398 0.782713 0.034658
0.096298 0.782713 0.034658
0.161877 0.782713 0.034658
0.226153 0.782713 0.034658
0.289529 0.782713 0.034658
0.352218 0.782713 0.034658
0.414313 0.782713 0.034658
0.476009 0.782713 0.034658
0.537358 0.782713 0.034658
0.598249 0.782713 0.034658
0.658892 0.782713 0.034658
0.719224 0.782713 0.034658
0.779440 0.782713 0.034658
0.839188 0.782713 0.034658
0.898245 0.782713 0.034658
0.000000 0.843624 0.034658
0.037398 0.843624 0.034658
0.096298 0.843624 0.034658
0.161877 0.843624 0.034658
0.226153 0.843624 0.034658
0.289529 0.843624 0.034658
0.352218 0.843624 0.034658
0.414313 0.843624 0.034658
0.476009 0.843624 0.034658
0.537358 0.843624 0.034658
0.598249 0.843624 0.034658
0.658892 0.843624 0.034658
0.719224 0.843624 0.034658
0.779440 0.843624 0.034658
0.839188 0.843624 0.034658
0.898245 0.843624 0.034658
0.000000 0.903672 0.034658
0.037398 0.903672 0.034658
0.096298 0.903672 0.034658
0.161877 0.903672 0.034658
0.226153 0.903672 0.034658
0.289529 0.903672 0.034658
0.352218 0.903672 0.034658
0.414313 0.903672 0.034658
0.476009 0.903672 0.034658
0.537358 0.903672 0.034658
0.598249 0.903672 0.034658
0.658892 0.903672 0.034658
0.719224 0.903672 0.034658
0.779440 0.903672 0.034658
0.839188 0.903672 0.034658
0.898245 0.903672 0.034658
0.000000 0.962829 0.034658
0.037398 0.962829 0.034658
0.096298 0.962829 0.034658
0.161877 0.962829 0.034658
0.226153 0.962829 0.034658
0.289529 0.962829 0.034658
0.352218 0.962829 0.034658
0.414313 0.962829 0.034658
0.476009 0.962829 0.034658
0.537358 0.962829 0.034658
0.598249 0.962829 0.034658
0.658892 0.962829 0.034658
0.719224 0.962829 0.034658
0.779440 0.962829 0.034658
0.839188 0.962829 0.034658
0.898245 0.962829 0.034658
0.000000 0.000000 0.092241
0.037398 0.000000 0.092241
0.096298 0.000000 0.092241
0.161877 0.000000 0.092241
0.226153 0.000000 0.092241
0.289529 0.000000 0.092241
0.352218 0.000000 0.092241
0.414313 0.000000 0.092241
0.476009 0.000000 0.092241
0.537358 0.000000 0.092241
0.598249 0.000000 0.092241
0.658892 0.000000 0.092241
0.719224 0.000000 0.092241
0.779440 0.000000 0.092241
0.839188 0.000000 0.092241
0.898245 0.000000 0.092241
0.000000 0.052529 0.092241
0.037398 0.052529 0.092241
0.096298 0.052529 0.092241
0.161877 0.052529 0.092241
0.226153 0.052529 0.092241
0.289529 0.052529 0.092241
0.352218 0.052529 0.092241
0.414313 0.052529 0.092241
0.476009 0.052529 0.092241
0.537358 0.052529 0.092241
0.598249 0.052529 0.092241
0.658892 0.052529 0.092241
0.719224 0.052529 0.092241
0.779440 0.052529 0.092241
0.839188 0.052529 0.092241
0.898245 0.052529 0.092241
0.000000 0.123555 0.092241
0.037398 0.123555 0.092241
0.096298 0.123555 0.092241
0.161877 0.123555 0.092241
0.226153 0.123555 0.092241
0.289529 0.123555 0.092241
0.352218 0.123555 0.092241
0.414313 0.123555 0.092241
0.476009 0.123555 0.092241
0.537358 0.123555 0.092241
0.598249 0.123555 0.092241
0.658892 0.123555 0.092241
0.719224 0.123555 0.092241
0.779440 0.123555 0.092241
0.839188 0.123555 0.092241
0.898245 0.123555 0.092241
0.000000 0.197450 0.092241
0.037398 0.197450 0.092241
0.096298 0.197450 0.092241
0.161877 0.197450 0.092241
0.226153 0.197450 0.092241
0.289529 0.197450 0.092241
0.352218 0.197450 0.092241
0.414313 0.197450 0.092241
0.476009 0.197450 0.092241
0.537358 0.197450 0.092241
0.598249 0.197450 0.092241
0.658892 0.197450 0.092241
0.719224 0.197450 0.092241
0.779440 0.197450 0.092241
0.839188 0.197450 0.092241
0.898245 0.197450 0.092241
0.000000 0.268099 0.092241
0.037398 0.268099 0.092241
0.096298 0.268099 0.092241
0.161877 0.268099 0.092241
0.226153 0.268099 0.092241
0.289529 0.268099 0.092241
0.352218 0.268099 0.092241
0.414313 0.268099 0.092241
0.476009 0.268099 0.092241
0.537358 0.268099 0.092241
0.598249 0.268099 0.092241
0.658892 0.268099 0.092241
0.719224 0.268099 0.092241
0.779440 0.268099 0.092241
0.839188 0.268099 0.092241
0.898245 0.268099 0.092241
0.000000 0.336509 0.092241
0.037398 0.336509 0.092241
0.096298 0.336509 0.092241
0.161877 0.336509 0.092241
0.226153 0.336509 0.092241
0.289529 0.336509 0.092241
0.352218 0.336509 0.092241
0.414313 0.336509 0.092241
0.476009 0.336509 0.092241
0.537358 0.336509 0.092241
0.598249 0.336509 0.092241
0.658892 0.336509 0.092241
0.719224 0.336509 0.092241
0.779440 0.336509 0.092241
0.839188 0.336509 0.092241
0.898245 0.336509 0.092241
0.000000 0.403347 0.092241
0.037398 0.403347 0.092241
0.096298 0.403347 0.092241
0.161877 0.403347 0.092241
0.226153 0.403347 0.092241
0.289529 0.403347 0.092241
0.352218 0.403347 0.092241
0.414313 0.403347 0.092241
0.476009 0.403347 0.092241
0.537358 0.403347 0.092241
0.598249 0.403347 0.092241
0.658892 0.403347 0.092241
0.719224 0.403347 0.092241
0.779440 0.403347 0.092241
0.839188 0.403347 0.092241
0.898245 0.403347 0.092241
0.000000 0.468797 0.092241
0.037398 0.468797 0.092241
0.096298 0.468797 0.092241
0.161877 0.468797 0.092241
0.226153 0.468797 0.092241
0.289529 0.468797 0.092241
0.352218 0.468797 0.092241
0.414313 0.468797 0.092241
0.476009 0.468797 0.092241
0.537358 0.468797 0.092241
0.598249 0.468797 0.092241
0.658892 0.468797 0.092241
0.719224 0.468797 0.092241
0.779440 0.468797 0.092241
0.839188 0.468797 0.092241
0.898245 0.468797 0.092241
0.000000 0.533214 0.092241
0.037398 0.533214 0.092241
0.096298 0.533214 0.092241
0.161877 0.533214 0.092241
0.226153 0.533214 0.092241
0.289529 0.533214 0.092241
0.352218 0.533214 0.092241
0.414313 0.533214 0.092241
0.476009 0.533214 0.092241
0.537358 0.533214 0.092241
0.598249 0.533214 0.092241
0.658892 0.533214 0.092241
0.719224 0.533214 0.092241
0.779440 0.533214 0.092241
0.839188 0.533214 0.092241
0.898245 0.533214 0.092241
0.000000 0.596748 0.092241
0.037398 0.596748 0.092241
0.096298 0.596748 0.092241
0.161877 0.596748 0.092241
0.226153 0.596748 0.092241
0.289529 0.596748 0.092241
0.352218 0.596748 0.092241
0.414313 0.596748 0.092241
0.476009 0.596748 0.092241
0.537358 0.596748 0.092241
0.598249 0.596748 0.092241
0.658892 0.596748 0.092241
0.719224 0.596748 0.092241
0.779440 0.596748 0.092241
0.839188 0.596748 0.092241
0.898245 0.596748 0.092241
0.000000 0.659424 0.092241
0.037398 0.659424 0.092241
0.096298 0.659424 0.092241
0.161877 0.659424 0.092241
0.226153 0.659424 0.092241
0.289529 0.659424 0.092241
0.352218 0.659424 0.092241
0.414313 0.659424 0.092241
0.476009 0.659424 0.092241
0.537358 0.659424 0.092241
0.598249 0.659424 0.092241
0.658892 0.659424 0.092241
0.719224 0.659424 0.092241
0.779440 0.659424 0.092241
0.839188 0.659424 0.092241
0.898245 0.659424 0.092241
0.000000 0.721435 0.092241
0.037398 0.721435 0.092241
0.096298 0.721435 0.092241
0.161877 0.721435 0.092241
0.226153 0.721435 0.092241
0.289529 0.721435 0.092241
0.352218 0.721435 0.092241
0.414313 0.721435 0.092241
0.476009 0.721435 0.092241
0.537358 0.721435 0.092241
0.598249 0.721435 0.092241
0.658892 0.721435 0.092241
0.719224 0.721435 0.092241
0.779440 0.721435 0.092241
0.839188 0.721435 0.092241
0.898245 0.721435 0.092241
0.000000 0.782713 0.092241
0.037398 0.782713 0.092241
0.096298 0.782713 0.092241
0.161877 0.782713 0.092241
0.226153 0.782713 0.092241
0.289529 0.782713 0.092241
0.352218 0.782713 0.092241
0.414313 0.782713 0.092241
0.476009 0.782713 0.092241
0.537358 0.782713 0.092241
0.598249 0.782713 0.092241
0.658892 0.782713 0.092241
0.719224 0.782713 0.092241
0.779440 0.782713 0.092241
0.839188 0.782713 0.092241
0.898245 0.782713 0.092241
0.000000 0.843624 0.092241
0.037398 0.843624 0.092241
0.096298 0.843624 0.092241
0.161877 0.843624 0.092241
0.226153 0.843624 0.092241
0.289529 0.843624 0.092241
0.352218 0.843624 0.092241
0.414313 0.843624 0.092241
0.476009 0.843624 0.092241
0.537358 0.843624 0.092241
0.598249 0.843624 0.092241
0.658892 0.843624 0.092241
0.719224 0.843624 0.092241
0.779440 0.843624 0.092241
0.839188 0.843624 0.092241
0.898245 0.843624 0.092241
0.000000 0.903672 0.092241
0.037398 0.903672 0.092241
0.096298 0.903672 0.092241
0.161877 0.903672 0.092241
0.226153 0.903672 0.092241
0.289529 0.903672 0.092241
0.352218 0.903672 0.092241
0.414313 0.903672 0.092241
0.476009 0.903672 0.092241
0.537358 0.903672 0.092241
0.598249 0.903672 0.092241
0.658892 0.903672 0.092241
0.719224 0.903672 0.092241
0.779440 0.903672 0.092241
0.839188 0.903672 0.092241
0.898245 0.903672 0.092241
0.000000 0.962829 0.092241
0.037398 0.962829 0.092241
0.096298 0.962829 0.092241
0.161877 0.962829 0.092241
0.226153 0.962829 0.092241
0.289529 0.962829 0.092241
0.352218 0.962829 0.092241
0.414313 0.962829 0.092241
0.476009 0.962829 0.092241
0.537358 0.962829 0.092241
0.598249 0.962829 0.092241
0.658892 0.962829 0.092241
0.719224 0.962829 0.092241
0.779440 0.962829 0.092241
0.839188 0.962829 0.092241
0.898245 0.962829 0.092241
0.000000 0.000000 0.158155
0.037398 0.000000 0.158155
0.096298 0.000000 0.158155
0.161877 0.000000 0.158155
0.226153 0.000000 0.158155
0.289529 0.000000 0.158155
0.352218 0.000000 0.158155
0.414313 0.000000 0.158155
0.476009 0.000000 0.158155
0.537358 0.000000 0.158155
0.598249 0.000000 0.158155
0.658892 0.000000 0.158155
0.719224 0.000000 0.158155
0.779440 0.000000 0.158155
0.839188 0.000000 0.158155
0.898245 0.000000 0.158155
0.000000 0.052529 0.158155
0.037398 0.052529 0.158155
0.096298 0.052529 0.158155
0.161877 0.052529 0.158155
0.226153 0.052529 0.158155
0.289529 0.052529 0.158155
0.352218 0.052529 0.158155
0.414313 0.052529 0.158155
0.476009 0.052529 0.158155
0.537358 0.052529 0.158155
0.598249 0.052529 0.158155
0.658892 0.052529 0.158155
0.719224 0.052529 0.158155
0.779440 0.052529 0.158155
0.839188 0.052529 0.158155
0.898245 0.052529 0.158155
0.000000 0.123555 0.158155
0.037398 0.123555 0.158155
0.096298 0.123555 0.158155
0.161877 0.123555 0.158155
0.226153 0.123555 0.158155
0.289529 0.123555 0.158155
0.352218 0.123555 0.158155
0.414313 0.123555 0.158155
0.476009 0.123555 0.158155
0.537358 0.123555 0.158155
0.598249 0.123555 0.158155
0.658892 0.123555 0.158155
0.719224 0.123555 0.158155
0.779440 0.123555 0.158155
0.839188 0.123555 0.158155
0.898245 0.123555 0.158155
0.000000 0.197450 0.158155
0.037398 0.197450 0.158155
0.096298 0.197450 0.158155
0.161877 0.197450 0.158155
0.226153 0.197450 0.158155
0.289529 0.197450 0.158155
0.352218 0.197450 0.158155
0.414313 0.197450 0.158155
0.476009 0.197450 0.158155
0.537358 0.197450 0.158155
0.598249 0.197450 0.158155
0.658892 0.197450 0.158155
0.719224 0.197450 0.158155
0.779440 0.197450 0.158155
0.839188 0.197450 0.158155
0.898245 0.197450 0.158155
0.000000 0.268099 0.158155
0.037398 0.268099 0.158155
0.096298 0.268099 0.158155
0.161877 0.268099 0.158155
0.226153 0.268099 0.158155
0.289529 0.268099 0.158155
0.352218 0.268099 0.158155
0.414313 0.268099 0.158155
0.476009 0.268099 0.158155
0.537358 0.268099 0.158155
0.598249 0.268099 0.158155
0.658892 0.268099 0.158155
0.719224 0.268099 0.158155
0.779440 0.268099 0.158155
0.839188 0.268099 0.158155
0.898245 0.268099 0.158155
0.000000 0.336509 0.158155
0.037398 0.336509 0.158155
0.096298 0.336509 0.158155
0.161877 0.336509 0.158155
0.226153 0.336509 0.158155
0.289529 0.336509 0.158155
0.352218 0.336509 0.158155
0.414313 0.336509 0.158155
0.476009 0.336509 0.158155
0.537358 0.336509 0.158155
0.598249 0.336509 0.158155
0.658892 0.336509 0.158155
0.719224 0.336509 0.158155
0.779440 0.336509 0.158155
0.839188 0.336509 0.158155
0.898245 0.336509 0.158155
0.000000 0.403347 0.158155
0.037398 0.403347 0.158155
0.096298 0.403347 0.158155
0.161877 0.403347 0.158155
0.226153 0.403347 0.158155
0.289529 0.403347 0.158155
0.352218 0.403347 0.158155
0.414313 0.403347 0.158155
0.476009 0.403347 0.158155
0.537358 0.403347 0.158155
0.598249 0.403347 0.158155
0.658892 0.403347 0.158155
0.719224 0.403347 0.158155
0.779440 0.403347 0.158155
0.839188 0.403347 0.158155
0.898245 0.403347 0.158155
0.000000 0.468797 0.158155
0.037398 0.468797 0.158155
0.096298 0.468797 0.158155
0.161877 0.468797 0.158155
0.226153 0.468797 0.158155
0.289529 0.468797 0.158155
0.352218 0.468797 0.158155
0.414313 0.468797 0.158155
