assets/lut/inavision formula b.cube
# Created by: G'MIC (https://gmic.eu)
TITLE "formula_b"
# LUT size
LUT_3D_SIZE 7
# Data domain
DOMAIN_MIN 0.0 0.0 0.0
DOMAIN_MAX 1.0 1.0 1.0
# LUT data points
0.10582069307565689 0.10414742678403854 0.10237593948841095
0.1938786506652832 0.10078675299882889 0.091531924903392792
0.35543382167816162 0.093933314085006714 0.077936761081218719
0.52238374948501587 0.086260266602039337 0.070862777531147003
0.67819052934646606 0.076330222189426422 0.061025254428386688
0.80310505628585815 0.062122747302055359 0.05495307594537735
0.90178781747817993 0.068779006600379944 0.056665025651454926
0.095202051103115082 0.18551342189311981 0.093399316072463989
0.19466069340705872 0.18551184237003326 0.080806240439414978
0.34740817546844482 0.18872043490409851 0.073189981281757355
0.51915919780731201 0.19221492111682892 0.062683016061782837
0.68150126934051514 0.19172383844852448 0.055402807891368866
0.81167632341384888 0.18135571479797363 0.046545125544071198
0.90729600191116333 0.17697246372699738 0.035462174564599991
0.093770675361156464 0.33540287613868713 0.051678676158189774
0.19733346998691559 0.33578431606292725 0.053072430193424225
0.34729099273681641 0.33797654509544373 0.058073695749044418
0.51745182275772095 0.34836235642433167 0.053420975804328918
0.67749601602554321 0.35296642780303955 0.048271536827087402
0.80835574865341187 0.34227883815765381 0.045861728489398956
0.90763598680496216 0.31770259141921997 0.036738555878400803
0.090195357799530029 0.50618010759353638 0.049355510622262955
0.20108167827129364 0.50242942571640015 0.032887313514947891
0.35424390435218811 0.50201332569122314 0.047601796686649323
0.52138972282409668 0.51006960868835449 0.054278355091810226
0.67871510982513428 0.51186954975128174 0.04824378713965416
0.80596989393234253 0.49296274781227112 0.046953778713941574
0.90454250574111938 0.45990505814552307 0.045856162905693054
0.081607997417449951 0.67007553577423096 0.056798629462718964
0.19437569379806519 0.66804701089859009 0.028842940926551819
0.35523465275764465 0.66813725233078003 0.042957216501235962
0.52066206932067871 0.66754001379013062 0.048046637326478958
0.67552381753921509 0.66511183977127075 0.043856289237737656
0.80341058969497681 0.64452981948852539 0.04673270508646965
0.90120959281921387 0.604248046875 0.0549812912940979
0.077446714043617249 0.79616451263427734 0.058777604252099991
0.18618166446685791 0.79812610149383545 0.033176228404045105
0.34042584896087646 0.80019867420196533 0.045643869787454605
0.5005793571472168 0.79700326919555664 0.05171629786491394
0.65230810642242432 0.79632288217544556 0.047184858471155167
0.78916025161743164 0.78522759675979614 0.047425318509340286
0.90124690532684326 0.75499868392944336 0.054331358522176743
0.079649336636066437 0.89710909128189087 0.060130175203084946
0.18018585443496704 0.89886152744293213 0.036651387810707092
0.31917041540145874 0.89731723070144653 0.045064918696880341
0.46945291757583618 0.89591777324676514 0.057708978652954102
0.61333984136581421 0.89716380834579468 0.056825421750545502
0.75955337285995483 0.89951223134994507 0.054286431521177292
0.89526939392089844 0.89219439029693604 0.059416662901639938
0.10679485648870468 0.10208138823509216 0.18378807604312897
0.20014373958110809 0.097819007933139801 0.17720137536525726
0.35434368252754211 0.079538203775882721 0.18750374019145966
0.52666252851486206 0.06809958815574646 0.18335816264152527
0.68479269742965698 0.054742880165576935 0.17777132987976074
0.8068840503692627 0.039669007062911987 0.17427597939968109
0.90267848968505859 0.041203219443559647 0.16253122687339783
0.053165405988693237 0.20512829720973969 0.22764240205287933
0.1850067526102066 0.18890507519245148 0.18513999879360199
0.34712934494018555 0.18237076699733734 0.1756463497877121
0.52256852388381958 0.17688408493995667 0.16417281329631805
0.68750780820846558 0.16635563969612122 0.15174518525600433
0.81612026691436768 0.15605035424232483 0.13708119094371796
0.9078410267829895 0.1521289199590683 0.12845979630947113
0.045968104153871536 0.35392045974731445 0.21244539320468903
0.16861683130264282 0.34443956613540649 0.17252428829669952
0.35236164927482605 0.33609658479690552 0.1519792377948761
0.51994651556015015 0.34153980016708374 0.1413082629442215
0.68370074033737183 0.34018263220787048 0.12949833273887634
0.81779271364212036 0.32927894592285156 0.12680041790008545
0.91220945119857788 0.30372297763824463 0.12076792865991592
0.056160721927881241 0.51661306619644165 0.19945424795150757
0.16894452273845673 0.50897121429443359 0.14628364145755768
0.34849852323532104 0.50245612859725952 0.12711808085441589
0.5182991623878479 0.50965094566345215 0.13204497098922729
0.68467539548873901 0.50892442464828491 0.12180062383413315
0.81717795133590698 0.48875546455383301 0.11867205798625946
0.90959221124649048 0.4540831446647644 0.11539635807275772
0.049836132675409317 0.67582917213439941 0.19198364019393921
0.15213710069656372 0.6723664402961731 0.12146206945180893
0.33046379685401917 0.66789966821670532 0.10450956970453262
0.51013362407684326 0.6684335470199585 0.11042837798595428
0.67670470476150513 0.66893583536148071 0.11010323464870453
0.81157189607620239 0.64692503213882446 0.10781562328338623
0.9046509861946106 0.60525405406951904 0.10883420705795288
0.044484920799732208 0.80104118585586548 0.17620749771595001
0.14140748977661133 0.80080759525299072 0.11839282512664795
0.30559071898460388 0.79828429222106934 0.10132542252540588
0.48410102725028992 0.79950380325317383 0.10568617284297943
0.6490788459777832 0.80278241634368896 0.10395682603120804
0.79248958826065063 0.79143977165222168 0.098699949681758881
0.9029420018196106 0.75742560625076294 0.10223294794559479
0.048779625445604324 0.90048438310623169 0.16513781249523163
0.13776606321334839 0.8989601731300354 0.11213237047195435
0.28593087196350098 0.89815545082092285 0.10414708405733109
0.4509587287902832 0.89901947975158691 0.11236560344696045
0.60747379064559937 0.90231537818908691 0.10812805593013763
0.75906145572662354 0.90426838397979736 0.1002599373459816
0.89551955461502075 0.8952939510345459 0.10166642069816589
0.10675206035375595 0.10151752829551697 0.33317327499389648
0.2019515335559845 0.097396120429039001 0.33482247591018677
0.35286703705787659 0.08016541600227356 0.33931171894073486
0.52511894702911377 0.066936090588569641 0.3423505425453186
0.68646800518035889 0.057411074638366699 0.34585791826248169
0.80835115909576416 0.04863426461815834 0.33919015526771545
0.90179824829101562 0.033782973885536194 0.31202748417854309
0.064904123544692993 0.21020546555519104 0.38564324378967285
0.18263785541057587 0.19095540046691895 0.34820052981376648
0.35580846667289734 0.17658688127994537 0.3293718695640564
0.52107924222946167 0.16631919145584106 0.34036755561828613
0.68974810838699341 0.15565170347690582 0.33698922395706177
0.81752300262451172 0.15526275336742401 0.32299485802650452
0.91004651784896851 0.14570125937461853 0.29327183961868286
0.022376669570803642 0.37308135628700256 0.41977128386497498
0.093055710196495056 0.37299427390098572 0.41791781783103943
0.33459395170211792 0.33948585391044617 0.33962857723236084
0.52127403020858765 0.33140119910240173 0.31903499364852905
0.68474137783050537 0.32814359664916992 0.31541037559509277
0.82210195064544678 0.32041332125663757 0.31202751398086548
0.91734665632247925 0.30180108547210693 0.2851199209690094
0.032327421009540558 0.53143346309661865 0.41754838824272156
0.10722790658473969 0.52931898832321167 0.38961037993431091
0.31729239225387573 0.51083409786224365 0.33099505305290222
0.516063392162323 0.50699812173843384 0.30969002842903137
0.68369525671005249 0.50276541709899902 0.30225175619125366
0.8194231390953064 0.48677363991737366 0.29357904195785522
0.91354036331176758 0.45943281054496765 0.28027787804603577
0.032476134598255157 0.68707609176635742 0.40691035985946655
0.11540412157773972 0.68337935209274292 0.35509961843490601
0.30999284982681274 0.67236244678497314 0.29297420382499695
0.50652778148651123 0.67190384864807129 0.27967086434364319
0.67180722951889038 0.66908848285675049 0.27915456891059875
0.81424319744110107 0.64004909992218018 0.26923871040344238
0.91004210710525513 0.60559296607971191 0.26893824338912964
0.029207909479737282 0.80753344297409058 0.36757248640060425
0.10947008430957794 0.80640989542007446 0.31770139932632446
0.28343972563743591 0.80212587118148804 0.26576852798461914
0.47811520099639893 0.80235332250595093 0.25384777784347534
0.64271444082260132 0.80327439308166504 0.25589114427566528
0.7878531813621521 0.78564149141311646 0.24863502383232117
0.90338951349258423 0.7533453106880188 0.24983026087284088
0.03702399879693985 0.90308719873428345 0.33339792490005493
0.11887875944375992 0.90048480033874512 0.28214403986930847
0.2719847559928894 0.89969772100448608 0.24620835483074188
0.44565454125404358 0.90049487352371216 0.24532097578048706
0.60383337736129761 0.90026199817657471 0.24205237627029419
0.75648438930511475 0.90095853805541992 0.23544953763484955
0.89269793033599854 0.89230853319168091 0.23531480133533478
0.10173670202493668 0.08496837317943573 0.50076454877853394
0.20323918759822845 0.080956310033798218 0.50786119699478149
0.35689482092857361 0.076842181384563446 0.50941616296768188
0.52667874097824097 0.074868224561214447 0.51248455047607422
0.68684810400009155 0.071795746684074402 0.51079785823822021
0.81160110235214233 0.054508943110704422 0.49175742268562317
0.90541321039199829 0.030678886920213699 0.46170017123222351
0.072711244225502014 0.2014390230178833 0.53792726993560791
0.18684521317481995 0.18634743988513947 0.51897460222244263
0.36356815695762634 0.17156930267810822 0.4998663067817688
0.52657037973403931 0.16999480128288269 0.51216405630111694
0.68585008382797241 0.16620168089866638 0.51506900787353516
0.81832671165466309 0.15145516395568848 0.49283543229103088
0.91358101367950439 0.13977521657943726 0.45479923486709595
0.02933819405734539 0.37757033109664917 0.58348304033279419
0.11899290233850479 0.36848372220993042 0.57074844837188721
0.32900765538215637 0.34021192789077759 0.51786690950393677
0.52442610263824463 0.3292790949344635 0.49790894985198975
0.67992639541625977 0.33003619313240051 0.50497466325759888
0.8176887035369873 0.31799367070198059 0.4933701753616333
0.91673898696899414 0.30743876099586487 0.45464760065078735
0.032764434814453125 0.54063659906387329 0.59729689359664917
0.069175317883491516 0.54462522268295288 0.60608136653900146
0.22912579774856567 0.53689432144165039 0.58878004550933838
0.49792635440826416 0.50954228639602661 0.51291310787200928
0.68332678079605103 0.50125813484191895 0.49733707308769226
0.81073421239852905 0.50075715780258179 0.49585151672363281
0.91056078672409058 0.48229944705963135 0.47117522358894348
0.035100676119327545 0.69666850566864014 0.59895414113998413
0.071264170110225677 0.69825536012649536 0.59686267375946045
0.23785689473152161 0.69256818294525146 0.55990499258041382
0.48795467615127563 0.67603999376296997 0.50629305839538574
0.67878705263137817 0.66792088747024536 0.48425254225730896
0.81227236986160278 0.65263515710830688 0.48095425963401794
0.90944665670394897 0.62432992458343506 0.47786527872085571
0.029845442622900009 0.8158334493637085 0.57121652364730835
0.073907054960727692 0.81642073392868042 0.55726361274719238
0.24128797650337219 0.81249183416366577 0.50237762928009033
0.481038898229599 0.80578231811523438 0.46665719151496887
0.66478550434112549 0.80268949270248413 0.46608296036720276
0.79385679960250854 0.79211974143981934 0.46766164898872375
0.90212076902389526 0.75893515348434448 0.46898531913757324
0.03790530189871788 0.90597295761108398 0.5272141695022583
0.099874027073383331 0.90387368202209473 0.49727600812911987
0.25708061456680298 0.90353912115097046 0.44859328866004944
0.45783108472824097 0.90175998210906982 0.44244742393493652
0.63262665271759033 0.9001125693321228 0.45442149043083191
0.76522344350814819 0.90074104070663452 0.45509207248687744
0.89057201147079468 0.89094829559326172 0.4532618522644043
0.089948989450931549 0.074784927070140839 0.66285932064056396
0.20284973084926605 0.070401482284069061 0.67363649606704712
0.36222025752067566 0.071811303496360779 0.67706853151321411
0.52694487571716309 0.069098711013793945 0.6786963939666748
0.68503379821777344 0.068845175206661224 0.67449414730072021
0.8107297420501709 0.047883786261081696 0.6472809910774231
0.90606999397277832 0.02679799310863018 0.60796457529067993
0.060958743095397949 0.19607165455818176 0.6932913064956665
0.1811944842338562 0.17937056720256805 0.68527454137802124
0.36057829856872559 0.16518405079841614 0.67157465219497681
0.52471655607223511 0.16253268718719482 0.67928439378738403
0.68222838640213013 0.16307869553565979 0.67798006534576416
0.81915271282196045 0.14214618504047394 0.64947408437728882
0.9148252010345459 0.13192565739154816 0.60633355379104614
0.037588935345411301 0.37305423617362976 0.73043513298034668
0.14516091346740723 0.35815149545669556 0.71130985021591187
0.34266266226768494 0.33433222770690918 0.67248553037643433
0.52603042125701904 0.32721218466758728 0.6623154878616333
0.68443405628204346 0.32452744245529175 0.66679674386978149
0.82223457098007202 0.31357261538505554 0.65368384122848511
0.92126917839050293 0.30739164352416992 0.61539822816848755
0.037963509559631348 0.54252636432647705 0.76003289222717285
0.097009114921092987 0.53786206245422363 0.751739501953125
0.2636793851852417 0.52552467584609985 0.7321581244468689
0.49380490183830261 0.51108622550964355 0.6849445104598999
0.68378210067749023 0.50401180982589722 0.65978693962097168
0.81292855739593506 0.50558042526245117 0.65534746646881104
0.91191339492797852 0.49873340129852295 0.62910813093185425
0.040124543011188507 0.69820398092269897 0.7644239068031311
0.066901624202728271 0.69732171297073364 0.76312834024429321
0.18387067317962646 0.70085376501083374 0.77752804756164551
0.41641461849212646 0.69013798236846924 0.74483472108840942
0.65440213680267334 0.67413514852523804 0.68489974737167358
0.80962848663330078 0.66534894704818726 0.65741550922393799
0.90568006038665771 0.65160709619522095 0.64601725339889526
0.036650054156780243 0.82178306579589844 0.74192190170288086
0.056594550609588623 0.82171636819839478 0.74465930461883545
0.1817297637462616 0.82544279098510742 0.73500627279281616
0.4160420298576355 0.8195224404335022 0.71424996852874756
0.65120410919189453 0.80772334337234497 0.68027418851852417
0.80324423313140869 0.79521948099136353 0.65747064352035522
0.89979970455169678 0.77660095691680908 0.65945637226104736
0.041571225970983505 0.91074001789093018 0.69585937261581421
0.069839507341384888 0.90997457504272461 0.69443631172180176
0.19998060166835785 0.91191035509109497 0.67551916837692261
0.43163135647773743 0.9090389609336853 0.66213071346282959
0.65968465805053711 0.89687013626098633 0.65545648336410522
0.78175151348114014 0.89591830968856812 0.65492361783981323
0.89531737565994263 0.89520829916000366 0.65307939052581787
0.084934726357460022 0.074625037610530853 0.79831802845001221
0.20062753558158875 0.068252503871917725 0.80810630321502686
0.35253423452377319 0.069068044424057007 0.81289112567901611
0.50773400068283081 0.063739314675331116 0.80962169170379639
0.66219335794448853 0.062095161527395248 0.80565625429153442
0.79446631669998169 0.046702232211828232 0.78627872467041016
0.90189176797866821 0.036982785910367966 0.75426310300827026
0.056510791182518005 0.19165955483913422 0.81968039274215698
0.18099500238895416 0.1758572906255722 0.81511932611465454
0.34791606664657593 0.16385778784751892 0.81268584728240967
0.5050315260887146 0.15670454502105713 0.81601500511169434
0.66110026836395264 0.15520486235618591 0.81259286403656006
0.80315685272216797 0.14214494824409485 0.79432624578475952
0.91026753187179565 0.13892368972301483 0.75813251733779907
0.037773776799440384 0.35724431276321411 0.84681534767150879
0.15756155550479889 0.34363064169883728 0.82885456085205078
0.3377070426940918 0.33226814866065979 0.80925697088241577
0.50595325231552124 0.32919710874557495 0.8046690821647644
0.66721373796463013 0.32092374563217163 0.80585938692092896
0.81590777635574341 0.31461897492408752 0.80460309982299805
0.92223918437957764 0.30847987532615662 0.77287012338638306
0.036559488624334335 0.52131706476211548 0.88095533847808838
0.11476513743400574 0.51296365261077881 0.86675691604614258
0.29579788446426392 0.5020453929901123 0.83903205394744873
0.5138089656829834 0.50205481052398682 0.80030900239944458
0.67534971237182617 0.50378245115280151 0.79166525602340698
0.8014107346534729 0.50313442945480347 0.79675137996673584
0.91068446636199951 0.49865078926086426 0.77900558710098267
0.039158239960670471 0.67587816715240479 0.89801132678985596
0.068139903247356415 0.67366814613342285 0.90027940273284912
0.19313755631446838 0.67354869842529297 0.90445339679718018
0.43020570278167725 0.67207604646682739 0.86691296100616455
0.65316152572631836 0.67035847902297974 0.81882995367050171
0.80354243516921997 0.66803103685379028 0.79311221837997437
0.9026910662651062 0.66565573215484619 0.78513950109481812
0.039138481020927429 0.80900090932846069 0.88235390186309814
0.055682431906461716 0.80811285972595215 0.88587242364883423
0.16084761917591095 0.81531625986099243 0.8937685489654541
0.35929694771766663 0.81923496723175049 0.89692777395248413
0.59401249885559082 0.8145255446434021 0.86993992328643799
0.78804296255111694 0.80472689867019653 0.81305867433547974
0.90099805593490601 0.79718101024627686 0.79321420192718506
0.043338146060705185 0.91368353366851807 0.848591148853302
0.060304559767246246 0.91374421119689941 0.8528982400894165
0.1603076308965683 0.91946673393249512 0.85441130399703979
0.36393538117408752 0.9198296070098877 0.85599005222320557
0.60025089979171753 0.90897923707962036 0.84202373027801514
0.78162014484405518 0.90012192726135254 0.81235200166702271
0.89948743581771851 0.89468538761138916 0.7881959080696106
0.081496819853782654 0.07066287100315094 0.91084229946136475
0.18860165774822235 0.056092072278261185 0.9138447642326355
0.32747933268547058 0.062214314937591553 0.91240662336349487
0.47224375605583191 0.067798450589179993 0.90482574701309204
0.62224465608596802 0.060857929289340973 0.90537208318710327
0.76831746101379395 0.054344940930604935 0.90549653768539429
0.89839440584182739 0.064315065741539001 0.89486724138259888
0.050515282899141312 0.17513488233089447 0.92479807138442993
0.16515633463859558 0.15652738511562347 0.91926991939544678
0.32146170735359192 0.16295179724693298 0.9171568751335144
0.47366723418235779 0.163151815533638 0.91759562492370605
0.62327206134796143 0.15054018795490265 0.91631144285202026
0.77029550075531006 0.14124515652656555 0.91198945045471191
0.90234673023223877 0.15869802236557007 0.89766561985015869
0.031280115246772766 0.32562953233718872 0.94121015071868896
0.14769531786441803 0.31475359201431274 0.9264952540397644
0.3211243748664856 0.31639033555984497 0.91746652126312256
0.48539337515830994 0.32196661829948425 0.91692823171615601
0.63140583038330078 0.31476050615310669 0.91798686981201172
0.77856838703155518 0.30630755424499512 0.91925054788589478
0.91065126657485962 0.30972665548324585 0.90568095445632935
0.029984058812260628 0.48340111970901489 0.96719688177108765
0.1235663890838623 0.47549086809158325 0.95339500904083252
0.30803671479225159 0.47498193383216858 0.93291866779327393
0.50268208980560303 0.49570947885513306 0.91305625438690186
0.64950132369995117 0.50127756595611572 0.90540838241577148
0.78012973070144653 0.49667534232139587 0.91091430187225342
0.90413957834243774 0.49132207036018372 0.90537762641906738
0.039723638445138931 0.63357627391815186 0.98757636547088623
0.093144498765468597 0.62892866134643555 0.9868471622467041
0.24363453686237335 0.62881147861480713 0.97776490449905396
0.46571046113967896 0.63926726579666138 0.94640880823135376
0.66099107265472412 0.66154849529266357 0.90866339206695557
0.79817217588424683 0.66819578409194946 0.89473605155944824
0.90176451206207275 0.66190063953399658 0.89709079265594482
0.039953749626874924 0.77859872579574585 0.99083000421524048
0.071019403636455536 0.77287518978118896 0.9900360107421875
0.18659362196922302 0.77763253450393677 0.9931979775428772
0.38757982850074768 0.78457427024841309 0.99248528480529785
0.60555899143218994 0.79423308372497559 0.96460038423538208
0.78478860855102539 0.80186545848846436 0.91712290048599243
0.90437442064285278 0.79712885618209839 0.88894861936569214
0.046234056353569031 0.90935432910919189 0.9851607084274292
0.075401470065116882 0.90494292974472046 0.98235785961151123
0.17033621668815613 0.90762966871261597 0.98436272144317627
0.34799367189407349 0.90824878215789795 0.9910358190536499
0.54262626171112061 0.90884745121002197 0.99232500791549683
0.70901715755462646 0.91114330291748047 0.98502075672149658
0.88702487945556641 0.89718246459960938 0.90549230575561523
