assets/lut/inavision nightlife.cube
# Created by: G'MIC (https://gmic.eu)
TITLE "nightlife"
# LUT size
LUT_3D_SIZE 7
# Data domain
DOMAIN_MIN 0.0 0.0 0.0
DOMAIN_MAX 1.0 1.0 1.0
# LUT data points
0.014468428678810596 0.011972748674452305 0.0094799865037202835
0.11478623002767563 0.014832440763711929 0.01144510880112648
0.34199842810630798 0.018379285931587219 0.008453369140625
0.59747636318206787 0.021577693521976471 0.012731394730508327
0.78242862224578857 0.018561240285634995 0.012336865998804569
0.90727835893630981 0.013754302635788918 0.004538816399872303
0.99764657020568848 0.013818089850246906 0.0031911064870655537
0.014943919144570827 0.085122816264629364 0.0094755133613944054
0.11359487473964691 0.09359123557806015 0.0097640538588166237
0.33350148797035217 0.13719899952411652 0.0044144722633063793
0.58880072832107544 0.16901746392250061 0.0014862060779705644
0.77148038148880005 0.16722962260246277 0.0002310958516318351
0.8979419469833374 0.15102784335613251 0
0.99228590726852417 0.1432354599237442 0
0.019738320261240005 0.23321565985679626 0.011749701574444771
0.1398671418428421 0.2266668975353241 0.0042304694652557373
0.32909324765205383 0.26372915506362915 0.0047950893640518188
0.5722583532333374 0.31976267695426941 0.00067763985134661198
0.76234781742095947 0.32282105088233948 0
0.88635540008544922 0.30439847707748413 0
0.97947114706039429 0.29036709666252136 0
0.023846615105867386 0.44623824954032898 0.0083466172218322754
0.18163053691387177 0.44015166163444519 2.1541820842685411e-06
0.35616597533226013 0.43438857793807983 0.00011363309749867767
0.56701004505157471 0.46279960870742798 6.4625460254319478e-06
0.75487256050109863 0.46770590543746948 0.00027854769723489881
0.8755066990852356 0.45219460129737854 0.0039215688593685627
0.96817737817764282 0.43434047698974609 0.0005030015017837286
0.017002405598759651 0.62504124641418457 0.0058143767528235912
0.18341141939163208 0.62603503465652466 0
0.38155394792556763 0.6203036904335022 0
0.56988692283630371 0.61948055028915405 0
0.74652785062789917 0.61347907781600952 0
0.86973530054092407 0.59525203704833984 0.00016530354332644492
0.97040581703186035 0.56932789087295532 0
0.018471498042345047 0.75966840982437134 0.009845060296356678
0.18098685145378113 0.7590639591217041 1.4720243598276284e-05
0.37098348140716553 0.75510627031326294 0
0.5530388355255127 0.75497996807098389 0
0.7294231653213501 0.74916183948516846 0
0.85891300439834595 0.73250007629394531 0
0.95770519971847534 0.70743876695632935 0
0.022441834211349487 0.87254339456558228 0.012306662276387215
0.17118628323078156 0.86913818120956421 0.0021256988402456045
0.34341543912887573 0.86481165885925293 0.00092083797790110111
0.52502459287643433 0.86899596452713013 0.0016022776253521442
0.70410454273223877 0.86867547035217285 0.0031063305214047432
0.84580743312835693 0.85869425535202026 0
0.94824659824371338 0.8405158519744873 0
0.011984357610344887 0.011568436399102211 0.06714707612991333
0.11607380211353302 0.010863943956792355 0.077179461717605591
0.33669659495353699 0.010945757851004601 0.11824007332324982
0.59378015995025635 0.0086259432137012482 0.14621983468532562
0.77831840515136719 0.0032774533610790968 0.15084582567214966
0.90301454067230225 0.0032919491641223431 0.14029258489608765
0.99517393112182617 0.004446874838322401 0.12162625044584274
0.013128332793712616 0.085998266935348511 0.068699777126312256
0.11639935523271561 0.090494103729724884 0.069465339183807373
0.33566176891326904 0.11169818043708801 0.077720880508422852
0.59182083606719971 0.12969198822975159 0.080051302909851074
0.77547508478164673 0.12477601319551468 0.076399907469749451
0.89757663011550903 0.11662209033966064 0.066896431148052216
0.99094879627227783 0.11490806192159653 0.065789163112640381
0.0082717295736074448 0.22610901296138763 0.090706214308738708
0.12288028746843338 0.2274433821439743 0.063296057283878326
0.33178016543388367 0.26214241981506348 0.051183663308620453
0.57944107055664062 0.30426299571990967 0.038683589547872543
0.76680153608322144 0.29577267169952393 0.032161369919776917
0.89090323448181152 0.27761301398277283 0.02843831293284893
0.9870600700378418 0.26997262239456177 0.033711601048707962
0.0079769659787416458 0.43836617469787598 0.10065733641386032
0.14247924089431763 0.43849033117294312 0.045298825949430466
0.3480665385723114 0.43826249241828918 0.028672521933913231
0.57184785604476929 0.46564054489135742 0.029795806854963303
0.75577956438064575 0.46089175343513489 0.029831381514668465
0.8773006796836853 0.43949314951896667 0.029505262151360512
0.97186529636383057 0.42457923293113708 0.03226921334862709
0.00090008904226124287 0.62699383497238159 0.101429283618927
0.13718752562999725 0.62697571516036987 0.03798159584403038
0.36072865128517151 0.62056565284729004 0.01555181760340929
0.56978422403335571 0.62068033218383789 0.017980972304940224
0.74941670894622803 0.60996067523956299 0.024540022015571594
0.86862385272979736 0.58654028177261353 0.026797933503985405
0.96133357286453247 0.56467115879058838 0.026683837175369263
0.0011649637017399073 0.76298630237579346 0.11048617213964462
0.14122498035430908 0.7608150839805603 0.051694218069314957
0.35300955176353455 0.75514703989028931 0.012008696794509888
0.55180221796035767 0.75656598806381226 0.014432675205171108
0.73537534475326538 0.74917316436767578 0.020512793213129044
0.86178016662597656 0.72894597053527832 0.019092051312327385
0.95927655696868896 0.70176869630813599 0.020360579714179039
0.0057553607039153576 0.87591457366943359 0.10815713554620743
0.13914884626865387 0.8703606128692627 0.062708400189876556
0.32246482372283936 0.86584800481796265 0.027261396870017052
0.51801639795303345 0.86973577737808228 0.027395794168114662
0.70184808969497681 0.8701903223991394 0.03101113997399807
0.83743244409561157 0.8601195216178894 0.020370632410049438
0.94316643476486206 0.83934241533279419 0.013669556006789207
0.021519500762224197 0.016494272276759148 0.19483503699302673
0.13954080641269684 0.010040522553026676 0.19438084959983826
0.34546545147895813 0.0056054657325148582 0.24598555266857147
0.5917961597442627 0.0012992260744795203 0.30278065800666809
0.77815955877304077 0.0031768798362463713 0.30368533730506897
0.90422248840332031 0.0080349491909146309 0.28425073623657227
0.9922143816947937 0.0014892577892169356 0.27351373434066772
0.014224587008357048 0.11506063491106033 0.19126670062541962
0.12748123705387115 0.09157785028219223 0.19720323383808136
0.34427812695503235 0.078556478023529053 0.23112179338932037
0.59268832206726074 0.072815194725990295 0.25636237859725952
0.77489668130874634 0.074148856103420258 0.25659376382827759
0.89257550239562988 0.078399419784545898 0.24119909107685089
0.98454427719116211 0.081144057214260101 0.23733577132225037
0.0070040682330727577 0.23881769180297852 0.20884667336940765
0.10784110426902771 0.23672012984752655 0.19911132752895355
0.33167672157287598 0.23817573487758636 0.18799857795238495
0.58233404159545898 0.24933469295501709 0.18469150364398956
0.76811963319778442 0.241087406873703 0.17803594470024109
0.88953250646591187 0.23447585105895996 0.18037129938602448
0.98637163639068604 0.24001456797122955 0.18758822977542877
0.0054739858023822308 0.43407157063484192 0.25478279590606689
0.10398916900157928 0.43988141417503357 0.2081417590379715
0.32796573638916016 0.44206124544143677 0.16773389279842377
0.57028722763061523 0.45113173127174377 0.15959620475769043
0.75565868616104126 0.43515610694885254 0.16029317677021027
0.88172310590744019 0.41462287306785583 0.16418088972568512
0.98110681772232056 0.40735849738121033 0.16900613903999329
2.4414062863797881e-05 0.62375503778457642 0.27010610699653625
0.096763089299201965 0.6243361234664917 0.20454464852809906
0.32123425602912903 0.61956167221069336 0.15346880257129669
0.55899667739868164 0.61674094200134277 0.14915362000465393
0.74611741304397583 0.60112065076828003 0.152542844414711
0.87253248691558838 0.57260876893997192 0.15599346160888672
0.96664273738861084 0.55105894804000854 0.15661107003688812
0 0.76240617036819458 0.26753881573677063
0.087936669588088989 0.76101398468017578 0.20706719160079956
0.30847305059432983 0.75821977853775024 0.14375624060630798
0.53640484809875488 0.75666683912277222 0.13820953667163849
0.72778612375259399 0.75062721967697144 0.13834777474403381
0.86132258176803589 0.72342574596405029 0.14053976535797119
0.9541243314743042 0.69812345504760742 0.14592574536800385
0.0015347948065027595 0.87519979476928711 0.24396847188472748
0.10920120030641556 0.86967706680297852 0.19145317375659943
0.29476401209831238 0.86470448970794678 0.13993096351623535
0.50679826736450195 0.86821180582046509 0.14726161956787109
0.69061988592147827 0.86840611696243286 0.1525472104549408
0.83203268051147461 0.85621827840805054 0.14305326342582703
0.95302784442901611 0.83305966854095459 0.13347207009792328
0.025640718638896942 0.019375968724489212 0.43395358324050903
0.18723084032535553 0.0045259664766490459 0.42834249138832092
0.39544445276260376 0.0062878625467419624 0.44607114791870117
0.60620713233947754 0.0029636607505381107 0.47719302773475647
0.77836579084396362 0.0080932015553116798 0.4728238582611084
0.89704340696334839 0.011174519546329975 0.45326873660087585
0.98777562379837036 0.0057762297801673412 0.43527388572692871
0.0094102444127202034 0.1634269654750824 0.42970800399780273
0.14647087454795837 0.098702631890773773 0.43067905306816101
0.37299799919128418 0.07576192170381546 0.43760740756988525
0.60254621505737305 0.06321977823972702 0.46175229549407959
0.77674943208694458 0.068867221474647522 0.4547140896320343
0.8920171856880188 0.076037026941776276 0.43635088205337524
0.98279505968093872 0.08446909487247467 0.42018008232116699
0.0091286003589630127 0.303028404712677 0.42243331670761108
0.1126411110162735 0.28168383240699768 0.42847895622253418
0.34650200605392456 0.23728403449058533 0.42913639545440674
0.59307551383972168 0.22022561728954315 0.42899447679519653
0.76976156234741211 0.2187788337469101 0.41125845909118652
0.88762903213500977 0.22377860546112061 0.40303289890289307
0.98314929008483887 0.23609605431556702 0.39655053615570068
0.0081620458513498306 0.45715305209159851 0.43400129675865173
0.092226378619670868 0.45903474092483521 0.43231666088104248
0.32721075415611267 0.45427855849266052 0.41977018117904663
0.58485639095306396 0.44708162546157837 0.41146829724311829
0.75871914625167847 0.42745006084442139 0.39585870504379272
0.88367033004760742 0.4203704297542572 0.39248958230018616
0.98384284973144531 0.42265516519546509 0.3928602933883667
0.00023743872588966042 0.62183690071105957 0.44173282384872437
0.075011491775512695 0.6177978515625 0.41570043563842773
0.29709473252296448 0.61818993091583252 0.3855939507484436
0.55966836214065552 0.62023746967315674 0.39329254627227783
0.74383562803268433 0.60342741012573242 0.39424383640289307
0.87445712089538574 0.58048725128173828 0.39273017644882202
0.96864849328994751 0.56658494472503662 0.39001896977424622
2.1541820842685411e-06 0.75990563631057739 0.43107840418815613
0.078723311424255371 0.75625383853912354 0.3956952691078186
0.29138737916946411 0.75430244207382202 0.36745163798332214
0.53388303518295288 0.74946093559265137 0.37400594353675842
0.72480970621109009 0.74725818634033203 0.37648135423660278
0.85636502504348755 0.72383290529251099 0.37981247901916504
0.960845947265625 0.7031446099281311 0.3818565309047699
0.0089803962036967278 0.87189632654190063 0.39865481853485107
0.1082647442817688 0.86667442321777344 0.37032711505889893
0.2971038818359375 0.86282086372375488 0.35810193419456482
0.51404857635498047 0.86196625232696533 0.37408468127250671
0.68454158306121826 0.86129307746887207 0.37293058633804321
0.82364571094512939 0.85372740030288696 0.37015014886856079
0.94488334655761719 0.83793598413467407 0.369529128074646
0.028387930244207382 0.021261118352413177 0.67398363351821899
0.21562249958515167 0.0043174144811928272 0.66940641403198242
0.42755556106567383 0.005551955197006464 0.6705930233001709
0.61325091123580933 0.00789642333984375 0.67574995756149292
0.77617239952087402 0.0093397703021764755 0.66528022289276123
0.89545375108718872 0.011005566455423832 0.6379779577255249
0.9866563081741333 0.009590568020939827 0.60671579837799072
0.011363400146365166 0.18341225385665894 0.67063724994659424
0.16212435066699982 0.10997504740953445 0.67326605319976807
0.39328435063362122 0.067796148359775543 0.67217934131622314
0.6064484715461731 0.071302257478237152 0.67252463102340698
0.77855241298675537 0.077002353966236115 0.66019004583358765
0.89816105365753174 0.082544945180416107 0.63411402702331543
0.98602098226547241 0.090998724102973938 0.60221320390701294
0.011132991872727871 0.3429369330406189 0.66593843698501587
0.11539215594530106 0.30261600017547607 0.66919314861297607
0.3543141782283783 0.23552356660366058 0.66988241672515869
0.59342038631439209 0.22531834244728088 0.66109287738800049
0.76912856101989746 0.22377729415893555 0.6401667594909668
0.88793367147445679 0.2282816618680954 0.61494368314743042
0.97953969240188599 0.2346978634595871 0.59046447277069092
0.0088035436347126961 0.49733427166938782 0.66253626346588135
0.10234353691339493 0.48220473527908325 0.66325086355209351
0.33729103207588196 0.46298268437385559 0.66481012105941772
0.59540581703186035 0.45845216512680054 0.66025263071060181
0.7655336856842041 0.44586667418479919 0.63778823614120483
0.88425302505493164 0.44242954254150391 0.61435461044311523
0.97625797986984253 0.43940487504005432 0.60234016180038452
0.0036536422558128834 0.64526981115341187 0.65349394083023071
0.085653431713581085 0.63179606199264526 0.64384114742279053
0.32090595364570618 0.63360488414764404 0.64375042915344238
0.59206479787826538 0.6504090428352356 0.66210323572158813
0.7636110782623291 0.63887840509414673 0.64851975440979004
0.87369829416275024 0.61901098489761353 0.62756139039993286
0.95769327878952026 0.61024832725524902 0.61780881881713867
0.00069699756568297744 0.77073854207992554 0.62631481885910034
0.083424784243106842 0.76614117622375488 0.61444830894470215
0.30061060190200806 0.75960099697113037 0.60370081663131714
0.55328124761581421 0.76247447729110718 0.61986500024795532
0.75036591291427612 0.77096635103225708 0.6350095272064209
0.86794722080230713 0.74928706884384155 0.62812507152557373
0.9483112096786499 0.733562171459198 0.61662232875823975
0.0043277963995933533 0.86854946613311768 0.57865840196609497
0.10330496728420258 0.86878049373626709 0.57333201169967651
0.29590925574302673 0.86308020353317261 0.57093918323516846
0.51707649230957031 0.85488754510879517 0.58105015754699707
0.70762401819229126 0.86133086681365967 0.59970492124557495
0.84204757213592529 0.85711610317230225 0.60681807994842529
0.94623959064483643 0.84356111288070679 0.60661286115646362
0.032376337796449661 0.018495043739676476 0.85072678327560425
0.20900052785873413 0.00020069794845767319 0.84558290243148804
0.41306105256080627 0.0023934608325362206 0.84600663185119629
0.59783023595809937 0.009694686159491539 0.85211408138275146
0.76754492521286011 0.005533809307962656 0.84481990337371826
0.89844441413879395 0.0025433858390897512 0.82107794284820557
0.99148035049438477 0.0022859461605548859 0.7843252420425415
0.011548285372555256 0.17433604598045349 0.85278928279876709
0.15662890672683716 0.10451208055019379 0.84953844547271729
0.37649446725845337 0.074897050857543945 0.85237759351730347
0.58714717626571655 0.08024328202009201 0.85078448057174683
0.76773238182067871 0.080685906112194061 0.84489220380783081
0.90239256620407104 0.077346563339233398 0.82499629259109497
0.99000078439712524 0.082827985286712646 0.78472244739532471
0.011116087436676025 0.33479446172714233 0.85069715976715088
0.11986911296844482 0.28965228796005249 0.85266792774200439
0.34185540676116943 0.23577286303043365 0.85577094554901123
0.57043379545211792 0.233242467045784 0.84233266115188599
0.74990296363830566 0.23107990622520447 0.83101844787597656
0.88521766662597656 0.22629030048847198 0.81246376037597656
0.98064744472503662 0.22545181214809418 0.77695393562316895
0.011508732102811337 0.48625668883323669 0.85293304920196533
0.10984723269939423 0.46474522352218628 0.85114985704421997
0.33243671059608459 0.44352987408638 0.85199636220932007
0.57497745752334595 0.45688924193382263 0.8402521014213562
0.74813926219940186 0.45188447833061218 0.83368515968322754
0.88674342632293701 0.44377487897872925 0.81457275152206421
0.97763711214065552 0.43170273303985596 0.78154516220092773
0.012192909605801105 0.63856732845306396 0.85047066211700439
0.10381431132555008 0.62670218944549561 0.84558510780334473
0.332518070936203 0.61946254968643188 0.84348899126052856
0.59398436546325684 0.6455041766166687 0.84896522760391235
0.76822823286056519 0.65126442909240723 0.84125751256942749
0.88269162178039551 0.63049328327178955 0.81098794937133789
0.96629410982131958 0.62200194597244263 0.79185992479324341
0.0048230187967419624 0.77427488565444946 0.83361208438873291
0.097766131162643433 0.77489447593688965 0.83613771200180054
0.32176071405410767 0.76225775480270386 0.82218027114868164
0.58132922649383545 0.77253717184066772 0.82567167282104492
0.78153771162033081 0.80081427097320557 0.843677818775177
0.89076381921768188 0.78709644079208374 0.83568859100341797
0.95907264947891235 0.76368945837020874 0.81024765968322754
0.0007869047112762928 0.87666398286819458 0.783588707447052
0.10035461932420731 0.88196879625320435 0.78986614942550659
0.30998972058296204 0.87778359651565552 0.78852730989456177
0.53826087713241577 0.86134296655654907 0.77674853801727295
0.74809557199478149 0.8847472071647644 0.81157130002975464
0.88668704032897949 0.90121889114379883 0.83259165287017822
0.97168636322021484 0.88551217317581177 0.8219369649887085
0.03020445816218853 0.030798593536019325 0.98516196012496948
0.19895751774311066 0.0060485987924039364 0.97495347261428833
0.39767098426818848 0.0072201299481093884 0.97242069244384766
0.57734471559524536 0.0063084024004638195 0.98140186071395874
0.74207067489624023 0.0017488067969679832 0.98251873254776001
0.87963765859603882 0 0.97120398283004761
0.98778688907623291 0 0.94379377365112305
0.0080545758828520775 0.17184723913669586 0.985545814037323
0.1462942510843277 0.10003183037042618 0.97122400999069214
0.3572656512260437 0.08589654415845871 0.97470682859420776
0.55820107460021973 0.088584184646606445 0.97877895832061768
0.73256701231002808 0.081177309155464172 0.979469895362854
0.87606728076934814 0.074259065091609955 0.97366702556610107
0.9846993088722229 0.078214772045612335 0.94703429937362671
0.0064203152433037758 0.32130274176597595 0.97949051856994629
0.11891081929206848 0.27047106623649597 0.96982508897781372
0.3295532763004303 0.23791265487670898 0.97807508707046509
0.54478257894515991 0.24159710109233856 0.96844494342803955
0.71457755565643311 0.2297394722700119 0.96483051776885986
0.86653727293014526 0.22599148750305176 0.96971845626831055
0.97950893640518188 0.22553595900535583 0.94502133131027222
0.0071373432874679565 0.46497452259063721 0.97687208652496338
0.11011267453432083 0.44315248727798462 0.96571546792984009
0.32848718762397766 0.43174248933792114 0.97154611349105835
0.56682103872299194 0.45853418111801147 0.96237558126449585
0.73153769969940186 0.44715437293052673 0.96918445825576782
0.87807363271713257 0.44203895330429077 0.970054030418396
0.983154296875 0.43251702189445496 0.94047343730926514
0.009427148848772049 0.60859793424606323 0.97717320919036865
0.1088893786072731 0.59803658723831177 0.96424078941345215
0.32794338464736938 0.59281593561172485 0.9654773473739624
0.58238989114761353 0.62783974409103394 0.972137451171875
0.75773054361343384 0.63981980085372925 0.97294247150421143
0.88160580396652222 0.63423293828964233 0.96005755662918091
0.98143374919891357 0.62979257106781006 0.93507689237594604
0.011811529286205769 0.75442719459533691 0.97029763460159302
0.11016035079956055 0.74886500835418701 0.97530508041381836
0.3334583044052124 0.74740266799926758 0.9760056734085083
0.59287959337234497 0.76621389389038086 0.97734355926513672
0.77847325801849365 0.79083985090255737 0.97277206182479858
0.88921636343002319 0.78910869359970093 0.96523582935333252
0.97656333446502686 0.77760618925094604 0.94842541217803955
0.012540435418486595 0.89055830240249634 0.95793545246124268
0.11038526892662048 0.88951402902603149 0.95363849401473999
0.33251246809959412 0.8932005763053894 0.96839010715484619
0.57973402738571167 0.89368349313735962 0.95847868919372559
0.77672499418258667 0.91183042526245117 0.96679228544235229
0.90782582759857178 0.91891896724700928 0.97024917602539062
0.99071896076202393 0.90900558233261108 0.96135032176971436
