assets/lut/inavision louetta.cube
# Created by: G'MIC (https://gmic.eu)
TITLE "louetta"
# LUT size
LUT_3D_SIZE 7
# Data domain
DOMAIN_MIN 0.0 0.0 0.0
DOMAIN_MAX 1.0 1.0 1.0
# LUT data points
0.026287123560905457 0.024659983813762665 0.020523311570286751
0.17539727687835693 0.030958332121372223 0.012019138783216476
0.42158478498458862 0.040971480309963226 0.0033724019303917885
0.59756314754486084 0.036539234220981598 0.0010267071193084121
0.68716436624526978 0.023068640381097794 0.0031747855246067047
0.75175094604492188 0.04080631211400032 0.0012949625961482525
0.7948153018951416 0.054364148527383804 0
0.0081330994144082069 0.13900387287139893 0.055538222193717957
0.10483280569314957 0.15071246027946472 0.034128151834011078
0.31456172466278076 0.18288852274417877 0.011651027947664261
0.5398937463760376 0.20014362037181854 0.0055254767648875713
0.694507896900177 0.20787514746189117 0.00082265818491578102
0.78629964590072632 0.21869206428527832 0
0.85280895233154297 0.23302212357521057 0.001438140869140625
0.0041072769090533257 0.27911791205406189 0.090013705193996429
0.056363753974437714 0.29395943880081177 0.048674594610929489
0.28595754504203796 0.3321787416934967 0.018349172547459602
0.53073674440383911 0.37131431698799133 0.0074133332818746567
0.7215341329574585 0.39090421795845032 0.0012252209708094597
0.82711625099182129 0.40290287137031555 1.4361213288793806e-05
0.91336303949356079 0.4106440544128418 0
0 0.40097799897193909 0.12459902465343475
0.011970744468271732 0.41668534278869629 0.08650004118680954
0.23690120875835419 0.45755961537361145 0.020389556884765625
0.51282334327697754 0.50751352310180664 0.0092277675867080688
0.72732096910476685 0.53590327501296997 0.0023171070497483015
0.85084831714630127 0.54972487688064575 0.0011874180054292083
0.94852972030639648 0.55743002891540527 0.00039439482497982681
0 0.50325554609298706 0.17796608805656433
0.0038621940184384584 0.52442127466201782 0.14605060219764709
0.15270170569419861 0.56851482391357422 0.055027876049280167
0.4784492552280426 0.6204877495765686 0.022295095026493073
0.70629751682281494 0.65403485298156738 0.0095868725329637527
0.86299479007720947 0.67570716142654419 0.0012123107444494963
0.95948535203933716 0.68143683671951294 0
0 0.5802462100982666 0.24982820451259613
0.0013518539490178227 0.60647988319396973 0.2196986973285675
0.069921307265758514 0.65593242645263672 0.15444029867649078
0.43987199664115906 0.71539700031280518 0.058601949363946915
0.6861540675163269 0.75314986705780029 0.032310739159584045
0.8670036792755127 0.77838242053985596 0.010196820832788944
0.96079033613204956 0.78279280662536621 0.004652614239603281
0 0.68056184053421021 0.33641108870506287
0 0.70497864484786987 0.31884938478469849
0.0058736014179885387 0.7523655891418457 0.28674992918968201
0.29476451873779297 0.81821531057357788 0.15816453099250793
0.65337198972702026 0.85792803764343262 0.10617195814847946
0.85699295997619629 0.88495522737503052 0.052865870296955109
0.97310274839401245 0.90048420429229736 0.022202271968126297
0.080090045928955078 0.027334399521350861 0.12824591994285583
0.27392703294754028 0.031821619719266891 0.084824457764625549
0.50470870733261108 0.016401628032326698 0.061650190502405167
0.64445203542709351 0.0061394637450575829 0.055012691766023636
0.72846293449401855 0.0039025850128382444 0.058359377086162567
0.77443534135818481 0.015903173014521599 0.035987824201583862
0.81606554985046387 0.030279556289315224 0.031937409192323685
0.00096586637664586306 0.14907225966453552 0.20088489353656769
0.11128231883049011 0.16065976023674011 0.17641071975231171
0.37085810303688049 0.17451578378677368 0.13024288415908813
0.58872932195663452 0.1721978634595871 0.086745724081993103
0.7281079888343811 0.18104709684848785 0.056848101317882538
0.81450217962265015 0.18996898829936981 0.036029230803251266
0.87462621927261353 0.21767787635326385 0.029333315789699554
0.00026509902090765536 0.2998126745223999 0.24179616570472717
0.020839227363467216 0.31459546089172363 0.2063373327255249
0.29979664087295532 0.35414263606071472 0.14108957350254059
0.56321161985397339 0.37705564498901367 0.110030397772789
0.75352847576141357 0.3926105797290802 0.068980678915977478
0.85043364763259888 0.40332680940628052 0.047869380563497543
0.92986458539962769 0.41332384943962097 0.024346549063920975
0 0.42866775393486023 0.27996867895126343
0.0039640837348997593 0.44777169823646545 0.24986289441585541
0.19715416431427002 0.49153175950050354 0.16146041452884674
0.54116332530975342 0.53053629398345947 0.10818064212799072
0.74911034107208252 0.55144202709197998 0.083714351058006287
0.86812633275985718 0.56274533271789551 0.063864812254905701
0.96571415662765503 0.5682377815246582 0.043875541538000107
0 0.53588086366653442 0.3212701678276062
0.0010652878554537892 0.5589483380317688 0.30730295181274414
0.081085324287414551 0.6028904914855957 0.2359442412853241
0.48875588178634644 0.6534961462020874 0.142098069190979
0.7297707200050354 0.68035316467285156 0.10616998374462128
0.87320399284362793 0.69420886039733887 0.085364080965518951
0.96540600061416626 0.69901663064956665 0.075786039233207703
0 0.61468678712844849 0.37633204460144043
6.3279097958002239e-05 0.64162749052047729 0.35662779211997986
0.033461477607488632 0.68886262178421021 0.31712087988853455
0.42066782712936401 0.75076854228973389 0.18638670444488525
0.6977648138999939 0.78441756963729858 0.15326224267482758
0.86614716053009033 0.80189180374145508 0.12206395715475082
0.97495198249816895 0.81065124273300171 0.1005702018737793
0 0.71253675222396851 0.4430500864982605
0 0.73603790998458862 0.42664352059364319
0.0028856464195996523 0.78159999847412109 0.40491130948066711
0.2552579939365387 0.84897476434707642 0.30083248019218445
0.64010477066040039 0.88544231653213501 0.24675384163856506
0.86247730255126953 0.91525053977966309 0.19495350122451782
0.97414869070053101 0.92584431171417236 0.1706211119890213
0.2173273116350174 0.011647272855043411 0.32927528023719788
0.41718590259552002 0.011645238846540451 0.30600759387016296
0.58028709888458252 0.0013790654484182596 0.26261711120605469
0.69206136465072632 0.0014671625103801489 0.2506076991558075
0.76235771179199219 0.0010681002167984843 0.24314557015895844
0.80446356534957886 0.0014204137260094285 0.23557382822036743
0.85081356763839722 0.0032892564777284861 0.2329011857509613
0.009657721035182476 0.15628443658351898 0.36478754878044128
0.14262750744819641 0.16861584782600403 0.35708296298980713
0.42536363005638123 0.16931986808776855 0.33755326271057129
0.63767552375793457 0.16061876714229584 0.30869996547698975
0.76516616344451904 0.13905267417430878 0.27947309613227844
0.8518296480178833 0.13914196193218231 0.25444439053535461
0.90515458583831787 0.16678257286548615 0.23502850532531738
6.0197417042218149e-05 0.31923386454582214 0.41095420718193054
0.042205255478620529 0.34188497066497803 0.3962036669254303
0.33972340822219849 0.37074702978134155 0.37165617942810059
0.59683090448379517 0.39007383584976196 0.34977319836616516
0.78568863868713379 0.3944491446018219 0.30917933583259583
0.89052784442901611 0.396729975938797 0.2713887095451355
0.9645574688911438 0.40487784147262573 0.24362197518348694
0 0.46163418889045715 0.4470079243183136
0.0024867935571819544 0.48297780752182007 0.43589207530021667
0.19979302585124969 0.52457886934280396 0.38676559925079346
0.56145137548446655 0.55697017908096313 0.35322374105453491
0.78066390752792358 0.5699084997177124 0.32284343242645264
0.89558035135269165 0.57821869850158691 0.29311299324035645
0.98502439260482788 0.58245885372161865 0.28656518459320068
0 0.57109159231185913 0.48470368981361389
0.00063403259264305234 0.5945008397102356 0.47622379660606384
0.091002039611339569 0.6418079137802124 0.43180614709854126
0.50442534685134888 0.68864983320236206 0.3589136004447937
0.75633847713470459 0.71180117130279541 0.31709223985671997
0.88972693681716919 0.71953576803207397 0.31027406454086304
0.98792248964309692 0.72418534755706787 0.30747851729393005
0 0.65321600437164307 0.51804602146148682
9.5741423137951642e-05 0.68025225400924683 0.50821733474731445
0.020288834348320961 0.72783994674682617 0.49341574311256409
0.41863381862640381 0.78699785470962524 0.39010655879974365
0.71233844757080078 0.81558489799499512 0.35109555721282959
0.87248742580413818 0.83076375722885132 0.34326130151748657
0.97871369123458862 0.83512353897094727 0.32429403066635132
0 0.7428814172744751 0.56792497634887695
0 0.77442425489425659 0.56247854232788086
0.0063430787995457649 0.81861436367034912 0.55293190479278564
0.23811419308185577 0.88420599699020386 0.49617218971252441
0.636391282081604 0.92483276128768921 0.45568051934242249
0.85151910781860352 0.9445958137512207 0.41087216138839722
0.97343015670776367 0.95157372951507568 0.36828157305717468
0.33354467153549194 0.00063864013645797968 0.45621213316917419
0.54001045227050781 0.00075415818719193339 0.44585862755775452
0.6769525408744812 0.00087573484051972628 0.42255136370658875
0.73060739040374756 0.00049653893802314997 0.40415406227111816
0.7873528003692627 0.00095852121012285352 0.39729043841362
0.82522010803222656 0.00013194364146329463 0.39506250619888306
0.85829067230224609 0.0039681377820670605 0.3951556384563446
0.045678485184907913 0.14008250832557678 0.50108510255813599
0.24985666573047638 0.14784044027328491 0.50478577613830566
0.48753303289413452 0.13823164999485016 0.49955332279205322
0.67464900016784668 0.13619972765445709 0.48630887269973755
0.78681349754333496 0.11284448951482773 0.46441802382469177
0.86518621444702148 0.11397251486778259 0.44894114136695862
0.92255598306655884 0.13949893414974213 0.43401256203651428
0.0055049671791493893 0.33507969975471497 0.54787236452102661
0.089557036757469177 0.35432213544845581 0.55443531274795532
0.41068318486213684 0.38018009066581726 0.55234396457672119
0.63706964254379272 0.39296498894691467 0.53803974390029907
0.80230522155761719 0.39537501335144043 0.51584118604660034
0.90657180547714233 0.39459607005119324 0.49247908592224121
0.97421061992645264 0.40143397450447083 0.47143441438674927
0 0.48520484566688538 0.58657127618789673
0.013038739562034607 0.50906240940093994 0.5859299898147583
0.27606165409088135 0.54795223474502563 0.58456146717071533
0.58534771203994751 0.57288193702697754 0.57179731130599976
0.79509937763214111 0.58553141355514526 0.54843771457672119
0.90886950492858887 0.58626949787139893 0.52283865213394165
0.99145603179931641 0.5943911075592041 0.51094460487365723
0 0.60307759046554565 0.61744987964630127
0.0018518036231398582 0.6272088885307312 0.61512237787246704
0.135088711977005 0.67443716526031494 0.59113156795501709
0.52621346712112427 0.71270811557769775 0.57230591773986816
0.77183884382247925 0.73292261362075806 0.5467948317527771
0.8962712287902832 0.73890423774719238 0.54387974739074707
0.99128597974777222 0.74598985910415649 0.54149085283279419
0 0.68831026554107666 0.64615851640701294
0.00053196324734017253 0.71897369623184204 0.64099597930908203
0.059872988611459732 0.76442557573318481 0.63470727205276489
0.45038554072380066 0.81415730714797974 0.574196457862854
0.7338026762008667 0.84144675731658936 0.54997724294662476
0.88354575634002686 0.85419034957885742 0.54614710807800293
0.98784357309341431 0.85883074998855591 0.54693615436553955
0 0.77853655815124512 0.67973381280899048
0 0.8066025972366333 0.67897427082061768
0.013727479614317417 0.85610306262969971 0.6791454553604126
0.24653604626655579 0.91669118404388428 0.65794134140014648
0.65601146221160889 0.9482041597366333 0.63019555807113647
0.85480743646621704 0.96682882308959961 0.60858869552612305
0.97345638275146484 0.97626006603240967 0.57851976156234741
0.55218678712844849 0 0.54495835304260254
0.66304636001586914 0.00020590389613062143 0.54456937313079834
0.75773322582244873 0.00062273809453472495 0.53580331802368164
0.78028810024261475 0.00013894474250264466 0.51616454124450684
0.81158047914505005 0.00067479751305654645 0.51408100128173828
0.84331059455871582 0 0.51278436183929443
0.87672948837280273 2.8004365958622657e-05 0.51630127429962158
0.18917837738990784 0.11209686845541 0.61637049913406372
0.38295885920524597 0.10548648983240128 0.62218260765075684
0.56691509485244751 0.13112400472164154 0.61975699663162231
0.7094883918762207 0.093285612761974335 0.61162829399108887
0.8087310791015625 0.10231979936361313 0.60132431983947754
0.87525045871734619 0.094407729804515839 0.58729445934295654
0.92158466577529907 0.12153273820877075 0.57903957366943359
0.029072420671582222 0.34112203121185303 0.66837376356124878
0.22638626396656036 0.35824158787727356 0.68505644798278809
0.49322676658630371 0.37615188956260681 0.68630701303482056
0.68774503469467163 0.38130033016204834 0.68063884973526001
0.82320874929428101 0.38106194138526917 0.6652100682258606
0.922576904296875 0.38071155548095703 0.64831674098968506
0.98032200336456299 0.39588329195976257 0.6322210431098938
0.0020144893787801266 0.50898927450180054 0.70357602834701538
0.056047506630420685 0.53068631887435913 0.71545606851577759
0.40261930227279663 0.56045162677764893 0.72932946681976318
0.63543581962585449 0.58159953355789185 0.71851110458374023
0.81512528657913208 0.59282910823822021 0.70163381099700928
0.92347151041030884 0.59078752994537354 0.68453145027160645
0.9929356575012207 0.60047227144241333 0.66918814182281494
0 0.62842279672622681 0.73108285665512085
0.012905464507639408 0.65604734420776367 0.73970133066177368
0.23909714818000793 0.70178520679473877 0.74816280603408813
0.57162421941757202 0.728443443775177 0.73610901832580566
0.78888630867004395 0.74436390399932861 0.72663867473602295
0.90618997812271118 0.75007796287536621 0.70884609222412109
0.99104577302932739 0.7559933066368103 0.69930166006088257
0 0.72408682107925415 0.75423175096511841
0.0023415659088641405 0.75284069776535034 0.75809669494628906
0.1299348920583725 0.79944491386413574 0.76127660274505615
0.5018889307975769 0.83586782217025757 0.73648679256439209
0.76243513822555542 0.85905826091766357 0.71828371286392212
0.89083325862884521 0.86742544174194336 0.7070123553276062
0.99004077911376953 0.8724513053894043 0.71365088224411011
0 0.81264710426330566 0.78672760725021362
5.3854550060350448e-05 0.84339112043380737 0.79291379451751709
0.015841659158468246 0.8966946005821228 0.80525904893875122
0.27445200085639954 0.94410461187362671 0.80278915166854858
0.68731218576431274 0.97189688682556152 0.78230565786361694
0.86433732509613037 0.98432481288909912 0.7663225531578064
0.9800066351890564 0.98683446645736694 0.75077253580093384
0.71352285146713257 0 0.59469187259674072
0.75488770008087158 0 0.58963590860366821
0.79694586992263794 0.00010052849393105134 0.58576899766921997
0.82857507467269897 1.4002182979311328e-05 0.5778847336769104
0.83518558740615845 7.0010915806051344e-05 0.56976759433746338
0.85354816913604736 0 0.58316504955291748
0.87781614065170288 0.00013068703992757946 0.59594810009002686
0.37083694338798523 0.070316702127456665 0.67916655540466309
0.49633491039276123 0.062420520931482315 0.68378514051437378
0.63207805156707764 0.073096737265586853 0.68880259990692139
0.74155563116073608 0.059660203754901886 0.68154913187026978
0.82609879970550537 0.048067159950733185 0.68256175518035889
0.8840985894203186 0.059500973671674728 0.68296700716018677
0.93365567922592163 0.10651912540197372 0.67698043584823608
0.20521000027656555 0.3405613899230957 0.750538170337677
0.39530429244041443 0.35070443153381348 0.76297366619110107
0.57778549194335938 0.35728445649147034 0.76753848791122437
0.73979580402374268 0.3602454662322998 0.76835936307907104
0.84910213947296143 0.35859182476997375 0.76312172412872314
0.93778121471405029 0.35815504193305969 0.75793910026550293
0.98390752077102661 0.38071385025978088 0.74088329076766968
0.034491147845983505 0.52495753765106201 0.78495770692825317
0.22315602004528046 0.54353052377700806 0.80654507875442505
0.50019961595535278 0.56827598810195923 0.81186282634735107
0.69691169261932373 0.58015960454940796 0.81083029508590698
0.84124088287353516 0.58665764331817627 0.80489742755889893
0.9404836893081665 0.58678191900253296 0.79743146896362305
0.99498963356018066 0.60244321823120117 0.77969372272491455
0.0052075255662202835 0.65503573417663574 0.80615639686584473
0.063773117959499359 0.68216735124588013 0.82013601064682007
0.39087498188018799 0.71602761745452881 0.83829295635223389
0.63305127620697021 0.73509448766708374 0.83525294065475464
0.81607842445373535 0.7484431266784668 0.82994496822357178
0.92043697834014893 0.75087398290634155 0.82002508640289307
0.99066531658172607 0.75703179836273193 0.80845463275909424
0.00072625849861651659 0.75446230173110962 0.82699751853942871
0.028939101845026016 0.78295081853866577 0.83744245767593384
0.26824918389320374 0.82224541902542114 0.85150384902954102
0.56793886423110962 0.8492656946182251 0.8407784104347229
0.79130262136459351 0.86622267961502075 0.83509808778762817
0.90182352066040039 0.87567800283432007 0.8311316967010498
0.98891890048980713 0.87821847200393677 0.83028805255889893
0 0.85157883167266846 0.86043590307235718
0.0010499692289158702 0.87917298078536987 0.86995667219161987
0.050144597887992859 0.92744559049606323 0.88416039943695068
0.39823129773139954 0.95871627330780029 0.88412249088287354
0.7300296425819397 0.98040652275085449 0.8747560977935791
0.87615877389907837 0.98442912101745605 0.86600989103317261
0.98676109313964844 0.98770272731781006 0.85960698127746582
0.8124883770942688 0 0.62893104553222656
0.82997071743011475 0 0.62264782190322876
0.84077161550521851 0 0.61822390556335449
0.84999507665634155 0.00068366853520274162 0.61793166399002075
0.85058361291885376 0 0.61534494161605835
0.85697144269943237 0 0.61971479654312134
0.88855475187301636 0 0.65407842397689819
0.51922690868377686 0.043299388140439987 0.72173619270324707
0.60722845792770386 0.048702389001846313 0.72664040327072144
0.697540283203125 0.032884486019611359 0.7263219952583313
0.77143901586532593 0.043225891888141632 0.71952629089355469
0.84414106607437134 0.037983208894729614 0.73048585653305054
0.88278412818908691 0.026479892432689667 0.72312033176422119
0.92414736747741699 0.040113501250743866 0.73036253452301025
0.41238433122634888 0.33208575844764709 0.8130570650100708
0.52956026792526245 0.33015930652618408 0.82505297660827637
0.66848820447921753 0.32871723175048828 0.82788747549057007
0.78138560056686401 0.33371636271476746 0.82271474599838257
0.87769919633865356 0.32622483372688293 0.823974609375
0.9475245475769043 0.3338586688041687 0.81208574771881104
0.98652952909469604 0.35570600628852844 0.80438715219497681
0.27484321594238281 0.53780984878540039 0.87325382232666016
0.43191438913345337 0.55040472745895386 0.87735545635223389
0.59533250331878662 0.56505554914474487 0.87434178590774536
0.76052933931350708 0.5697704553604126 0.87464207410812378
0.86841648817062378 0.57276779413223267 0.86985069513320923
0.95760571956634521 0.5791393518447876 0.85808724164962769
0.99460607767105103 0.58698588609695435 0.83905196189880371
0.050473351031541824 0.68149101734161377 0.87785047292709351
0.28971275687217712 0.70775562524795532 0.90632182359695435
0.51262360811233521 0.72053873538970947 0.90423160791397095
0.70798921585083008 0.73990428447723389 0.90438181161880493
0.84107184410095215 0.74441218376159668 0.88787150382995605
0.94377464056015015 0.75038331747055054 0.89132463932037354
0.9974483847618103 0.76005393266677856 0.87776285409927368
0.01080875750631094 0.78698873519897461 0.9003862738609314
0.14443601667881012 0.81385886669158936 0.91518783569335938
0.40878835320472717 0.83749294281005859 0.92145341634750366
0.64717668294906616 0.85686308145523071 0.91927587985992432
0.82184803485870361 0.87040120363235474 0.91325873136520386
0.91942131519317627 0.87382352352142334 0.9069933295249939
0.99097120761871338 0.87722963094711304 0.89925676584243774
0 0.86128151416778564 0.9122588038444519
0.051461551338434219 0.89029258489608765 0.9257240891456604
0.29524034261703491 0.91609007120132446 0.93545591831207275
0.55280524492263794 0.94508039951324463 0.93616634607315063
0.78940773010253906 0.96216380596160889 0.9297904372215271
0.89378052949905396 0.9730609655380249 0.92532932758331299
0.9921686053276062 0.97759449481964111 0.91826772689819336
