assets/lut/inavision jwick 21.cube
# Created by: G'MIC (https://gmic.eu)
TITLE "jwick_21"
# LUT size
LUT_3D_SIZE 7
# Data domain
DOMAIN_MIN 0.0 0.0 0.0
DOMAIN_MAX 1.0 1.0 1.0
# LUT data points
0.003392387880012393 0.0083757741376757622 0.037608113139867783
0.036947630345821381 0.0089334677904844284 0.037626497447490692
0.13672187924385071 0.015930743888020515 0.04718945175409317
0.25405210256576538 0.018495507538318634 0.048854153603315353
0.39999443292617798 0.01436296384781599 0.042330183088779449
0.59873592853546143 0.016374669969081879 0.039893072098493576
0.79065561294555664 0.016100266948342323 0.046294853091239929
0.0042984457686543465 0.088177010416984558 0.041262384504079819
0.038109857589006424 0.09029725193977356 0.036191649734973907
0.13835786283016205 0.12953443825244904 0.038666609674692154
0.25370806455612183 0.14764168858528137 0.036658808588981628
0.39777061343193054 0.16085144877433777 0.022934183478355408
0.59935885667800903 0.17531205713748932 0.021045131608843803
0.79117649793624878 0.17906014621257782 0.013841382227838039
0.008327738381922245 0.24755845963954926 0.049133628606796265
0.06162884458899498 0.24112002551555634 0.027739880606532097
0.14328421652317047 0.24834334850311279 0.039897903800010681
0.24828870594501495 0.26434332132339478 0.046813726425170898
0.3957444429397583 0.29104322195053101 0.045391861349344254
0.59696990251541138 0.33448007702827454 0.049750924110412598
0.79189819097518921 0.3482053279876709 0.043893374502658844
0.0093407575041055679 0.38533470034599304 0.051200434565544128
0.074800677597522736 0.38503435254096985 0.030105754733085632
0.15947480499744415 0.38554662466049194 0.040711946785449982
0.25313571095466614 0.3849828839302063 0.040984660387039185
0.39487719535827637 0.41155791282653809 0.042413808405399323
0.59855395555496216 0.4710536003112793 0.041624706238508224
0.7902064323425293 0.49062469601631165 0.027463247999548912
0.0090756881982088089 0.58439058065414429 0.052338946610689163
0.091379441320896149 0.58135944604873657 0.012035534717142582
0.19412721693515778 0.57784515619277954 0.012487209402024746
0.30517569184303284 0.57737159729003906 0.031210416927933693
0.44000566005706787 0.58942681550979614 0.044764723628759384
0.60034751892089844 0.61083287000656128 0.041114222258329391
0.78605884313583374 0.63526314496994019 0.025404313579201698
0.0097240675240755081 0.7895628809928894 0.054719079285860062
0.098959952592849731 0.78454363346099854 0.010983605869114399
0.21878258883953094 0.7823912501335144 0.0014103908324614167
0.35437223315238953 0.78799766302108765 0.011621198616921902
0.49529197812080383 0.79035359621047974 0.032103147357702255
0.63546168804168701 0.78474640846252441 0.037301890552043915
0.79745030403137207 0.79124248027801514 0.037574272602796555
0.0097493492066860199 0.95343136787414551 0.055466983467340469
0.10013146698474884 0.95316767692565918 0.0097396550700068474
0.22400468587875366 0.95609712600708008 0
0.36771491169929504 0.96311575174331665 0.0012839821865782142
0.51508206129074097 0.96376699209213257 0.012845701538026333
0.66042029857635498 0.95768958330154419 0.031250044703483582
0.81434434652328491 0.95380580425262451 0.046526066958904266
0.0042175441049039364 0.013847799971699715 0.1450115442276001
0.038121331483125687 0.0098400488495826721 0.14771506190299988
0.13843448460102081 0.0056076198816299438 0.20117606222629547
0.2553105354309082 0.0077435662969946861 0.22601819038391113
0.39600807428359985 0.0076851937919855118 0.24287216365337372
0.60085785388946533 0.0077335131354629993 0.27871859073638916
0.79117649793624878 0.0077252555638551712 0.29072004556655884
0.0032560611143708229 0.098845586180686951 0.15999999642372131
0.039624307304620743 0.093226410448551178 0.14815616607666016
0.13982473313808441 0.099398687481880188 0.15097624063491821
0.25477749109268188 0.1050339937210083 0.15741129219532013
0.3961283266544342 0.10401883721351624 0.15919062495231628
0.60077422857284546 0.10720712691545486 0.16410569846630096
0.79075294733047485 0.10777333378791809 0.15925496816635132
0.001614738954231143 0.24553221464157104 0.20850419998168945
0.041781183332204819 0.24783246219158173 0.16879747807979584
0.14034289121627808 0.2510315477848053 0.14554351568222046
0.2500060498714447 0.25590741634368896 0.15103283524513245
0.3958800733089447 0.2732836902141571 0.14722728729248047
0.59895122051239014 0.30054968595504761 0.14582937955856323
0.79469001293182373 0.30754297971725464 0.13620069622993469
0.002901668194681406 0.38689768314361572 0.22671562433242798
0.05195305123925209 0.38853627443313599 0.16758565604686737
0.14736516773700714 0.38988837599754333 0.14930450916290283
0.25144389271736145 0.38485291600227356 0.14988742768764496
0.39576584100723267 0.40988853573799133 0.15181909501552582
0.59746259450912476 0.46263483166694641 0.15700051188468933
0.7933465838432312 0.48177915811538696 0.14729563891887665
2.8722427032334963e-06 0.58480703830718994 0.25724494457244873
0.057263601571321487 0.58980679512023926 0.18565733730792999
0.17439594864845276 0.58558309078216553 0.14311259984970093
0.29032018780708313 0.57586503028869629 0.14578938484191895
0.43428349494934082 0.58657991886138916 0.15278249979019165
0.60976260900497437 0.61840933561325073 0.16159527003765106
0.79192429780960083 0.64118021726608276 0.15724752843379974
0 0.78983646631240845 0.27102392911911011
0.064432196319103241 0.79146802425384521 0.19851580262184143
0.19028118252754211 0.79129183292388916 0.13800977170467377
0.32879319787025452 0.7880135178565979 0.13484528660774231
0.48355281352996826 0.7887883186340332 0.14279456436634064
0.64039832353591919 0.79322963953018188 0.15501263737678528
0.80085808038711548 0.80039554834365845 0.16745257377624512
0 0.9545474648475647 0.27771404385566711
0.062019661068916321 0.95343136787414551 0.19606460630893707
0.18855124711990356 0.95841354131698608 0.12253928184509277
0.3388344943523407 0.96640276908874512 0.12413576990365982
0.49751934409141541 0.96763008832931519 0.13970334827899933
0.65350663661956787 0.96484959125518799 0.15795350074768066
0.81160587072372437 0.96235615015029907 0.17557458579540253
0.011917473748326302 0.021141935139894485 0.33123371005058289
0.060602210462093353 0.0039976229891180992 0.32747715711593628
0.14699579775333405 0.0050653195939958096 0.33743429183959961
0.25547134876251221 0.0075768264941871166 0.36323094367980957
0.39624309539794922 0.0082153622061014175 0.39516866207122803
0.5912659764289856 0.0086839413270354271 0.4363919198513031
0.78628075122833252 0.0085155265405774117 0.46008899807929993
0.0032646777108311653 0.13540737330913544 0.33551469445228577
0.047285087406635284 0.10317457467317581 0.33464923501014709
0.14098088443279266 0.088459864258766174 0.33569240570068359
0.25220704078674316 0.090099990367889404 0.34251576662063599
0.39522379636764526 0.087941579520702362 0.36567562818527222
0.59311211109161377 0.08801531046628952 0.40822434425354004
0.78896027803421021 0.088446676731109619 0.42406830191612244
0.0011022679973393679 0.25714769959449768 0.34969896078109741
0.036619149148464203 0.25267106294631958 0.3445584774017334
0.13263887166976929 0.24062828719615936 0.33177611231803894
0.24924103915691376 0.23579524457454681 0.32342416048049927
0.3963128924369812 0.24430721998214722 0.33008033037185669
0.59438270330429077 0.25490105152130127 0.34228792786598206
0.7918550968170166 0.25367918610572815 0.33941620588302612
0.0029849631246179342 0.39235875010490417 0.37455156445503235
0.04447772353887558 0.39597198367118835 0.35617482662200928
0.13978157937526703 0.38885354995727539 0.33829230070114136
0.2517857551574707 0.38312786817550659 0.33038106560707092
0.39787369966506958 0.40564894676208496 0.3365631103515625
0.59835571050643921 0.44149816036224365 0.33449941873550415
0.79181748628616333 0.44762584567070007 0.32406628131866455
0.0016633875202387571 0.58662813901901245 0.4259583055973053
0.047486621886491776 0.58850842714309692 0.39532333612442017
0.15026223659515381 0.58631283044815063 0.35382506251335144
0.27254903316497803 0.58051216602325439 0.32554182410240173
0.42076206207275391 0.58509409427642822 0.32313746213912964
0.60350322723388672 0.60884177684783936 0.33688193559646606
0.79086077213287354 0.63171267509460449 0.33635357022285461
0.00014427035057451576 0.79243117570877075 0.46911990642547607
0.048632737249135971 0.79288244247436523 0.42435696721076965
0.15671184659004211 0.79501867294311523 0.36323738098144531
0.29429745674133301 0.7916572093963623 0.32225421071052551
0.45198190212249756 0.78799021244049072 0.30952939391136169
0.6224103569984436 0.79076844453811646 0.31745478510856628
0.79671680927276611 0.79985219240188599 0.32472214102745056
0 0.95910471677780151 0.49100616574287415
0.044331301003694534 0.9584423303604126 0.43463638424873352
0.1598343700170517 0.96377485990524292 0.35657978057861328
0.30564945936203003 0.96819853782653809 0.32214808464050293
0.46727916598320007 0.96779400110244751 0.31198084354400635
0.63455432653427124 0.96678918600082397 0.31482440233230591
0.80406975746154785 0.96544551849365234 0.32443398237228394
0.01163584366440773 0.029681246727705002 0.49927440285682678
0.066426359117031097 0.0032853968441486359 0.4969194233417511
0.16326257586479187 0.005773626733571291 0.49272701144218445
0.26258501410484314 0.0068627451546490192 0.50056511163711548
0.3902105987071991 0.0092266453430056572 0.52267581224441528
0.57354998588562012 0.013879379257559776 0.57221126556396484
0.77207028865814209 0.014323635026812553 0.60735654830932617
0.00093147426377981901 0.15325093269348145 0.50062960386276245
0.041122674942016602 0.109040267765522 0.49975830316543579
0.14339008927345276 0.095788635313510895 0.5005871057510376
0.2533804178237915 0.094248935580253601 0.49556949734687805
0.38839635252952576 0.0909462571144104 0.51538527011871338
0.57853829860687256 0.10143894702196121 0.57228356599807739
0.77894496917724609 0.10634418576955795 0.60641598701477051
0 0.27210900187492371 0.49917814135551453
0.033051867038011551 0.25965222716331482 0.49987760186195374
0.1296469122171402 0.24265345931053162 0.50311630964279175
0.25230115652084351 0.24425242841243744 0.49440303444862366
0.39330247044563293 0.24091179668903351 0.50192642211914062
0.5870811939239502 0.24216063320636749 0.53821730613708496
0.78729182481765747 0.24210898578166962 0.5575946569442749
0.0035001717042177916 0.3887973427772522 0.50187307596206665
0.043257199227809906 0.39764195680618286 0.50965094566345215
0.13401363790035248 0.39132177829742432 0.50907891988754272
0.25205281376838684 0.39035886526107788 0.50598990917205811
0.39714527130126953 0.39483320713043213 0.50101792812347412
0.59742802381515503 0.40951475501060486 0.50570905208587646
0.79176729917526245 0.40911650657653809 0.50476539134979248
0.0090957190841436386 0.57843309640884399 0.55797380208969116
0.049943406134843826 0.58184099197387695 0.55545520782470703
0.13732554018497467 0.58130937814712524 0.54159539937973022
0.25967204570770264 0.58651065826416016 0.51105666160583496
0.40566504001617432 0.5842825174331665 0.49283987283706665
0.59880298376083374 0.5985906720161438 0.49618875980377197
0.7906264066696167 0.60690653324127197 0.49659714102745056
0.0024024215526878834 0.78859043121337891 0.62332898378372192
0.047960363328456879 0.78907638788223267 0.60901248455047607
0.13823904097080231 0.79258561134338379 0.57944577932357788
0.26718279719352722 0.79287278652191162 0.52962476015090942
0.42205166816711426 0.78968203067779541 0.49970954656600952
0.6037367582321167 0.78896474838256836 0.491993248462677
0.79087269306182861 0.79212379455566406 0.48945042490959167
0 0.96286505460739136 0.65822911262512207
0.046313446015119553 0.96354925632476807 0.63194745779037476
0.14573219418525696 0.96482300758361816 0.58642828464508057
0.27903011441230774 0.96681118011474609 0.5423852801322937
0.43756270408630371 0.96681052446365356 0.51291722059249878
0.61351710557937622 0.96523177623748779 0.49659714102745056
0.79496771097183228 0.96375411748886108 0.49305689334869385
0.0087703783065080643 0.034189246594905853 0.67482948303222656
0.069601185619831085 0.0011220894521102309 0.68070060014724731
0.17910502851009369 0.00031810087966732681 0.68507528305053711
0.29152670502662659 0.004375068936496973 0.68644857406616211
0.41472068428993225 0.014905144460499287 0.68988496065139771
0.58276236057281494 0.021935347467660904 0.72117900848388672
0.77073174715042114 0.021910021081566811 0.74644291400909424
0.00029952105251140893 0.17565670609474182 0.68776804208755493
0.042234651744365692 0.11558302491903305 0.69400942325592041
0.1565091460943222 0.090657569468021393 0.69721406698226929
0.28158837556838989 0.098944872617721558 0.69157546758651733
0.41888865828514099 0.10875019431114197 0.69853454828262329
0.59086781740188599 0.11713983863592148 0.73563879728317261
0.77936011552810669 0.12077333033084869 0.76148056983947754
0 0.30819031596183777 0.69372081756591797
0.033988337963819504 0.28632187843322754 0.6950727105140686
0.13665205240249634 0.25312924385070801 0.69823986291885376
0.26782652735710144 0.24574057757854462 0.6954033374786377
0.41564241051673889 0.24549239873886108 0.69688904285430908
0.59798884391784668 0.24139203131198883 0.72918051481246948
0.79004436731338501 0.24636907875537872 0.75374525785446167
0.0030687518883496523 0.4279429018497467 0.69179177284240723
0.042767826467752457 0.42895516753196716 0.69217699766159058
0.13742014765739441 0.41795289516448975 0.69493728876113892
0.25397723913192749 0.40683352947235107 0.70280277729034424
0.40263977646827698 0.39327129721641541 0.69639056921005249
0.59891349077224731 0.38243222236633301 0.70064699649810791
0.79503816366195679 0.39214840531349182 0.71492046117782593
0.0068752216175198555 0.59511911869049072 0.72382599115371704
0.052027981728315353 0.59489899873733521 0.72158479690551758
0.13963888585567474 0.59042370319366455 0.71562755107879639
0.25425475835800171 0.59470832347869873 0.71154201030731201
0.39788925647735596 0.58920544385910034 0.69278252124786377
0.59626591205596924 0.58284628391265869 0.68841016292572021
0.79267960786819458 0.58614355325698853 0.69350272417068481
0.0031350976787507534 0.78990781307220459 0.77361708879470825
0.052515365183353424 0.78791117668151855 0.77009487152099609
0.13849559426307678 0.78462105989456177 0.759624183177948
0.25624558329582214 0.78728371858596802 0.73349106311798096
0.40787753462791443 0.78907078504562378 0.70646077394485474
0.59848451614379883 0.78798508644104004 0.69578707218170166
0.79144346714019775 0.78726089000701904 0.69097435474395752
0.001071989769116044 0.96164149045944214 0.80892705917358398
0.054208405315876007 0.96060127019882202 0.79961055517196655
0.14354130625724792 0.95764011144638062 0.78012079000473022
0.26480156183242798 0.95918339490890503 0.74929332733154297
0.41886106133460999 0.96126431226730347 0.72172349691390991
0.60087019205093384 0.96203899383544922 0.70554584264755249
0.78961670398712158 0.96016037464141846 0.69844686985015869
0.0079302322119474411 0.030846225097775459 0.85174232721328735
0.083791725337505341 0.0014823763631284237 0.86865347623825073
0.20359881222248077 0 0.88110083341598511
0.34020248055458069 0.0025318071711808443 0.89209318161010742
0.47253754734992981 0.015834135934710503 0.88315087556838989
0.61914443969726562 0.023455241695046425 0.87802588939666748
0.78484177589416504 0.024098563939332962 0.87710213661193848
0.00025634764460846782 0.18833349645137787 0.87909293174743652
0.053051009774208069 0.12882810831069946 0.89798069000244141
0.17741547524929047 0.077401198446750641 0.89613944292068481
0.32571843266487122 0.098985768854618073 0.89355623722076416
0.47318068146705627 0.11972323805093765 0.89110535383224487
0.62380212545394897 0.12402082234621048 0.89265018701553345
0.79078191518783569 0.1244966983795166 0.89315736293792725
0.00041629566112533212 0.34323579072952271 0.89824819564819336
0.033492084592580795 0.31809651851654053 0.89897489547729492
0.14375598728656769 0.26276499032974243 0.89108467102050781
0.29161021113395691 0.24183548986911774 0.89147841930389404
0.46056151390075684 0.24637845158576965 0.89534884691238403
0.62084513902664185 0.23932823538780212 0.8963698148727417
0.79532933235168457 0.24121995270252228 0.89469248056411743
0.0030392066109925508 0.47715520858764648 0.89540970325469971
0.040554676204919815 0.47251778841018677 0.88910198211669922
0.13971243798732758 0.45410558581352234 0.89148670434951782
0.25067505240440369 0.41437748074531555 0.89936625957489014
0.41517844796180725 0.38584163784980774 0.90155375003814697
0.60376733541488647 0.38088756799697876 0.89304059743881226
0.7934766411781311 0.38956412672996521 0.89006179571151733
0.004378599114716053 0.62851274013519287 0.89892512559890747
0.052168212831020355 0.62817627191543579 0.89872235059738159
0.14494189620018005 0.62499821186065674 0.90231466293334961
0.25709807872772217 0.61139827966690063 0.90189355611801147
0.40288013219833374 0.58651936054229736 0.8934137225151062
0.59625810384750366 0.57976168394088745 0.89354008436203003
0.79183626174926758 0.58785051107406616 0.89981269836425781
0.0077353082597255707 0.79738312959671021 0.92421573400497437
0.058942548930644989 0.79535484313964844 0.9217793345451355
0.14257876574993134 0.79072654247283936 0.92049598693847656
0.25467261672019958 0.78764063119888306 0.90946966409683228
0.40529778599739075 0.78606206178665161 0.89565926790237427
0.5989874005317688 0.7885669469833374 0.89954161643981934
0.79314380884170532 0.7901727557182312 0.90035969018936157
0.0082003874704241753 0.95683366060256958 0.94226080179214478
0.064064159989356995 0.95709758996963501 0.93663245439529419
0.145939901471138 0.95343136787414551 0.93056350946426392
0.25681877136230469 0.95592713356018066 0.91255253553390503
0.40731188654899597 0.95596951246261597 0.90016454458236694
0.59332066774368286 0.95670586824417114 0.90285599231719971
0.78667503595352173 0.95657968521118164 0.90731620788574219
0.0091474493965506554 0.024879366159439087 0.98187792301177979
0.092736639082431793 0.0023120956029742956 0.9918510913848877
0.21836507320404053 0 0.99774181842803955
0.36737886071205139 0.0010831945110112429 1
0.5089033842086792 0.010514876805245876 0.99914729595184326
0.64882344007492065 0.017663020640611649 0.99357360601425171
0.80267333984375 0.020934265106916428 0.98380368947982788
0.00033802705002017319 0.18632124364376068 0.99251019954681396
0.055944763123989105 0.13753199577331543 0.99666076898574829
0.18063339591026306 0.085077486932277679 0.99539744853973389
0.34649235010147095 0.10005587339401245 0.99792927503585815
0.50024139881134033 0.1183755174279213 0.9984288215637207
0.64548575878143311 0.12111221253871918 0.99622726440429688
0.80285793542861938 0.12249715626239777 0.99014008045196533
0 0.35364228487014771 0.99772244691848755
0.034914787858724594 0.3262668251991272 0.98852866888046265
0.1444336324930191 0.27114981412887573 0.98350578546524048
0.30196475982666016 0.24702925980091095 0.98433202505111694
0.4653264582157135 0.240616574883461 0.9935455322265625
0.62876695394515991 0.23622924089431763 0.99468779563903809
0.79951077699661255 0.23698011040687561 0.98798447847366333
0 0.50149601697921753 0.99938374757766724
0.03442547470331192 0.49250087141990662 0.99660247564315796
0.13738209009170532 0.46876722574234009 0.99544137716293335
0.24765972793102264 0.41339582204818726 0.98896199464797974
0.41122978925704956 0.38790944218635559 0.9922446608543396
0.60275256633758545 0.38296598196029663 0.99405431747436523
0.79154080152511597 0.38275620341300964 0.98588764667510986
0.00099381094332784414 0.65020346641540527 0.99926471710205078
0.047629799693822861 0.64801138639450073 0.99939465522766113
0.14179454743862152 0.64087474346160889 0.99939954280853271
0.25538197159767151 0.62022680044174194 0.99449121952056885
0.40290376543998718 0.59176945686340332 0.99332666397094727
0.5919564962387085 0.58051967620849609 0.9974711537361145
0.78738075494766235 0.58219873905181885 0.99802762269973755
0.0055384319275617599 0.80307066440582275 0.99994629621505737
0.060403533279895782 0.80331921577453613 1
0.14340159296989441 0.8012688159942627 1
0.2540246844291687 0.79592651128768921 0.9988853931427002
0.40381085872650146 0.78722184896469116 0.99702507257461548
0.59210354089736938 0.7843245267868042 0.99901211261749268
0.78884804248809814 0.78850185871124268 0.99752199649810791
0.010099777951836586 0.95354807376861572 0.998421311378479
0.069817610085010529 0.95726519823074341 1
0.14958104491233826 0.9579085111618042 1
0.25621059536933899 0.96127450466156006 0.99864840507507324
0.40641313791275024 0.95688754320144653 0.9981885552406311
0.59191179275512695 0.95357239246368408 0.9990803599357605
0.78839743137359619 0.95689010620117188 0.99392426013946533
