assets/lut/inavision london nights.cube
# Created by: G'MIC (https://gmic.eu)
TITLE "london_nights"
# LUT size
LUT_3D_SIZE 13
# Data domain
DOMAIN_MIN 0.0 0.0 0.0
DOMAIN_MAX 1.0 1.0 1.0
# LUT data points
0.0033511891961097717 0.0011133679654449224 0.0042045442387461662
0.066511459648609161 0.00064212572760879993 0.014521370641887188
0.17757701873779297 0.0010075587779283524 0.016002325341105461
0.32270869612693787 0.0012241437798365951 0.021574446931481361
0.43992727994918823 0.0014874327462166548 0.026240942999720573
0.54153186082839966 0.0036182478070259094 0.019772818312048912
0.60757553577423096 0.00046944711357355118 0.022218577563762665
0.6437956690788269 0 0.028984203934669495
0.67182117700576782 4.2978921555913985e-05 0.028681647032499313
0.70050787925720215 0.0011176912812516093 0.030149796977639198
0.719929039478302 0.00098205264657735825 0.047720532864332199
0.7334180474281311 0 0.060141574591398239
0.74456506967544556 0 0.060477595776319504
0 0.01597086526453495 7.7371034421958029e-05
0.0032679240684956312 0.016223862767219543 0.003321539144963026
0.063557855784893036 0.025471078231930733 0.0061608110554516315
0.19885437190532684 0.034339260309934616 0.0056496863253414631
0.34788897633552551 0.040768984705209732 0.0053403070196509361
0.48620361089706421 0.044595740735530853 0.0059098787605762482
0.58771061897277832 0.028174307197332382 0.012536336667835712
0.65578591823577881 0.0086845094338059425 0.016636358574032784
0.7050287127494812 0.0081478189677000046 0.016822859644889832
0.74502331018447876 0.018415952101349831 0.019610071554780006
0.77118837833404541 0.028768561780452728 0.034080952405929565
0.78855407238006592 0.020423978567123413 0.045815099030733109
0.80098921060562134 0.0084511851891875267 0.045169215649366379
0 0.058417122811079025 0.0006469577201642096
0.0023930268362164497 0.063034027814865112 0.0044232984073460102
0.055917464196681976 0.081227980554103851 0.0069754654541611671
0.17625045776367188 0.10085093230009079 0.0050921868532896042
0.32601425051689148 0.118247389793396 0.0034919141326099634
0.47191682457923889 0.13000577688217163 0.0066454121842980385
0.59117883443832397 0.12792873382568359 0.013426014222204685
0.67513364553451538 0.11415499448776245 0.0090315425768494606
0.73476231098175049 0.10897720605134964 0.0078393528237938881
0.78197270631790161 0.10762837529182434 0.017323512583971024
0.81471079587936401 0.11451146751642227 0.032173231244087219
0.83574497699737549 0.10438746958971024 0.039317652583122253
0.84949743747711182 0.083944015204906464 0.033581767231225967
0.00040353514486923814 0.11971946805715561 0.0027906829491257668
8.5075225797481835e-05 0.12640371918678284 0.0056850207038223743
0.029293838888406754 0.14902132749557495 0.004992122296243906
0.14619909226894379 0.17630060017108917 0.0040279165841639042
0.30646973848342896 0.20430858433246613 0.0039886622689664364
0.4613240659236908 0.22823895514011383 0.0059315399266779423
0.59007519483566284 0.24145008623600006 0.0062778247520327568
0.68581348657608032 0.2460310310125351 0.0023109137546271086
0.75606417655944824 0.24681095778942108 0.0014182744780555367
0.80956816673278809 0.24139489233493805 0.0064877825789153576
0.84723305702209473 0.23721852898597717 0.019674353301525116
0.87243711948394775 0.22439832985401154 0.024684172123670578
0.88886111974716187 0.20378567278385162 0.018404223024845123
0.0016285316087305546 0.18351045250892639 0.0045674042776226997
0 0.19039744138717651 0.0064300536178052425
0.018856437876820564 0.21464696526527405 0.0049491431564092636
0.11662910133600235 0.24934482574462891 0.0030640098266303539
0.27814960479736328 0.28684160113334656 0.0021034539677202702
0.44399186968803406 0.31923070549964905 0.0025122398510575294
0.58090060949325562 0.3402557373046875 0.0021709217689931393
0.68793582916259766 0.35038813948631287 0.00083384796744212508
0.76782059669494629 0.35679411888122559 0.00022618910588789731
0.82647520303726196 0.35796657204627991 0.0011798783671110868
0.86859959363937378 0.35284286737442017 0.0049337050877511501
0.89783501625061035 0.34062570333480835 0.007657952606678009
0.91788917779922485 0.32222270965576172 0.0075459051877260208
0.0015476301778107882 0.23804526031017303 0.0026777829043567181
0 0.24678479135036469 0.0041477875784039497
0.0068566114641726017 0.27414941787719727 0.0035134260542690754
0.0733976811170578 0.31612536311149597 0.0029260073788464069
0.23214763402938843 0.36142650246620178 0.0013052248395979404
0.41512003540992737 0.4006960391998291 0.00032510195160284638
0.56266623735427856 0.42808741331100464 0.00030786849674768746
0.67992484569549561 0.44404906034469604 1.7951517293113284e-05
0.76911360025405884 0.45420640707015991 0
0.83462983369827271 0.45825806260108948 0
0.88211637735366821 0.45563778281211853 0.00011040183017030358
0.91540414094924927 0.44472166895866394 0.00069921155227348208
0.93910187482833862 0.42750859260559082 0.0018881404539570212
0.0016678156098350883 0.28993654251098633 0.00083205278497189283
0 0.30043938755989075 0.0010117325000464916
0.00052974926074966788 0.33028340339660645 0.00082241883501410484
0.022254928946495056 0.37545686960220337 0.00091810041340067983
0.15191513299942017 0.42520236968994141 0.00024295882030855864
0.36373105645179749 0.47034874558448792 0
0.53473871946334839 0.50514143705368042 0
0.66265290975570679 0.52964746952056885 0
0.76191014051437378 0.54389828443527222 0
0.83641177415847778 0.55031472444534302 0
0.88929641246795654 0.54844802618026733 0
0.92744648456573486 0.5390504002571106 0
0.95550155639648438 0.5222894549369812 1.4002182979311328e-05
0.0022493698634207249 0.33566978573799133 0
0.00092927523655816913 0.34891775250434875 0
3.6022709537064657e-05 0.38014551997184753 0
0.0066531761549413204 0.42611661553382874 0
0.10007458925247192 0.47807258367538452 0
0.30966886878013611 0.52862519025802612 0
0.50125473737716675 0.5711444616317749 0
0.64023131132125854 0.60212081670761108 0
0.75046736001968384 0.62217915058135986 0
0.83255290985107422 0.63176536560058594 0
0.8914533257484436 0.63183039426803589 0
0.93448323011398315 0.62369620800018311 0
0.96714144945144653 0.60887241363525391 0
0.0016053143190219998 0.36929813027381897 0
0.0041126026771962643 0.3846031129360199 0
0.0016238942043855786 0.41769859194755554 0
0.0034919888712465763 0.46565547585487366 0
0.064125150442123413 0.52018183469772339 0
0.25372982025146484 0.57568264007568359 0
0.46448150277137756 0.62364083528518677 0
0.61697804927825928 0.66088539361953735 0
0.7358662486076355 0.68646001815795898 0
0.82398128509521484 0.69971650838851929 0
0.88821017742156982 0.70311820507049561 0
0.93614047765731812 0.69799917936325073 0
0.97367256879806519 0.6853489875793457 0
0.0018426933092996478 0.3976719081401825 0.0010846306104212999
0.0035781711339950562 0.41261011362075806 0.001626242883503437
0.000586461101192981 0.44440260529518127 0.0002030765317613259
0.00055541994515806437 0.495107501745224 1.6156365063579869e-06
0.032006371766328812 0.55293899774551392 0
0.19122973084449768 0.61051172018051147 0.00027459836564958096
0.40748351812362671 0.6623307466506958 1.8669577912078239e-05
0.58057498931884766 0.70425200462341309 0
0.71072423458099365 0.73477953672409058 0
0.8073350191116333 0.75286340713500977 0
0.87858963012695312 0.76083582639694214 0
0.93275243043899536 0.76006263494491577 0
0.97537106275558472 0.75143742561340332 0
0.0020462186075747013 0.42306539416313171 0.0031710905022919178
0.0018753650365397334 0.43751430511474609 0.0086001679301261902
8.9458389993524179e-06 0.46862465143203735 0.0067395679652690887
1.7502728951512836e-05 0.52048468589782715 0.0017614177195355296
0.021767411381006241 0.57988250255584717 0
0.14903853833675385 0.6371644139289856 0.00045876597869209945
0.3465883731842041 0.6900482177734375 0.00025923486100509763
0.53667712211608887 0.73520684242248535 0
0.68008506298065186 0.76963925361633301 0
0.7842826247215271 0.79276835918426514 0
0.86247754096984863 0.80641871690750122 0
0.92335653305053711 0.81178092956542969 0
0.97150874137878418 0.80889898538589478 0
0.00018611234554555267 0.44181820750236511 0.00043831620132550597
0.00030182482441887259 0.45832544565200806 0.0070095285773277283
0 0.48923462629318237 0.010194097645580769
2.4503820895915851e-05 0.53987514972686768 0.0027971605304628611
0.015628620982170105 0.59922009706497192 0
0.10408817231655121 0.65702909231185913 1.497455650678603e-05
0.27440378069877625 0.71086126565933228 0.00060948391910642385
0.48442617058753967 0.75793558359146118 0.00027051439974457026
0.64423048496246338 0.79550451040267944 0
0.75349682569503784 0.82406187057495117 0
0.83790189027786255 0.84414422512054443 0
0.90638113021850586 0.85646963119506836 0
0.96134144067764282 0.86120837926864624 0
0 0.45938163995742798 0
0 0.47751781344413757 0.00027573530678637326
0 0.50733917951583862 0.0019068100955337286
8.9263914560433477e-05 0.55561566352844238 0.00011731316044460982
0.0064400020055472851 0.61467182636260986 0
0.048566482961177826 0.67383629083633423 0
0.17745755612850189 0.72902524471282959 0
0.39120686054229736 0.77761971950531006 0
0.57608228921890259 0.81828427314758301 0
0.70411562919616699 0.8514636754989624 0
0.80107319355010986 0.87739503383636475 0
0.87937301397323608 0.89735168218612671 0
0.94244468212127686 0.90877187252044678 0
0.014809029176831245 3.5005457903025672e-05 0.035759452730417252
0.084512732923030853 0.0004599028907250613 0.061691448092460632
0.20896999537944794 0.00054382625967264175 0.081992670893669128
0.35975274443626404 0.00096579157980158925 0.10338982939720154
0.48676258325576782 0.0024136712308973074 0.11295583099126816
0.57689028978347778 0.0024574429262429476 0.11494816839694977
0.63302421569824219 0.00010600370296742767 0.12169177830219269
0.66899979114532471 0 0.13435374200344086
0.69734281301498413 0 0.14188502728939056
0.71957510709762573 5.5185952078318223e-05 0.14705710113048553
0.73469710350036621 0.00067298737121745944 0.16043540835380554
0.74675428867340088 0.00031810087966732681 0.16621573269367218
0.75664985179901123 0 0.16279676556587219
1.9746669295273023e-06 0.012259195558726788 0.0034582549706101418
0.0050885668024420738 0.017833918333053589 0.012160013429820538
0.081952936947345734 0.028209341689944267 0.031312860548496246
0.23261547088623047 0.035837315022945404 0.049326248466968536
0.39236760139465332 0.041557881981134415 0.063143111765384674
0.51999354362487793 0.037951555103063583 0.072599552571773529
0.61234492063522339 0.022423194721341133 0.087898403406143188
0.68146884441375732 0.0084365541115403175 0.10381373763084412
0.73039525747299194 0.0058444156311452389 0.11243142187595367
0.76729667186737061 0.013040804304182529 0.12036865949630737
0.79149681329727173 0.028519798070192337 0.13813738524913788
0.80972963571548462 0.026241617277264595 0.14949759840965271
0.82305270433425903 0.017456937581300735 0.14859205484390259
9.9765551567543298e-05 0.057446826249361038 0.0098527949303388596
0.004031207412481308 0.067829802632331848 0.022830124944448471
0.067611977458000183 0.090016067028045654 0.036772515624761581
0.20437932014465332 0.1087854728102684 0.045028761029243469
0.36178508400917053 0.12275915592908859 0.053264662623405457
0.50471174716949463 0.1277608722448349 0.065820984542369843
0.61789602041244507 0.12484196573495865 0.078288987278938293
0.70097416639328003 0.11355792731046677 0.082178018987178802
0.76012390851974487 0.10817769169807434 0.087915532290935516
0.80473107099533081 0.10964848846197128 0.10723808407783508
0.83585429191589355 0.11791953444480896 0.12981463968753815
0.85718041658401489 0.11159601807594299 0.14244793355464935
0.87184423208236694 0.097429089248180389 0.14292821288108826
0.0011956308735534549 0.11934173852205276 0.012650209479033947
0.00010860667680390179 0.13238778710365295 0.023496037349104881
0.030525835230946541 0.1598101407289505 0.03182404488325119
0.15898187458515167 0.18785969913005829 0.04035148024559021
0.32977911829948425 0.21523107588291168 0.049262251704931259
0.48793485760688782 0.2373158186674118 0.059597734361886978
0.61519795656204224 0.24965274333953857 0.063641354441642761
0.70938009023666382 0.25225403904914856 0.061516556888818741
0.77831220626831055 0.25378793478012085 0.067938752472400665
0.83065915107727051 0.25035920739173889 0.087606854736804962
0.86713337898254395 0.2451799213886261 0.1127917692065239
0.89236956834793091 0.23462724685668945 0.12488465011119843
0.90859150886535645 0.21942873299121857 0.12393409758806229
0.00044456930481828749 0.18579454720020294 0.013107030652463436
0 0.19951492547988892 0.022888617590069771
0.0087987268343567848 0.22772824764251709 0.029756957665085793
0.10640397667884827 0.26369258761405945 0.034367192536592484
0.28734251856803894 0.30044817924499512 0.037219520658254623
0.46482095122337341 0.33311277627944946 0.045719686895608902
0.60415518283843994 0.35379937291145325 0.053165540099143982
0.7103380560874939 0.36293682456016541 0.054932478815317154
0.78809797763824463 0.36900556087493896 0.058417733758687973
0.84539943933486938 0.37035578489303589 0.069005466997623444
0.88692128658294678 0.36442571878433228 0.087133459746837616
0.91500180959701538 0.35418528318405151 0.10005057603120804
0.93401509523391724 0.33915704488754272 0.10515748709440231
0.0011188132921233773 0.24427865445613861 0.01188970822840929
0 0.25936779379844666 0.019911643117666245
0.00045595355913974345 0.29069232940673828 0.026126621291041374
0.050207309424877167 0.33164584636688232 0.028878260403871536
0.22799739241600037 0.37534239888191223 0.024632172659039497
0.43438971042633057 0.41543027758598328 0.027449663728475571
0.58493518829345703 0.44491785764694214 0.039105106145143509
0.70185631513595581 0.46073770523071289 0.042351111769676208
0.78894472122192383 0.46945706009864807 0.037406083196401596
0.8522648811340332 0.4732421338558197 0.040720231831073761
0.89874732494354248 0.46990486979484558 0.05718395859003067
0.93073636293411255 0.46053785085678101 0.073959127068519592
0.95304173231124878 0.44512051343917847 0.08584517240524292
0.0038118849042803049 0.295177161693573 0.008804994635283947
4.2934043449349701e-06 0.31250771880149841 0.014005892910063267
0 0.34623268246650696 0.017924156039953232
0.004404404666274786 0.39175066351890564 0.020634220913052559
0.12970033288002014 0.44029805064201355 0.014967884868383408
0.38147139549255371 0.48615464568138123 0.0098352618515491486
0.55510091781616211 0.52361303567886353 0.019609848037362099
0.68300193548202515 0.54808980226516724 0.025251545011997223
0.78053945302963257 0.56136959791183472 0.017807247117161751
0.85207670927047729 0.5670047402381897 0.018292266875505447
0.90432316064834595 0.56530177593231201 0.032378476113080978
0.94102764129638672 0.5561448335647583 0.048233211040496826
0.96812576055526733 0.54030317068099976 0.063999399542808533
0.0055892942473292351 0.33812454342842102 0.0036751541774719954
0.0011509614996612072 0.35821545124053955 0.0059248083271086216
7.2778442699927837e-05 0.39590597152709961 0.0068384208716452122
0 0.44406646490097046 0.0083304764702916145
0.076735660433769226 0.49583002924919128 0.0065018446184694767
0.31991365551948547 0.54692786931991577 0.0049480660818517208
0.52022325992584229 0.58987241983413696 0.01235911063849926
0.6565697193145752 0.62142038345336914 0.020614787936210632
0.76612424850463867 0.64107620716094971 0.017492735758423805
0.84676265716552734 0.6500275731086731 0.015869634225964546
0.90415924787521362 0.65051579475402832 0.02092265710234642
0.94579851627349854 0.64250504970550537 0.029136687517166138
0.97804504632949829 0.62659239768981934 0.043376892805099487
0.0017519483808428049 0.37249270081520081 0.00057177076814696193
0.0037395551335066557 0.39444220066070557 0.0024733301252126694
0.0021202387288212776 0.43537452816963196 0.002971589332446456
0 0.48532581329345703 0.0041372110135853291
0.027155527845025063 0.53852909803390503 0.0039386972784996033
0.23478247225284576 0.59334087371826172 0.0036835165228694677
0.47821781039237976 0.6421043872833252 0.008863396942615509
0.62897145748138428 0.6798173189163208 0.018435593694448471
0.74873214960098267 0.70626568794250488 0.021598471328616142
0.83563965559005737 0.71977633237838745 0.019277835264801979
0.89853864908218384 0.72329163551330566 0.017458477988839149
0.94523608684539795 0.7179446816444397 0.018681544810533524
0.98269784450531006 0.70317596197128296 0.030066980049014091
1.0651233424141537e-05 0.40437996387481689 0.00068776746047660708
0.00039611518150195479 0.42528116703033447 0.0062293857336044312
1.2521182725322433e-05 0.46387591958045959 0.0088434703648090363
0 0.51502686738967896 0.0088675552979111671
0.0024712355807423592 0.57042533159255981 0.0073503083549439907
0.14333364367485046 0.62696176767349243 0.0069171832874417305
0.40111297369003296 0.67907047271728516 0.0086268410086631775
0.58538961410522461 0.72212523221969604 0.011757390573620796
0.71780699491500854 0.75418633222579956 0.016175871714949608
0.81520098447799683 0.77282083034515381 0.01851869560778141
0.88659262657165527 0.78101110458374023 0.017827786505222321
0.94016760587692261 0.77925127744674683 0.018376069143414497
0.98292249441146851 0.76800739765167236 0.026543442159891129
2.3187376427813433e-05 0.43090319633483887 0.0022426082286983728
5.4004144658392761e-06 0.45116272568702698 0.014457313343882561
0 0.48769167065620422 0.019858520478010178
0 0.53932654857635498 0.017190461978316307
0.0040862588211894035 0.59646856784820557 0.012576578184962273
0.11560489237308502 0.65336078405380249 0.013070289976894855
0.33664640784263611 0.70625442266464233 0.012730108574032784
0.53985214233398438 0.75195181369781494 0.0069790859706699848
0.6828034520149231 0.78731000423431396 0.0096965860575437546
0.788227379322052 0.81145679950714111 0.016524177044630051
0.86819785833358765 0.82510489225387573 0.017840605229139328
0.92981749773025513 0.82862263917922974 0.019123705103993416
0.97850626707077026 0.82379347085952759 0.024564033374190331
0 0.45041602849960327 0.00061302934773266315
0.00076667935354635119 0.47155061364173889 0.01223379373550415
0.00027365589630790055 0.50740110874176025 0.019617073237895966
1.7532647689222358e-05 0.55859571695327759 0.01208840124309063
0.0036990894004702568 0.61580187082290649 0.0045845182612538338
0.065921023488044739 0.67340129613876343 0.0064804675057530403
0.23889847099781036 0.72664952278137207 0.0094699487090110779
0.4871404767036438 0.77305173873901367 0.0056976615451276302
0.64980453252792358 0.81132107973098755 0.010711071081459522
0.75589090585708618 0.84055846929550171 0.015294288285076618
0.8427116870880127 0.86068046092987061 0.013681882992386818
0.91289621591567993 0.87237262725830078 0.013185463845729828
0.96873772144317627 0.87627154588699341 0.016993159428238869
0 0.46879512071609497 0
0.0021486917976289988 0.49124720692634583 0.0010730967624112964
0.0027196996379643679 0.52644509077072144 0.0039875106886029243
0.0013762679882347584 0.57574379444122314 0.0008912928169593215
0.0002486883313395083 0.63253039121627808 0
0.0048159579746425152 0.69053351879119873 0.00017623901658225805
0.077375523746013641 0.74540805816650391 0.0021711911540478468
0.34382838010787964 0.79339683055877686 0.0063522788695991039
0.57322043180465698 0.83418959379196167 0.011864007450640202
0.70778101682662964 0.86760920286178589 0.012093278579413891
0.80736768245697021 0.89359855651855469 0.0079047558829188347
0.88778847455978394 0.91367775201797485 0.006205869372934103
0.95256155729293823 0.92685264348983765 0.0087844850495457649
0.022115999832749367 0 0.10110313445329666
0.095298424363136292 3.4287397284060717e-05 0.15254618227481842
0.2262922078371048 0.00010340073640691116 0.18035829067230225
0.37777361273765564 0.00060604320606216788 0.20304092764854431
0.50629234313964844 0.00083453609840944409 0.22432409226894379
0.59408891201019287 0.00019028608221560717 0.24217219650745392
0.6436455249786377 3.6950204957975075e-05 0.24432845413684845
0.68084132671356201 0.00012446385517250746 0.25272849202156067
0.71215444803237915 1.5557981896563433e-05 0.26604655385017395
0.73374021053314209 5.385455096984515e-06 0.26829549670219421
0.74713194370269775 0.0006809459300711751 0.27205398678779602
0.75577288866043091 0.00078841566573828459 0.27498042583465576
0.76209825277328491 0.00073818134842440486 0.27140963077545166
0.0012271956074982882 0.015742313116788864 0.03671041876077652
0.006610870361328125 0.021641479805111885 0.069761134684085846
0.096153438091278076 0.031142933294177055 0.10806489735841751
0.25291207432746887 0.036878518760204315 0.13879206776618958
0.41526076197624207 0.036314092576503754 0.16897521913051605
0.54481023550033569 0.023595517501235008 0.1919177770614624
0.63104343414306641 0.019493237137794495 0.20423886179924011
0.69573628902435303 0.016020007431507111 0.22046302258968353
0.74554675817489624 0.010669917799532413 0.23626309633255005
0.78087276220321655 0.015720203518867493 0.24561785161495209
0.80487525463104248 0.029193922877311707 0.25656688213348389
0.82355248928070068 0.030548050999641418 0.26537925004959106
0.83708298206329346 0.02669842354953289 0.26507619023323059
0.00092492194380611181 0.066313184797763824 0.046021629124879837
0.0034830281510949135 0.080211818218231201 0.073510549962520599
0.073438204824924469 0.10190837830305099 0.10512559115886688
0.21827414631843567 0.11803428828716278 0.12901251018047333
0.38292044401168823 0.12829351425170898 0.15222236514091492
0.53056854009628296 0.12221714109182358 0.17615993320941925
0.6405147910118103 0.12662220001220703 0.19191105663776398
0.71919256448745728 0.12132764607667923 0.20220637321472168
0.77639400959014893 0.11144746094942093 0.21617487072944641
0.81798768043518066 0.1152103915810585 0.23519285023212433
0.84936273097991943 0.12224403768777847 0.25289750099182129
0.87279027700424194 0.11829512566328049 0.26577016711235046
0.88725215196609497 0.10775914043188095 0.27200043201446533
0.00018144494970329106 0.13031890988349915 0.044219311326742172
9.856878750724718e-05 0.14778426289558411 0.069351091980934143
0.033791307359933853 0.17541427910327911 0.094686977565288544
0.16798798739910126 0.20171020925045013 0.11916416883468628
0.34742087125778198 0.22898514568805695 0.141813725233078
0.50730085372924805 0.24779616296291351 0.16224589943885803
0.63464534282684326 0.26055949926376343 0.17515712976455688
0.72748386859893799 0.26009717583656311 0.18410398066043854
0.7938767671585083 0.25612446665763855 0.19984664022922516
0.84334897994995117 0.25669041275978088 0.22089549899101257
0.88047546148300171 0.25411370396614075 0.24113312363624573
0.90672963857650757 0.24766238033771515 0.25602680444717407
0.92293989658355713 0.23349060118198395 0.2632087767124176
0.00021606146765407175 0.1969219297170639 0.041009042412042618
0 0.21541289985179901 0.064551383256912231
0.0073125949129462242 0.24577035009860992 0.086516782641410828
0.10625475645065308 0.2810702919960022 0.10774130374193192
0.30064007639884949 0.31676647067070007 0.12796026468276978
0.47756636142730713 0.34787026047706604 0.14595791697502136
0.62019115686416626 0.36631825566291809 0.16194507479667664
0.72623854875564575 0.37523990869522095 0.17404265701770782
0.80108129978179932 0.37884119153022766 0.18832558393478394
0.8574521541595459 0.38053736090660095 0.20403115451335907
0.89992541074752808 0.37667214870452881 0.22256481647491455
0.9285399317741394 0.36960858106613159 0.23925982415676117
0.9471430778503418 0.35585516691207886 0.24993462860584259
0.0040289787575602531 0.25616812705993652 0.039247803390026093
5.4004144658392761e-06 0.2771180272102356 0.059328056871891022
0.00015767414879519492 0.31033453345298767 0.079183615744113922
0.049902193248271942 0.35157203674316406 0.09823589026927948
0.23527723550796509 0.39479804039001465 0.11172856390476227
0.44032788276672363 0.43321830034255981 0.1252959817647934
0.59713268280029297 0.46183130145072937 0.14732736349105835
0.71833997964859009 0.47650200128555298 0.16089476644992828
0.80230188369750977 0.48193874955177307 0.16763007640838623
0.86392122507095337 0.48502039909362793 0.17975856363773346
0.91104042530059814 0.48352378606796265 0.20132523775100708
