assets/lut/inavision gremerta.cube
# Created by: G'MIC (https://gmic.eu)
TITLE "gremerta"
# LUT size
LUT_3D_SIZE 13
# Data domain
DOMAIN_MIN 0.0 0.0 0.0
DOMAIN_MAX 1.0 1.0 1.0
# LUT data points
0.0025639103259891272 0.0020526212174445391 0.0028004066552966833
0.046152360737323761 0.00066477456130087376 0.0013663198333233595
0.11750757694244385 0.00081763172056525946 0.0014970666961744428
0.18041282892227173 0.0030543159227818251 0.0026142345741391182
0.23922610282897949 0.0016179701779037714 0.0055461060255765915
0.30100497603416443 0.0060369456186890602 0.0023744620848447084
0.36432716250419617 0.0085233505815267563 0.0017338921315968037
0.42854943871498108 0.0016148136928677559 0.01085243932902813
0.49409371614456177 0.0018736596684902906 0.013722752220928669
0.56035345792770386 0.0058788522146642208 0.010403726249933243
0.62687093019485474 0.012046918272972107 0.0088226469233632088
0.69268220663070679 0.021205229684710503 0.0076271956786513329
0.75862067937850952 0.032196853309869766 0.0061678867787122726
0.00076682894723489881 0.055953815579414368 0.0021051892545074224
0.044252537190914154 0.051199428737163544 0.0017475202912464738
0.11848347634077072 0.052629865705966949 0.0010165495332330465
0.17784781754016876 0.055051032453775406 0.0008946437737904489
0.23829728364944458 0.049272619187831879 0.002422272926196456
0.29968565702438354 0.056093610823154449 0.001550577231682837
0.3632081151008606 0.060053374618291855 0.0013315986143425107
0.42779055237770081 0.051680129021406174 0.0050270827487111092
0.49399510025978088 0.055726595222949982 0.0045414045453071594
0.56105417013168335 0.067448951303958893 0.0028519274201244116
0.62696081399917603 0.076112307608127594 0.0036784452386200428
0.69319850206375122 0.085278064012527466 0.0046629062853753567
0.75963801145553589 0.09514763206243515 0.0046951593831181526
0.001261602621525526 0.13306958973407745 0.0065294899977743626
0.046313624829053879 0.13230544328689575 0.0042303646914660931
0.11853612214326859 0.1326223611831665 0.0025492948479950428
0.17937813699245453 0.13031396269798279 0.002004346577450633
0.23884354531764984 0.12694054841995239 0.0010887894313782454
0.29989144206047058 0.13036273419857025 0.00031792136724106967
0.36307978630065918 0.13374270498752594 0.0004583022091537714
0.42760932445526123 0.13249322772026062 0.0010968376882374287
0.49399510025978088 0.13675099611282349 0.00049582088831812143
0.56014269590377808 0.14392513036727905 0.00015312644245568663
0.62693154811859131 0.14775928854942322 0.0013124952092766762
0.69303756952285767 0.15278688073158264 0.0026089537423104048
0.76010048389434814 0.15951107442378998 0.0037162033841013908
0.0024962183088064194 0.19595761597156525 0.013503414578735828
0.048414118587970734 0.19500383734703064 0.0050686555914580822
0.11760014295578003 0.19295693933963776 0.0015179802430793643
0.18082715570926666 0.19314125180244446 0.003174695884808898
0.2411949634552002 0.19464772939682007 0.0047530527226626873
0.30218231678009033 0.19827812910079956 0.0040591671131551266
0.36450585722923279 0.20177379250526428 0.0036981170997023582
0.42827713489532471 0.20447096228599548 0.0027801215182989836
0.49356451630592346 0.20877225697040558 0.001302876160480082
0.55962008237838745 0.21350358426570892 0.00084318273002281785
0.62606561183929443 0.21642231941223145 0.0013190774479880929
0.6925244927406311 0.21981526911258698 0.002150561660528183
0.76005417108535767 0.2245771586894989 0.003387511009350419
0.0015945135382935405 0.25487890839576721 0.016702106222510338
0.044589262455701828 0.25463464856147766 0.0054635289125144482
0.11422821879386902 0.25347638130187988 0.0008863561088219285
0.18089808523654938 0.25408869981765747 0.0043200324289500713
0.24373777210712433 0.25611802935600281 0.010968436487019062
0.30521237850189209 0.26053509116172791 0.011027362197637558
0.36663147807121277 0.26509803533554077 0.0094491094350814819
0.4294205904006958 0.26947271823883057 0.0071839876472949982
0.49319854378700256 0.27401289343833923 0.0046984804794192314
0.55910080671310425 0.27835762500762939 0.0031883239280432463
0.62524509429931641 0.28184330463409424 0.0029008754063397646
0.69244027137756348 0.28532707691192627 0.0033259822521358728
0.75962388515472412 0.28948530554771423 0.0037291282787919044
0.0019098019693046808 0.31758701801300049 0.015413575805723667
0.044737678021192551 0.31743690371513367 0.0065106558613479137
0.11225210130214691 0.31697842478752136 0.0026583801954984665
0.18062250316143036 0.31762480735778809 0.0042002960108220577
0.24581559002399445 0.31976306438446045 0.0091995541006326675
0.3080793023109436 0.32335290312767029 0.01148642785847187
0.36902937293052673 0.32738801836967468 0.01273639127612114
0.43020099401473999 0.33155539631843567 0.012244894169270992
0.49319854378700256 0.33631083369255066 0.0099684474989771843
0.55869966745376587 0.34111997485160828 0.0076521630398929119
0.62524509429931641 0.34532040357589722 0.0060966643504798412
0.69207078218460083 0.3496917188167572 0.0052263746038079262
0.75964093208312988 0.35417509078979492 0.0048766941763460636
0.0043809628114104271 0.38431373238563538 0.010889524593949318
0.050794802606105804 0.38431373238563538 0.0053968541324138641
0.11495473235845566 0.38433706760406494 0.002282251138240099
0.18265162408351898 0.38499534130096436 0.0017155216773971915
0.24906338751316071 0.38657289743423462 0.002743829507380724
0.31146630644798279 0.38842448592185974 0.0060577094554901123
0.37071838974952698 0.3906148374080658 0.011748699471354485
0.43148797750473022 0.39361080527305603 0.015923354774713516
0.49396225810050964 0.39818331599235535 0.015670193359255791
0.55902969837188721 0.40344351530075073 0.01283003855496645
0.62529057264328003 0.40889444947242737 0.010072192177176476
0.6924627423286438 0.41397210955619812 0.0079744225367903709
0.76036173105239868 0.41905757784843445 0.0063165551982820034
0.008978196419775486 0.45454084873199463 0.0062185698188841343
0.059073682874441147 0.45443114638328552 0.0032612520735710859
0.12064246088266373 0.45427197217941284 0.0012894873507320881
0.18679550290107727 0.45453062653541565 0.00029691809322685003
0.25293070077896118 0.45534887909889221 0.0001840030454332009
0.31513625383377075 0.45544087886810303 0.0025921689812093973
0.3741588294506073 0.4556833803653717 0.0098832668736577034
0.43318977952003479 0.45743626356124878 0.017563240602612495
0.49575361609458923 0.46174561977386475 0.01925424300134182
0.56060576438903809 0.46736732125282288 0.016873693093657494
0.6267247200012207 0.47323471307754517 0.013372009620070457
0.69376486539840698 0.47882425785064697 0.01044616661965847
0.76157420873641968 0.48436406254768372 0.0081476997584104538
0.016290642321109772 0.52658200263977051 0.0027458041440695524
0.068653374910354614 0.52596938610076904 0.0016156963538378477
0.12787126004695892 0.52541345357894897 0.00085018383106216788
0.19152070581912994 0.52494114637374878 0.00010860667680390179
0.25591790676116943 0.52468585968017578 0.00030822755070403218
0.31752541661262512 0.52376896142959595 0.0024775785859674215
0.37731575965881348 0.52321368455886841 0.0087365247309207916
0.43714961409568787 0.52455061674118042 0.016301877796649933
0.49934512376785278 0.52813631296157837 0.019317418336868286
0.56363856792449951 0.53347426652908325 0.018192335963249207
0.62949442863464355 0.53921818733215332 0.015305387787520885
0.69625777006149292 0.54510462284088135 0.011923502199351788
0.76408815383911133 0.55084705352783203 0.0094459233805537224
0.025694573298096657 0.59936255216598511 0.0014052446931600571
0.078574374318122864 0.59864223003387451 0.0010117475176230073
0.13573530316352844 0.59767895936965942 0.0007697610417380929
0.19679120182991028 0.59627681970596313 0.00082110235234722495
0.25916573405265808 0.59494024515151978 0.0012864057207480073
0.32074496150016785 0.59392738342285156 0.0035295824054628611
0.38111302256584167 0.59357261657714844 0.0084378710016608238
0.44187667965888977 0.59432673454284668 0.014266145415604115
0.50394910573959351 0.59735339879989624 0.017665114253759384
0.56793832778930664 0.60196167230606079 0.017644904553890228
0.63334816694259644 0.60721200704574585 0.015416433103382587
0.6999126672744751 0.6129457950592041 0.012476542964577675
0.76736140251159668 0.61862355470657349 0.0099764950573444366
0.033480025827884674 0.67177093029022217 0.0014705882640555501
0.08705843985080719 0.67120540142059326 0.0014705882640555501
0.14343656599521637 0.66992700099945068 0.0014788459520787001
0.20286683738231659 0.66818845272064209 0.0016872630221769214
0.26367756724357605 0.66693317890167236 0.002497564535588026
0.32473593950271606 0.66556805372238159 0.0048620635643601418
0.38556668162345886 0.66478872299194336 0.0086572384461760521
0.44678580760955811 0.66613918542861938 0.012647979892790318
0.50912362337112427 0.66842830181121826 0.015425259247422218
0.57282596826553345 0.6723673939704895 0.015790244564414024
0.63786739110946655 0.67707633972167969 0.014581941999495029
0.70414167642593384 0.68234091997146606 0.012089628726243973
0.77151435613632202 0.6878778338432312 0.0099256476387381554
0.039380572736263275 0.74401426315307617 0.0019908230751752853
0.093979857861995697 0.74355858564376831 0.001955817686393857
0.15081213414669037 0.74218374490737915 0.0021335228811949492
0.20909331738948822 0.74076360464096069 0.0028262718115001917
0.26894286274909973 0.73942381143569946 0.0040354412049055099
0.32960611581802368 0.73820251226425171 0.0058267330750823021
0.3905065655708313 0.73799902200698853 0.0086774639785289764
0.4520818293094635 0.73876118659973145 0.01149673480540514
0.51446151733398438 0.74083048105239868 0.013337079435586929
0.57818174362182617 0.74410009384155273 0.0138765973970294
0.64311295747756958 0.74831277132034302 0.012933334335684776
0.70922106504440308 0.75310027599334717 0.01138966903090477
0.77639931440353394 0.75826531648635864 0.009487152099609375
0.044621024280786514 0.81628942489624023 0.0031064948998391628
0.10015909373760223 0.81581491231918335 0.0030711006838828325
0.15713798999786377 0.81481003761291504 0.003511151997372508
0.21536730229854584 0.81371283531188965 0.0040586283430457115
0.274667888879776 0.81255602836608887 0.0051940917037427425
0.33500179648399353 0.8118099570274353 0.0065676369704306126
0.39596527814865112 0.81168609857559204 0.008806595578789711
0.45767432451248169 0.81229466199874878 0.010741977952420712
0.5202755331993103 0.81394857168197632 0.011684313416481018
0.58397763967514038 0.81698828935623169 0.012002862989902496
0.64882564544677734 0.82061249017715454 0.011560821905732155
0.71475386619567871 0.82491487264633179 0.010404265485703945
0.78169697523117065 0.82980036735534668 0.0088214650750160217
0.0039074765518307686 0.0017072939081117511 0.041541438549757004
0.051490500569343567 0.0010405746288597584 0.03865501657128334
0.11820472031831741 0.00070166494697332382 0.041622191667556763
0.17738166451454163 0.0021577572915703058 0.042453959584236145
0.23760320246219635 0.0019740683492273092 0.046742264181375504
0.29902446269989014 0.0033621992915868759 0.046287387609481812
0.36234626173973083 0.0060569313354790211 0.044223397970199585
0.42695379257202148 0.0020938648376613855 0.05631650984287262
0.49345576763153076 0.0014310949482023716 0.063031107187271118
0.56026643514633179 0.0034212449099868536 0.062654726207256317
0.62705367803573608 0.0076509062200784683 0.062369626015424728
0.6929318904876709 0.015831233933568001 0.060091923922300339
0.75831729173660278 0.027504237368702888 0.056114360690116882
0.0042674494907259941 0.054354123771190643 0.042498942464590073
0.051503393799066544 0.052221201360225677 0.044283416122198105
0.11882844567298889 0.052779641002416611 0.044377002865076065
0.17726817727088928 0.052786525338888168 0.041138008236885071
0.23581686615943909 0.050845831632614136 0.042829237878322601
0.29782426357269287 0.052374701946973801 0.044186878949403763
0.36117571592330933 0.057839129120111465 0.043060481548309326
0.42642751336097717 0.052951663732528687 0.049257151782512665
0.49354928731918335 0.05365428701043129 0.049710113555192947
0.56133955717086792 0.061048604547977448 0.048469141125679016
0.62765920162200928 0.067518167197704315 0.052313786000013351
0.69368177652359009 0.07742270827293396 0.054129417985677719
0.759124755859375 0.08896675705909729 0.053213994950056076
0.0052797505632042885 0.13122963905334473 0.049400106072425842
0.054065823554992676 0.12735411524772644 0.047512486577033997
0.12002214789390564 0.13001556694507599 0.045663632452487946
0.17811930179595947 0.12838222086429596 0.045083377510309219
0.23704591393470764 0.12730613350868225 0.04070446640253067
0.29823872447013855 0.1301608681678772 0.038756966590881348
0.36135748028755188 0.13324989378452301 0.040542811155319214
0.42657232284545898 0.13269813358783722 0.041839614510536194
0.49346306920051575 0.13518202304840088 0.038134720176458359
0.56023716926574707 0.13913016021251678 0.037112634629011154
0.62706780433654785 0.14084553718566895 0.04319019615650177
0.69340986013412476 0.14563331007957458 0.048082120716571808
0.7596200704574585 0.15297769010066986 0.049837749451398849
0.0087752100080251694 0.19501937925815582 0.055343389511108398
0.059555277228355408 0.19170586764812469 0.045311946421861649
0.1229860782623291 0.19190219044685364 0.039126437157392502
0.18235199153423309 0.19269667565822601 0.043949875980615616
0.24096956849098206 0.19498418271541595 0.046622347086668015
0.30112317204475403 0.19947211444377899 0.047550726681947708
0.36343875527381897 0.20241256058216095 0.049966070801019669
0.42735141515731812 0.20493641495704651 0.047273583710193634
0.49316489696502686 0.2083304226398468 0.040744349360466003
0.55962008237838745 0.21076981723308563 0.038350977003574371
0.62619149684906006 0.21188239753246307 0.041325289756059647
0.69254028797149658 0.21433986723423004 0.045479178428649902
0.75889348983764648 0.21892130374908447 0.047530785202980042
0.0084465621039271355 0.25521647930145264 0.057685088366270065
0.058375727385282516 0.25378331542015076 0.043552279472351074
0.12186216562986374 0.25296878814697266 0.034702494740486145
0.18436799943447113 0.25469714403152466 0.041566301137208939
0.2441401481628418 0.25785809755325317 0.050884142518043518
0.30483391880989075 0.26249539852142334 0.055084556341171265
0.36605426669120789 0.266763836145401 0.056580815464258194
0.42896220088005066 0.27066141366958618 0.053998835384845734
0.49319854378700256 0.27434685826301575 0.048754286020994186
0.55887579917907715 0.27710363268852234 0.045331485569477081
0.62524509429931641 0.27891474962234497 0.045380476862192154
0.69175851345062256 0.28130239248275757 0.046543959528207779
0.75810062885284424 0.28502321243286133 0.047850724309682846
0.0072932671755552292 0.31779766082763672 0.058863755315542221
0.055604178458452225 0.31752654910087585 0.046499483287334442
0.11840903759002686 0.31754589080810547 0.038445193320512772
0.18325091898441315 0.31896767020225525 0.040943939238786697
0.24660010635852814 0.32179811596870422 0.047991659492254257
0.30812957882881165 0.32548356056213379 0.054126337170600891
0.36888596415519714 0.32931244373321533 0.058246567845344543
0.43025386333465576 0.33306801319122314 0.059064649045467377
0.4932134747505188 0.3368898332118988 0.056720659136772156
0.55812573432922363 0.3405509889125824 0.053560085594654083
0.62477004528045654 0.34359413385391235 0.051621574908494949
0.69087105989456177 0.34680435061454773 0.050658222287893295
0.75808960199356079 0.35057419538497925 0.050074886530637741
0.0067357979714870453 0.38431373238563538 0.057489149272441864
0.054377477616071701 0.38431373238563538 0.047748401761054993
0.11679811775684357 0.38471239805221558 0.039744775742292404
0.18325206637382507 0.38620588183403015 0.036793474107980728
0.24879659712314606 0.38819828629493713 0.039108544588088989
0.31119304895401001 0.39029026031494141 0.046940986067056656
0.3709697425365448 0.39224547147750854 0.056381344795227051
0.43196859955787659 0.39509224891662598 0.062454283237457275
0.49436178803443909 0.39898473024368286 0.063133448362350464
0.55879431962966919 0.40321037173271179 0.060665518045425415
0.62500470876693726 0.4075314998626709 0.057691343128681183
0.69123560190200806 0.41177904605865479 0.054981470108032227
0.75862210988998413 0.41610664129257202 0.052794050425291061
0.0072766472585499287 0.45490196347236633 0.053188443183898926
0.055642612278461456 0.45484539866447449 0.045896060764789581
0.11752884835004807 0.45472049713134766 0.038597151637077332
0.18422168493270874 0.45571109652519226 0.032800279557704926
0.25102543830871582 0.45629745721817017 0.031918097287416458
0.31372964382171631 0.4566681981086731 0.041056316345930099
0.37408003211021423 0.45696729421615601 0.054767727851867676
0.43378791213035583 0.45885652303695679 0.064294628798961639
0.496023029088974 0.46257328987121582 0.067139491438865662
0.56024038791656494 0.46724620461463928 0.065500937402248383
0.62584364414215088 0.47218525409698486 0.062127776443958282
0.69256484508514404 0.47711735963821411 0.058750450611114502
0.76037579774856567 0.48204785585403442 0.055521722882986069
0.01075369119644165 0.52743148803710938 0.047279223799705505
0.060848698019981384 0.5270574688911438 0.043256305158138275
0.12147251516580582 0.52605867385864258 0.038218077272176743
0.18677479028701782 0.52622878551483154 0.033827509731054306
0.25262165069580078 0.52569329738616943 0.033888064324855804
0.31574395298957825 0.52488517761230469 0.042151179164648056
0.37634116411209106 0.52401739358901978 0.05501333624124527
0.43701481819152832 0.52545130252838135 0.064670279622077942
0.49894887208938599 0.5286635160446167 0.068476945161819458
0.56286811828613281 0.53319352865219116 0.067754454910755157
0.62821310758590698 0.53849911689758301 0.064722903072834015
0.69486337900161743 0.54366296529769897 0.061088934540748596
0.76220190525054932 0.54890942573547363 0.057515580207109451
0.017721977084875107 0.60056883096694946 0.042996693402528763
0.069615349173545837 0.59956592321395874 0.042002074420452118
0.12808004021644592 0.59849828481674194 0.039752617478370667
0.19101749360561371 0.5975533127784729 0.038511224091053009
0.25499460101127625 0.59612596035003662 0.040004145354032516
0.31782665848731995 0.59462398290634155 0.046608526259660721
0.3792913556098938 0.59391236305236816 0.056144505739212036
0.44053637981414795 0.5947868824005127 0.063976168632507324
0.5027318000793457 0.59770870208740234 0.067606516182422638
0.56642115116119385 0.60174131393432617 0.067654930055141449
0.63155215978622437 0.60661661624908447 0.065640486776828766
0.69794094562530518 0.61176472902297974 0.062223248183727264
0.7652968168258667 0.61701637506484985 0.058620736002922058
0.025000687688589096 0.67261028289794922 0.043498050421476364
0.078672327101230621 0.67220330238342285 0.043240953236818314
0.13620366156101227 0.67109525203704834 0.043344594538211823
0.19683997333049774 0.66940534114837646 0.043752528727054596
0.25911074876785278 0.66775310039520264 0.045693609863519669
0.32117471098899841 0.66658002138137817 0.050734352320432663
0.38280531764030457 0.66598182916641235 0.057304099202156067
0.44450882077217102 0.6665458083152771 0.063000530004501343
0.50701296329498291 0.66847747564315796 0.066263847053050995
0.57073664665222168 0.67213624715805054 0.066674910485744476
0.63566046953201294 0.67653244733810425 0.064824290573596954
0.70190536975860596 0.68122225999832153 0.062149450182914734
0.76913595199584961 0.68638169765472412 0.058722343295812607
0.031593862920999527 0.74514687061309814 0.046618606895208359
0.086507149040699005 0.74468111991882324 0.04651845246553421
0.14393320679664612 0.74358451366424561 0.047119814902544022
0.20321698486804962 0.74181997776031494 0.04813365638256073
0.26408231258392334 0.74041342735290527 0.050184361636638641
0.32546594738960266 0.73922228813171387 0.053808040916919708
0.38703912496566772 0.73860359191894531 0.058248095214366913
0.44903621077537537 0.73921239376068115 0.062188494950532913
0.51175504922866821 0.74084258079528809 0.064328722655773163
0.57549202442169189 0.74391704797744751 0.064754486083984375
0.64041179418563843 0.74768590927124023 0.063582099974155426
0.70653891563415527 0.75208950042724609 0.061354678124189377
0.77355372905731201 0.7569878101348877 0.058447699993848801
0.037596266716718674 0.81756693124771118 0.04973328486084938
0.093342036008834839 0.81722795963287354 0.049681361764669418
0.15085233747959137 0.81609416007995605 0.050363622605800629
0.20954293012619019 0.8147270679473877 0.051602084189653397
0.26979154348373413 0.81347113847732544 0.053392000496387482
0.3306434154510498 0.81246781349182129 0.055985752493143082
0.39202660322189331 0.81225490570068359 0.058525774627923965
0.45418313145637512 0.81251537799835205 0.0614955835044384
0.51708722114562988 0.81410783529281616 0.062765605747699738
0.58080464601516724 0.81672745943069458 0.063141331076622009
0.64582401514053345 0.8200950026512146 0.062189377844333649
0.7117842435836792 0.82407253980636597 0.060151074081659317
0.77871376276016235 0.82859575748443604 0.057623516768217087
0.0053723352029919624 0.00077460793545469642 0.10548795759677887
0.054315976798534393 0.00092360551934689283 0.1042371541261673
0.11870450526475906 0.00063476560171693563 0.10658341646194458
0.1773269921541214 0.0010919907363131642 0.10708028823137283
0.23702619969844818 0.0008839326910674572 0.1103220209479332
0.2983165979385376 7.880715565988794e-05 0.11517583578824997
0.36143463850021362 0.00084156711818650365 0.11520034074783325
0.42651098966598511 0.00026891371817328036 0.12004696577787399
0.49308189749717712 0.00013589297304861248 0.1246759295463562
0.56102615594863892 0.00096013688016682863 0.1262972354888916
0.62786602973937988 0.0026638854760676622 0.12732678651809692
0.69343465566635132 0.0085427826270461082 0.12371031939983368
0.75842154026031494 0.018583394587039948 0.11787338554859161
0.0022140801884233952 0.051759082823991776 0.11119576543569565
0.049915626645088196 0.052560005336999893 0.11118841916322708
0.11890853941440582 0.050111673772335052 0.11090850830078125
0.1772753894329071 0.049352474510669708 0.11007491499185562
0.23544307053089142 0.04669189453125 0.11067275702953339
0.29726728796958923 0.04415443167090416 0.11427688598632812
0.3607286810874939 0.046673942357301712 0.11431214213371277
0.42609050869941711 0.044786565005779266 0.11573139578104019
0.49291053414344788 0.044634979218244553 0.11603140830993652
0.56139707565307617 0.048600126057863235 0.11690791696310043
0.62904316186904907 0.053491000086069107 0.12032479792833328
0.69399511814117432 0.064692087471485138 0.11932150274515152
0.7592461109161377 0.078078776597976685 0.11538199335336685
0.0067991516552865505 0.12998925149440765 0.11229494959115982
0.056142006069421768 0.12815845012664795 0.10931868851184845
0.12077035009860992 0.12769420444965363 0.10745637118816376
0.1781303882598877 0.12593048810958862 0.10851892083883286
0.23643974959850311 0.12372897565364838 0.10766110569238663
0.29749035835266113 0.12597756087779999 0.10819330811500549
0.36079156398773193 0.12614196538925171 0.1108386293053627
0.42625260353088379 0.12511166930198669 0.10963812470436096
0.49244001507759094 0.12612281739711761 0.10575185716152191
0.56052899360656738 0.12721362709999084 0.10568027943372726
0.62758374214172363 0.12873956561088562 0.10961737483739853
0.69370883703231812 0.13439071178436279 0.11177116632461548
0.75949949026107788 0.14308840036392212 0.1112709641456604
0.015273314900696278 0.19484861195087433 0.11078094691038132
0.065985359251499176 0.19222381711006165 0.10450360178947449
0.12587568163871765 0.19156718254089355 0.10140208899974823
0.18291366100311279 0.19150441884994507 0.10446720570325851
0.24057866632938385 0.19279882311820984 0.1071772426366806
0.30038592219352722 0.19728139042854309 0.10923333466053009
0.36271825432777405 0.19912424683570862 0.11247189342975616
0.4270404577255249 0.20054137706756592 0.10933601856231689
0.49259483814239502 0.20248909294605255 0.10313503444194794
0.55962008237838745 0.2029019296169281 0.10134795308113098
0.62625837326049805 0.20295198261737823 0.10374759137630463
