assets/lut/inavision dark man x.cube
# Created by: G'MIC (https://gmic.eu)
TITLE "dark_man_x"
# LUT size
LUT_3D_SIZE 7
# Data domain
DOMAIN_MIN 0.0 0.0 0.0
DOMAIN_MAX 1.0 1.0 1.0
# LUT data points
0.02985229529440403 0.023316999897360802 0.025664310902357101
0.19550451636314392 0.037892330437898636 0.021305697038769722
0.41038733720779419 0.030936431139707565 0.011566521599888802
0.56845468282699585 0.021194338798522949 0.014279862865805626
0.6645892858505249 0.010329198092222214 0.0069112139753997326
0.74611914157867432 0.019928757101297379 0.0018841911805793643
0.80665218830108643 0.04415462538599968 0.00022421444009523839
0.047227568924427032 0.12018827348947525 0.032720468938350677
0.17702353000640869 0.15349674224853516 0.03430793434381485
0.34982934594154358 0.18390099704265594 0.022261779755353928
0.53144645690917969 0.20174133777618408 0.02224285714328289
0.68057292699813843 0.20310042798519135 0.0078638866543769836
0.78759706020355225 0.21182398498058319 0.0013959099305793643
0.86489415168762207 0.2342352420091629 0.0011320225894451141
0.095781736075878143 0.2910553514957428 0.040704600512981415
0.23562100529670715 0.3241058886051178 0.03842456266283989
0.41173306107521057 0.36017507314682007 0.030736181885004044
0.58100211620330811 0.39020216464996338 0.02578297071158886
0.72796958684921265 0.40619015693664551 0.0092374915257096291
0.84156334400177002 0.41469365358352661 0.0024367389269173145
0.92646604776382446 0.42777800559997559 0.0023031795863062143
0.18669499456882477 0.46592789888381958 0.04297289252281189
0.31496098637580872 0.49428775906562805 0.044077090919017792
0.4664435088634491 0.52312356233596802 0.041527166962623596
0.6216999888420105 0.55067259073257446 0.028707241639494896
0.76169180870056152 0.57140010595321655 0.018669247627258301
0.87842577695846558 0.58601891994476318 0.011212337762117386
0.96749192476272583 0.59884035587310791 0.007787622045725584
0.30608263611793518 0.61782991886138916 0.081554695963859558
0.40632253885269165 0.64061009883880615 0.086939446628093719
0.52835428714752197 0.66242152452468872 0.078352205455303192
0.66780370473861694 0.68637073040008545 0.045921415090560913
0.7907671332359314 0.70669108629226685 0.046335123479366302
0.89868044853210449 0.72198390960693359 0.044469766318798065
0.98494583368301392 0.73646390438079834 0.030655311420559883
0.42154452204704285 0.74200987815856934 0.16166575253009796
0.50100350379943848 0.75989699363708496 0.17191876471042633
0.59749060869216919 0.77660626173019409 0.16414788365364075
0.71175581216812134 0.79727965593338013 0.13722282648086548
0.81523019075393677 0.81581658124923706 0.14033682644367218
0.9111214280128479 0.82958781719207764 0.13801221549510956
0.98874390125274658 0.84353697299957275 0.12689982354640961
0.52304506301879883 0.84547948837280273 0.24072590470314026
0.59721851348876953 0.86016213893890381 0.25853386521339417
0.67678636312484741 0.87297314405441284 0.26412597298622131
0.76275014877319336 0.88897699117660522 0.25211414694786072
0.84830987453460693 0.90398091077804565 0.25340661406517029
0.93181902170181274 0.91441404819488525 0.25433406233787537
0.99460351467132568 0.92651689052581787 0.26325809955596924
0.014028152450919151 0.031091593205928802 0.1270742267370224
0.1913740485906601 0.038778387010097504 0.13393691182136536
0.41033852100372314 0.037445247173309326 0.14254176616668701
0.58220547437667847 0.02592550590634346 0.14142236113548279
0.68170225620269775 0.009711126796901226 0.14614774286746979
0.75641071796417236 0.012886466458439827 0.14966349303722382
0.80809199810028076 0.039682157337665558 0.1523013710975647
0.021759167313575745 0.1394696831703186 0.15021470189094543
0.17829073965549469 0.16529753804206848 0.15718258917331696
0.36720725893974304 0.19402514398097992 0.15812455117702484
0.55743741989135742 0.20805230736732483 0.15364439785480499
0.69905334711074829 0.20324444770812988 0.14936468005180359
0.80865633487701416 0.20712855458259583 0.15471196174621582
0.88098841905593872 0.23454618453979492 0.16562439501285553
0.057670474052429199 0.31220942735671997 0.19059205055236816
0.22390642762184143 0.34264868497848511 0.19273793697357178
0.41279709339141846 0.37534600496292114 0.19140703976154327
0.59255045652389526 0.40215209126472473 0.18629926443099976
0.74128681421279907 0.41535899043083191 0.17443543672561646
0.8598523736000061 0.4241238534450531 0.17268846929073334
0.94492894411087036 0.43872642517089844 0.1818249523639679
0.1406521201133728 0.48993077874183655 0.22361485660076141
0.29051962494850159 0.51642799377441406 0.22496867179870605
0.45952415466308594 0.54327213764190674 0.22465156018733978
0.62517809867858887 0.56870931386947632 0.22071634232997894
0.76817876100540161 0.5881614089012146 0.21624360978603363
0.88950401544570923 0.60157233476638794 0.20989499986171722
0.97955423593521118 0.61456906795501709 0.20617631077766418
0.27912300825119019 0.64289158582687378 0.26384875178337097
0.38792744278907776 0.66392379999160767 0.26848995685577393
0.52001738548278809 0.68343573808670044 0.26534688472747803
0.66293728351593018 0.70481413602828979 0.25743892788887024
0.78885567188262939 0.72492331266403198 0.26296991109848022
0.90427303314208984 0.73747545480728149 0.26015996932983398
0.98978883028030396 0.75178277492523193 0.25020289421081543
0.41787624359130859 0.76787304878234863 0.32572820782661438
0.49395656585693359 0.78289586305618286 0.33324208855628967
0.59072333574295044 0.79662853479385376 0.32772490382194519
0.70537072420120239 0.81510812044143677 0.31747245788574219
0.81314969062805176 0.83571654558181763 0.3219611644744873
0.91441422700881958 0.84795337915420532 0.32107481360435486
0.99096709489822388 0.86177897453308105 0.31702375411987305
0.52595406770706177 0.86718124151229858 0.38854306936264038
0.59455686807632446 0.87978649139404297 0.39959776401519775
0.67004746198654175 0.88985133171081543 0.39724168181419373
0.75690257549285889 0.9045865535736084 0.39218622446060181
0.84782904386520386 0.92045027017593384 0.39617329835891724
0.9393075704574585 0.9295189380645752 0.39435708522796631
0.99891388416290283 0.94366669654846191 0.39996260404586792
0.020610464736819267 0.024184104055166245 0.27177613973617554
0.18846940994262695 0.032166872173547745 0.29716163873672485
0.39357084035873413 0.033014949411153793 0.32303053140640259
0.57091927528381348 0.019915472716093063 0.33527132868766785
0.68392086029052734 0.0075508118607103825 0.33705630898475647
0.76886320114135742 0.011693483218550682 0.34051811695098877
0.82562530040740967 0.035362258553504944 0.34410950541496277
0.011250304989516735 0.16051645576953888 0.30809059739112854
0.17883723974227905 0.18468509614467621 0.33103424310684204
0.38010367751121521 0.20766623318195343 0.34709778428077698
0.56936913728713989 0.21761627495288849 0.35208812355995178
0.71275204420089722 0.21073199808597565 0.35498061776161194
0.82336080074310303 0.21733294427394867 0.36265060305595398
0.89651060104370117 0.24120247364044189 0.37106028199195862
0.032637801021337509 0.33485546708106995 0.35646763443946838
0.20669886469841003 0.3649393618106842 0.37304124236106873
0.40642514824867249 0.39329749345779419 0.38238999247550964
0.59302443265914917 0.41724225878715515 0.38466474413871765
0.74839109182357788 0.4301396906375885 0.38409733772277832
0.86877602338790894 0.44081234931945801 0.38869386911392212
0.95435184240341187 0.4515482485294342 0.39800265431404114
0.11700785160064697 0.50986957550048828 0.3996489942073822
0.27218708395957947 0.5374610424041748 0.40984156727790833
0.44992077350616455 0.56324797868728638 0.41465696692466736
0.6206355094909668 0.58697044849395752 0.41795799136161804
0.76687812805175781 0.6061854362487793 0.41784548759460449
0.88969123363494873 0.61978429555892944 0.41851449012756348
0.97896724939346313 0.63054376840591431 0.41928580403327942
0.25212618708610535 0.66178762912750244 0.439238041639328
0.36948615312576294 0.68345773220062256 0.44645681977272034
0.51113796234130859 0.70280379056930542 0.44815513491630554
0.65849959850311279 0.72321635484695435 0.4487004280090332
0.7854006290435791 0.74464088678359985 0.44916406273841858
0.90242224931716919 0.756816565990448 0.45040270686149597
0.98607581853866577 0.77104645967483521 0.44929388165473938
0.39487051963806152 0.78562468290328979 0.4835490882396698
0.4775812029838562 0.80234313011169434 0.48818498849868774
0.58088403940200806 0.81560438871383667 0.48493984341621399
0.69776457548141479 0.83383172750473022 0.48197439312934875
0.80797582864761353 0.85503953695297241 0.48538696765899658
0.91182118654251099 0.86584359407424927 0.48819178342819214
0.9868963360786438 0.88022983074188232 0.49203720688819885
0.51704716682434082 0.88354599475860596 0.52824050188064575
0.58289027214050293 0.89660137891769409 0.53249090909957886
0.65897023677825928 0.9054681658744812 0.5258796215057373
0.74774491786956787 0.91955584287643433 0.52353054285049438
0.84102755784988403 0.93600022792816162 0.52977192401885986
0.93193864822387695 0.94455957412719727 0.53446453809738159
0.99755734205245972 0.95852452516555786 0.53974384069442749
0.03479500487446785 0.018630592152476311 0.40485188364982605
0.19712316989898682 0.02583027258515358 0.44042539596557617
0.39190778136253357 0.030126998201012611 0.47006690502166748
0.56752526760101318 0.023342432454228401 0.48790597915649414
0.69370478391647339 0.012039019726216793 0.49716722965240479
0.78349977731704712 0.01420123502612114 0.50265240669250488
0.84956318140029907 0.033249575644731522 0.50140494108200073
0.018773231655359268 0.17386545240879059 0.45434829592704773
0.18084806203842163 0.19717173278331757 0.48589375615119934
0.38942608237266541 0.21817409992218018 0.50792825222015381
0.57916349172592163 0.23172655701637268 0.52021312713623047
0.72511929273605347 0.22763693332672119 0.52942913770675659
0.83403748273849487 0.23458857834339142 0.53754615783691406
0.91089916229248047 0.25282412767410278 0.53982406854629517
0.027074163779616356 0.35405212640762329 0.50499176979064941
0.19834195077419281 0.38296410441398621 0.52951657772064209
0.40738785266876221 0.40829813480377197 0.54347383975982666
0.59499269723892212 0.43318802118301392 0.55203706026077271
0.7526969313621521 0.44749727845191956 0.55983883142471313
0.87318718433380127 0.45932835340499878 0.56738626956939697
0.9578937292098999 0.46680337190628052 0.57065719366073608
0.10597505420446396 0.52697467803955078 0.54985195398330688
0.26188167929649353 0.55306369066238403 0.56773823499679565
0.44482150673866272 0.57899439334869385 0.57682496309280396
0.61930239200592041 0.60315382480621338 0.58389425277709961
0.76658594608306885 0.62068033218383789 0.58756029605865479
0.8890005350112915 0.63577592372894287 0.59175783395767212
0.97683596611022949 0.64414501190185547 0.59409213066101074
0.2306312620639801 0.67808228731155396 0.5885009765625
0.3509850800037384 0.69928896427154541 0.59960633516311646
0.49951472878456116 0.71925109624862671 0.60476791858673096
0.64989602565765381 0.74145209789276123 0.60873448848724365
0.78071033954620361 0.76085275411605835 0.60886603593826294
0.90094077587127686 0.77293580770492554 0.61197763681411743
0.98415493965148926 0.78485018014907837 0.61370694637298584
0.36784416437149048 0.80235522985458374 0.62133938074111938
0.45209038257598877 0.82074177265167236 0.62654983997344971
0.565479576587677 0.83317410945892334 0.62808144092559814
0.68606752157211304 0.85195672512054443 0.63012731075286865
0.80101633071899414 0.86952668428421021 0.63219219446182251
0.91031169891357422 0.87747836112976074 0.63548761606216431
0.98736333847045898 0.89169365167617798 0.63882672786712646
0.49878361821174622 0.89928698539733887 0.65142250061035156
0.56400167942047119 0.91306334733963013 0.65566521883010864
0.64671784639358521 0.92044860124588013 0.65477436780929565
0.73829931020736694 0.93469464778900146 0.65508097410202026
0.83314579725265503 0.947101891040802 0.65849286317825317
0.92742055654525757 0.9506295919418335 0.66296911239624023
0.99598759412765503 0.96740138530731201 0.66643702983856201
0.028944965451955795 0.02789854072034359 0.50780677795410156
0.19371685385704041 0.028669126331806183 0.54866659641265869
0.39272388815879822 0.037038765847682953 0.58053350448608398
0.5733712911605835 0.037386801093816757 0.60140413045883179
0.70795339345932007 0.019785862416028976 0.61508244276046753
0.80112963914871216 0.017558349296450615 0.62366056442260742
0.86977148056030273 0.036729715764522552 0.62295675277709961
0.018489941954612732 0.19692684710025787 0.56276273727416992
0.18279391527175903 0.21608008444309235 0.59878438711166382
0.39840033650398254 0.23342445492744446 0.62573915719985962
0.5901038646697998 0.24888798594474792 0.64194333553314209
0.73852807283401489 0.24154902994632721 0.65449815988540649
0.84784895181655884 0.24380740523338318 0.6642683744430542
0.92846113443374634 0.26585027575492859 0.66543149948120117
0.024855758994817734 0.37481269240379333 0.61648499965667725
0.19823195040225983 0.39976632595062256 0.64524543285369873
0.41367468237876892 0.42340433597564697 0.66470527648925781
0.60422539710998535 0.44781172275543213 0.67726808786392212
0.76030707359313965 0.46036377549171448 0.68737781047821045
0.87969344854354858 0.46994808316230774 0.69640994071960449
0.96672457456588745 0.48088282346725464 0.69826656579971313
0.093392148613929749 0.546073317527771 0.6648944616317749
0.25261679291725159 0.56931424140930176 0.68470555543899536
0.44264566898345947 0.593788743019104 0.69646328687667847
0.62481313943862915 0.61801975965499878 0.70709902048110962
0.77349787950515747 0.63691508769989014 0.71336150169372559
0.89237779378890991 0.64754045009613037 0.72010993957519531
0.97954463958740234 0.65432018041610718 0.72257959842681885
0.22079411149024963 0.69567131996154785 0.70534586906433105
0.34143346548080444 0.71353626251220703 0.71636867523193359
0.49304312467575073 0.73221802711486816 0.72262275218963623
0.65029901266098022 0.75472784042358398 0.73011964559555054
0.78465664386749268 0.77323007583618164 0.73365128040313721
0.90137076377868652 0.7849699854850769 0.7374909520149231
0.98395466804504395 0.79299253225326538 0.73927795886993408
0.35908794403076172 0.81867456436157227 0.73286479711532593
0.44421064853668213 0.83485853672027588 0.73796510696411133
0.56201988458633423 0.84688663482666016 0.74166518449783325
0.68636888265609741 0.86458522081375122 0.74649715423583984
0.80170589685440063 0.87940549850463867 0.74963510036468506
0.90800821781158447 0.89156436920166016 0.75254136323928833
0.98296207189559937 0.90487629175186157 0.75539201498031616
0.48946934938430786 0.91456359624862671 0.75147485733032227
0.55763781070709229 0.92661511898040771 0.75786328315734863
0.64457345008850098 0.93233609199523926 0.76148521900177002
0.73783177137374878 0.9451138973236084 0.76229965686798096
0.83204805850982666 0.95468097925186157 0.76398926973342896
0.92302960157394409 0.96043169498443604 0.76682645082473755
0.99229437112808228 0.9775206446647644 0.76974254846572876
0.026837144047021866 0.057837631553411484 0.58077782392501831
0.19670303165912628 0.052484773099422455 0.62469518184661865
0.39908036589622498 0.068196840584278107 0.6590954065322876
0.58584308624267578 0.078357532620429993 0.68333405256271362
0.72580283880233765 0.059468332678079605 0.70043247938156128
0.82329517602920532 0.047719080001115799 0.71093595027923584
0.89615297317504883 0.060877002775669098 0.71171826124191284
0.025680167600512505 0.22373896837234497 0.63821297883987427
0.19402164220809937 0.24131591618061066 0.67556500434875488
0.40884512662887573 0.26253372430801392 0.70515233278274536
0.60203760862350464 0.28349503874778748 0.72508931159973145
0.75181770324707031 0.27711379528045654 0.74076336622238159
0.8616020679473877 0.27265453338623047 0.75215059518814087
0.94362783432006836 0.28527268767356873 0.75381350517272949
0.01964162103831768 0.39956915378570557 0.69421744346618652
0.20292846858501434 0.42228794097900391 0.72260725498199463
0.42157250642776489 0.44550392031669617 0.74448245763778687
0.60983985662460327 0.47001481056213379 0.76098006963729858
0.76648247241973877 0.48126706480979919 0.7735220193862915
0.88484710454940796 0.48729169368743896 0.78324693441390991
0.97269970178604126 0.49530681967735291 0.78592979907989502
0.084259584546089172 0.56698918342590332 0.74405944347381592
0.25819545984268188 0.58721697330474854 0.7624586820602417
0.44983422756195068 0.61113518476486206 0.77506959438323975
0.62824779748916626 0.63067805767059326 0.78994035720825195
0.77558821439743042 0.64845722913742065 0.79827040433883667
0.89341992139816284 0.65997493267059326 0.80513507127761841
0.98145973682403564 0.66746217012405396 0.80792045593261719
0.22160358726978302 0.71250814199447632 0.7850039005279541
0.34599640965461731 0.72910588979721069 0.79453444480895996
0.49724265933036804 0.74680173397064209 0.80064398050308228
0.65220236778259277 0.76509338617324829 0.81033152341842651
0.78082466125488281 0.78228169679641724 0.81485152244567871
0.89889156818389893 0.79381346702575684 0.82039827108383179
0.98373425006866455 0.80167609453201294 0.82344561815261841
0.3669506311416626 0.83226156234741211 0.8108704686164856
0.45419979095458984 0.84685254096984863 0.81579428911209106
0.56908583641052246 0.86059439182281494 0.8185269832611084
0.69042778015136719 0.87593811750411987 0.82378113269805908
0.80229097604751587 0.88923245668411255 0.8283383846282959
0.90861564874649048 0.90357142686843872 0.83238679170608521
0.98237437009811401 0.91173863410949707 0.83610492944717407
0.49772056937217712 0.92495644092559814 0.82688051462173462
0.56553381681442261 0.93727666139602661 0.83306556940078735
0.64726227521896362 0.94541609287261963 0.83526766300201416
0.73870325088500977 0.95233398675918579 0.83743363618850708
0.83378452062606812 0.95904755592346191 0.83964401483535767
0.92361950874328613 0.96523207426071167 0.84209221601486206
0.99047082662582397 0.98160374164581299 0.84602552652359009
0.03223317489027977 0.10819768160581589 0.63500845432281494
0.20894041657447815 0.10627233237028122 0.6786767840385437
0.40748339891433716 0.11763884872198105 0.71607911586761475
0.59487658739089966 0.13100381195545197 0.74420392513275146
0.73761314153671265 0.12079682946205139 0.7637941837310791
0.84119796752929688 0.10515878349542618 0.77516275644302368
0.92230457067489624 0.10296141356229782 0.77659136056900024
0.037874452769756317 0.26494678854942322 0.69424581527709961
0.21434032917022705 0.27818885445594788 0.72971880435943604
0.41986966133117676 0.29854539036750793 0.76051396131515503
0.60855680704116821 0.31927099823951721 0.78483086824417114
0.75810712575912476 0.32077726721763611 0.8027883768081665
0.86935704946517944 0.31326600909233093 0.81478679180145264
0.95393174886703491 0.31279394030570984 0.81832206249237061
0.048369944095611572 0.42567053437232971 0.75010031461715698
0.22885194420814514 0.44505149126052856 0.77631574869155884
0.43693423271179199 0.46783411502838135 0.79874026775360107
0.61816823482513428 0.49333512783050537 0.81833434104919434
0.76821529865264893 0.50680190324783325 0.83325600624084473
0.88511735200881958 0.50943148136138916 0.84441697597503662
0.97331994771957397 0.51106476783752441 0.84854251146316528
0.1095784530043602 0.58183008432388306 0.79858291149139404
0.27550485730171204 0.60212725400924683 0.81634944677352905
0.4636390209197998 0.6248546838760376 0.83105874061584473
0.63765460252761841 0.64404815435409546 0.84669798612594604
0.77855110168457031 0.66197162866592407 0.85701823234558105
0.89278864860534668 0.6732901930809021 0.8651919960975647
0.98063725233078003 0.68109512329101562 0.86916458606719971
0.23556634783744812 0.72476279735565186 0.83705401420593262
0.35966095328330994 0.74199992418289185 0.84772849082946777
0.50904518365859985 0.75750190019607544 0.85645657777786255
0.65889966487884521 0.77407693862915039 0.86692690849304199
0.786754310131073 0.78950631618499756 0.8735506534576416
0.90009862184524536 0.80136144161224365 0.87978476285934448
0.98368895053863525 0.81521803140640259 0.88462454080581665
0.37789085507392883 0.84178191423416138 0.86360436677932739
0.4639488160610199 0.85633718967437744 0.86950558423995972
0.57243108749389648 0.86576575040817261 0.87436693906784058
0.6895715594291687 0.87819081544876099 0.88117814064025879
0.80147713422775269 0.89645254611968994 0.88625127077102661
0.91000914573669434 0.90430581569671631 0.89128667116165161
0.98370099067687988 0.91968286037445068 0.89752161502838135
0.50832068920135498 0.93064457178115845 0.88282746076583862
0.57216215133666992 0.94389599561691284 0.88966459035873413
0.64748680591583252 0.94926470518112183 0.89297187328338623
0.73429208993911743 0.95132339000701904 0.8959118127822876
0.83239889144897461 0.9617043137550354 0.89865827560424805
0.92361932992935181 0.97316271066665649 0.90213936567306519
0.98748546838760376 0.99206960201263428 0.90812909603118896
