assets/lut/inavision brown mobster.cube
# Created by: G'MIC (https://gmic.eu)
TITLE "brown_mobster"
# LUT size
LUT_3D_SIZE 5
# Data domain
DOMAIN_MIN 0.0 0.0 0.0
DOMAIN_MAX 1.0 1.0 1.0
# LUT data points
0.001219521276652813 0.0010627746814861894 0.0019431619439274073
0.34084931015968323 0.0057399822399020195 0.016320576891303062
0.62253057956695557 0.011127128265798092 0.018779844045639038
0.70006424188613892 0.01226362306624651 0.0094620948657393456
0.68861711025238037 0.01184559240937233 0.0094667617231607437
0.03269544243812561 0.27265658974647522 0.016025183722376823
0.375467449426651 0.30093282461166382 0.019642595201730728
0.65187948942184448 0.26072117686271667 0.031454436480998993
0.73725134134292603 0.17967735230922699 0.03661225363612175
0.74967354536056519 0.12723574042320251 0.039575792849063873
0.10622615367174149 0.45935621857643127 0.025485813617706299
0.34024423360824585 0.49935510754585266 0.026039483025670052
0.68124550580978394 0.5236365795135498 0.031414017081260681
0.76477259397506714 0.42962288856506348 0.032275091856718063
0.76400351524353027 0.3484988808631897 0.035280115902423859
0.10822205245494843 0.50519979000091553 0.023529412224888802
0.26934897899627686 0.54217052459716797 0.027450980618596077
0.55257701873779297 0.57219082117080688 0.031722962856292725
0.77862566709518433 0.5850258469581604 0.035294119268655777
0.78671574592590332 0.51745122671127319 0.033080607652664185
0.10554590821266174 0.54061782360076904 0.020439222455024719
0.18095310032367706 0.57426756620407104 0.028938846662640572
0.39991611242294312 0.60478657484054565 0.030734192579984665
0.66480213403701782 0.62631815671920776 0.034719638526439667
0.81980645656585693 0.64143991470336914 0.038480393588542938
0.00036903828731738031 0.0009471219964325428 0.13716693222522736
0.33752667903900146 0.0024887234903872013 0.16140644252300262
0.60905057191848755 0.00055147061357274652 0.12778408825397491
0.69384491443634033 0.00040863634785637259 0.078282855451107025
0.68969345092773438 0.00055274215992540121 0.051060993224382401
0.023516621440649033 0.26980477571487427 0.16048169136047363
0.40459358692169189 0.31433597207069397 0.16033560037612915
0.68903392553329468 0.3077109158039093 0.16230271756649017
0.78192806243896484 0.2984670102596283 0.15725857019424438
0.78918790817260742 0.29563996195793152 0.15235176682472229
0.029115714132785797 0.46282809972763062 0.11836974322795868
0.41086551547050476 0.52019703388214111 0.11840283125638962
0.71123588085174561 0.53112590312957764 0.12761408090591431
0.80264472961425781 0.4704679548740387 0.15001049637794495
0.80619412660598755 0.43344590067863464 0.15821179747581482
0.033012375235557556 0.51306724548339844 0.057183254510164261
0.40656232833862305 0.57346993684768677 0.099778853356838226
0.62793421745300293 0.58530670404434204 0.13052195310592651
0.80782228708267212 0.58894526958465576 0.12057583034038544
0.82219129800796509 0.54292625188827515 0.13912020623683929
0.086226277053356171 0.55016881227493286 0.010751881636679173
0.40713146328926086 0.61940032243728638 0.067995928227901459
0.56490021944046021 0.63190305233001709 0.11318793147802353
0.7389717698097229 0.6381150484085083 0.12935018539428711
0.84344029426574707 0.63696515560150146 0.1283775120973587
0.067415662109851837 0 0.38836356997489929
0.25666773319244385 0.0022766711190342903 0.44088068604469299
0.61196327209472656 0.00010627297888277099 0.44192343950271606
0.69595640897750854 0.0028445075731724501 0.22965247929096222
0.69111388921737671 0.00045399385271593928 0.082907013595104218
0.061146650463342667 0.19192370772361755 0.4253259003162384
0.41683033108711243 0.30769959092140198 0.48364892601966858
0.7013055682182312 0.30938708782196045 0.49244585633277893
0.79566806554794312 0.30657872557640076 0.36757233738899231
0.8010481595993042 0.30727902054786682 0.30532073974609375
0.09331965446472168 0.45639389753341675 0.43904677033424377
0.43328970670700073 0.51563942432403564 0.49378544092178345
0.72685420513153076 0.53077548742294312 0.50964927673339844
0.8193047046661377 0.53129732608795166 0.5082816481590271
0.82726716995239258 0.53160637617111206 0.50695121288299561
0.057283036410808563 0.51325386762619019 0.26474389433860779
0.4254087507724762 0.57777959108352661 0.35503476858139038
0.73186129331588745 0.5919487476348877 0.50898653268814087
0.82011324167251587 0.58743906021118164 0.51300948858261108
0.83225184679031372 0.57822811603546143 0.51162469387054443
0.056146014481782913 0.55548441410064697 0.045473404228687286
0.44027101993560791 0.6297340989112854 0.19224824011325836
0.75132697820663452 0.64172607660293579 0.5048026442527771
0.82513874769210815 0.63962918519973755 0.53541022539138794
0.85625910758972168 0.641124427318573 0.54549950361251831
0.097132876515388489 0.0011609994107857347 0.48344773054122925
0.14016881585121155 0 0.54087626934051514
0.42266100645065308 0.0011296141892671585 0.54749101400375366
0.68950498104095459 0.0037694743368774652 0.53736978769302368
0.71118044853210449 0.003514712443575263 0.36273008584976196
0.091941222548484802 0.06247386708855629 0.54453843832015991
0.42528197169303894 0.29491648077964783 0.60811477899551392
0.61929905414581299 0.30494490265846252 0.61951130628585815
0.79973453283309937 0.30324640870094299 0.61484158039093018
0.81194937229156494 0.30443772673606873 0.51709097623825073
0.10618435591459274 0.34457939863204956 0.55975902080535889
0.43747067451477051 0.44719976186752319 0.61639761924743652
0.73302525281906128 0.52589726448059082 0.63359314203262329
0.82172316312789917 0.52920043468475342 0.63240718841552734
0.83447080850601196 0.52991175651550293 0.60961240530014038
0.11730624735355377 0.49922043085098267 0.55246621370315552
0.44534635543823242 0.56291121244430542 0.61150753498077393
0.73678267002105713 0.5799439549446106 0.63037312030792236
0.82993513345718384 0.58595269918441772 0.63735127449035645
0.84103173017501831 0.58726400136947632 0.63709425926208496
0.087508410215377808 0.55339211225509644 0.39261919260025024
0.46275055408477783 0.61988657712936401 0.5108533501625061
0.77017468214035034 0.62999087572097778 0.62354522943496704
0.85732334852218628 0.63314163684844971 0.65436369180679321
0.86016792058944702 0.63317370414733887 0.66362935304641724
0.091524668037891388 0.00014235552225727588 0.4734380841255188
0.075020253658294678 0.00070145551580935717 0.52629363536834717
0.24499017000198364 0.0010469474364072084 0.54525649547576904
0.56545943021774292 0.0022618761286139488 0.56785696744918823
0.72196453809738159 0.012960725463926792 0.57170265913009644
0.10786681622266769 0.022359106689691544 0.54904216527938843
0.42918685078620911 0.2933465838432312 0.6213299036026001
0.570792555809021 0.30485013127326965 0.62970465421676636
0.73017305135726929 0.3009834885597229 0.63818508386611938
0.82078319787979126 0.29863202571868896 0.64017558097839355
0.099692627787590027 0.26549825072288513 0.57128196954727173
0.43576735258102417 0.40976604819297791 0.62636297941207886
0.73280507326126099 0.52673864364624023 0.64803922176361084
0.80505740642547607 0.52587771415710449 0.65027403831481934
0.83790212869644165 0.52960509061813354 0.65098041296005249
0.11270532011985779 0.43326756358146667 0.57767105102539062
0.4429510235786438 0.51751822233200073 0.63337981700897217
0.7368851900100708 0.57160729169845581 0.64890021085739136
0.83509409427642822 0.58637648820877075 0.65490198135375977
0.84313726425170898 0.58722245693206787 0.65490198135375977
0.12805609405040741 0.52550560235977173 0.58764952421188354
0.4535442590713501 0.58329421281814575 0.6391257643699646
0.7476046085357666 0.5971793532371521 0.65362834930419922
0.84206783771514893 0.60098743438720703 0.6571001410484314
0.84644430875778198 0.60026389360427856 0.65686726570129395
