assets/lut/inavision dark man x.cube
# Created by: G'MIC (https://gmic.eu)
TITLE "dark_man_x"
# LUT size
LUT_3D_SIZE 5
# Data domain
DOMAIN_MIN 0.0 0.0 0.0
DOMAIN_MAX 1.0 1.0 1.0
# LUT data points
0.02985229529440403 0.023316999897360802 0.025664310902357101
0.30674374103546143 0.03558063879609108 0.015475239604711533
0.56845468282699585 0.021194338798522949 0.014279862865805626
0.70940452814102173 0.013277330435812473 0.0037957883905619383
0.80665218830108643 0.04415462538599968 0.00022421444009523839
0.067355886101722717 0.20250885188579559 0.03799336776137352
0.29287025332450867 0.255106121301651 0.030435046181082726
0.56009089946746826 0.30044102668762207 0.023430453613400459
0.76470100879669189 0.31124246120452881 0.0026786804664880037
0.89713805913925171 0.33218306303024292 0.0015364702558144927
0.18669499456882477 0.46592789888381958 0.04297289252281189
0.38861393928527832 0.50857341289520264 0.044703315943479538
0.6216999888420105 0.55067259073257446 0.028707241639494896
0.82305866479873657 0.57896202802658081 0.014708171598613262
0.96749192476272583 0.59884035587310791 0.007787622045725584
0.36485052108764648 0.68306195735931396 0.12001341581344604
0.50180155038833618 0.71218746900558472 0.12677867710590363
0.69016242027282715 0.74460583925247192 0.081423006951808929
0.85566514730453491 0.7720639705657959 0.088315911591053009
0.98772644996643066 0.79419994354248047 0.06577039510011673
0.52304506301879883 0.84547948837280273 0.24072590470314026
0.63597160577774048 0.86631578207015991 0.264365553855896
0.76275014877319336 0.88897699117660522 0.25211414694786072
0.89114946126937866 0.90955454111099243 0.25390887260437012
0.99460351467132568 0.92651689052581787 0.26325809955596924
0.014846024103462696 0.02927195280790329 0.19891823828220367
0.28585517406463623 0.037141267210245132 0.22530055046081543
0.57805508375167847 0.022081771865487099 0.24169912934303284
0.72707372903823853 0.0078956456854939461 0.24322891235351562
0.81482809782028198 0.03688538447022438 0.25178512930870056
0.022703267633914948 0.2342379242181778 0.25021472573280334
0.29440894722938538 0.27805700898170471 0.26766842603683472
0.57851070165634155 0.3126070499420166 0.26639503240585327
0.78978949785232544 0.31921473145484924 0.26396095752716064
0.92374414205551147 0.34220552444458008 0.28215336799621582
0.1255461722612381 0.50055938959121704 0.31436312198638916
0.36683103442192078 0.5402601957321167 0.3213050365447998
0.62333863973617554 0.57758218050003052 0.32200253009796143
0.83264076709747314 0.6040385365486145 0.31813928484916687
0.98017436265945435 0.62214893102645874 0.31670913100242615
0.33970576524734497 0.71917092800140381 0.3792215883731842
0.48887920379638672 0.74476170539855957 0.38446474075317383
0.6825447678565979 0.77186554670333862 0.37806162238121033
0.85558438301086426 0.80068135261535645 0.38197207450866699
0.98784863948822021 0.82031130790710449 0.37938061356544495
0.5231824517250061 0.87598180770874023 0.45992681384086609
0.62586599588394165 0.89282810688018799 0.46511536836624146
0.75286746025085449 0.91196584701538086 0.45720872282981873
0.89142906665802002 0.93441945314407349 0.46399816870689392
0.99838900566101074 0.95208525657653809 0.47046807408332825
0.03479500487446785 0.018630592152476311 0.40485188364982605
0.29325273633003235 0.028852514922618866 0.4563802182674408
0.56752526760101318 0.023342432454228401 0.48790597915649414
0.74237167835235596 0.011291459202766418 0.50008594989776611
0.84956318140029907 0.033249575644731522 0.50140494108200073
0.015942173078656197 0.26337912678718567 0.48000502586364746
0.29095074534416199 0.30131030082702637 0.51919394731521606
0.58719038963317871 0.33575865626335144 0.53592997789382935
0.80371439456939697 0.3480992317199707 0.54866743087768555
0.93813872337341309 0.36339655518531799 0.5562555193901062
0.10597505420446396 0.52697467803955078 0.54985195398330688
0.35347378253936768 0.56573069095611572 0.57317817211151123
0.61930239200592041 0.60315382480621338 0.58389425277709961
0.83123946189880371 0.62942487001419067 0.58904671669006348
0.97683596611022949 0.64414501190185547 0.59409213066101074
0.2992624044418335 0.74392867088317871 0.60540759563446045
0.46287763118743896 0.77115672826766968 0.61510777473449707
0.66678535938262939 0.80003267526626587 0.61938238143920898
0.85141962766647339 0.82444578409194946 0.62115401029586792
0.98623830080032349 0.84228724241256714 0.6255912184715271
0.49878361821174622 0.89928698539733887 0.65142250061035156
0.60316503047943115 0.91666674613952637 0.65523761510848999
0.73829931020736694 0.93469464778900146 0.65508097410202026
0.88187867403030396 0.94887501001358032 0.66078752279281616
0.99598759412765503 0.96740138530731201 0.66643702983856201
0.026524262502789497 0.039095770567655563 0.54756110906600952
0.29304319620132446 0.040277592837810516 0.60851061344146729
0.57929044961929321 0.054580226540565491 0.64562523365020752
0.76840883493423462 0.025096623227000237 0.66674911975860596
0.88101100921630859 0.044693291187286377 0.67108619213104248
0.020121870562434196 0.29632467031478882 0.63205635547637939
0.30201971530914307 0.32976233959197998 0.67959415912628174
0.60209977626800537 0.36458662152290344 0.70629239082336426
0.81783568859100342 0.36768901348114014 0.72480195760726929
0.95783454179763794 0.38657963275909424 0.73145431280136108
0.086379244923591614 0.55684947967529297 0.7085338830947876
0.35082909464836121 0.58968961238861084 0.73414736986160278
0.62710440158843994 0.62359863519668579 0.75350385904312134
0.83767497539520264 0.64880716800689697 0.76364606618881226
0.98089385032653809 0.66054028272628784 0.76939845085144043
0.29269692301750183 0.76895713806152344 0.76592588424682617
0.45809361338615417 0.78960967063903809 0.77391469478607178
0.66822236776351929 0.81770455837249756 0.7830970287322998
0.84997910261154175 0.84169083833694458 0.7882455587387085
0.98301756381988525 0.8543701171875 0.79259002208709717
0.49220839142799377 0.92024540901184082 0.79231590032577515
0.6013866662979126 0.93590050935745239 0.80048602819442749
0.73907703161239624 0.94980496168136597 0.80302107334136963
0.87995374202728271 0.95978343486785889 0.8060271143913269
0.99105232954025269 0.97970938682556152 0.81095820665359497
0.03223317489027977 0.10819768160581589 0.63500845432281494
0.30744770169258118 0.11030934751033783 0.69839990139007568
0.59487658739089966 0.13100381195545197 0.74420392513275146
0.79290550947189331 0.11162398010492325 0.77055460214614868
0.92230457067489624 0.10296141356229782 0.77659136056900024
0.041059982031583786 0.34481260180473328 0.72288769483566284
0.32424893975257874 0.37258157134056091 0.76765060424804688
0.61292117834091187 0.40853822231292725 0.80222153663635254
0.82505649328231812 0.41566258668899536 0.82555878162384033
0.96523696184158325 0.41463616490364075 0.83481204509735107
0.1095784530043602 0.58183008432388306 0.79858291149139404
0.37222170829772949 0.61324936151504517 0.82365238666534424
0.63765460252761841 0.64404815435409546 0.84669798612594604
0.83856695890426636 0.66796785593032837 0.86127978563308716
0.98063725233078003 0.68109512329101562 0.86916458606719971
0.30708563327789307 0.78756225109100342 0.85183203220367432
0.47202706336975098 0.80870968103408813 0.86225968599319458
0.6731993556022644 0.83008027076721191 0.87445598840713501
0.85138416290283203 0.85055935382843018 0.88283807039260864
0.98416972160339355 0.87084931135177612 0.89141249656677246
0.50832068920135498 0.93064457178115845 0.88282746076583862
0.60741108655929565 0.94779598712921143 0.89132261276245117
0.73429208993911743 0.95132339000701904 0.8959118127822876
0.88144254684448242 0.96611607074737549 0.89996570348739624
0.98748546838760376 0.99206960201263428 0.90812909603118896
