assets/lut/inavision jwick 21.cube
# Created by: G'MIC (https://gmic.eu)
TITLE "jwick_21"
# LUT size
LUT_3D_SIZE 13
# Data domain
DOMAIN_MIN 0.0 0.0 0.0
DOMAIN_MAX 1.0 1.0 1.0
# LUT data points
0.003392387880012393 0.0083757741376757622 0.037608113139867783
0.015087426640093327 0.0070503982715308666 0.035184178501367569
0.036947630345821381 0.0089334677904844284 0.037626497447490692
0.077683329582214355 0.011959330178797245 0.040928993374109268
0.13672187924385071 0.015930743888020515 0.04718945175409317
0.19676990807056427 0.02229379303753376 0.056014221161603928
0.25405210256576538 0.018495507538318634 0.048854153603315353
0.31911468505859375 0.01626371406018734 0.045099806040525436
0.39999443292617798 0.01436296384781599 0.042330183088779449
0.49655190110206604 0.015020213089883327 0.043305043131113052
0.59873592853546143 0.016374669969081879 0.039893072098493576
0.6966896653175354 0.017117174342274666 0.047002546489238739
0.79065561294555664 0.016100266948342323 0.046294853091239929
0.0032128875609487295 0.037166327238082886 0.038696750998497009
0.013683902099728584 0.036713559180498123 0.035179153084754944
0.035616062581539154 0.043112929910421371 0.035663172602653503
0.078380212187767029 0.057037848979234695 0.034313187003135681
0.1382777988910675 0.069961667060852051 0.034416630864143372
0.19895833730697632 0.081619352102279663 0.039538811892271042
0.25471854209899902 0.077998757362365723 0.029980886727571487
0.31663921475410461 0.081578545272350311 0.027527589350938797
0.39767587184906006 0.078561685979366302 0.017616750672459602
0.49600604176521301 0.07368750125169754 0.01011213380843401
0.59947049617767334 0.077949792146682739 0.010459241457283497
0.6980215311050415 0.081650078296661377 0.013948134146630764
0.79100704193115234 0.07817637175321579 0.0080863358452916145
0.0042984457686543465 0.088177010416984558 0.041262384504079819
0.016504384577274323 0.086079753935337067 0.036468207836151123
0.038109857589006424 0.09029725193977356 0.036191649734973907
0.080529354512691498 0.10848967730998993 0.036272566765546799
0.13835786283016205 0.12953443825244904 0.038666609674692154
0.19883152842521667 0.144149050116539 0.039615046232938766
0.25370806455612183 0.14764168858528137 0.036658808588981628
0.3161446750164032 0.15691709518432617 0.033257398754358292
0.39777061343193054 0.16085144877433777 0.022934183478355408
0.49605736136436462 0.16421045362949371 0.015790393576025963
0.59935885667800903 0.17531205713748932 0.021045131608843803
0.6986883282661438 0.18293796479701996 0.02380664274096489
0.79117649793624878 0.17906014621257782 0.013841382227838039
0.0063132792711257935 0.16528835892677307 0.045216578990221024
0.024485509842634201 0.16257691383361816 0.035637274384498596
0.048983123153448105 0.16107702255249023 0.031865064054727554
0.087661877274513245 0.17009766399860382 0.034426327794790268
0.13930514454841614 0.18648122251033783 0.039608299732208252
0.19551518559455872 0.20023262500762939 0.043609753251075745
0.25181105732917786 0.20879645645618439 0.044499970972537994
0.31595697999000549 0.21909412741661072 0.041326679289340973
0.39769399166107178 0.23044884204864502 0.037597432732582092
0.49520263075828552 0.24525545537471771 0.038661222904920578
0.59817475080490112 0.2637728750705719 0.044377598911523819
0.69755715131759644 0.27503505349159241 0.046430580317974091
0.79139971733093262 0.27340057492256165 0.040304087102413177
0.008327738381922245 0.24755845963954926 0.049133628606796265
0.033323250710964203 0.24596376717090607 0.034576132893562317
0.06162884458899498 0.24112002551555634 0.027739880606532097
0.097546383738517761 0.24114750325679779 0.032687079161405563
0.14328421652317047 0.24834334850311279 0.039897903800010681
0.19363293051719666 0.25674912333488464 0.045388735830783844
0.24828870594501495 0.26434332132339478 0.046813726425170898
0.31328001618385315 0.27468705177307129 0.046137250959873199
0.3957444429397583 0.29104322195053101 0.045391861349344254
0.49343106150627136 0.31261369585990906 0.046769175678491592
0.59696990251541138 0.33448007702827454 0.049750924110412598
0.69671964645385742 0.34677320718765259 0.048247631639242172
0.79189819097518921 0.3482053279876709 0.043893374502658844
0.0093051688745617867 0.31624272465705872 0.051382657140493393
0.036800984293222427 0.31555503606796265 0.037898749113082886
0.068631626665592194 0.31239840388298035 0.030783200636506081
0.10623632371425629 0.31045010685920715 0.03527972474694252
0.14909408986568451 0.31281077861785889 0.041462227702140808
0.19561068713665009 0.31594604253768921 0.044459488242864609
0.24668757617473602 0.31941103935241699 0.045021925121545792
0.31010964512825012 0.32828730344772339 0.043876469135284424
0.3927520215511322 0.34860709309577942 0.044723376631736755
0.49248957633972168 0.37687015533447266 0.046302225440740585
0.5970691442489624 0.40178143978118896 0.045450892299413681
0.69650959968566895 0.41486755013465881 0.041245508939027786
0.7919037938117981 0.41845247149467468 0.035424895584583282
0.0093407575041055679 0.38533470034599304 0.051200434565544128
0.038755200803279877 0.38558498024940491 0.03717002272605896
0.074800677597522736 0.38503435254096985 0.030105754733085632
0.11594028770923615 0.3848186731338501 0.036524813622236252
0.15947480499744415 0.38554662466049194 0.040711946785449982
0.2045661062002182 0.38542631268501282 0.041342101991176605
0.25313571095466614 0.3849828839302063 0.040984660387039185
0.3128724992275238 0.39027398824691772 0.040679469704627991
0.39487719535827637 0.41155791282653809 0.042413808405399323
0.49488866329193115 0.44371545314788818 0.043888241052627563
0.59855395555496216 0.4710536003112793 0.041624706238508224
0.69615644216537476 0.48513045907020569 0.03515135869383812
0.7902064323425293 0.49062469601631165 0.027463247999548912
0.0091143893077969551 0.47610390186309814 0.05129222571849823
0.041691124439239502 0.47604167461395264 0.03318825364112854
0.082863777875900269 0.47573578357696533 0.021267864853143692
0.12871623039245605 0.47541233897209167 0.023989135399460793
0.17560730874538422 0.47511947154998779 0.029138468205928802
0.22307649254798889 0.47380203008651733 0.032963473349809647
0.27375513315200806 0.47165700793266296 0.036635648459196091
0.33331462740898132 0.4751887321472168 0.039545334875583649
0.41052666306495667 0.49139159917831421 0.042717579752206802
0.50180345773696899 0.51690834760665894 0.04394308477640152
0.5980110764503479 0.53936231136322021 0.04048958420753479
0.69324594736099243 0.55410444736480713 0.03209933266043663
0.78731727600097656 0.56239938735961914 0.023187046870589256
0.0090756881982088089 0.58439058065414429 0.052338946610689163
0.045143965631723404 0.58268481492996216 0.03006451204419136
0.091379441320896149 0.58135944604873657 0.012035534717142582
0.14233875274658203 0.57961845397949219 0.0079373074695467949
0.19412721693515778 0.57784515619277954 0.012487209402024746
0.24764186143875122 0.57654380798339844 0.020841710269451141
0.30517569184303284 0.57737159729003906 0.031210416927933693
0.36924311518669128 0.58192199468612671 0.040481042116880417
0.44000566005706787 0.58942681550979614 0.044764723628759384
0.51655220985412598 0.59914791584014893 0.044780492782592773
0.60034751892089844 0.61083287000656128 0.041114222258329391
0.69272971153259277 0.62478989362716675 0.033508840948343277
0.78605884313583374 0.63526314496994019 0.025404313579201698
0.0095109231770038605 0.69348704814910889 0.053544618189334869
0.047500744462013245 0.69036424160003662 0.029452079907059669
0.096993871033191681 0.68746626377105713 0.010356932878494263
0.15195764601230621 0.68500912189483643 0.0036163181066513062
0.20963479578495026 0.68345415592193604 0.0044237175025045872
0.27011522650718689 0.68367272615432739 0.01039416715502739
0.33508941531181335 0.68689173460006714 0.022678360342979431
0.40448740124702454 0.69217002391815186 0.036691911518573761
0.47226426005363464 0.69327330589294434 0.042684368789196014
0.54058897495269775 0.69182980060577393 0.042413689196109772
0.61590224504470825 0.69501626491546631 0.040324520319700241
0.70050531625747681 0.70311838388442993 0.035929646342992783
0.78988027572631836 0.7113458514213562 0.031399205327033997
0.0097240675240755081 0.7895628809928894 0.054719079285860062
0.048592794686555862 0.78715944290161133 0.030307291075587273
0.098959952592849731 0.78454363346099854 0.010983605869114399
0.15658615529537201 0.78280133008956909 0.0026379006449133158
0.21878258883953094 0.7823912501335144 0.0014103908324614167
0.28479355573654175 0.78425872325897217 0.0039281658828258514
0.35437223315238953 0.78799766302108765 0.011621198616921902
0.42587101459503174 0.79141134023666382 0.023740282282233238
0.49529197812080383 0.79035359621047974 0.032103147357702255
0.56371533870697021 0.7863619327545166 0.035698190331459045
0.63546168804168701 0.78474640846252441 0.037301890552043915
0.71369421482086182 0.78705674409866333 0.038218896836042404
0.79745030403137207 0.79124248027801514 0.037574272602796555
0.0097493492066860199 0.87442880868911743 0.05570385605096817
0.048952184617519379 0.87325340509414673 0.030334249138832092
0.099705956876277924 0.8716241717338562 0.010399672202765942
0.15800602734088898 0.8712734580039978 0.0015256544575095177
0.22251127660274506 0.87272149324417114 8.4372128185350448e-05
0.29161131381988525 0.87557190656661987 0.00075116625521332026
0.36368018388748169 0.87903517484664917 0.0042011933401226997
0.4366765022277832 0.88077586889266968 0.011552354320883751
0.50823742151260376 0.87959176301956177 0.020029583945870399
0.5788155198097229 0.87596976757049561 0.027544792741537094
0.65046101808547974 0.87282943725585938 0.034091755747795105
0.7261931300163269 0.87182337045669556 0.039581824094057083
0.80611282587051392 0.8725619912147522 0.043041527271270752
0.0097493492066860199 0.95343136787414551 0.055466983467340469
0.049616120755672455 0.95340567827224731 0.030091408640146255
0.10013146698474884 0.95316767692565918 0.0097396550700068474
0.15860307216644287 0.95340621471405029 0.00089578068582341075
0.22400468587875366 0.95609712600708008 0
0.29453536868095398 0.95970344543457031 1.5079273907758761e-05
0.36771491169929504 0.96311575174331665 0.0012839821865782142
0.44170421361923218 0.96473324298858643 0.0056991279125213623
0.51508206129074097 0.96376699209213257 0.012845701538026333
0.58751672506332397 0.96098834276199341 0.021572621539235115
0.66042029857635498 0.95768958330154419 0.031250044703483582
0.73562604188919067 0.95524424314498901 0.040089208632707596
0.81434434652328491 0.95380580425262451 0.046526066958904266
0.003091535298153758 0.0095686521381139755 0.079198874533176422
0.013651036657392979 0.0084821516647934914 0.079713456332683563
0.035686850547790527 0.0090049291029572487 0.08839600533246994
0.079136520624160767 0.0077831344678997993 0.10575731843709946
0.13821439445018768 0.0073384302668273449 0.12344306707382202
0.19862110912799835 0.011234717443585396 0.13909405469894409
0.25356903672218323 0.0096728457137942314 0.13918997347354889
0.31587567925453186 0.0088051436468958855 0.14404112100601196
0.3963390588760376 0.0068210526369512081 0.14303874969482422
0.49524310231208801 0.0086276931688189507 0.1557772308588028
0.60036933422088623 0.0092314174398779869 0.16059541702270508
0.69947129487991333 0.0095529742538928986 0.17236179113388062
0.79117649793624878 0.0091414656490087509 0.17400062084197998
0.0030637255404144526 0.039725329726934433 0.083101175725460052
0.01307500246912241 0.03856862336397171 0.079673036932945251
0.035336215049028397 0.041685696691274643 0.084096036851406097
0.078971534967422485 0.04912179708480835 0.0915817990899086
0.13869774341583252 0.051799982786178589 0.092801429331302643
0.19901394844055176 0.055091302841901779 0.096998505294322968
0.25458845496177673 0.052521754056215286 0.093849986791610718
0.31438508629798889 0.051795478910207748 0.093592159450054169
0.39547094702720642 0.052138414233922958 0.092269197106361389
0.49503910541534424 0.050226878374814987 0.091994553804397583
0.60085254907608032 0.052591960877180099 0.098003670573234558
0.69996482133865356 0.052883028984069824 0.10023746639490128
0.79117649793624878 0.051611628383398056 0.096699625253677368
0.0036387874279171228 0.087756291031837463 0.093517288565635681
0.015454789623618126 0.087213553488254547 0.085235193371772766
0.038066700100898743 0.090058706700801849 0.079666242003440857
0.080441251397132874 0.1049167588353157 0.080187447369098663
0.13843856751918793 0.11946937441825867 0.079478338360786438
0.19912518560886383 0.12759359180927277 0.078053511679172516
0.25461706519126892 0.13074861466884613 0.077447123825550079
0.31486970186233521 0.13337577879428864 0.073266617953777313
0.39588341116905212 0.13757184147834778 0.070791669189929962
0.49511495232582092 0.14678853750228882 0.06959514319896698
0.60069292783737183 0.1482636034488678 0.070006653666496277
0.6999199390411377 0.15084803104400635 0.067653432488441467
0.79117649793624878 0.15734188258647919 0.066153690218925476
0.0041116750799119473 0.16337434947490692 0.11226631700992584
0.019653888419270515 0.16417372226715088 0.097739636898040771
0.045016825199127197 0.16391737759113312 0.082411207258701324
0.085486404597759247 0.17261369526386261 0.077375240623950958
0.14002750813961029 0.1875290721654892 0.08002924919128418
0.19760255515575409 0.19882692396640778 0.084275968372821808
0.25273782014846802 0.20545165240764618 0.085656590759754181
0.31481215357780457 0.21139030158519745 0.08265521377325058
0.39626225829124451 0.2200530618429184 0.079472079873085022
0.49468767642974854 0.23692019283771515 0.08153388649225235
0.59923142194747925 0.24784085154533386 0.082941256463527679
0.7001071572303772 0.25473982095718384 0.080017566680908203
0.79225355386734009 0.25995782017707825 0.077575773000717163
0.0040732738561928272 0.2467082142829895 0.13019071519374847
0.023962521925568581 0.24879045784473419 0.11044546216726303
0.052757907658815384 0.24568134546279907 0.087293587625026703
0.092316873371601105 0.24596695601940155 0.078497014939785004
0.14152486622333527 0.25255212187767029 0.081899382174015045
0.19388842582702637 0.25932964682579041 0.087808616459369659
0.24837394058704376 0.26473036408424377 0.089857675135135651
0.31266370415687561 0.27297547459602356 0.088223837316036224
0.39473026990890503 0.28777417540550232 0.086994901299476624
0.49316757917404175 0.30823040008544922 0.088342048227787018
0.59798705577850342 0.32679590582847595 0.089249134063720703
0.69990283250808716 0.33727937936782837 0.085645042359828949
0.79395747184753418 0.339072585105896 0.082244202494621277
0.0051026437431573868 0.3165040910243988 0.13456352055072784
0.027135692536830902 0.31730496883392334 0.11299412697553635
0.058008335530757904 0.31519776582717896 0.089271321892738342
0.098219282925128937 0.314340740442276 0.080865897238254547
0.14477373659610748 0.31633436679840088 0.083973050117492676
0.19367046654224396 0.31790053844451904 0.088533200323581696
0.2455439418554306 0.3207324743270874 0.089620731770992279
0.3095240592956543 0.32875186204910278 0.088294282555580139
0.39191672205924988 0.34827756881713867 0.089295089244842529
0.49141678214073181 0.37518671154975891 0.091019168496131897
0.59698176383972168 0.39892575144767761 0.090510949492454529
0.69938021898269653 0.41213801503181458 0.086133025586605072
0.79400897026062012 0.41486141085624695 0.082040213048458099
0.0049904021434485912 0.38666221499443054 0.13668444752693176
0.028595808893442154 0.38515520095825195 0.11107169091701508
0.062493253499269485 0.38499835133552551 0.08343060314655304
0.10574137419462204 0.38675263524055481 0.076916247606277466
0.15285110473632812 0.38841423392295837 0.082117699086666107
0.20060478150844574 0.38729062676429749 0.085953459143638611
0.25094601511955261 0.38552510738372803 0.086375638842582703
0.31277018785476685 0.3913516104221344 0.085849151015281677
0.39453843235969543 0.41220927238464355 0.08843548595905304
0.49333962798118591 0.44252234697341919 0.092149771749973297
0.59732860326766968 0.4691847562789917 0.091326035559177399
0.6967766284942627 0.48478400707244873 0.085622958838939667
0.79229080677032471 0.49022743105888367 0.079127565026283264
0.0031518973410129547 0.47647124528884888 0.14259064197540283
0.028494292870163918 0.47630220651626587 0.11313769966363907
0.069081969559192657 0.47682633996009827 0.078467905521392822
0.11751843988895416 0.47783747315406799 0.068186275660991669
0.16761747002601624 0.47757256031036377 0.074150189757347107
0.21737262606620789 0.47471773624420166 0.080228231847286224
0.26964673399925232 0.47155001759529114 0.083171382546424866
0.33137887716293335 0.47517669200897217 0.085456743836402893
0.40982750058174133 0.49137434363365173 0.08951694518327713
0.5017399787902832 0.51658987998962402 0.093360722064971924
0.59926235675811768 0.54028534889221191 0.092572741210460663
0.69593995809555054 0.55638670921325684 0.086176328361034393
0.79008227586746216 0.56512731313705444 0.077463485300540924
0.0017659355653449893 0.58440262079238892 0.15081270039081573
0.027867740020155907 0.58522546291351318 0.11951256543397903
0.077151142060756683 0.5866273045539856 0.077101722359657288
0.13138847053050995 0.58524096012115479 0.059775587171316147
0.1855204701423645 0.58212476968765259 0.063869580626487732
0.23993995785713196 0.57866626977920532 0.072137661278247833
0.2980102002620697 0.57660543918609619 0.080192938446998596
0.36320501565933228 0.5792345404624939 0.086784124374389648
0.43744191527366638 0.58800023794174194 0.09172116219997406
0.51910442113876343 0.60148715972900391 0.094268321990966797
0.60627883672714233 0.61624175310134888 0.093753412365913391
0.69726330041885376 0.63003915548324585 0.089176163077354431
0.78957676887512207 0.63965624570846558 0.082534417510032654
0.001556830364279449 0.69262993335723877 0.15622304379940033
0.029605746269226074 0.69336026906967163 0.12477788329124451
0.080580770969390869 0.69341772794723511 0.083967067301273346
0.13938842713832855 0.69174575805664062 0.059364661574363708
0.19947078824043274 0.68907290697097778 0.056171536445617676
0.26045310497283936 0.68666046857833862 0.063540346920490265
0.32528942823410034 0.6865234375 0.074241697788238525
0.39519974589347839 0.68849581480026245 0.083902709186077118
0.46815940737724304 0.69140475988388062 0.089382514357566833
0.54344910383224487 0.69529670476913452 0.091865703463554382
0.62202936410903931 0.70091551542282104 0.093088917434215546
0.70548313856124878 0.70917046070098877 0.093038938939571381
0.79295146465301514 0.71674108505249023 0.091195903718471527
0.0017386642284691334 0.79001283645629883 0.15939556062221527
0.031487558037042618 0.78990113735198975 0.12798446416854858
0.081016302108764648 0.78900837898254395 0.089869119226932526
0.14120443165302277 0.78812879323959351 0.060834772884845734
0.20568343997001648 0.78772401809692383 0.049892321228981018
0.27292826771736145 0.78779369592666626 0.053731866180896759
0.34332090616226196 0.78822195529937744 0.064447693526744843
0.41674607992172241 0.79066735506057739 0.07522273063659668
0.49112588167190552 0.79095202684402466 0.082110054790973663
0.56487661600112915 0.789592444896698 0.086455084383487701
0.63922303915023804 0.7900041937828064 0.091541364789009094
0.71684032678604126 0.79264110326766968 0.09586632251739502
0.79951107501983643 0.7963796854019165 0.098629988729953766
0.0016427881782874465 0.87554407119750977 0.16182306408882141
0.031319532543420792 0.8750995397567749 0.12957786023616791
0.080777682363986969 0.87432634830474854 0.090118646621704102
0.14016520977020264 0.87456601858139038 0.056386027485132217
0.2067437469959259 0.8759189248085022 0.041647396981716156
0.27773520350456238 0.87840133905410767 0.043318849056959152
0.35155361890792847 0.88084065914154053 0.053677473217248917
0.42740166187286377 0.88238048553466797 0.06531631201505661
0.50304234027862549 0.88151252269744873 0.074786245822906494
0.57742655277252197 0.87954598665237427 0.082691892981529236
0.65104168653488159 0.87746351957321167 0.090872637927532196
0.72683876752853394 0.87689781188964844 0.098905928432941437
0.80646663904190063 0.87763208150863647 0.1047019362449646
0.0016196456272155046 0.95348703861236572 0.16270844638347626
0.031354539096355438 0.95343136787414551 0.13005355000495911
0.080523110926151276 0.95343136787414551 0.088355109095573425
0.13934671878814697 0.95363610982894897 0.050971537828445435
0.20622849464416504 0.95748567581176758 0.034995973110198975
0.27920413017272949 0.96170306205749512 0.036301244050264359
0.35472682118415833 0.96517390012741089 0.046261969953775406
0.43135818839073181 0.96714991331100464 0.058625359088182449
0.5077703595161438 0.96678107976913452 0.070179961621761322
0.58317106962203979 0.96440142393112183 0.081157192587852478
0.65802854299545288 0.96188533306121826 0.091650508344173431
0.7338985800743103 0.95978087186813354 0.1016172394156456
0.813129723072052 0.95850092172622681 0.10923495143651962
0.0042175441049039364 0.013847799971699715 0.1450115442276001
0.016370391473174095 0.010957216843962669 0.14350591599941254
0.038121331483125687 0.0098400488495826721 0.14771506190299988
0.080487146973609924 0.0075673870742321014 0.17088663578033447
0.13843448460102081 0.0056076198816299438 0.20117606222629547
0.19895833730697632 0.0070290211588144302 0.2188967764377594
0.2553105354309082 0.0077435662969946861 0.22601819038391113
0.31634047627449036 0.0077231014147400856 0.23855537176132202
0.39600807428359985 0.0076851937919855118 0.24287216365337372
0.49504181742668152 0.0077356672845780849 0.2638305127620697
0.60085785388946533 0.0077335131354629993 0.27871859073638916
0.70012253522872925 0.0077205882407724857 0.28948375582695007
0.79117649793624878 0.0077252555638551712 0.29072004556655884
0.0032572278287261724 0.049856852740049362 0.14719760417938232
0.015474625863134861 0.045292798429727554 0.14399409294128418
0.038760509341955185 0.042624395340681076 0.14850427210330963
0.080923043191432953 0.042094435542821884 0.16231490671634674
0.13933004438877106 0.039214309304952621 0.18139192461967468
0.19905693829059601 0.037369627505540848 0.19372992217540741
0.25474464893341064 0.037600439041852951 0.19290278851985931
0.31470575928688049 0.036561913788318634 0.20112943649291992
0.3954656720161438 0.037296757102012634 0.20960129797458649
0.49503675103187561 0.037873540073633194 0.2246180921792984
0.60076057910919189 0.03707185760140419 0.23062191903591156
0.69937008619308472 0.036622274667024612 0.23722560703754425
0.79107165336608887 0.037703674286603928 0.24910327792167664
0.0032560611143708229 0.098845586180686951 0.15999999642372131
0.015908589586615562 0.095673218369483948 0.1526433527469635
0.039624307304620743 0.093226410448551178 0.14815616607666016
0.082163028419017792 0.097370341420173645 0.14884762465953827
0.13982473313808441 0.099398687481880188 0.15097624063491821
0.19938559830188751 0.099037438631057739 0.15347622334957123
0.25477749109268188 0.1050339937210083 0.15741129219532013
0.31553390622138977 0.10513663291931152 0.15991267561912537
0.3961283266544342 0.10401883721351624 0.15919062495231628
0.49537220597267151 0.1050979346036911 0.15823973715305328
0.60077422857284546 0.10720712691545486 0.16410569846630096
0.69882988929748535 0.10612010210752487 0.15910251438617706
0.79075294733047485 0.10777333378791809 0.15925496816635132
0.0029865039978176355 0.16783517599105835 0.18422068655490875
0.014896064065396786 0.16797474026679993 0.17423267662525177
0.039916004985570908 0.16737346351146698 0.15729987621307373
0.084388002753257751 0.17129890620708466 0.14481982588768005
0.14094913005828857 0.17754584550857544 0.14323410391807556
0.19868040084838867 0.18234938383102417 0.14630720019340515
0.25354456901550293 0.18679003417491913 0.15034985542297363
0.31661432981491089 0.18927249312400818 0.14928598701953888
0.3968748152256012 0.1917465478181839 0.14361453056335449
0.49529698491096497 0.19879716634750366 0.14084963500499725
0.59992128610610962 0.20552651584148407 0.14422553777694702
0.69994378089904785 0.20728826522827148 0.13554377853870392
0.79246228933334351 0.2088858038187027 0.12950490415096283
