assets/lut/inavision 7drk 21.cube
# Created by: G'MIC (https://gmic.eu)
TITLE "7drk_21"
# LUT size
LUT_3D_SIZE 13
# Data domain
DOMAIN_MIN 0.0 0.0 0.0
DOMAIN_MAX 1.0 1.0 1.0
# LUT data points
0.0017799825873225927 0.0011187833733856678 0
0.03526948019862175 0.0015128491213545203 0.00045504103763960302
0.089919239282608032 0 0.0010343963513150811
0.14224416017532349 0 1.3463637515087612e-05
0.20458941161632538 0 0
0.279022216796875 0 0
0.36365425586700439 0 0
0.45386883616447449 0 0
0.54302299022674561 0 0
0.62577700614929199 0 0
0.69981169700622559 0 0
0.76645547151565552 0 0
0.82941174507141113 0 2.8004365958622657e-05
0.0024638455361127853 0.022274287417531013 0.0001077091001207009
0.03304639458656311 0.020195800811052322 6.2291765061672777e-05
0.092418581247329712 0.0083631332963705063 0.00034073475399054587
0.14933575689792633 0.0084095671772956848 7.5396369538793806e-06
0.20979683101177216 0.0076012257486581802 0
0.28184708952903748 0.0070147048681974411 0
0.36503714323043823 0.0072962441481649876 0
0.45530778169631958 0.007022214587777853 9.8733344202628359e-06
0.54422855377197266 0.0093069933354854584 0.00012637868348974735
0.62766927480697632 0.013442275114357471 4.3442669266369194e-05
0.70150190591812134 0.019811009988188744 0
0.76709514856338501 0.022448327392339706 0
0.82876884937286377 0.020003329962491989 0.00047121234820224345
8.440204692305997e-05 0.068838812410831451 8.9757586465566419e-06
0.016503965482115746 0.068004205822944641 5.0264247875020374e-06
0.076541155576705933 0.059917762875556946 0
0.14625668525695801 0.058676805347204208 0
0.21040283143520355 0.067924916744232178 0
0.28357842564582825 0.0768723264336586 0.00011882407852681354
0.36593931913375854 0.089594446122646332 0.00014410579751711339
0.45566326379776001 0.10344275832176208 0.00013948327978141606
0.54380190372467041 0.11431883275508881 0.0022967618424445391
0.62687832117080688 0.11693491041660309 0.0019085154635831714
0.70059072971343994 0.12249766290187836 0
0.7658272385597229 0.12285866588354111 0
0.82793241739273071 0.1151587963104248 0.00069913675542920828
0 0.1307959258556366 0
0.0068208132870495319 0.1302541196346283 0
0.068811766803264618 0.1277201771736145 0
0.14592841267585754 0.12888996303081512 0
0.21106389164924622 0.14147324860095978 0
0.28331822156906128 0.15661710500717163 0
0.36539152264595032 0.17919625341892242 0
0.45566442608833313 0.20095129311084747 0
0.54290550947189331 0.21927937865257263 0.00031428618240170181
0.62552851438522339 0.22762270271778107 0.00024794036289677024
0.69957876205444336 0.23453375697135925 0
0.76537990570068359 0.23596619069576263 4.2006548028439283e-05
0.82787430286407471 0.22776100039482117 0
0 0.20029160380363464 0
0.0066149691119790077 0.19904735684394836 0
0.074546709656715393 0.19869828224182129 0
0.15511488914489746 0.1997368186712265 0
0.21804958581924438 0.20742662250995636 0
0.28270953893661499 0.22251108288764954 0
0.36222216486930847 0.24678997695446014 0
0.45342051982879639 0.27300876379013062 0
0.54362022876739502 0.29464513063430786 0
0.62684738636016846 0.30771854519844055 0
0.69979190826416016 0.31962749361991882 5.6936227338155732e-05
0.76537990570068359 0.32465308904647827 0.0018254597671329975
0.82825696468353271 0.31811663508415222 0.00065394380362704396
0.00076488422928377986 0.28012830018997192 0
0.023332918062806129 0.27926540374755859 0
0.092576451599597931 0.27850425243377686 0
0.17247079312801361 0.27822011709213257 0
0.2339053601026535 0.2800690233707428 8.1679398135747761e-05
0.2885316014289856 0.28703740239143372 6.8066165113123134e-06
0.36077380180358887 0.30930504202842712 0
0.4520813524723053 0.34303924441337585 0
0.54367882013320923 0.37047106027603149 0
0.62736797332763672 0.38619431853294373 0
0.69964599609375 0.39622113108634949 0.00035202925209887326
0.76537990570068359 0.40002298355102539 0.0021150924731045961
0.82880091667175293 0.39482229948043823 0.0006711174501106143
0.0051823337562382221 0.37098389863967896 0.0014199500437825918
0.038244046270847321 0.37189403176307678 0.00028598261997103691
0.11013467609882355 0.37205582857131958 0
0.19621443748474121 0.37175089120864868 0.00028101602219976485
0.25860381126403809 0.37174734473228455 0.00079190125688910484
0.3061845600605011 0.37240397930145264 0.00019369686197023839
0.36974456906318665 0.38467821478843689 0
0.45338636636734009 0.41246822476387024 0
0.5427248477935791 0.44161319732666016 0
0.62687671184539795 0.46225184202194214 0
0.69956332445144653 0.47316247224807739 0.0001627903402550146
0.7654341459274292 0.47670581936836243 0.00079062965232878923
0.82941174507141113 0.47277197241783142 5.4931639169808477e-05
0.00084189622430130839 0.47518885135650635 0.0014404596295207739
0.02758370153605938 0.47732767462730408 0.00030125636840239167
0.10966131091117859 0.47716280817985535 0
0.21043539047241211 0.47724515199661255 2.994911301357206e-05
0.28129056096076965 0.47896644473075867 0.00021858963009435683
0.3321375846862793 0.47753691673278809 6.8066165113123134e-06
0.38936024904251099 0.47608032822608948 0
0.46010127663612366 0.48759609460830688 0
0.54301846027374268 0.51253360509872437 0
0.62574940919876099 0.53673934936523438 0
0.69905096292495728 0.54986631870269775 0
0.76534587144851685 0.55416315793991089 0
0.82983303070068359 0.55045157670974731 0
0 0.5840686559677124 0.00015025419997982681
0.0087215648964047432 0.58635157346725464 2.2439395252149552e-05
0.090970657765865326 0.58490800857543945 0
0.2055787593126297 0.58454769849777222 0
0.29444748163223267 0.58703076839447021 3.6561254091793671e-05
0.35835114121437073 0.58427327871322632 0.00050268735503777862
0.41544133424758911 0.57814663648605347 0.00032908123102970421
0.47776800394058228 0.57997143268585205 0
0.5507349967956543 0.59481966495513916 0
0.62719118595123291 0.61370998620986938 0
0.69923722743988037 0.62657105922698975 0
0.76632660627365112 0.63102060556411743 0
0.83086669445037842 0.62725192308425903 0
0 0.68773853778839111 0
0.0082927625626325607 0.68788605928421021 0.00012494255497585982
0.089310005307197571 0.68475890159606934 0.00073852541390806437
0.20365500450134277 0.68369811773300171 0.00075397867476567626
0.30367454886436462 0.68679887056350708 0.001507987268269062
0.38005605340003967 0.68666177988052368 0.0038097156211733818
0.44227319955825806 0.68380564451217651 0.0037177142221480608
0.50173258781433105 0.68397325277328491 0.00027836818480864167
0.56578141450881958 0.68837624788284302 2.1541820842685411e-06
0.63456952571868896 0.69630652666091919 0.00032248403294943273
0.70265704393386841 0.7047998309135437 0.00056343828327953815
0.76822620630264282 0.70799070596694946 0.00015294691547751427
0.83273804187774658 0.7043800950050354 0
0 0.78412514925003052 0
0.026026168838143349 0.78095746040344238 0.00020644243340939283
0.11312966793775558 0.77533727884292603 0.00331141147762537
0.2184336930513382 0.77455157041549683 0.0028121049981564283
0.31568866968154907 0.77885228395462036 0.0044708549976348877
0.39609292149543762 0.78326648473739624 0.0081680594012141228
0.46233496069908142 0.78469216823577881 0.0078874174505472183
0.52185547351837158 0.78447389602661133 0.0028935300651937723
0.58182954788208008 0.78242009878158569 0.0013131833402439952
0.64463239908218384 0.78082942962646484 0.0034603043459355831
0.70817536115646362 0.78480374813079834 0.0034245809074491262
0.77135163545608521 0.78764969110488892 0.0012840869603678584
0.83472144603729248 0.78509825468063354 0
2.8004365958622657e-05 0.88161748647689819 0
0.040712978690862656 0.87612259387969971 0
0.13271321356296539 0.86714416742324829 0.0011223139008507133
0.23222918808460236 0.8665657639503479 0.0013842713087797165
0.32359838485717773 0.87269669771194458 0.0031846140045672655
0.40316194295883179 0.8800194263458252 0.0087299123406410217
0.4716562032699585 0.8841317892074585 0.0096416249871253967
0.53294575214385986 0.8820461630821228 0.0056351902894675732
0.59255576133728027 0.87511944770812988 0.0035510193556547165
0.6526305079460144 0.86962008476257324 0.0041206809692084789
0.71363222599029541 0.87256467342376709 0.0029044058173894882
0.77505189180374146 0.87656533718109131 0.00063528923783451319
0.83772265911102295 0.87538683414459229 0
0 0.97914707660675049 0
0.037242904305458069 0.97648924589157104 0
0.12982796132564545 0.96962106227874756 0
0.22747652232646942 0.96769046783447266 0
0.3170943558216095 0.97187399864196777 1.8669577912078239e-05
0.39709511399269104 0.97712546586990356 0.0013276941608637571
0.46814748644828796 0.97971373796463013 0.0021049648057669401
0.53338170051574707 0.9773821234703064 0.00082018983084708452
0.59543102979660034 0.97225034236907959 0.00018687528790906072
0.65604668855667114 0.9685937762260437 0.00013786765339318663
0.71658462285995483 0.97101819515228271 7.7550554124172777e-05
0.77824163436889648 0.97384607791900635 0
0.84096002578735352 0.97246474027633667 0
0.0017213111277669668 0.0010673074284568429 0.0081995194777846336
0.037331808358430862 0.00068354886025190353 0.011085749603807926
0.091859437525272369 0 0.0088343899697065353
0.1425546407699585 0 0.0025750254280865192
0.20234672725200653 0 0.0034029493108391762
0.27735751867294312 0 0.0069341021589934826
0.36367875337600708 0 0.0090537574142217636
0.45514166355133057 3.5544002457754686e-05 0.0086773745715618134
0.54441487789154053 0.00012637868348974735 0.010705102235078812
0.62761950492858887 0.00012637868348974735 0.011081081815063953
0.70209091901779175 0.00022134219761937857 0.0061357687227427959
0.76775658130645752 0.0011170629877597094 0.0084991753101348877
0.82911306619644165 0.0024152568075805902 0.01784648559987545
0.00085230806143954396 0.01918303593993187 0.007414843887090683
0.032330084592103958 0.016542665660381317 0.0066890940070152283
0.093071117997169495 0.011149597354233265 0.006394749041646719
0.15014779567718506 0.011796075850725174 0.0046567278914153576
0.20917275547981262 0.0076074041426181793 0.005120894405990839
0.28191497921943665 0.0071852589026093483 0.0068675922229886055
0.36592724919319153 0.0098593169823288918 0.010118267498910427
0.45562240481376648 0.01401627529412508 0.014998851343989372
0.54395759105682373 0.021115845069289207 0.016414148733019829
0.62742191553115845 0.02859027311205864 0.014602631330490112
0.70284920930862427 0.034493181854486465 0.0099695092067122459
0.76811301708221436 0.041919529438018799 0.01158752478659153
0.82861906290054321 0.045787379145622253 0.018492395058274269
0.00027106789639219642 0.065790720283985138 0.0043960423208773136
0.023154135793447495 0.065383747220039368 0.005576444324105978
0.083697989583015442 0.06394379585981369 0.0038212195504456758
0.14791843295097351 0.068112395703792572 0.0019608889706432819
0.21029411256313324 0.075713977217674255 0.0021618413738906384
0.28378129005432129 0.084233209490776062 0.0017252304824069142
0.3663591742515564 0.095450907945632935 0.0023004719987511635
0.45471036434173584 0.10474088788032532 0.0066811954602599144
0.54213482141494751 0.11784397065639496 0.007623620331287384
0.62612622976303101 0.12068110704421997 0.0083946976810693741
0.70123887062072754 0.12541878223419189 0.0096625387668609619
0.767242431640625 0.13137274980545044 0.0089260628446936607
0.82841968536376953 0.13391928374767303 0.0086155310273170471
0.0001156077632913366 0.1303040087223053 0.0017978294054046273
0.017813215032219887 0.12929040193557739 0.0044448254629969597
0.084923885762691498 0.1301940530538559 0.0028823104221373796
0.15185797214508057 0.13504043221473694 0.00083841063315048814
0.21048331260681152 0.14793983101844788 0.0013173570623621345
0.28189578652381897 0.1649019718170166 0.0012405844172462821
0.36533048748970032 0.18610724806785583 8.2442340499255806e-05
0.45592465996742249 0.20312836766242981 0.00022237440862227231
0.54394161701202393 0.2175406813621521 0.00010039385961135849
0.6271854043006897 0.22086136043071747 0.00022401996830012649
0.70113927125930786 0.22842307388782501 0.0014573340304195881
0.76696324348449707 0.23271404206752777 0.0026184380985796452
0.82882601022720337 0.23277942836284637 0.00051464006537571549
1.5797335436218418e-05 0.20010413229465485 0.0022147833369672298
0.015291117131710052 0.19885307550430298 0.004357700701802969
0.09043942391872406 0.19860732555389404 0.0018365448340773582
0.16053743660449982 0.19849233329296112 0.00062070362037047744
0.21566183865070343 0.2062416672706604 0.0013930078130215406
0.28129643201828003 0.22298347949981689 0.0011911130277439952
0.36225646734237671 0.24754087626934052 0.0004433126887306571
0.45400455594062805 0.27433812618255615 0.00015682145021855831
0.544991135597229 0.29534745216369629 0
0.62783515453338623 0.30636578798294067 0
0.70162481069564819 0.31665980815887451 0.00055357988458126783
0.76664203405380249 0.32339531183242798 0.0047216527163982391
0.82857531309127808 0.32530134916305542 0.0054488838650286198
0.0011154923122376204 0.28022885322570801 0.0048030777834355831
0.023470604792237282 0.27890971302986145 0.0052302791737020016
0.088232405483722687 0.27808293700218201 0.0012450573267415166
0.16737329959869385 0.27588969469070435 0.00019664390129037201
0.23130255937576294 0.27699699997901917 0.00092275283532217145
0.2880433201789856 0.28474006056785583 0.0013879364123567939
0.36022332310676575 0.306844562292099 0.0010367149952799082
0.45028483867645264 0.33989506959915161 0.00055963854538276792
0.54231381416320801 0.36836141347885132 9.215112186211627e-06
0.6271209716796875 0.38490229845046997 0.00022321214783005416
0.7007453441619873 0.39406079053878784 0.0026349835097789764
0.76644045114517212 0.40140396356582642 0.0057990876957774162
0.82912498712539673 0.40267458558082581 0.0061655831523239613
0.0029989504255354404 0.37251442670822144 0.013975061476230621
0.029427142813801765 0.37234443426132202 0.0096431057900190353
0.09434991329908371 0.37167215347290039 0.0024823956191539764
0.18730290234088898 0.37003067135810852 0.0016683690482750535
0.25662186741828918 0.3689882755279541 0.0020824058447033167
0.3061007559299469 0.369312584400177 0.0015641306526958942
0.36903920769691467 0.38137876987457275 0.0015818277606740594
0.45091983675956726 0.40838834643363953 0.0011689579114317894
0.539417564868927 0.43719547986984253 0.00075661152368411422
0.62375974655151367 0.45838713645935059 0.0013384051853790879
0.69908976554870605 0.47048336267471313 0.0032974991481751204
0.76604855060577393 0.47736907005310059 0.0045025395229458809
0.82971048355102539 0.47662177681922913 0.0036139844451099634
0.00024719239445403218 0.47702684998512268 0.019300183281302452
0.01622670516371727 0.47751224040985107 0.010433690622448921
0.083490766584873199 0.47666105628013611 0.00093017279868945479
0.19194164872169495 0.47628149390220642 0.00053289078641682863
0.27816000580787659 0.47835424542427063 0.0016086653340607882
0.33275520801544189 0.47690823674201965 0.0014705882640555501
0.39026689529418945 0.47520861029624939 0.0017393523594364524
0.45969650149345398 0.48690071702003479 0.0018564261263236403
0.53945386409759521 0.50899606943130493 0.0016679801046848297
0.62154990434646606 0.53230047225952148 0.0014746722299605608
0.69691801071166992 0.54809492826461792 0.0016924839001148939
0.76511794328689575 0.55509114265441895 0.0017101811245083809
0.82999968528747559 0.55191522836685181 0.0016092486912384629
0 0.58579027652740479 0.0176544189453125
0.0045595057308673859 0.58615529537200928 0.0107205705717206
0.067251063883304596 0.58429598808288574 0.00072854734025895596
0.18569263815879822 0.58412092924118042 1.1848001122416463e-05
0.29251411557197571 0.58624202013015747 0.0007845560903660953
0.36126285791397095 0.58467257022857666 0.0019056731835007668
0.41837260127067566 0.5795406699180603 0.0031191806774586439
0.4786841869354248 0.58035802841186523 0.0028044157661497593
0.54810088872909546 0.59240180253982544 0.0023801615461707115
0.62389993667602539 0.6114000678062439 0.0017529656179249287
0.69709557294845581 0.62708228826522827 0.0011339524062350392
0.76542872190475464 0.63253509998321533 0.0010203791316598654
0.83021998405456543 0.62724161148071289 0.0014884799020364881
0.00018618714238982648 0.69038408994674683 0.012705828994512558
0.013572887517511845 0.68836790323257446 0.016773508861660957
0.082925759255886078 0.68451696634292603 0.0075876573100686073
0.19244188070297241 0.68350976705551147 0.00067530613159760833
0.29974710941314697 0.68603396415710449 1.1833041753561702e-05
0.38167503476142883 0.68715798854827881 0.0034671109169721603
0.44560965895652771 0.6847604513168335 0.0061968485824763775
0.50343590974807739 0.68327438831329346 0.0041897790506482124
0.5655815601348877 0.68681591749191284 0.0031600503716617823
0.6328500509262085 0.69613224267959595 0.0039995829574763775
0.70097315311431885 0.7069772481918335 0.0040248646400868893
0.76679521799087524 0.70922529697418213 0.0037150215357542038
0.8309934139251709 0.70243722200393677 0.0035319160670042038
0.0027431563939899206 0.78450930118560791 0.010622301138937473
0.03715088963508606 0.78110092878341675 0.020120538771152496
0.11331574618816376 0.77583217620849609 0.01450582779943943
0.2129688560962677 0.77406936883926392 0.0019571641460061073
0.31137719750404358 0.77670919895172119 0.0008730271365493536
0.39602428674697876 0.78018569946289062 0.0079506514593958855
0.46539738774299622 0.78273576498031616 0.010990621522068977
0.52441912889480591 0.78229731321334839 0.0075842314399778843
0.58299356698989868 0.78032726049423218 0.0066231372766196728
0.64416229724884033 0.78171592950820923 0.0085393870249390602
0.70674151182174683 0.78740578889846802 0.0090672960504889488
0.76931232213973999 0.78771090507507324 0.0081191565841436386
0.83262395858764648 0.78112280368804932 0.0055322237312793732
0.0021062216255813837 0.87796545028686523 0.010659581050276756
0.043628960847854614 0.87660050392150879 0.014336843974888325
0.12976022064685822 0.86909419298171997 0.0087069794535636902
0.22861231863498688 0.86518818140029907 0.00042983409366570413
0.31914505362510681 0.86814594268798828 0.0011460398091003299
0.40217021107673645 0.87211954593658447 0.010106719098985195
0.4731593132019043 0.87637424468994141 0.012342415750026703
0.53504705429077148 0.87628734111785889 0.0091153765097260475
0.59415161609649658 0.87224841117858887 0.0085872430354356766
0.65277111530303955 0.87255597114562988 0.0099492389708757401
0.71258276700973511 0.87827318906784058 0.0097874961793422699
0.77307498455047607 0.87880605459213257 0.0071280836127698421
0.83545601367950439 0.87175369262695312 0.0027127433568239212
2.3696002244832925e-05 0.97792309522628784 0.0066560483537614346
0.027984827756881714 0.97833454608917236 0.0049982108175754547
0.11922959238290787 0.97203117609024048 0.0024302913807332516
0.21884046494960785 0.96721142530441284 1.8759334125206806e-05
0.30910402536392212 0.96797722578048706 0
0.39218106865882874 0.97082281112670898 0.0015869290800765157
0.46632760763168335 0.97367823123931885 0.0022553089074790478
0.53308349847793579 0.97328406572341919 0.0011241389438509941
0.59540438652038574 0.97072190046310425 0.0012400757987052202
0.65577453374862671 0.97187548875808716 0.001761702005751431
0.7160569429397583 0.97696805000305176 0.0016621608519926667
0.77677756547927856 0.97753167152404785 0.00059633440105244517
0.83933752775192261 0.97254884243011475 0
8.3654063928406686e-05 1.4002182979311328e-05 0.034201230853796005
0.013958216644823551 0 0.036316920071840286
0.078289151191711426 6.4625462982803583e-05 0.03260619193315506
0.14197051525115967 0.00031208712607622147 0.027403274551033974
0.20150390267372131 3.0517578125e-05 0.033207029104232788
0.27577412128448486 0 0.046227786689996719
0.36280491948127747 0.00040512083796784282 0.060266859829425812
0.45501646399497986 0.0086916601285338402 0.069645822048187256
0.54441255331039429 0.011792127043008804 0.081640399992465973
0.62767994403839111 0.0057831709273159504 0.091437183320522308
0.70228254795074463 0.0033313378226011992 0.085518978536128998
0.76758098602294922 0.0063755260780453682 0.081632234156131744
0.82853931188583374 0.010321253910660744 0.083899915218353271
0.00044033574522472918 0.0063023138791322708 0.033449582755565643
0.020124772563576698 0.013054462149739265 0.032718628644943237
0.086293317377567291 0.016294650733470917 0.030836516991257668
0.15036728978157043 0.016144203022122383 0.030671766027808189
0.20866572856903076 0.010168187320232391 0.03491109237074852
0.28191924095153809 0.0034564149100333452 0.041106835007667542
0.36726313829421997 0.0055581633932888508 0.055224727839231491
0.45641535520553589 0.025229794904589653 0.074865274131298065
0.54370975494384766 0.029963234439492226 0.079981967806816101
0.62686014175415039 0.032433468848466873 0.0874619260430336
0.7030637264251709 0.03396027535200119 0.09002191573381424
0.76835566759109497 0.038855399936437607 0.084166131913661957
0.82929682731628418 0.042144745588302612 0.080628380179405212
0.0024289300199598074 0.05540771409869194 0.029588915407657623
0.032808192074298859 0.064730219542980194 0.031254444271326065
0.090324282646179199 0.067366823554039001 0.029986288398504257
0.14979660511016846 0.066433236002922058 0.029322858899831772
0.21097809076309204 0.065543137490749359 0.030608473345637321
0.28554233908653259 0.05532136932015419 0.028236838057637215
0.37084126472473145 0.05207965150475502 0.030634652823209763
0.45782601833343506 0.071596004068851471 0.043769311159849167
0.54434311389923096 0.06406460702419281 0.035370022058486938
0.62705522775650024 0.080168962478637695 0.047437556087970734
0.70277518033981323 0.097684614360332489 0.061498187482357025
0.76976978778839111 0.096856944262981415 0.057182926684617996
0.83321607112884521 0.089870333671569824 0.04682718962430954
0.0030548395588994026 0.12653577327728271 0.027172163128852844
0.034500390291213989 0.12823066115379333 0.032384775578975677
0.092625543475151062 0.12902410328388214 0.030156528577208519
0.14986148476600647 0.1312268078327179 0.026112426072359085
0.20960067212581635 0.13755516707897186 0.025455879047513008
0.28353062272071838 0.14474806189537048 0.02201639860868454
0.36880731582641602 0.15869539976119995 0.017345532774925232
0.45923835039138794 0.17423215508460999 0.018917398527264595
0.54765051603317261 0.16868078708648682 0.010247742757201195
0.62956362962722778 0.1795472651720047 0.013182816095650196
0.70356696844100952 0.19601431488990784 0.020117307081818581
0.77142417430877686 0.1871187835931778 0.017096485942602158
0.83634918928146362 0.17362512648105621 0.0074458853341639042
0.0035911560989916325 0.19877199828624725 0.029781701043248177
0.032025624066591263 0.19727221131324768 0.033813774585723877
0.087137021124362946 0.19697907567024231 0.026898566633462906
0.1473405659198761 0.19755001366138458 0.020466314628720284
0.21145421266555786 0.20380820333957672 0.019799550995230675
0.28410470485687256 0.21956363320350647 0.017034627497196198
0.36660900712013245 0.24138286709785461 0.013220558874309063
0.45753070712089539 0.26435708999633789 0.013246872462332249
0.54814547300338745 0.28115382790565491 0.0087269805371761322
0.63159561157226562 0.29253917932510376 0.0063851750455796719
0.70462357997894287 0.29797244071960449 0.0067833694629371166
0.77069735527038574 0.29621085524559021 0.0085430815815925598
0.83320575952529907 0.29432421922683716 0.010752958245575428
0.0072335484437644482 0.27946785092353821 0.038639083504676819
0.029364448040723801 0.27913942933082581 0.038132146000862122
0.070280678570270538 0.27947214245796204 0.023223713040351868
0.14451032876968384 0.27770459651947021 0.014295496046543121
0.2248234748840332 0.27893185615539551 0.014921390451490879
0.29234394431114197 0.28870424628257751 0.014373480342328548
0.36645439267158508 0.30921998620033264 0.013006831519305706
0.4534575343132019 0.33777269721031189 0.011721757240593433
0.54466593265533447 0.36363512277603149 0.0086026508361101151
0.62954086065292358 0.37936586141586304 0.0081476103514432907
0.70402926206588745 0.38524419069290161 0.010765210725367069
0.7700188159942627 0.38911664485931396 0.01238149031996727
0.83273202180862427 0.38825961947441101 0.012946424074470997
0.0094769494608044624 0.37313497066497803 0.056304901838302612
