assets/lut/inavision vfb 21.cube
# Created by: G'MIC (https://gmic.eu)
TITLE "vfb_21"
# LUT size
LUT_3D_SIZE 5
# Data domain
DOMAIN_MIN 0.0 0.0 0.0
DOMAIN_MAX 1.0 1.0 1.0
# LUT data points
0.018472500145435333 0.022493146359920502 0.01593933068215847
0.24724949896335602 0.038622252643108368 0.01162980031222105
0.53923743963241577 0.034459911286830902 1.2925092050863896e-05
0.67522692680358887 0.0317344069480896 0.00065012910636141896
0.77541714906692505 0.058082506060600281 0
1.4002182979311328e-05 0.19553534686565399 0.076720878481864929
0.14292985200881958 0.21990542113780975 0.039857197552919388
0.47727778553962708 0.27747011184692383 0.0033909068442881107
0.72670304775238037 0.30202415585517883 0.0014937157975509763
0.87143111228942871 0.32259833812713623 0
0 0.3810151219367981 0.13592500984668732
0.09616503119468689 0.41659718751907349 0.07745826244354248
0.46629256010055542 0.48880878090858459 0.0019236995140090585
0.77176022529602051 0.54221957921981812 0
0.94893628358840942 0.56253457069396973 0
6.0676124121528119e-05 0.5266069769859314 0.21984359622001648
0.038295432925224304 0.5688096284866333 0.16951501369476318
0.42374575138092041 0.65618979930877686 0.050902467221021652
0.77537935972213745 0.71436470746994019 0.00072052900213748217
0.96525800228118896 0.74568122625350952 0.00086369231576099992
0 0.64219933748245239 0.32859939336776733
0.0359840989112854 0.69705712795257568 0.30449149012565613
0.36345180869102478 0.791206955909729 0.23978991806507111
0.74239832162857056 0.85630220174789429 0.14100088179111481
0.95973557233810425 0.88056308031082153 0.021019041538238525
0.11453437060117722 0.02664501778781414 0.2431616485118866
0.38323131203651428 0.035235103219747543 0.18815895915031433
0.60815149545669556 0.0061621721833944321 0.15388968586921692
0.73167949914932251 0.0045731039717793465 0.12391559034585953
0.81257867813110352 0.023231221362948418 0.10711479932069778
0.00033256679307669401 0.22267492115497589 0.29815590381622314
0.17484448850154877 0.24507361650466919 0.26806944608688354
0.53658771514892578 0.28069201111793518 0.23539274930953979
0.77087938785552979 0.29733988642692566 0.18897539377212524
0.8991590142250061 0.31864714622497559 0.15129855275154114
0.00031463024788536131 0.42627361416816711 0.35953941941261292
0.059892885386943817 0.46216383576393127 0.33038005232810974
0.49076423048973083 0.5252610445022583 0.29224351048469543
0.80399680137634277 0.56715041399002075 0.23718585073947906
0.97625219821929932 0.58454048633575439 0.18577302992343903
0.00057292263954877853 0.57998579740524292 0.42689761519432068
0.0017252454999834299 0.62451332807540894 0.40431219339370728
0.42588290572166443 0.7067253589630127 0.35756602883338928
0.77602344751358032 0.75345271825790405 0.30627185106277466
0.98012393712997437 0.77483665943145752 0.26671093702316284
0 0.70217669010162354 0.5062326192855835
5.2508185035549104e-06 0.74696308374404907 0.4961511492729187
0.33489811420440674 0.84002327919006348 0.465768963098526
0.75195646286010742 0.90256261825561523 0.41599532961845398
0.97575235366821289 0.94253748655319214 0.38330790400505066
0.3330131471157074 0.0026630177162587643 0.46595928072929382
0.57561802864074707 0.0013846453512087464 0.45195314288139343
0.68296223878860474 0.0014034046325832605 0.42204993963241577
0.77410417795181274 0.0077004078775644302 0.41391757130622864
0.85664981603622437 0.0045263553038239479 0.40723854303359985
0.011497288011014462 0.23459237813949585 0.51696276664733887
0.27590110898017883 0.25732505321502686 0.51750987768173218
0.59272629022598267 0.26908424496650696 0.50748211145401001
0.80304229259490967 0.28371500968933105 0.49199515581130981
0.92226248979568481 0.29762279987335205 0.47713065147399902
0.00079233507858589292 0.471291184425354 0.58364111185073853
0.085989288985729218 0.50779086351394653 0.58313286304473877
0.53629487752914429 0.55510467290878296 0.57116901874542236
0.82875031232833862 0.58216738700866699 0.54332691431045532
0.9879990816116333 0.59113067388534546 0.51853317022323608
0.00053383322665467858 0.63527548313140869 0.62975353002548218
0.037668414413928986 0.68398880958557129 0.63088572025299072
0.46137005090713501 0.75601482391357422 0.62110108137130737
0.80733269453048706 0.78916853666305542 0.58912390470504761
0.98872619867324829 0.80879861116409302 0.56095767021179199
0.0037964016664773226 0.7579118013381958 0.68429499864578247
0 0.80759924650192261 0.68649470806121826
0.31803774833679199 0.89043217897415161 0.68068826198577881
0.73892271518707275 0.95269215106964111 0.65304160118103027
0.97144031524658203 0.97020059823989868 0.62166315317153931
0.60441970825195312 0.0006471521919593215 0.58270364999771118
0.68962931632995605 0 0.58136934041976929
0.7737424373626709 0.00374628696590662 0.57120221853256226
0.80016398429870605 3.5544002457754686e-05 0.570201575756073
0.85563743114471436 0.0085733449086546898 0.58020836114883423
0.17784960567951202 0.22703582048416138 0.66702330112457275
0.42567712068557739 0.23831610381603241 0.68343853950500488
0.66710925102233887 0.24022947251796722 0.68259191513061523
0.83667171001434326 0.24839161336421967 0.68282401561737061
0.93691319227218628 0.27614817023277283 0.67829203605651855
0.022207910194993019 0.514445960521698 0.74404573440551758
0.28378966450691223 0.54013901948928833 0.76220321655273438
0.6267581582069397 0.56830900907516479 0.76788204908370972
0.85294634103775024 0.57755237817764282 0.75799524784088135
0.99305027723312378 0.58878529071807861 0.74616646766662598
0 0.68294507265090942 0.78568339347839355
0.093698538839817047 0.73273050785064697 0.80076533555984497
0.52416592836380005 0.7799232006072998 0.81024307012557983
0.82832974195480347 0.80368542671203613 0.79644501209259033
0.99392008781433105 0.81581050157546997 0.77869105339050293
0 0.81300574541091919 0.82573527097702026
0.0020794589072465897 0.86639159917831421 0.83991998434066772
0.41283500194549561 0.92514950037002563 0.85127609968185425
0.78607505559921265 0.98042452335357666 0.84541440010070801
0.98039942979812622 0.98973268270492554 0.82690143585205078
0.78274053335189819 0.00023336971935350448 0.64811289310455322
0.78577971458435059 0 0.64469367265701294
0.81379115581512451 7.4678311648312956e-05 0.63207703828811646
0.82344049215316772 0.00055094697745516896 0.62545764446258545
0.85851722955703735 0.0081189321354031563 0.65839076042175293
0.42402300238609314 0.1742786318063736 0.76134663820266724
0.57114225625991821 0.19557058811187744 0.76504272222518921
0.73093456029891968 0.20491310954093933 0.76713889837265015
0.86228692531585693 0.20789569616317749 0.77499037981033325
0.93858462572097778 0.24390244483947754 0.77673625946044922
0.27871596813201904 0.53297692537307739 0.859080970287323
0.47472590208053589 0.54150879383087158 0.86354619264602661
0.72949391603469849 0.55531162023544312 0.86708515882492065
0.89567571878433228 0.56914782524108887 0.8672407865524292
0.99924015998840332 0.57316172122955322 0.85773241519927979
0.066748827695846558 0.74139648675918579 0.89995276927947998
0.35855796933174133 0.76858687400817871 0.9120064377784729
0.65285825729370117 0.79484432935714722 0.91510915756225586
0.87100398540496826 0.80639326572418213 0.90984570980072021
0.99999356269836426 0.81875693798065186 0.89837896823883057
0.00011668485967675224 0.86604464054107666 0.92819130420684814
0.23749424517154694 0.89362531900405884 0.93622660636901855
0.55398350954055786 0.94376879930496216 0.94382435083389282
0.83892250061035156 0.97327661514282227 0.94170975685119629
0.9910355806350708 0.98472130298614502 0.93038845062255859
