assets/lut/inavision dark man x.cube
# Created by: G'MIC (https://gmic.eu)
TITLE "dark_man_x"
# LUT size
LUT_3D_SIZE 13
# Data domain
DOMAIN_MIN 0.0 0.0 0.0
DOMAIN_MAX 1.0 1.0 1.0
# LUT data points
0.02985229529440403 0.023316999897360802 0.025664310902357101
0.09378516674041748 0.030677616596221924 0.022586552426218987
0.19550451636314392 0.037892330437898636 0.021305697038769722
0.30674374103546143 0.03558063879609108 0.015475239604711533
0.41038733720779419 0.030936431139707565 0.011566521599888802
0.50553780794143677 0.029043802991509438 0.015053693205118179
0.56845468282699585 0.021194338798522949 0.014279862865805626
0.61353927850723267 0.013313922099769115 0.010737729258835316
0.6645892858505249 0.010329198092222214 0.0069112139753997326
0.70940452814102173 0.013277330435812473 0.0037957883905619383
0.74611914157867432 0.019928757101297379 0.0018841911805793643
0.77681469917297363 0.030828168615698814 0.00085467169992625713
0.80665218830108643 0.04415462538599968 0.00022421444009523839
0.033165860921144485 0.054960407316684723 0.02722880057990551
0.078065358102321625 0.066340833902359009 0.027420299127697945
0.15358081459999084 0.083265669643878937 0.030489573255181313
0.23969237506389618 0.093696758151054382 0.026726517826318741
0.33374926447868347 0.09964318573474884 0.020477294921875
0.43379902839660645 0.10379890352487564 0.019866868853569031
0.51691430807113647 0.10170696675777435 0.019591895863413811
0.59059739112854004 0.096362948417663574 0.014961511828005314
0.65988200902938843 0.094116866588592529 0.0080730514600872993
0.71657252311706543 0.0993332639336586 0.0035696141421794891
0.76208376884460449 0.10971827805042267 0.001797844422981143
0.79951679706573486 0.12327216565608978 0.00098535872530192137
0.83294647932052612 0.13737069070339203 0.00073529413202777505
0.047227568924427032 0.12018827348947525 0.032720468938350677
0.10347367823123932 0.13428813219070435 0.033193491399288177
0.17702353000640869 0.15349674224853516 0.03430793434381485
0.25920990109443665 0.17017962038516998 0.028831107541918755
0.34982934594154358 0.18390099704265594 0.022261779755353928
0.44415751099586487 0.19503381848335266 0.020722063258290291
0.53144645690917969 0.20174133777618408 0.02224285714328289
0.61241167783737183 0.20466949045658112 0.018082862719893456
0.68057292699813843 0.20310042798519135 0.0078638866543769836
0.73824018239974976 0.2050001323223114 0.0028250152245163918
0.78759706020355225 0.21182398498058319 0.0013959099305793643
0.82909733057022095 0.22252653539180756 0.0007392434636130929
0.86489415168762207 0.2342352420091629 0.0011320225894451141
0.067355886101722717 0.20250885188579559 0.03799336776137352
0.12906160950660706 0.21763099730014801 0.037984929978847504
0.20555411279201508 0.23648121953010559 0.036223750561475754
0.29287025332450867 0.255106121301651 0.030435046181082726
0.38426989316940308 0.27277839183807373 0.025265937671065331
0.47483837604522705 0.28826797008514404 0.023563055321574211
0.56009089946746826 0.30044102668762207 0.023430453613400459
0.63955533504486084 0.30839464068412781 0.017429636791348457
0.70675742626190186 0.31010711193084717 0.0072563169524073601
0.76470100879669189 0.31124246120452881 0.0026786804664880037
0.8159061074256897 0.31571170687675476 0.0013293097727000713
0.85975944995880127 0.32345885038375854 0.0009950525127351284
0.89713805913925171 0.33218306303024292 0.0015364702558144927
0.095781736075878143 0.2910553514957428 0.040704600512981415
0.15884591639041901 0.30630731582641602 0.040234435349702835
0.23562100529670715 0.3241058886051178 0.03842456266283989
0.32263854146003723 0.34225207567214966 0.03445681557059288
0.41173306107521057 0.36017507314682007 0.030736181885004044
0.49839147925376892 0.37651115655899048 0.029111346229910851
0.58100211620330811 0.39020216464996338 0.02578297071158886
0.65893954038619995 0.40047702193260193 0.018017517402768135
0.72796958684921265 0.40619015693664551 0.0092374915257096291
0.78844684362411499 0.40999686717987061 0.0043518366292119026
0.84156334400177002 0.41469365358352661 0.0024367389269173145
0.88767528533935547 0.42103108763694763 0.0019554586615413427
0.92646604776382446 0.42777800559997559 0.0023031795863062143
0.13553236424922943 0.38012710213661194 0.041322220116853714
0.19889825582504272 0.39513927698135376 0.039392836391925812
0.27251884341239929 0.41106417775154114 0.039326101541519165
0.35383844375610352 0.42761650681495667 0.038169518113136292
0.43790286779403687 0.44409304857254028 0.035711430013179779
0.52051281929016113 0.45950502157211304 0.032256226986646652
0.60042446851730347 0.47340860962867737 0.027395853772759438
0.67648041248321533 0.48455116152763367 0.019952377304434776
0.74571746587753296 0.49296894669532776 0.013101750053465366
0.80772650241851807 0.49917551875114441 0.0081871179863810539
0.86253345012664795 0.50513988733291626 0.0053367912769317627
0.91037529706954956 0.51157635450363159 0.0039159138686954975
0.95046573877334595 0.51748442649841309 0.0037330926861613989
0.18669499456882477 0.46592789888381958 0.04297289252281189
0.24781753122806549 0.48024231195449829 0.041324317455291748
0.31496098637580872 0.49428775906562805 0.044077090919017792
0.38861393928527832 0.50857341289520264 0.044703315943479538
0.4664435088634491 0.52312356233596802 0.041527166962623596
0.54518723487854004 0.53740411996841431 0.035161081701517105
0.6216999888420105 0.55067259073257446 0.028707241639494896
0.6944882869720459 0.56190460920333862 0.022701084613800049
0.76169180870056152 0.57140010595321655 0.018669247627258301
0.82305866479873657 0.57896202802658081 0.014708171598613262
0.87842577695846558 0.58601891994476318 0.011212337762117386
0.92681878805160522 0.59283715486526489 0.0086672017350792885
0.96749192476272583 0.59884035587310791 0.007787622045725584
0.24607682228088379 0.54562395811080933 0.05404701828956604
0.30147662758827209 0.55885130167007446 0.053434781730175018
0.36047685146331787 0.57104676961898804 0.058204051107168198
0.42590540647506714 0.58335679769515991 0.059487316757440567
0.49705520272254944 0.59608668088912964 0.054126214236021042
0.57123738527297974 0.60906684398651123 0.043022815138101578
0.64449495077133179 0.62164556980133057 0.032694287598133087
0.71327930688858032 0.6329730749130249 0.028059715405106544
0.77652031183242798 0.64257198572158813 0.027710709720849991
0.8358113169670105 0.65056592226028442 0.026148105040192604
0.89020925760269165 0.6578519344329834 0.022337175905704498
0.93807011842727661 0.66507470607757568 0.017870046198368073
0.97821420431137085 0.67132067680358887 0.015480609610676765
0.30608263611793518 0.61782991886138916 0.081554695963859558
0.35538971424102783 0.63005268573760986 0.082350850105285645
0.40632253885269165 0.64061009883880615 0.086939446628093719
0.4634128212928772 0.65112382173538208 0.087150931358337402
0.52835428714752197 0.66242152452468872 0.078352205455303192
0.59829562902450562 0.67428171634674072 0.062470171600580215
0.66780370473861694 0.68637073040008545 0.045921415090560913
0.73190540075302124 0.69724619388580322 0.040792800486087799
0.7907671332359314 0.70669108629226685 0.046335123479366302
0.84638947248458862 0.71461653709411621 0.048647232353687286
0.89868044853210449 0.72198390960693359 0.044469766318798065
0.94536274671554565 0.7296222448348999 0.036109026521444321
0.98494583368301392 0.73646390438079834 0.030655311420559883
0.36485052108764648 0.68306195735931396 0.12001341581344604
0.40857598185539246 0.69384288787841797 0.1228327751159668
0.4525066614151001 0.70315539836883545 0.12696217000484467
0.50180155038833618 0.71218746900558472 0.12677867710590363
0.56103849411010742 0.72233325242996216 0.11644610017538071
0.62563472986221313 0.73321634531021118 0.098912179470062256
0.69016242027282715 0.74460583925247192 0.081423006951808929
0.74953752756118774 0.75512462854385376 0.076644688844680786
0.80351459980010986 0.76426613330841064 0.084405429661273956
0.85566514730453491 0.7720639705657959 0.088315911591053009
0.90508079528808594 0.77929419279098511 0.084096260368824005
0.94969743490219116 0.7869490385055542 0.073970913887023926
0.98772644996643066 0.79419994354248047 0.06577039510011673
0.42154452204704285 0.74200987815856934 0.16166575253009796
0.46136742830276489 0.75170552730560303 0.16669577360153198
0.50100350379943848 0.75989699363708496 0.17191876471042633
0.54503488540649414 0.76774692535400391 0.17253857851028442
0.59749060869216919 0.77660626173019409 0.16414788365364075
0.65469580888748169 0.78659224510192871 0.14975342154502869
0.71175581216812134 0.79727965593338013 0.13722282648086548
0.76505434513092041 0.80724942684173584 0.13471637666225433
0.81523019075393677 0.81581658124923706 0.14033682644367218
0.86457312107086182 0.82320594787597656 0.14236292243003845
0.9111214280128479 0.82958781719207764 0.13801221549510956
0.95280915498733521 0.8367229700088501 0.13120347261428833
0.98874390125274658 0.84353697299957275 0.12689982354640961
0.47417551279067993 0.79588747024536133 0.20261693000793457
0.51250386238098145 0.80451083183288574 0.2101321816444397
0.55022835731506348 0.8118748664855957 0.2168290764093399
0.59123092889785767 0.81877928972244263 0.2195158451795578
0.6372230052947998 0.82664871215820312 0.21551750600337982
0.68637269735336304 0.83547723293304443 0.205501988530159
0.73565185070037842 0.84488952159881592 0.19738410413265228
0.78323894739151001 0.85405635833740234 0.19655744731426239
0.82920825481414795 0.86199343204498291 0.20068173110485077
0.87544929981231689 0.86831569671630859 0.20067103207111359
0.91962748765945435 0.873912513256073 0.19783981144428253
0.95798307657241821 0.88008850812911987 0.19717992842197418
0.99051129817962646 0.88663780689239502 0.19778768718242645
0.52304506301879883 0.84547948837280273 0.24072590470314026
0.56045454740524292 0.85352855920791626 0.25016483664512634
0.59721851348876953 0.86016213893890381 0.25853386521339417
0.63597160577774048 0.86631578207015991 0.264365553855896
0.67678636312484741 0.87297314405441284 0.26412597298622131
0.71964329481124878 0.88071340322494507 0.25782248377799988
0.76275014877319336 0.88897699117660522 0.25211414694786072
0.80560749769210815 0.89706724882125854 0.25119844079017639
0.84830987453460693 0.90398091077804565 0.25340661406517029
0.89114946126937866 0.90955454111099243 0.25390887260437012
0.93181902170181274 0.91441404819488525 0.25433406233787537
0.96669012308120728 0.92018228769302368 0.25886398553848267
0.99460351467132568 0.92651689052581787 0.26325809955596924
0.025282781571149826 0.02607148140668869 0.063320845365524292
0.097995489835739136 0.033810216933488846 0.061998419463634491
0.20644618570804596 0.040815256536006927 0.065075263381004333
0.3233267068862915 0.0400581955909729 0.064359627664089203
0.42420852184295654 0.034995477646589279 0.06207549199461937
0.51045489311218262 0.033277489244937897 0.062335655093193054
0.5778852105140686 0.026255708187818527 0.06013324111700058
0.62795406579971313 0.015688428655266762 0.06341901421546936
0.67412436008453369 0.010205168277025223 0.064646191895008087
0.71565991640090942 0.010806827805936337 0.06226615235209465
0.74982690811157227 0.016494495794177055 0.059287682175636292
0.77750003337860107 0.027459956705570221 0.056307327002286911
0.80501759052276611 0.04249287024140358 0.054828118532896042
0.024339742958545685 0.061128832399845123 0.067706525325775146
0.079320572316646576 0.070398412644863129 0.068100273609161377
0.15905208885669708 0.084869861602783203 0.072638325393199921
0.25331169366836548 0.096729367971420288 0.073983088135719299
0.35237798094749451 0.10416468977928162 0.071818269789218903
0.45189931988716125 0.10922082513570786 0.070619069039821625
0.53791296482086182 0.1077173724770546 0.069689266383647919
0.6088632345199585 0.10016188025474548 0.068787172436714172
0.67162585258483887 0.094225294888019562 0.065575890243053436
0.72566074132919312 0.095856204628944397 0.061649709939956665
0.77004861831665039 0.10470674932003021 0.05921008437871933
0.80527597665786743 0.11933596432209015 0.05844154953956604
0.83631289005279541 0.13598819077014923 0.059539016336202621
0.035940341651439667 0.12695395946502686 0.083216212689876556
0.10114435106515884 0.14003859460353851 0.083059139549732208
0.1797943115234375 0.15751045942306519 0.084056034684181213
0.26602795720100403 0.17347028851509094 0.081861265003681183
0.35866197943687439 0.187816321849823 0.079051867127418518
0.45528510212898254 0.19917494058609009 0.076918341219425201
0.54459339380264282 0.20490464568138123 0.076127983629703522
0.6220824122428894 0.20541161298751831 0.071690469980239868
0.68929404020309448 0.20319284498691559 0.06357555091381073
0.74787634611129761 0.20365060865879059 0.059265676885843277
0.79757201671600342 0.20959660410881042 0.0581180639564991
0.83821988105773926 0.2208598256111145 0.05960623174905777
0.87210911512374878 0.23464436829090118 0.062769375741481781
0.053150489926338196 0.21029593050479889 0.098769120872020721
0.12291508167982101 0.22478467226028442 0.098377913236618042
0.2058740109205246 0.24266134202480316 0.09713948518037796
0.2964460551738739 0.2606734037399292 0.093233995139598846
0.38885295391082764 0.2779744565486908 0.089724764227867126
0.48141533136367798 0.29315665364265442 0.087486505508422852
0.56805562973022461 0.3042043149471283 0.085044711828231812
0.64576560258865356 0.3103586733341217 0.077220216393470764
0.71364939212799072 0.31211397051811218 0.066081613302230835
0.77390372753143311 0.31293681263923645 0.061417136341333389
0.82649070024490356 0.31745776534080505 0.059604257345199585
0.8704993724822998 0.32566043734550476 0.061702564358711243
0.90668082237243652 0.33549132943153381 0.066778279840946198
0.076956853270530701 0.30040636658668518 0.11164470016956329
0.14783105254173279 0.31538352370262146 0.11078709363937378
0.23136667907238007 0.33235070109367371 0.10949672758579254
0.32202321290969849 0.35010901093482971 0.10688018798828125
0.4138428270816803 0.36747714877128601 0.10421071946620941
0.50334513187408447 0.38353016972541809 0.10183009505271912
0.58795666694641113 0.39660292863845825 0.098123647272586823
0.66572552919387817 0.40587607026100159 0.089668735861778259
0.73528212308883667 0.4112851619720459 0.07913653552532196
0.7971000075340271 0.41485816240310669 0.072062022984027863
0.85167437791824341 0.41963806748390198 0.068606391549110413
0.8982694149017334 0.42643183469772339 0.068995878100395203
0.93663132190704346 0.43383640050888062 0.072619467973709106
0.11269182711839676 0.39115124940872192 0.12143511325120926
0.18280646204948425 0.40578943490982056 0.12026873975992203
0.26295056939125061 0.42120063304901123 0.11998499184846878
0.34931868314743042 0.43714720010757446 0.11915287375450134
0.43736118078231812 0.45314756035804749 0.11719011515378952
0.52328193187713623 0.46841070055961609 0.11450651288032532
0.60553723573684692 0.48164823651313782 0.1100124716758728
0.68222373723983765 0.49247920513153076 0.10301031917333603
0.75216972827911377 0.50015592575073242 0.094884075224399567
0.81514549255371094 0.5062028169631958 0.087717942893505096
0.87134075164794922 0.51211416721343994 0.082872666418552399
0.91998207569122314 0.51884013414382935 0.080735631287097931
0.96013575792312622 0.52560102939605713 0.081307508051395416
0.16397565603256226 0.47795823216438293 0.13059842586517334
0.22937145829200745 0.49179112911224365 0.1295628547668457
0.30283641815185547 0.5054207444190979 0.13111434876918793
0.38153740763664246 0.51930928230285645 0.13157118856906891
0.46346867084503174 0.53335714340209961 0.12941654026508331
0.5450282096862793 0.54728811979293823 0.12517914175987244
0.624275803565979 0.55998903512954712 0.12030041217803955
0.69750422239303589 0.57117193937301636 0.11582665890455246
0.76584023237228394 0.58012676239013672 0.11148295551538467
0.82864010334014893 0.58732593059539795 0.10620681196451187
0.8855745792388916 0.59397333860397339 0.10083076357841492
0.93505185842514038 0.6009252667427063 0.096286788582801819
0.97573369741439819 0.6075255274772644 0.094433635473251343
0.22651532292366028 0.55816066265106201 0.14511515200138092
0.28479567170143127 0.57117915153503418 0.1451689600944519
0.34853091835975647 0.58286648988723755 0.14852169156074524
0.41801613569259644 0.59465289115905762 0.1492936760187149
0.49259269237518311 0.60673362016677856 0.14560821652412415
0.56917989253997803 0.61927896738052368 0.13858126103878021
0.64378136396408081 0.63135874271392822 0.13226959109306335
0.71311277151107788 0.64249569177627563 0.13049140572547913
0.77777791023254395 0.6517033576965332 0.1308714896440506
0.83899462223052979 0.65908807516098022 0.12837541103363037
0.89560103416442871 0.66584950685501099 0.12340499460697174
0.9445960521697998 0.67276781797409058 0.11735084652900696
0.98473846912384033 0.67965346574783325 0.1128854975104332
0.29300898313522339 0.63099390268325806 0.17102994024753571
0.34334510564804077 0.6426846981048584 0.17270687222480774
0.39683148264884949 0.65287226438522339 0.17626300454139709
0.45637157559394836 0.66265380382537842 0.17662268877029419
0.52362334728240967 0.67320799827575684 0.17036579549312592
0.59485989809036255 0.68453884124755859 0.15986396372318268
0.66491222381591797 0.69593590497970581 0.15098758041858673
0.72942709922790527 0.70669233798980713 0.15049605071544647
0.78951168060302734 0.71595221757888794 0.15523341298103333
0.8478095531463623 0.72329646348953247 0.15563961863517761
0.90266680717468262 0.72962492704391479 0.15154214203357697
0.9504539966583252 0.73642146587371826 0.1444552093744278
0.98882967233657837 0.74418061971664429 0.13780133426189423
0.35888028144836426 0.69667166471481323 0.20540495216846466
0.40195250511169434 0.70686453580856323 0.20888921618461609
0.44623681902885437 0.71531504392623901 0.21279644966125488
0.49663838744163513 0.72360032796859741 0.21314401924610138
0.55663645267486572 0.73259556293487549 0.20537224411964417
0.62189799547195435 0.7433057427406311 0.19286145269870758
0.68633127212524414 0.75411856174468994 0.18295352160930634
0.7462841272354126 0.76467090845108032 0.18243509531021118
0.80210041999816895 0.77386826276779175 0.18821966648101807
0.85643380880355835 0.78110474348068237 0.1905188262462616
0.90806871652603149 0.78732073307037354 0.18674947321414948
0.95326769351959229 0.79425323009490967 0.17943847179412842
0.99048793315887451 0.8020557165145874 0.17281565070152283
0.42113134264945984 0.75565975904464722 0.24318905174732208
0.45903676748275757 0.76455914974212646 0.24849802255630493
0.4972933828830719 0.77180206775665283 0.25328397750854492
0.54101216793060303 0.77878910303115845 0.25370058417320251
0.59356045722961426 0.786784827709198 0.24683120846748352
0.6509280800819397 0.79598832130432129 0.23599895834922791
0.7084316611289978 0.80651283264160156 0.22815705835819244
0.76253575086593628 0.81679821014404297 0.22831656038761139
0.81428378820419312 0.8255312442779541 0.23326651751995087
0.86541944742202759 0.8325539231300354 0.23416401445865631
0.91402542591094971 0.83845096826553345 0.23032431304454803
0.95647084712982178 0.84495252370834351 0.22504302859306335
0.99123352766036987 0.85227423906326294 0.22169019281864166
0.47579821944236755 0.80852067470550537 0.2804950475692749
0.51228064298629761 0.81651186943054199 0.28754362463951111
0.54839885234832764 0.82303208112716675 0.29316970705986023
0.58808374404907227 0.82918739318847656 0.2947237491607666
0.63341379165649414 0.83606481552124023 0.29067113995552063
0.68276065587997437 0.84424138069152832 0.28296831250190735
0.73266708850860596 0.8535536527633667 0.27781465649604797
0.78122007846832275 0.86305660009384155 0.27894794940948486
0.82878923416137695 0.87117248773574829 0.28307962417602539
0.87753504514694214 0.87729936838150024 0.2822258472442627
0.923878014087677 0.88218051195144653 0.27833059430122375
0.96318650245666504 0.88837867975234985 0.27717500925064087
0.99389302730560303 0.89561665058135986 0.27796187996864319
0.52568840980529785 0.85709816217422485 0.31533262133598328
0.56162083148956299 0.86454576253890991 0.32386982440948486
0.59667503833770752 0.87041878700256348 0.33058968186378479
0.63358598947525024 0.87574917078018188 0.33406564593315125
0.673686683177948 0.88176530599594116 0.33252415060997009
0.71634989976882935 0.88884317874908447 0.32773315906524658
0.76016807556152344 0.89698344469070435 0.32429501414299011
0.80414527654647827 0.90518438816070557 0.32524043321609497
0.84862715005874634 0.91218936443328857 0.32754603028297424
0.89412564039230347 0.91710066795349121 0.3269994854927063
0.93771040439605713 0.92125946283340454 0.32517382502555847
0.97391283512115479 0.92715990543365479 0.32756316661834717
0.99787306785583496 0.93488782644271851 0.33154815435409546
0.014028152450919151 0.031091593205928802 0.1270742267370224
0.088184908032417297 0.035913564264774323 0.12967483699321747
0.1913740485906601 0.038778387010097504 0.13393691182136536
0.29942125082015991 0.039565950632095337 0.13855655491352081
0.41033852100372314 0.037445247173309326 0.14254176616668701
0.5086943507194519 0.034105218946933746 0.14438557624816895
0.58220547437667847 0.02592550590634346 0.14142236113548279
0.63601768016815186 0.015606150962412357 0.14317560195922852
0.68170225620269775 0.009711126796901226 0.14614774286746979
0.72243160009384155 0.0091247111558914185 0.1482091099023819
0.75641071796417236 0.012886466458439827 0.14966349303722382
0.78283882141113281 0.023357121273875237 0.15132014453411102
0.80809199810028076 0.039682157337665558 0.1523013710975647
0.013053669594228268 0.073979020118713379 0.13389883935451508
0.077782876789569855 0.08102022111415863 0.13744823634624481
0.16210761666297913 0.091138146817684174 0.14307661354541779
0.25575602054595947 0.10173989087343216 0.14725023508071899
0.36250773072242737 0.10952921956777573 0.1492621898651123
0.46773639321327209 0.11380507797002792 0.14918485283851624
0.5546080470085144 0.11091198027133942 0.14760416746139526
0.62365329265594482 0.10174140334129333 0.1471962183713913
0.68305075168609619 0.094189122319221497 0.14781901240348816
0.73590934276580811 0.0929245725274086 0.14945147931575775
0.78030651807785034 0.099267028272151947 0.15275070071220398
0.81443184614181519 0.11435133963823318 0.15609326958656311
0.84280037879943848 0.13444633781909943 0.15934260189533234
0.021759167313575745 0.1394696831703186 0.15021470189094543
0.093282841145992279 0.1504330188035965 0.15356391668319702
0.17829073965549469 0.16529753804206848 0.15718258917331696
0.26882261037826538 0.1802605539560318 0.1586565375328064
0.36720725893974304 0.19402514398097992 0.15812455117702484
0.46772351861000061 0.20413079857826233 0.15580995380878448
0.55743741989135742 0.20805230736732483 0.15364439785480499
0.63293319940567017 0.20620575547218323 0.15145857632160187
0.69905334711074829 0.20324444770812988 0.14936468005180359
0.7580113410949707 0.20278425514698029 0.15035562217235565
0.80865633487701416 0.20712855458259583 0.15471196174621582
0.84884226322174072 0.21870081126689911 0.16019129753112793
0.88098841905593872 0.23454618453979492 0.16562439501285553
0.036534059792757034 0.22190655767917633 0.17079503834247589
0.11216592043638229 0.23547825217247009 0.17298376560211182
0.20130044221878052 0.25196823477745056 0.17455506324768066
0.29526442289352417 0.26877197623252869 0.17434532940387726
0.39103633165359497 0.28462928533554077 0.17286159098148346
0.48674032092094421 0.29841253161430359 0.16967763006687164
0.57499152421951294 0.30764162540435791 0.16701935231685638
0.65246891975402832 0.31181886792182922 0.16171988844871521
0.72101044654846191 0.31317344307899475 0.15639454126358032
0.78260678052902222 0.31440886855125427 0.15669670701026917
0.83630859851837158 0.31878921389579773 0.16030238568782806
0.88046777248382568 0.3272043764591217 0.16635464131832123
0.91589534282684326 0.338041752576828 0.17276695370674133
0.057670474052429199 0.31220942735671997 0.19059205055236816
0.13443788886070251 0.32653066515922546 0.19178734719753265
0.22390642762184143 0.34264868497848511 0.19273793697357178
0.318337082862854 0.35901978611946106 0.19243441522121429
