assets/lut/inavision 7drk 21.cube
# Created by: G'MIC (https://gmic.eu)
TITLE "7drk_21"
# LUT size
LUT_3D_SIZE 7
# Data domain
DOMAIN_MIN 0.0 0.0 0.0
DOMAIN_MAX 1.0 1.0 1.0
# LUT data points
0.0017799825873225927 0.0011187833733856678 0
0.089919239282608032 0 0.0010343963513150811
0.20458941161632538 0 0
0.36365425586700439 0 0
0.54302299022674561 0 0
0.69981169700622559 0 0
0.82941174507141113 0 2.8004365958622657e-05
8.440204692305997e-05 0.068838812410831451 8.9757586465566419e-06
0.076541155576705933 0.059917762875556946 0
0.21040283143520355 0.067924916744232178 0
0.36593931913375854 0.089594446122646332 0.00014410579751711339
0.54380190372467041 0.11431883275508881 0.0022967618424445391
0.70059072971343994 0.12249766290187836 0
0.82793241739273071 0.1151587963104248 0.00069913675542920828
0 0.20029160380363464 0
0.074546709656715393 0.19869828224182129 0
0.21804958581924438 0.20742662250995636 0
0.36222216486930847 0.24678997695446014 0
0.54362022876739502 0.29464513063430786 0
0.69979190826416016 0.31962749361991882 5.6936227338155732e-05
0.82825696468353271 0.31811663508415222 0.00065394380362704396
0.0051823337562382221 0.37098389863967896 0.0014199500437825918
0.11013467609882355 0.37205582857131958 0
0.25860381126403809 0.37174734473228455 0.00079190125688910484
0.36974456906318665 0.38467821478843689 0
0.5427248477935791 0.44161319732666016 0
0.69956332445144653 0.47316247224807739 0.0001627903402550146
0.82941174507141113 0.47277197241783142 5.4931639169808477e-05
0 0.5840686559677124 0.00015025419997982681
0.090970657765865326 0.58490800857543945 0
0.29444748163223267 0.58703076839447021 3.6561254091793671e-05
0.41544133424758911 0.57814663648605347 0.00032908123102970421
0.5507349967956543 0.59481966495513916 0
0.69923722743988037 0.62657105922698975 0
0.83086669445037842 0.62725192308425903 0
0 0.78412514925003052 0
0.11312966793775558 0.77533727884292603 0.00331141147762537
0.31568866968154907 0.77885228395462036 0.0044708549976348877
0.46233496069908142 0.78469216823577881 0.0078874174505472183
0.58182954788208008 0.78242009878158569 0.0013131833402439952
0.70817536115646362 0.78480374813079834 0.0034245809074491262
0.83472144603729248 0.78509825468063354 0
0 0.97914707660675049 0
0.12982796132564545 0.96962106227874756 0
0.3170943558216095 0.97187399864196777 1.8669577912078239e-05
0.46814748644828796 0.97971373796463013 0.0021049648057669401
0.59543102979660034 0.97225034236907959 0.00018687528790906072
0.71658462285995483 0.97101819515228271 7.7550554124172777e-05
0.84096002578735352 0.97246474027633667 0
8.3654063928406686e-05 1.4002182979311328e-05 0.034201230853796005
0.078289151191711426 6.4625462982803583e-05 0.03260619193315506
0.20150390267372131 3.0517578125e-05 0.033207029104232788
0.36280491948127747 0.00040512083796784282 0.060266859829425812
0.54441255331039429 0.011792127043008804 0.081640399992465973
0.70228254795074463 0.0033313378226011992 0.085518978536128998
0.82853931188583374 0.010321253910660744 0.083899915218353271
0.0024289300199598074 0.05540771409869194 0.029588915407657623
0.090324282646179199 0.067366823554039001 0.029986288398504257
0.21097809076309204 0.065543137490749359 0.030608473345637321
0.37084126472473145 0.05207965150475502 0.030634652823209763
0.54434311389923096 0.06406460702419281 0.035370022058486938
0.70277518033981323 0.097684614360332489 0.061498187482357025
0.83321607112884521 0.089870333671569824 0.04682718962430954
0.0035911560989916325 0.19877199828624725 0.029781701043248177
0.087137021124362946 0.19697907567024231 0.026898566633462906
0.21145421266555786 0.20380820333957672 0.019799550995230675
0.36660900712013245 0.24138286709785461 0.013220558874309063
0.54814547300338745 0.28115382790565491 0.0087269805371761322
0.70462357997894287 0.29797244071960449 0.0067833694629371166
0.83320575952529907 0.29432421922683716 0.010752958245575428
0.0094769494608044624 0.37313497066497803 0.056304901838302612
0.075045280158519745 0.37345534563064575 0.030547467991709709
0.24292851984500885 0.37023493647575378 0.013206452131271362
0.37391090393066406 0.38325744867324829 0.012436735443770885
0.54053127765655518 0.43427109718322754 0.010037201456725597
0.70124012231826782 0.4650026261806488 0.011860133148729801
0.83301281929016113 0.4684116542339325 0.011639568954706192
0.0014465481508523226 0.58614426851272583 0.077162273228168488
0.048725653439760208 0.58409291505813599 0.028020208701491356
0.27491956949234009 0.58452242612838745 0.0092101003974676132
0.41397839784622192 0.57994359731674194 0.010582897812128067
0.54643827676773071 0.59010237455368042 0.012352438643574715
0.69651782512664795 0.62350010871887207 0.0086138555780053139
0.83143585920333862 0.62203550338745117 0.011357550509274006
0.020886665210127831 0.78039681911468506 0.082642272114753723
0.10950857400894165 0.7761802077293396 0.063828215003013611
0.28156170248985291 0.77732199430465698 0.0025129280984401703
0.45383885502815247 0.78042614459991455 0.014932729303836823
0.5809139609336853 0.77581042051315308 0.015769734978675842
0.70480382442474365 0.78505235910415649 0.015934662893414497
0.83067387342453003 0.77245110273361206 0.017354657873511314
0.0018173217540606856 0.97206872701644897 0.078616887331008911
0.10410032421350479 0.97087854146957397 0.051165949553251266
0.27750498056411743 0.9682539701461792 0.0015955757116898894
0.4498717188835144 0.96926254034042358 0.00085340015357360244
0.59069162607192993 0.96799987554550171 0.0020882999524474144
0.71414291858673096 0.9779326319694519 0.0022671569604426622
0.83825844526290894 0.9692264199256897 0.00066812551813200116
0 0 0.14813321828842163
0.079849720001220703 0.0014055289793759584 0.14818225800991058
0.21347850561141968 0.0060625262558460236 0.15623193979263306
0.36134806275367737 0.0089508360251784325 0.20743954181671143
0.54421687126159668 0.0071774651296436787 0.25252220034599304
0.69999080896377563 0.0061869453638792038 0.27597501873970032
0.82845145463943481 0.0084246620535850525 0.26985889673233032
0.00057498709065839648 0.060038309544324875 0.1476447582244873
0.096151478588581085 0.070891298353672028 0.15177452564239502
0.22159016132354736 0.058551248162984848 0.1620253324508667
0.37112575769424438 0.04925537109375 0.19521825015544891
0.55012273788452148 0.034086607396602631 0.23189935088157654
0.70595765113830566 0.034793015569448471 0.25140255689620972
0.8323243260383606 0.029352225363254547 0.24906206130981445
0.0036567687056958675 0.20517420768737793 0.15144306421279907
0.079531937837600708 0.20917923748493195 0.15398699045181274
0.20964901149272919 0.19903668761253357 0.14310887455940247
0.37399137020111084 0.20066611468791962 0.14177009463310242
0.55958980321884155 0.20163589715957642 0.14472255110740662
0.72104990482330322 0.17475308477878571 0.11818347871303558
0.84798943996429443 0.16740491986274719 0.10940127074718475
0.017507605254650116 0.36976408958435059 0.1973472535610199
0.081384144723415375 0.37400591373443604 0.18163406848907471
0.19688788056373596 0.3756413459777832 0.1232655867934227
0.37047913670539856 0.38150677084922791 0.10755770653486252
0.55352544784545898 0.41498363018035889 0.10106183588504791
0.71387195587158203 0.4284883439540863 0.091035492718219757
0.84584188461303711 0.41568604111671448 0.085632637143135071
0.015655951574444771 0.58447223901748657 0.25207111239433289
0.067531123757362366 0.58664727210998535 0.2167915403842926
0.17706374824047089 0.59155738353729248 0.10236906260251999
0.37408635020256042 0.58387410640716553 0.084993191063404083
0.55075538158416748 0.59727388620376587 0.083656713366508484
0.70418697595596313 0.61494094133377075 0.078256227076053619
0.84115755558013916 0.60441356897354126 0.084141962230205536
0.036554928869009018 0.78044015169143677 0.277027428150177
0.076738186180591583 0.78414565324783325 0.23586195707321167
0.16916853189468384 0.78830116987228394 0.08675607293844223
0.38571205735206604 0.78299802541732788 0.064568601548671722
0.56610763072967529 0.7818448543548584 0.067523583769798279
0.70317631959915161 0.7838292121887207 0.06670825183391571
0.83643007278442383 0.77124398946762085 0.068598620593547821
0.0091505907475948334 0.97858119010925293 0.27375602722167969
0.044603608548641205 0.9783707857131958 0.24473169445991516
0.16598817706108093 0.98058998584747314 0.072201810777187347
0.38331031799316406 0.97559219598770142 0.012555469758808613
0.56942027807235718 0.97526735067367554 0.021367421373724937
0.70882678031921387 0.97712105512619019 0.022144617512822151
0.8446003794670105 0.97415345907211304 0.01441796962171793
0 0 0.33854019641876221
0.10816448181867599 0.0011316785821691155 0.33743554353713989
0.25274059176445007 0.0037096957676112652 0.33700767159461975
0.38283294439315796 0.0088329389691352844 0.36792609095573425
0.54322296380996704 0.0021331338211894035 0.41041094064712524
0.69694066047668457 0.00055377435637637973 0.44366493821144104
0.82868832349777222 0.0033241272903978825 0.44946730136871338
0.0040792129002511501 0.090628258883953094 0.32989200949668884
0.086058147251605988 0.066663064062595367 0.34580522775650024
0.24701087176799774 0.054984897375106812 0.34029188752174377
0.37955713272094727 0.056162334978580475 0.3571774959564209
0.54246896505355835 0.041274994611740112 0.40110725164413452
0.70444387197494507 0.03194674476981163 0.43334218859672546
0.83698999881744385 0.038389991968870163 0.42822754383087158
0.0018558128504082561 0.24159376323223114 0.32959231734275818
0.077351979911327362 0.24427887797355652 0.3347218930721283
0.21037888526916504 0.20341381430625916 0.34307298064231873
0.37595579028129578 0.1863568127155304 0.35045912861824036
0.55581378936767578 0.17051933705806732 0.38215541839599609
0.72197514772415161 0.14582173526287079 0.3905239999294281
0.85393810272216797 0.15034733712673187 0.36628103256225586
0.0077201994135975838 0.3772922158241272 0.33881783485412598
0.067253336310386658 0.37534323334693909 0.33808991312980652
0.18148110806941986 0.38005316257476807 0.34361112117767334
0.36830398440361023 0.37290725111961365 0.32671976089477539
0.55724859237670898 0.37804281711578369 0.32847243547439575
0.72207367420196533 0.37459403276443481 0.32074528932571411
0.85811585187911987 0.36829414963722229 0.3086073100566864
0.010476056486368179 0.57800465822219849 0.39854595065116882
0.059363316744565964 0.57857608795166016 0.39909061789512634
0.15916544198989868 0.58810651302337646 0.36226969957351685
0.35884818434715271 0.58720189332962036 0.30452319979667664
0.55210250616073608 0.59156197309494019 0.28842201828956604
0.713287353515625 0.59758299589157104 0.28324213624000549
0.85498940944671631 0.58266472816467285 0.28372877836227417
0.018730927258729935 0.77563071250915527 0.44293710589408875
0.058349847793579102 0.78126633167266846 0.43853354454040527
0.14056284725666046 0.78404676914215088 0.36439216136932373
0.33295482397079468 0.79111182689666748 0.27145329117774963
0.54663586616516113 0.78523069620132446 0.25600132346153259
0.70655477046966553 0.78113293647766113 0.25817769765853882
0.85099750757217407 0.7625616192817688 0.25552114844322205
0.0018808103632181883 0.97331911325454712 0.44659507274627686
0.029725601896643639 0.97595417499542236 0.43540394306182861
0.12786774337291718 0.97402149438858032 0.32519987225532532
0.32855251431465149 0.97765815258026123 0.21587492525577545
0.53766953945159912 0.98071956634521484 0.18475382030010223
0.70063161849975586 0.97491586208343506 0.19482995569705963
0.84894347190856934 0.97360897064208984 0.17408828437328339
0 0 0.56665772199630737
0.11077269166707993 0.0054006390273571014 0.56613612174987793
0.29457664489746094 0.0025094724260270596 0.56581330299377441
0.42773523926734924 0.0091384435072541237 0.5746120810508728
0.55657637119293213 0.0040830275975167751 0.59170973300933838
0.69562160968780518 0.00073529413202777505 0.61054521799087524
0.82649445533752441 0.0034869026858359575 0.60924816131591797
0.011625790968537331 0.11279144138097763 0.55128568410873413
0.05974724143743515 0.053098328411579132 0.57662075757980347
0.28006070852279663 0.04945996031165123 0.5743061900138855
0.42139539122581482 0.049040522426366806 0.56817746162414551
0.55289226770401001 0.044217262417078018 0.58499348163604736
0.70111358165740967 0.03586985170841217 0.61006999015808105
0.83620083332061768 0.043718915432691574 0.6046302318572998
0.0059434780851006508 0.28665342926979065 0.55762761831283569
0.060158148407936096 0.27941173315048218 0.57076781988143921
0.21458587050437927 0.20330396294593811 0.5861172080039978
0.39947912096977234 0.17559117078781128 0.58199441432952881
0.56002318859100342 0.16787542402744293 0.59557253122329712
0.71487408876419067 0.14696913957595825 0.61029744148254395
0.85192608833312988 0.14945298433303833 0.59373694658279419
0.00051793118473142385 0.4322059154510498 0.55623376369476318
0.058091975748538971 0.42985871434211731 0.55734175443649292
0.17899830639362335 0.41067683696746826 0.57567858695983887
0.36815682053565979 0.37167978286743164 0.5729261040687561
0.5571972131729126 0.36569565534591675 0.57954484224319458
0.71972477436065674 0.35439079999923706 0.57945215702056885
0.86004900932312012 0.35347869992256165 0.55926811695098877
0.0052778655663132668 0.59490543603897095 0.57676780223846436
0.063112206757068634 0.58880245685577393 0.57236921787261963
0.15899261832237244 0.59618395566940308 0.57713449001312256
0.34687519073486328 0.5858035683631897 0.56291770935058594
0.54717439413070679 0.58426934480667114 0.55498349666595459
0.71207857131958008 0.58068466186523438 0.55095821619033813
0.85455316305160522 0.57483601570129395 0.53434842824935913
0.010323438793420792 0.77945446968078613 0.61091607809066772
0.060246769338846207 0.78211355209350586 0.61249220371246338
0.14421425759792328 0.78228360414505005 0.58745217323303223
0.31899276375770569 0.78584879636764526 0.5466647744178772
0.53153562545776367 0.78328084945678711 0.53381747007369995
0.70424199104309082 0.78348648548126221 0.52962988615036011
0.84601151943206787 0.75846666097640991 0.52002382278442383
0.0058704153634607792 0.97870606184005737 0.61070430278778076
0.041404694318771362 0.9738733172416687 0.60338699817657471
0.12026398628950119 0.97373491525650024 0.55666190385818481
0.2956855297088623 0.97645086050033569 0.5032728910446167
0.51102441549301147 0.97772812843322754 0.48318403959274292
0.69347411394119263 0.97617316246032715 0.48644146323204041
0.84306168556213379 0.97472041845321655 0.47384965419769287
4.6673944780195598e-06 0 0.78710287809371948
0.13651622831821442 0.0001595889771124348 0.78693544864654541
0.30936259031295776 0.0017561819404363632 0.78776043653488159
0.46008631587028503 0.0033617357257753611 0.79068005084991455
0.58341366052627563 3.7698184314649552e-05 0.79196751117706299
0.70426630973815918 4.6314911742229015e-05 0.79020172357559204
0.82987707853317261 0.0055658677592873573 0.78501373529434204
0.007919984869658947 0.12576271593570709 0.78356343507766724
0.068370282649993896 0.05841377004981041 0.80237531661987305
0.29809015989303589 0.040869247168302536 0.80733883380889893
0.45394399762153625 0.038425654172897339 0.79516971111297607
0.57984483242034912 0.034894548356533051 0.79346144199371338
0.70878845453262329 0.035457491874694824 0.79673439264297485
0.83852922916412354 0.049403350800275803 0.78793525695800781
0.016366353258490562 0.31647378206253052 0.7823064923286438
0.070393294095993042 0.30325803160667419 0.79988795518875122
0.21538731455802917 0.19836345314979553 0.83002388477325439
0.42086869478225708 0.1714947521686554 0.81921076774597168
0.5785369873046875 0.16494472324848175 0.81545007228851318
0.71811497211456299 0.1493210643529892 0.8109203577041626
0.85199105739593506 0.15610674023628235 0.79041916131973267
0.0023146984167397022 0.47069475054740906 0.78483802080154419
0.05797780305147171 0.46822535991668701 0.79194599390029907
0.1738545149564743 0.43042698502540588 0.81678467988967896
0.37335768342018127 0.37236246466636658 0.81722229719161987
0.56450074911117554 0.36365592479705811 0.81581407785415649
0.71923202276229858 0.35082396864891052 0.80488342046737671
0.85949558019638062 0.35573524236679077 0.77600109577178955
0.0057409396395087242 0.6231570839881897 0.78569507598876953
0.063093923032283783 0.62257790565490723 0.78533178567886353
0.15413172543048859 0.61561340093612671 0.80191165208816528
0.34229734539985657 0.59074491262435913 0.80301547050476074
0.54705381393432617 0.58301711082458496 0.79677289724349976
0.70994770526885986 0.57762926816940308 0.79236847162246704
0.8561549186706543 0.57627564668655396 0.77494913339614868
0.011439215391874313 0.78286951780319214 0.79381906986236572
0.068893253803253174 0.78500270843505859 0.79660362005233765
0.14106765389442444 0.78745114803314209 0.80103963613510132
0.31929120421409607 0.78980308771133423 0.79204815626144409
0.53180766105651855 0.78341400623321533 0.78601384162902832
0.69820696115493774 0.78137153387069702 0.78219026327133179
0.84500700235366821 0.77559781074523926 0.77343279123306274
0.0016737545374780893 0.97645384073257446 0.78625249862670898
0.03162071481347084 0.97303289175033569 0.78454315662384033
0.087803438305854797 0.97935718297958374 0.77166241407394409
0.27906978130340576 0.98409795761108398 0.74892908334732056
0.50818854570388794 0.9850534200668335 0.74473279714584351
0.6925697922706604 0.97988903522491455 0.75122201442718506
0.83678638935089111 0.97866249084472656 0.74863559007644653
0.016438696533441544 0 0.96562314033508301
0.15920200943946838 0 0.96248215436935425
0.3346208930015564 0.0005634981207549572 0.95886343717575073
0.47357040643692017 0.0001132740726461634 0.96030271053314209
0.59443187713623047 0 0.96294707059860229
0.71320450305938721 4.3083641685370822e-06 0.96457397937774658
0.83671987056732178 0.007883378304541111 0.96397727727890015
0.011316755786538124 0.11836567521095276 0.959361732006073
0.070911377668380737 0.051574017852544785 0.96921610832214355
0.28418144583702087 0.044502049684524536 0.97040295600891113
0.45541307330131531 0.047764122486114502 0.9675183892250061
0.5864824652671814 0.034385096281766891 0.96603107452392578
0.71457701921463013 0.037552192807197571 0.97000080347061157
0.84366154670715332 0.055777218192815781 0.96687942743301392
0.00066496903309598565 0.31619974970817566 0.96149557828903198
0.055267889052629471 0.30519852042198181 0.97350829839706421
0.21155291795730591 0.20943242311477661 0.99147665500640869
0.41347220540046692 0.17779423296451569 0.98951786756515503
0.57787907123565674 0.16296392679214478 0.98588913679122925
0.71877646446228027 0.14733859896659851 0.98262035846710205
0.85298937559127808 0.15426085889339447 0.9730411171913147
0.010070815682411194 0.47914379835128784 0.96392780542373657
0.069411635398864746 0.47213169932365417 0.97006118297576904
0.18027527630329132 0.42715957760810852 0.98848003149032593
0.37145587801933289 0.37013441324234009 0.99235081672668457
0.56117171049118042 0.35720980167388916 0.98976689577102661
0.71629101037979126 0.34171536564826965 0.98547041416168213
0.85629814863204956 0.33883529901504517 0.97528380155563354
0.018131166696548462 0.63380223512649536 0.96295011043548584
0.081242218613624573 0.63238799571990967 0.96288663148880005
0.16340300440788269 0.61911690235137939 0.98169887065887451
0.34502646327018738 0.58432018756866455 0.98458713293075562
0.54551750421524048 0.5778011679649353 0.97834700345993042
0.70718717575073242 0.5730748176574707 0.97975927591323853
0.85132116079330444 0.5599331259727478 0.97892636060714722
0.020265152677893639 0.78344458341598511 0.9613146185874939
0.078610859811306 0.78246110677719116 0.96137100458145142
0.14525549113750458 0.78107166290283203 0.97168266773223877
0.32284551858901978 0.77096390724182129 0.97552651166915894
0.53282594680786133 0.76912975311279297 0.96843862533569336
0.6989179253578186 0.77672755718231201 0.96914088726043701
0.84374356269836426 0.77242237329483032 0.96821731328964233
0.019190650433301926 0.95944374799728394 0.95753782987594604
0.061849452555179596 0.9505460262298584 0.95902901887893677
0.1130024790763855 0.95511931180953979 0.96133434772491455
0.29797902703285217 0.95575559139251709 0.95947462320327759
0.51788234710693359 0.95245474576950073 0.95822787284851074
0.69241976737976074 0.9520641565322876 0.95616418123245239
0.83207005262374878 0.94743025302886963 0.95245260000228882
