assets/lut/inavision hitman.cube
# Created by: G'MIC (https://gmic.eu)
TITLE "hitman"
# LUT size
LUT_3D_SIZE 5
# Data domain
DOMAIN_MIN 0.0 0.0 0.0
DOMAIN_MAX 1.0 1.0 1.0
# LUT data points
0.00022654814529232681 0.0014944936847314239 0.0026743870694190264
0.19102051854133606 0.05281028151512146 0.047434579581022263
0.55793005228042603 0.11257922649383545 0.11447691172361374
0.75569033622741699 0.16631110012531281 0.15366318821907043
0.88564932346343994 0.19960306584835052 0.19104991853237152
0.10011687874794006 0.27295508980751038 0.096499711275100708
0.30883747339248657 0.28703442215919495 0.10569275170564651
0.6045958399772644 0.31075623631477356 0.15022958815097809
0.78391367197036743 0.32790359854698181 0.18527404963970184
0.90829473733901978 0.32477223873138428 0.21170775592327118
0.21309244632720947 0.5897032618522644 0.21262891590595245
0.40977886319160461 0.59810161590576172 0.22474843263626099
0.71494007110595703 0.61945027112960815 0.26442787051200867
0.87981712818145752 0.62618005275726318 0.29830029606819153
0.96009784936904907 0.57537955045700073 0.28333878517150879
0.38259145617485046 0.85500019788742065 0.34630265831947327
0.53194123506546021 0.86307656764984131 0.35790160298347473
0.8131558895111084 0.8663489818572998 0.39534804224967957
0.97318923473358154 0.88097977638244629 0.47703123092651367
0.98887091875076294 0.82343369722366333 0.43275827169418335
0.48952105641365051 0.96665340662002563 0.42594209313392639
0.60992169380187988 0.96139734983444214 0.4472862184047699
0.82896256446838379 0.95010268688201904 0.50985336303710938
0.97410166263580322 0.95247405767440796 0.61664497852325439
0.99624025821685791 0.96045076847076416 0.71035075187683105
0.0220045056194067 0.022859146818518639 0.065977044403553009
0.16067522764205933 0.055692709982395172 0.11953224986791611
0.49870023131370544 0.11147107928991318 0.20032258331775665
0.72979205846786499 0.16188210248947144 0.24006764590740204
0.87476241588592529 0.19327448308467865 0.25451654195785522
0.094218127429485321 0.28007227182388306 0.20791910588741302
0.30081608891487122 0.29547604918479919 0.21902872622013092
0.60373920202255249 0.31301108002662659 0.24415421485900879
0.79218906164169312 0.34592112898826599 0.27598291635513306
0.92190366983413696 0.37213447690010071 0.29974916577339172
0.2158842533826828 0.59842908382415771 0.30425247550010681
0.4114747941493988 0.61039978265762329 0.31800016760826111
0.71048486232757568 0.63408547639846802 0.35216885805130005
0.88722771406173706 0.649913489818573 0.38453212380409241
0.97093969583511353 0.61432695388793945 0.37987020611763
0.37834039330482483 0.85397130250930786 0.41265809535980225
0.55060487985610962 0.86862748861312866 0.43314176797866821
0.81795012950897217 0.87558531761169434 0.47962963581085205
0.96880000829696655 0.88704895973205566 0.54408609867095947
0.98998522758483887 0.84167170524597168 0.5219840407371521
0.50488990545272827 0.9647747278213501 0.47824081778526306
0.66235113143920898 0.96440571546554565 0.5248035192489624
0.86435365676879883 0.95569264888763428 0.5942344069480896
0.97746366262435913 0.95625764131546021 0.67340505123138428
0.99631857872009277 0.96306973695755005 0.74628645181655884
0.046901434659957886 0.048807568848133087 0.20123142004013062
0.19847260415554047 0.070480704307556152 0.24931381642818451
0.41324424743652344 0.12543071806430817 0.27685433626174927
0.62936937808990479 0.1790459007024765 0.3360505998134613
0.81508743762969971 0.20676076412200928 0.34537515044212341
0.11173053830862045 0.29981526732444763 0.37020993232727051
0.30705282092094421 0.31017318367958069 0.3710513710975647
0.55034744739532471 0.34839919209480286 0.37017419934272766
0.7596442699432373 0.38137021660804749 0.4133831262588501
0.91664576530456543 0.40485018491744995 0.4174734354019165
0.24385516345500946 0.61240690946578979 0.45515793561935425
0.42914673686027527 0.62889677286148071 0.46850988268852234
0.71142292022705078 0.66196006536483765 0.5013355016708374
0.89856433868408203 0.69635343551635742 0.53453296422958374
0.98343831300735474 0.71116036176681519 0.54518651962280273
0.40798935294151306 0.87134194374084473 0.55089366436004639
0.58736211061477661 0.88173747062683105 0.57111513614654541
0.83550596237182617 0.89366143941879272 0.61893898248672485
0.97116076946258545 0.90159696340560913 0.66583013534545898
0.99216353893280029 0.89022481441497803 0.67337357997894287
0.52199316024780273 0.96705049276351929 0.57899767160415649
0.70033949613571167 0.96130973100662231 0.62481623888015747
0.91806954145431519 0.95868867635726929 0.70877856016159058
0.99268245697021484 0.96974366903305054 0.7680324912071228
0.9996907114982605 0.98837560415267944 0.80547857284545898
0.067846320569515228 0.071843542158603668 0.38447761535644531
0.23839756846427917 0.10035651922225952 0.4792441725730896
0.41720673441886902 0.1428331732749939 0.41841965913772583
0.55374997854232788 0.2003256231546402 0.43954503536224365
0.69314068555831909 0.22898875176906586 0.43743067979812622
0.13201820850372314 0.29801151156425476 0.56331729888916016
0.32166430354118347 0.31761899590492249 0.56886041164398193
0.53324103355407715 0.36017528176307678 0.52372276782989502
0.67029261589050293 0.42470970749855042 0.53178614377975464
0.81290656328201294 0.44154179096221924 0.52883785963058472
0.23213756084442139 0.58590018749237061 0.62345796823501587
0.42434737086296082 0.61237865686416626 0.64198410511016846
0.7097848653793335 0.6733519434928894 0.67493689060211182
0.85649865865707397 0.72736352682113647 0.68521678447723389
0.97170752286911011 0.73758482933044434 0.68629050254821777
0.41364693641662598 0.86967265605926514 0.73425757884979248
0.59131300449371338 0.87654978036880493 0.74626082181930542
0.84369516372680664 0.89461201429367065 0.76315158605575562
0.96783620119094849 0.91951626539230347 0.78767460584640503
0.99449771642684937 0.92905080318450928 0.79539477825164795
0.56353378295898438 0.9669148325920105 0.71606719493865967
0.73499876260757446 0.95940583944320679 0.73885548114776611
0.94284451007843018 0.96029013395309448 0.78816604614257812
0.99944555759429932 0.98300027847290039 0.83771210908889771
1 0.99732667207717896 0.87199211120605469
0.1044083833694458 0.10556533187627792 0.57253217697143555
0.23181401193141937 0.10915500670671463 0.60184288024902344
0.41214162111282349 0.13969919085502625 0.5342215895652771
0.52498286962509155 0.18143866956233978 0.50085443258285522
0.66017633676528931 0.25476893782615662 0.53092968463897705
0.14326818287372589 0.2701035737991333 0.65556412935256958
0.32526198029518127 0.32229027152061462 0.66789102554321289
0.52940553426742554 0.35888403654098511 0.64735144376754761
0.64619874954223633 0.41104385256767273 0.60964566469192505
0.77319628000259399 0.46929177641868591 0.62220269441604614
0.22079770267009735 0.51713770627975464 0.70363205671310425
0.41079533100128174 0.56434422731399536 0.72422617673873901
0.72296583652496338 0.68152815103530884 0.77190423011779785
0.84483546018600464 0.72132068872451782 0.77793139219284058
0.93600565195083618 0.76077866554260254 0.76434105634689331
0.36775889992713928 0.7906118631362915 0.80656576156616211
0.551566481590271 0.81239509582519531 0.83036202192306519
0.82254999876022339 0.85942631959915161 0.84048157930374146
0.96877932548522949 0.92217063903808594 0.84578019380569458
0.99541521072387695 0.93944191932678223 0.83789563179016113
0.59197282791137695 0.9613335132598877 0.86903965473175049
0.75666868686676025 0.9572945237159729 0.84680300951004028
0.94810181856155396 0.95918142795562744 0.84042185544967651
0.99852263927459717 0.98965340852737427 0.9009215235710144
0.99974077939987183 0.99773281812667847 0.90929210186004639
