assets/lut/inavision vintage mob.cube
# Created by: G'MIC (https://gmic.eu)
TITLE "vintage_mob"
# LUT size
LUT_3D_SIZE 7
# Data domain
DOMAIN_MIN 0.0 0.0 0.0
DOMAIN_MAX 1.0 1.0 1.0
# LUT data points
0.050419256091117859 0.043461490422487259 0.048159416764974594
0.28529641032218933 0.05335775762796402 0.025211812928318977
0.57586061954498291 0.047451619058847427 0.014000896364450455
0.72491639852523804 0.044254332780838013 0.00049492332618683577
0.78699523210525513 0.043299086391925812 0
0.8321947455406189 0.043132256716489792 0
0.85583305358886719 0.03325175866484642 0
0.017407599836587906 0.20679709315299988 0.081246472895145416
0.1833355575799942 0.23244734108448029 0.054009530693292618
0.48453956842422485 0.27482336759567261 0.018894150853157043
0.70927608013153076 0.27664440870285034 7.1088004915509373e-05
0.81711465120315552 0.26780426502227783 0
0.8741689920425415 0.26565274596214294 0.00024132821999955922
0.89195543527603149 0.23835356533527374 2.154182038793806e-05
9.1193702246528119e-05 0.38983100652694702 0.1297493577003479
0.11230927705764771 0.42333674430847168 0.088615968823432922
0.45615091919898987 0.48295426368713379 0.034715257585048676
0.72329151630401611 0.49579346179962158 7.3242190410383046e-05
0.85364407300949097 0.47539886832237244 0
0.91567343473434448 0.45603764057159424 0
0.93751335144042969 0.42153105139732361 0.0027507108170539141
0 0.52772396802902222 0.18714419007301331
0.024999072775244713 0.56289970874786377 0.13453064858913422
0.37614008784294128 0.62753951549530029 0.062984198331832886
0.70701825618743896 0.66543948650360107 0.0053293267264962196
0.86975383758544922 0.65178674459457397 0
0.94200170040130615 0.61781018972396851 0
0.96878647804260254 0.56915229558944702 0
0 0.62465327978134155 0.26021692156791687
0.0054681366309523582 0.65858209133148193 0.22592119872570038
0.28648915886878967 0.71719729900360107 0.16730929911136627
0.66237419843673706 0.77273398637771606 0.053529191762208939
0.86636644601821899 0.78575098514556885 0.0049655241891741753
0.9544188380241394 0.75531816482543945 7.180606644396903e-06
0.98483479022979736 0.69989216327667236 0
0.0021650874987244606 0.68467837572097778 0.32590219378471375
0 0.71230196952819824 0.30102622509002686
0.16069260239601135 0.76003271341323853 0.25859248638153076
0.56315392255783081 0.81907296180725098 0.1902710497379303
0.79982185363769531 0.85175234079360962 0.10870426893234253
0.93588685989379883 0.84794908761978149 0.030735913664102554
0.9867168664932251 0.80653893947601318 0.0068044327199459076
0 0.71229004859924316 0.34353145956993103
0 0.73901629447937012 0.33366972208023071
0.083982296288013458 0.77791327238082886 0.31842291355133057
0.45894187688827515 0.83143532276153564 0.28743249177932739
0.69743269681930542 0.86428296566009521 0.2213173508644104
0.88805818557739258 0.88772392272949219 0.12433011084794998
0.96543806791305542 0.86783605813980103 0.084982596337795258
0.16305157542228699 0.043373376131057739 0.25558212399482727
0.42618989944458008 0.05237274244427681 0.20771799981594086
0.6361737847328186 0.043248973786830902 0.16471880674362183
0.76415669918060303 0.039254043251276016 0.13163706660270691
0.81800466775894165 0.038670409470796585 0.091664105653762817
0.8563421368598938 0.042267326265573502 0.07227807492017746
0.86988019943237305 0.045390557497739792 0.034086145460605621
0.010624410584568977 0.23142018914222717 0.29204049706459045
0.20971962809562683 0.2534814178943634 0.26386946439743042
0.53375864028930664 0.28184393048286438 0.22651608288288116
0.75230401754379272 0.28030258417129517 0.18240690231323242
0.84941190481185913 0.27507126331329346 0.14172109961509705
0.90184766054153442 0.28308966755867004 0.12855687737464905
0.91547936201095581 0.27446773648262024 0.099367402493953705
0.00022657806403003633 0.42988413572311401 0.34614205360412598
0.09961574524641037 0.45756807923316956 0.31613835692405701
0.48519819974899292 0.50701797008514404 0.28213170170783997
0.75776070356369019 0.51929163932800293 0.22689259052276611
0.87727928161621094 0.50004911422729492 0.18248657882213593
0.9392014741897583 0.48391208052635193 0.15733090043067932
0.95847898721694946 0.45629748702049255 0.13295073807239532
0 0.57504665851593018 0.38510999083518982
0.012156946584582329 0.60597360134124756 0.36048737168312073
0.3884720504283905 0.66346091032028198 0.33346542716026306
0.72387373447418213 0.69944560527801514 0.2920590341091156
0.88567954301834106 0.67770648002624512 0.22725284099578857
0.95339077711105347 0.64168208837509155 0.18560217320919037
0.98315763473510742 0.59776681661605835 0.1605881005525589
0.0095570432022213936 0.66710948944091797 0.41761860251426697
0.0021996591240167618 0.70086956024169922 0.40625652670860291
0.28540122509002686 0.75838166475296021 0.39194157719612122
0.66790103912353516 0.80567723512649536 0.35852205753326416
0.86879849433898926 0.81414830684661865 0.3033827543258667
0.95663714408874512 0.78352653980255127 0.2610015869140625
0.99036276340484619 0.73061412572860718 0.21825158596038818
0.020400462672114372 0.71849364042282104 0.4556349515914917
0 0.75254243612289429 0.4472181499004364
0.19101494550704956 0.80511188507080078 0.43973970413208008
0.59313929080963135 0.85090905427932739 0.42780265212059021
0.81082415580749512 0.88187509775161743 0.38585922122001648
0.94604694843292236 0.8815457820892334 0.33694559335708618
0.99087059497833252 0.84332382678985596 0.2869572639465332
0.0017537284875288606 0.74330133199691772 0.46410253643989563
0.00075572892092168331 0.77561557292938232 0.46334779262542725
0.1590837836265564 0.822998046875 0.47289386391639709
0.50207853317260742 0.86473339796066284 0.4702208936214447
0.71462357044219971 0.8934018611907959 0.44089236855506897
0.89333820343017578 0.91428875923156738 0.40246754884719849
0.97051185369491577 0.90362823009490967 0.36963066458702087
0.3537907600402832 0.031931005418300629 0.4641166627407074
0.59486496448516846 0.035877138376235962 0.4415571391582489
0.70002347230911255 0.039197284728288651 0.39562234282493591
0.79108476638793945 0.042809832841157913 0.36397197842597961
0.8440169095993042 0.04447396844625473 0.33154118061065674
0.87698930501937866 0.04626891016960144 0.29305917024612427
0.89109867811203003 0.049334939569234848 0.24844120442867279
0.039985418319702148 0.24017941951751709 0.50102603435516357
0.29019740223884583 0.26832035183906555 0.49398660659790039
0.60009849071502686 0.29077112674713135 0.47267761826515198
0.78517216444015503 0.29493594169616699 0.44047543406486511
0.87367135286331177 0.30384558439254761 0.40353238582611084
0.91974711418151855 0.31139779090881348 0.36948788166046143
0.93484222888946533 0.31635802984237671 0.33788573741912842
0.0027937646955251694 0.46012741327285767 0.55475270748138428
0.14259205758571625 0.49600207805633545 0.54621607065200806
0.53463393449783325 0.54186415672302246 0.53891783952713013
0.78056901693344116 0.55856013298034668 0.51050031185150146
0.89367961883544922 0.55972748994827271 0.49042469263076782
0.95925533771514893 0.55411446094512939 0.46895134449005127
0.98055946826934814 0.54845744371414185 0.45857179164886475
0.00065849156817421317 0.61856549978256226 0.58340668678283691
0.02762388251721859 0.6487918496131897 0.57645010948181152
0.45564413070678711 0.70453828573226929 0.57199311256408691
0.74743825197219849 0.72920966148376465 0.55633234977722168
0.89990717172622681 0.72293061017990112 0.53083783388137817
0.96429574489593506 0.7042694091796875 0.51302295923233032
0.99676775932312012 0.68163758516311646 0.49785175919532776
0.025079526007175446 0.71011590957641602 0.59148877859115601
0.016021041199564934 0.74284040927886963 0.58954763412475586
0.35013487935066223 0.79958808422088623 0.59180855751037598
0.68864798545837402 0.83840161561965942 0.59384071826934814
0.87633818387985229 0.84811139106750488 0.56724858283996582
0.96013092994689941 0.82596123218536377 0.55123317241668701
0.99731266498565674 0.78786438703536987 0.52542591094970703
0.012381939217448235 0.75375580787658691 0.59938973188400269
0.0018684536917135119 0.79149329662322998 0.59871965646743774
0.26581749320030212 0.84885019063949585 0.60541599988937378
0.63562190532684326 0.88872808218002319 0.61928480863571167
0.82859116792678833 0.91249930858612061 0.60208135843276978
0.9448322057723999 0.91490834951400757 0.58425873517990112
0.99473845958709717 0.88518232107162476 0.55878233909606934
0 0.77514612674713135 0.58905231952667236
0.0074526169337332249 0.8127332329750061 0.59458291530609131
0.25963428616523743 0.86643171310424805 0.61555904150009155
0.58766710758209229 0.90400290489196777 0.63359123468399048
0.75628906488418579 0.92555725574493408 0.62341904640197754
0.89648789167404175 0.94502741098403931 0.61027616262435913
0.9717298150062561 0.93887019157409668 0.58933717012405396
0.53950661420822144 0.010451522655785084 0.58740150928497314
0.68102610111236572 0.0062728282064199448 0.57439059019088745
0.77193170785903931 0.020417112857103348 0.54317992925643921
0.81719982624053955 0.023015445098280907 0.52664226293563843
0.86072909832000732 0.031350467354059219 0.50510275363922119
0.88713544607162476 0.042176190763711929 0.46813148260116577
0.90216779708862305 0.047600928694009781 0.41859328746795654
0.15220420062541962 0.22020311653614044 0.63777309656143188
0.40005671977996826 0.25386235117912292 0.64536309242248535
0.65304452180862427 0.26373016834259033 0.63311445713043213
0.80743891000747681 0.26385986804962158 0.60738128423690796
0.88319426774978638 0.28262782096862793 0.57898437976837158
0.92559516429901123 0.30342230200767517 0.53616940975189209
0.94216769933700562 0.32251062989234924 0.49321433901786804
0.011577426455914974 0.46011170744895935 0.69642668962478638
0.26642262935638428 0.50355714559555054 0.70366835594177246
0.60117286443710327 0.54709750413894653 0.69793397188186646
0.80462908744812012 0.56891435384750366 0.67772126197814941
0.90678852796554565 0.57535350322723389 0.65995359420776367
0.96782088279724121 0.58048021793365479 0.6307336688041687
0.98656326532363892 0.58657383918762207 0.61033183336257935
0 0.64020878076553345 0.73086649179458618
0.06341012567281723 0.6745719313621521 0.73569959402084351
0.52171546220779419 0.72430109977722168 0.73046678304672241
0.77508306503295898 0.75066125392913818 0.720947265625
0.90524435043334961 0.75718110799789429 0.70646196603775024
0.97206014394760132 0.75583386421203613 0.69283521175384521
0.99999356269836426 0.74863111972808838 0.68380725383758545
0.011934946291148663 0.74543279409408569 0.73851901292800903
0.024767767637968063 0.78284686803817749 0.73505854606628418
0.42417904734611511 0.83034849166870117 0.7365957498550415
0.74031937122344971 0.85948210954666138 0.74423825740814209
0.88971030712127686 0.86876583099365234 0.73590672016143799
0.96659952402114868 0.8571363091468811 0.71965402364730835
0.99966305494308472 0.84135454893112183 0.7111818790435791
0.000100737925095018 0.78889238834381104 0.73037433624267578
0.0019824458286166191 0.82523149251937866 0.72831565141677856
0.33068841695785522 0.87950098514556885 0.73456275463104248
0.70154452323913574 0.91663193702697754 0.75764721632003784
0.86479061841964722 0.93367969989776611 0.75468939542770386
0.95049518346786499 0.93753677606582642 0.74101549386978149
0.9979826807975769 0.91694337129592896 0.72890275716781616
0 0.80364716053009033 0.70365637540817261
0.00069352693390101194 0.83948254585266113 0.70923125743865967
0.32039913535118103 0.89291483163833618 0.72622048854827881
0.68598282337188721 0.93391591310501099 0.75881707668304443
0.82045799493789673 0.95190978050231934 0.76641571521759033
0.91484051942825317 0.96581053733825684 0.75903230905532837
0.98295080661773682 0.9616207480430603 0.7383231520652771
0.70243257284164429 0.0020740434993058443 0.64476048946380615
0.75112837553024292 5.6367760407738388e-05 0.63914948701858521
0.81283891201019287 0.00018059225112665445 0.62723422050476074
0.85567551851272583 0.0050063938833773136 0.61023777723312378
0.87578785419464111 0.0076776244677603245 0.59996271133422852
0.89605122804641724 0.027434464544057846 0.58841758966445923
0.91401827335357666 0.032517839223146439 0.54530030488967896
0.35173359513282776 0.19242939352989197 0.7088281512260437
0.5209425687789917 0.21481376886367798 0.72326236963272095
0.70772427320480347 0.21812815964221954 0.72143334150314331
0.8256603479385376 0.21036313474178314 0.70668691396713257
0.89591598510742188 0.22597441077232361 0.68555974960327148
0.9348677396774292 0.26025936007499695 0.65713036060333252
0.94851148128509521 0.28705000877380371 0.61586624383926392
0.17315079271793365 0.45542356371879578 0.76636475324630737
0.43841832876205444 0.49933800101280212 0.78016012907028198
0.66513872146606445 0.54548442363739014 0.78669595718383789
0.83665162324905396 0.56376820802688599 0.78144502639770508
0.92244774103164673 0.57100272178649902 0.76115137338638306
0.97577941417694092 0.57991456985473633 0.73393905162811279
0.99050426483154297 0.58582276105880737 0.7048802375793457
0.058127637952566147 0.64295852184295654 0.80774343013763428
0.28036248683929443 0.67986845970153809 0.81788468360900879
0.61101424694061279 0.72809630632400513 0.82129722833633423
0.81586390733718872 0.75785082578659058 0.81933355331420898
0.91804158687591553 0.76741963624954224 0.80888146162033081
0.98061197996139526 0.76799064874649048 0.7934572696685791
1 0.77180039882659912 0.77913767099380493
0.0032779020257294178 0.76962745189666748 0.82317757606506348
0.11182093620300293 0.80604732036590576 0.82859998941421509
0.53217226266860962 0.84828168153762817 0.83527517318725586
0.78201043605804443 0.87056034803390503 0.83602404594421387
0.90966904163360596 0.88250565528869629 0.83519548177719116
0.97234171628952026 0.88204765319824219 0.82591867446899414
0.99930083751678467 0.88088196516036987 0.82045948505401611
0 0.82275491952896118 0.81530237197875977
0.061228178441524506 0.85675704479217529 0.82061475515365601
0.43670019507408142 0.90367227792739868 0.82611018419265747
0.74363571405410767 0.93447005748748779 0.84195888042449951
0.89073914289474487 0.94900619983673096 0.84685593843460083
0.95897245407104492 0.95208883285522461 0.840584397315979
0.99771511554718018 0.93986725807189941 0.83554404973983765
0 0.82865458726882935 0.78775709867477417
0.025942619889974594 0.86502593755722046 0.79357701539993286
0.39107927680015564 0.91307181119918823 0.80270427465438843
0.73224401473999023 0.9517439603805542 0.8318445086479187
0.86520880460739136 0.97027492523193359 0.84986144304275513
0.93738073110580444 0.97754865884780884 0.84962755441665649
0.98918598890304565 0.9739118218421936 0.83627134561538696
0.79828250408172607 0.00069194118259474635 0.6707693338394165
0.8085905909538269 0.0050132451578974724 0.6649092435836792
0.83147680759429932 0.00045794318430125713 0.6530451774597168
0.86308509111404419 0.0027026308234781027 0.64103072881698608
0.87605589628219604 0.0011126649333164096 0.63994991779327393
0.9016876220703125 0.0022511351853609085 0.64646232128143311
0.92539536952972412 0.0025187174323946238 0.621692955493927
0.48635619878768921 0.13275197148323059 0.74986344575881958
0.61178302764892578 0.19175168871879578 0.75833743810653687
0.73681557178497314 0.20402398705482483 0.75641524791717529
0.8316720724105835 0.18398317694664001 0.74657285213470459
0.89693844318389893 0.20230206847190857 0.73460578918457031
0.93619829416275024 0.22922272980213165 0.72264271974563599
0.95572566986083984 0.25398063659667969 0.69519352912902832
0.39377263188362122 0.44674229621887207 0.80786556005477905
0.5540885329246521 0.48017895221710205 0.81930124759674072
0.72033947706222534 0.5291745662689209 0.8274797797203064
0.84737390279769897 0.55316263437271118 0.82566165924072266
0.9272540807723999 0.56077933311462402 0.81272333860397339
0.9801521897315979 0.57241052389144897 0.79720354080200195
0.9965285062789917 0.57800304889678955 0.77395045757293701
0.22464737296104431 0.62553125619888306 0.84625041484832764
0.45701020956039429 0.66859215497970581 0.85420823097229004
0.68266332149505615 0.71395397186279297 0.85906815528869629
0.84474104642868042 0.75106972455978394 0.86261481046676636
0.92774605751037598 0.76419377326965332 0.85786890983581543
0.98860734701156616 0.76856803894042969 0.84842300415039062
1 0.77239823341369629 0.8343767523765564
0.017692806199193001 0.75796306133270264 0.86273115873336792
0.32743182778358459 0.79457026720046997 0.87271201610565186
0.6282230019569397 0.8353390097618103 0.87674993276596069
0.82504755258560181 0.8669770359992981 0.87980180978775024
0.92206466197967529 0.88355475664138794 0.87903916835784912
0.98070597648620605 0.88805586099624634 0.87530827522277832
1 0.89316767454147339 0.86877286434173584
0.00017179601127281785 0.8443145751953125 0.86827373504638672
0.20977774262428284 0.87662172317504883 0.87562555074691772
0.55766081809997559 0.91290497779846191 0.88131028413772583
0.79397308826446533 0.94136142730712891 0.88845306634902954
0.90618181228637695 0.95480108261108398 0.88849711418151855
0.9708712100982666 0.95727807283401489 0.88508856296539307
0.99953585863113403 0.96075284481048584 0.8818289041519165
0.0069267423823475838 0.86526155471801758 0.85300898551940918
0.20257958769798279 0.90266740322113037 0.86140424013137817
0.53210031986236572 0.9410940408706665 0.86927711963653564
0.77849793434143066 0.9688757061958313 0.88263869285583496
0.89290302991867065 0.98058664798736572 0.89141666889190674
0.96055006980895996 0.98288708925247192 0.89144980907440186
0.99758780002593994 0.98254615068435669 0.88524347543716431
0.83034425973892212 0.00068299536360427737 0.67700445652008057
0.82487565279006958 0.00070477655390277505 0.68132257461547852
0.84237247705459595 0 0.67646270990371704
0.86610192060470581 0 0.66940641403198242
0.88712745904922485 0 0.66575473546981812
0.9109572172164917 0 0.66568624973297119
0.9380723237991333 0 0.65737557411193848
0.57084196805953979 0.079467162489891052 0.75844556093215942
0.65685153007507324 0.15185488760471344 0.7754635214805603
0.75158703327178955 0.178042933344841 0.77801394462585449
0.82508975267410278 0.1984902024269104 0.76896917819976807
0.88480585813522339 0.20034772157669067 0.75552272796630859
0.92478519678115845 0.18464820086956024 0.7449880838394165
0.95835220813751221 0.20876722037792206 0.7388077974319458
0.48708024621009827 0.38389235734939575 0.81862515211105347
0.60459715127944946 0.43926510214805603 0.83070558309555054
0.75264173746109009 0.52689039707183838 0.84777194261550903
0.84369921684265137 0.54134601354598999 0.84676444530487061
0.9110863208770752 0.54122108221054077 0.83364558219909668
0.96412563323974609 0.55408096313476562 0.82393020391464233
0.99535393714904785 0.55489397048950195 0.81260639429092407
0.39273849129676819 0.58349144458770752 0.86120444536209106
0.55614650249481201 0.62735646963119507 0.86642426252365112
0.72940456867218018 0.69387567043304443 0.87695950269699097
0.85455119609832764 0.73842883110046387 0.88266730308532715
0.91685289144515991 0.75855064392089844 0.87810087203979492
0.97662031650543213 0.76412791013717651 0.87240225076675415
1 0.7566724419593811 0.86148345470428467
0.20439550280570984 0.72517716884613037 0.88658875226974487
0.46722269058227539 0.75573951005935669 0.88894903659820557
0.68639272451400757 0.79988956451416016 0.8917732834815979
0.84391641616821289 0.84302699565887451 0.89820027351379395
0.92195963859558105 0.87505954504013062 0.8990243673324585
0.977988600730896 0.88693130016326904 0.89526087045669556
0.99999064207077026 0.88486319780349731 0.88810276985168457
0.079669520258903503 0.83007395267486572 0.90234100818634033
0.36201074719429016 0.8568493127822876 0.90611487627029419
0.62915980815887451 0.88671195507049561 0.90505045652389526
0.82332491874694824 0.91715490818023682 0.90886610746383667
0.91777282953262329 0.94412678480148315 0.9080512523651123
0.97514605522155762 0.95748740434646606 0.90334123373031616
0.99946504831314087 0.95768070220947266 0.89933198690414429
0.041885703802108765 0.88747358322143555 0.90275293588638306
0.30484205484390259 0.91800886392593384 0.90888869762420654
0.58599072694778442 0.94452202320098877 0.91089671850204468
0.80264127254486084 0.96552252769470215 0.9126657247543335
0.90648704767227173 0.97686958312988281 0.91278189420700073
0.97041523456573486 0.98085856437683105 0.90903598070144653
0.99960774183273315 0.98189973831176758 0.90433806180953979
