assets/lut/inavision jwick 21.cube
# Created by: G'MIC (https://gmic.eu)
TITLE "jwick_21"
# LUT size
LUT_3D_SIZE 5
# Data domain
DOMAIN_MIN 0.0 0.0 0.0
DOMAIN_MAX 1.0 1.0 1.0
# LUT data points
0.003392387880012393 0.0083757741376757622 0.037608113139867783
0.077683329582214355 0.011959330178797245 0.040928993374109268
0.25405210256576538 0.018495507538318634 0.048854153603315353
0.49655190110206604 0.015020213089883327 0.043305043131113052
0.79065561294555664 0.016100266948342323 0.046294853091239929
0.0063132792711257935 0.16528835892677307 0.045216578990221024
0.087661877274513245 0.17009766399860382 0.034426327794790268
0.25181105732917786 0.20879645645618439 0.044499970972537994
0.49520263075828552 0.24525545537471771 0.038661222904920578
0.79139971733093262 0.27340057492256165 0.040304087102413177
0.0093407575041055679 0.38533470034599304 0.051200434565544128
0.11594028770923615 0.3848186731338501 0.036524813622236252
0.25313571095466614 0.3849828839302063 0.040984660387039185
0.49488866329193115 0.44371545314788818 0.043888241052627563
0.7902064323425293 0.49062469601631165 0.027463247999548912
0.0095109231770038605 0.69348704814910889 0.053544618189334869
0.15195764601230621 0.68500912189483643 0.0036163181066513062
0.33508941531181335 0.68689173460006714 0.022678360342979431
0.54058897495269775 0.69182980060577393 0.042413689196109772
0.78988027572631836 0.7113458514213562 0.031399205327033997
0.0097493492066860199 0.95343136787414551 0.055466983467340469
0.15860307216644287 0.95340621471405029 0.00089578068582341075
0.36771491169929504 0.96311575174331665 0.0012839821865782142
0.58751672506332397 0.96098834276199341 0.021572621539235115
0.81434434652328491 0.95380580425262451 0.046526066958904266
0.0079210018739104271 0.018224259838461876 0.23736898601055145
0.087369196116924286 0.0067513859830796719 0.24080333113670349
0.25525340437889099 0.0079455655068159103 0.29715529084205627
0.4939214289188385 0.0077205882407724857 0.34672695398330688
0.79083436727523804 0.0077398410066962242 0.37934008240699768
0.0021553938277065754 0.18196137249469757 0.26144945621490479
0.083533480763435364 0.16931216418743134 0.23869678378105164
0.25285071134567261 0.16823187470436096 0.23754920065402985
0.49509924650192261 0.16974411904811859 0.24405136704444885
0.79244798421859741 0.17124120891094208 0.24110992252826691
0.0026062012184411287 0.38973012566566467 0.30687764286994934
0.090345032513141632 0.39339825510978699 0.24789036810398102
0.25183984637260437 0.38409775495529175 0.23513960838317871
0.49484068155288696 0.43270578980445862 0.24265784025192261
0.79293447732925415 0.46670028567314148 0.2330583930015564
0 0.69340837001800537 0.36666795611381531
0.1073383241891861 0.69674313068389893 0.27241331338882446
0.29913923144340515 0.6865084171295166 0.22687023878097534
0.53577929735183716 0.69419026374816895 0.2320961207151413
0.79526066780090332 0.71987611055374146 0.24580509960651398
0 0.95697057247161865 0.39112997055053711
0.10586651414632797 0.95644134283065796 0.26565408706665039
0.32243359088897705 0.96735274791717529 0.2172328382730484
0.56480425596237183 0.96746748685836792 0.22563478350639343
0.80850338935852051 0.96479040384292603 0.24741120636463165
0.01163584366440773 0.029681246727705002 0.49927440285682678
0.11218205094337463 0.0030518625862896442 0.4936787486076355
0.26258501410484314 0.0068627451546490192 0.50056511163711548
0.47661712765693665 0.011890919879078865 0.5458875298500061
0.77207028865814209 0.014323635026812553 0.60735654830932617
3.2312730127159739e-06 0.21514306962490082 0.50020802021026611
0.078653506934642792 0.17277580499649048 0.50215035676956177
0.2524324357509613 0.16585028171539307 0.49296379089355469
0.48262426257133484 0.16328011453151703 0.53135460615158081
0.78332531452178955 0.16947394609451294 0.58566445112228394
0.0035001717042177916 0.3887973427772522 0.50187307596206665
0.082515835762023926 0.39543938636779785 0.50999176502227783
0.25205281376838684 0.39035886526107788 0.50598990917205811
0.49352285265922546 0.40351027250289917 0.50235533714294434
0.79176729917526245 0.40911650657653809 0.50476539134979248
0.0071058087050914764 0.68745183944702148 0.59377729892730713
0.086562603712081909 0.68989580869674683 0.57877928018569946
0.26264128088951111 0.69404405355453491 0.5192452073097229
0.50293487310409546 0.69075304269790649 0.49371185898780823
0.78979051113128662 0.70089387893676758 0.49305650591850281
0 0.96286505460739136 0.65822911262512207
0.091343000531196594 0.96411031484603882 0.61016523838043213
0.27903011441230774 0.96681118011474609 0.5423852801322937
0.52415245771408081 0.96614128351211548 0.5037047266960144
0.79496771097183228 0.96375411748886108 0.49305689334869385
0.0081630777567625046 0.032968722283840179 0.76664018630981445
0.13084729015827179 0 0.7842363715171814
0.31562280654907227 0.0031797820702195168 0.79265320301055908
0.51748216152191162 0.021204510703682899 0.79349744319915771
0.77663540840148926 0.024076394736766815 0.81379157304763794
0 0.26082345843315125 0.79764282703399658
0.090892165899276733 0.18283075094223022 0.80834394693374634
0.29455718398094177 0.16776707768440247 0.79984098672866821
0.52574276924133301 0.17937289178371429 0.80969595909118652
0.78916424512863159 0.18132700026035309 0.83314907550811768
0.0033078212291002274 0.45502308011054993 0.79931962490081787
0.085303723812103271 0.44643047451972961 0.79624432325363159
0.25315847992897034 0.41292670369148254 0.80992573499679565
0.50360578298568726 0.38298168778419495 0.80542278289794922
0.79453939199447632 0.39075705409049988 0.81069779396057129
0.0061430837959051132 0.70293992757797241 0.83397871255874634
0.093762747943401337 0.69916188716888428 0.8312675952911377
0.2554205060005188 0.69622302055358887 0.82096117734909058
0.4965088963508606 0.68839496374130249 0.80025088787078857
0.79301220178604126 0.69009178876876831 0.80360466241836548
0.0040488298982381821 0.9600716233253479 0.88100266456604004
0.098202258348464966 0.95605289936065674 0.86925756931304932
0.26048031449317932 0.95609205961227417 0.83898431062698364
0.50193536281585693 0.95826834440231323 0.81386864185333252
0.78839302062988281 0.95767462253570557 0.81077027320861816
0.0091474493965506554 0.024879366159439087 0.98187792301177979
0.15089796483516693 1.4002182979311328e-05 0.99514573812484741
0.36737886071205139 0.0010831945110112429 1
0.57776910066604614 0.014731373637914658 0.99681460857391357
0.80267333984375 0.020934265106916428 0.98380368947982788
0 0.27223911881446838 0.99537485837936401
0.091328896582126617 0.19532415270805359 0.9913983941078186
0.32909935712814331 0.17151983082294464 0.99090707302093506
0.5628056526184082 0.17745205760002136 0.99626970291137695
0.80196493864059448 0.17728173732757568 0.98983818292617798
0 0.50149601697921753 0.99938374757766724
0.079128831624984741 0.48347541689872742 0.99570357799530029
0.24765972793102264 0.41339582204818726 0.98896199464797974
0.50676542520523071 0.38456785678863525 0.99439877271652222
0.79154080152511597 0.38275620341300964 0.98588764667510986
0.0029608933255076408 0.72679555416107178 0.99952787160873413
0.09481685608625412 0.72454541921615601 1
0.25588828325271606 0.70922935009002686 0.99807274341583252
0.49540442228317261 0.68679594993591309 0.99709701538085938
0.78808295726776123 0.68829041719436646 0.99892497062683105
0.010099777951836586 0.95354807376861572 0.998421311378479
0.10668385773897171 0.95735293626785278 1
0.25621059536933899 0.96127450466156006 0.99864840507507324
0.49619224667549133 0.95364624261856079 0.99864554405212402
0.78839743137359619 0.95689010620117188 0.99392426013946533
