assets/lut/inavision bc darkum.cube
# Created by: G'MIC (https://gmic.eu)
TITLE "bc_darkum"
# LUT size
LUT_3D_SIZE 7
# Data domain
DOMAIN_MIN 0.0 0.0 0.0
DOMAIN_MAX 1.0 1.0 1.0
# LUT data points
0.073011986911296844 0.033563457429409027 0.0063376929610967636
0.12404903024435043 0.038500543683767319 0.0054880478419363499
0.22743277251720428 0.04204108938574791 0.004141833633184433
0.36225098371505737 0.047666989266872406 0.0038864584639668465
0.49491855502128601 0.044208046048879623 0
0.59661370515823364 0.027206599712371826 0
0.68697375059127808 0.014979119412600994 0
0.025796912610530853 0.096132256090641022 0.014116803184151649
0.06983242928981781 0.096658430993556976 0.008892732672393322
0.1517123281955719 0.10875598341226578 0.0053886710666120052
0.28672432899475098 0.11914172023534775 0.0045181126333773136
0.44198501110076904 0.12265255302190781 0
0.56141668558120728 0.10942798852920532 0
0.66222268342971802 0.099898934364318848 0
0.014780411496758461 0.17571483552455902 0.026096103712916374
0.043287854641675949 0.1808256059885025 0.01652182824909687
0.11247693002223969 0.19308219850063324 0.01158441323786974
0.23410031199455261 0.20749571919441223 0.00582860317081213
0.39676925539970398 0.21693024039268494 0
0.5368688702583313 0.21448886394500732 2.8393315005814657e-05
0.65543806552886963 0.20913344621658325 0
0.013826318085193634 0.26980787515640259 0.042947206646203995
0.033985480666160583 0.27585017681121826 0.029111256822943687
0.088264718651771545 0.2898593544960022 0.018845262005925179
0.19116304814815521 0.31392678618431091 0.0071689831092953682
0.35496258735656738 0.32986092567443848 0.0018182642525061965
0.5201910138130188 0.32698649168014526 3.2671759981894866e-05
0.64866417646408081 0.32403019070625305 0
0.015418288297951221 0.36304715275764465 0.058097314089536667
0.023546600714325905 0.36814546585083008 0.041630133986473083
0.061736911535263062 0.38142049312591553 0.022039929404854774
0.16372589766979218 0.40304291248321533 0.010385251604020596
0.32544592022895813 0.42837512493133545 0.0047522000968456268
0.49942556023597717 0.43430033326148987 0
0.63603246212005615 0.43296694755554199 0
0.012774568051099777 0.44027122855186462 0.08709978312253952
0.01020762138068676 0.44519659876823425 0.066488556563854218
0.031029824167490005 0.45819318294525146 0.038322076201438904
0.12671799957752228 0.4774269163608551 0.013371291570365429
0.29673483967781067 0.50488853454589844 0.0012921352172270417
0.47107285261154175 0.52627456188201904 0
0.61629617214202881 0.52551603317260742 0
0.0072544622235000134 0.5054619312286377 0.13293619453907013
0.00074973015580326319 0.51086825132369995 0.10986623167991638
0.012209215201437473 0.52223652601242065 0.081605888903141022
0.093922406435012817 0.53859966993331909 0.050832293927669525
0.25833031535148621 0.56630551815032959 0.020345291122794151
0.43882161378860474 0.59352511167526245 0.0035024904645979404
0.59442043304443359 0.60403537750244141 0.0062247482128441334
0.086976088583469391 0.036825336515903473 0.036782238632440567
0.16353099048137665 0.039286114275455475 0.024153705686330795
0.26645705103874207 0.043912671506404877 0.021123385056853294
0.39456355571746826 0.047348503023386002 0.018900882452726364
0.51767760515213013 0.038933247327804565 0.010206753388047218
0.60823988914489746 0.020248172804713249 0.0012047861237078905
0.6828119158744812 0.0086787352338433266 0
0.018822239711880684 0.1026705875992775 0.08249606192111969
0.073208466172218323 0.10070184618234634 0.051871161907911301
0.17369852960109711 0.10790913552045822 0.031886156648397446
0.31739115715026855 0.11984484642744064 0.022051658481359482
0.46843495965003967 0.11612783372402191 0.011113155633211136
0.57840621471405029 0.099298633635044098 0.0044204560108482838
0.66448986530303955 0.088703781366348267 0.0038923823740333319
0.011766142211854458 0.18184114992618561 0.11183972656726837
0.030213240534067154 0.18822333216667175 0.085341207683086395
0.10621150583028793 0.19998177886009216 0.059107087552547455
0.25152623653411865 0.21227583289146423 0.037623729556798935
0.42836287617683411 0.21093471348285675 0.017396021634340286
0.55908089876174927 0.20607703924179077 0.0066707986406981945
0.67040187120437622 0.19989684224128723 0.0037600647192448378
0.013505150564014912 0.27971550822257996 0.14501947164535522
0.019625270739197731 0.28674221038818359 0.11379129439592361
0.068430975079536438 0.29883822798728943 0.076528467237949371
0.18849444389343262 0.31992465257644653 0.049299336969852448
0.37612676620483398 0.32711637020111084 0.025604533031582832
0.53806561231613159 0.32337456941604614 0.01026891078799963
0.6676977276802063 0.31931650638580322 0.0016245524166151881
0.019143408164381981 0.37464672327041626 0.17117469012737274
0.015655128285288811 0.37995287775993347 0.14310452342033386
0.039918366819620132 0.39103415608406067 0.10510890930891037
0.14915391802787781 0.41251552104949951 0.067429065704345703
0.3328399658203125 0.43134590983390808 0.041851688176393509
0.51192152500152588 0.43598368763923645 0.015689954161643982
0.65075713396072388 0.43245291709899902 0.0022032943088561296
0.020883761346340179 0.44943001866340637 0.20068849623203278
0.0060037351213395596 0.45467087626457214 0.17582006752490997
0.0063354643061757088 0.46860566735267639 0.13804449141025543
0.096778690814971924 0.48929569125175476 0.094516783952713013
0.29294079542160034 0.5145261287689209 0.048362806439399719
0.48252090811729431 0.52878421545028687 0.017475562170147896
0.62984412908554077 0.52730429172515869 0.015258235856890678
0.017626309767365456 0.51221168041229248 0.241729736328125
0.00042543598101474345 0.51878148317337036 0.2180698961019516
0 0.53229296207427979 0.18697836995124817
0.048838462680578232 0.5507703423500061 0.15013131499290466
0.24136316776275635 0.57987010478973389 0.087715804576873779
0.44723257422447205 0.60208618640899658 0.04290415346622467
0.60585170984268188 0.61197769641876221 0.050548732280731201
0.11905858665704727 0.035618007183074951 0.1340627521276474
0.22248946130275726 0.03712710365653038 0.10954014211893082
0.31993070244789124 0.048342715948820114 0.095124050974845886
0.43511393666267395 0.04999980702996254 0.079638957977294922
0.54576820135116577 0.041632425040006638 0.063037097454071045
0.63002657890319824 0.026231309399008751 0.044832941144704819
0.69641244411468506 0.017954567447304726 0.028622705489397049
0.020471205934882164 0.10795633494853973 0.21666555106639862
0.098273769021034241 0.10285569727420807 0.15314272046089172
0.2045009434223175 0.11118024587631226 0.11360678821802139
0.35351911187171936 0.12454726547002792 0.094313636422157288
0.49390473961830139 0.12550762295722961 0.078169912099838257
0.60388386249542236 0.11635570228099823 0.060170732438564301
0.68607306480407715 0.098173670470714569 0.051585447043180466
0.011177975684404373 0.19072148203849792 0.2465084046125412
0.023930883035063744 0.1985066682100296 0.23340973258018494
0.12727898359298706 0.2041894942522049 0.18556426465511322
0.29289641976356506 0.21573072671890259 0.13628947734832764
0.45582228899002075 0.21966686844825745 0.10368427634239197
0.57967936992645264 0.21794013679027557 0.079621471464633942
0.68888068199157715 0.21177117526531219 0.07162824273109436
0.015634125098586082 0.29169872403144836 0.28591644763946533
0.011788043193519115 0.29813584685325623 0.26038232445716858
0.051358092576265335 0.30992329120635986 0.23651117086410522
0.1962818056344986 0.33048281073570251 0.20491179823875427
0.40811672806739807 0.33188393712043762 0.14590872824192047
0.56287276744842529 0.3293096125125885 0.10670071840286255
0.68749797344207764 0.32788500189781189 0.082587160170078278
0.022397642955183983 0.38949140906333923 0.31273433566093445
0.015376909635961056 0.39401453733444214 0.2891329824924469
0.025667976588010788 0.40375754237174988 0.25918644666671753
0.13377322256565094 0.42535686492919922 0.22899845242500305
0.34222897887229919 0.44634005427360535 0.18557794392108917
0.53064239025115967 0.44827660918235779 0.13418281078338623
0.67080473899841309 0.44418159127235413 0.086938045918941498
0.025367198511958122 0.46457579731941223 0.33344140648841858
0.012191652320325375 0.47007429599761963 0.31511780619621277
0.0037178038619458675 0.48308166861534119 0.28678655624389648
0.078011214733123779 0.50260204076766968 0.26047390699386597
0.27774891257286072 0.53136694431304932 0.21050383150577545
0.48901259899139404 0.54624861478805542 0.15701004862785339
0.64728045463562012 0.54485982656478882 0.12675957381725311
0.019296683371067047 0.52932780981063843 0.36037489771842957
0.0028973747976124287 0.53570377826690674 0.34274125099182129
0 0.54916191101074219 0.31815400719642639
0.039623171091079712 0.56938189268112183 0.29401946067810059
0.21743442118167877 0.59901517629623413 0.25548520684242249
0.4396304190158844 0.62072539329528809 0.19600136578083038
0.61437767744064331 0.62876790761947632 0.17552497982978821
0.17497584223747253 0.031590897589921951 0.24899272620677948
0.29632472991943359 0.036230139434337616 0.23907093703746796
0.39744135737419128 0.043056145310401917 0.21433493494987488
0.48477423191070557 0.043653629720211029 0.18231727182865143
0.57448935508728027 0.033948950469493866 0.15890476107597351
0.65587186813354492 0.01580415666103363 0.14176608622074127
0.7168394923210144 0.0099869817495346069 0.12432245165109634
0.034910537302494049 0.10499816387891769 0.33307114243507385
0.11351418495178223 0.10898327082395554 0.29239386320114136
0.24224779009819031 0.1151750311255455 0.23842228949069977
0.39050295948982239 0.12446018308401108 0.21915964782238007
0.52117180824279785 0.12095019966363907 0.19006949663162231
0.62694078683853149 0.10763385146856308 0.16764412820339203
0.70767593383789062 0.092378146946430206 0.15302182734012604
0.001865446800366044 0.19759570062160492 0.38707450032234192
0.031810477375984192 0.20215128362178802 0.37944188714027405
0.14314104616641998 0.21130332350730896 0.33481860160827637
0.33989584445953369 0.21824795007705688 0.25018933415412903
0.48867717385292053 0.23076273500919342 0.23048460483551025
0.60302197933197021 0.23364883661270142 0.21289084851741791
0.70653527975082397 0.2291693389415741 0.19549213349819183
0.0094490498304367065 0.30149656534194946 0.41580599546432495
0.016362402588129044 0.30259993672370911 0.39969906210899353
0.051070794463157654 0.32047879695892334 0.39558011293411255
0.23205448687076569 0.33825373649597168 0.35721534490585327
0.45424690842628479 0.3450435996055603 0.28484159708023071
0.58822506666183472 0.35042616724967957 0.25558018684387207
0.70531922578811646 0.35382196307182312 0.2344902902841568
0.02052796259522438 0.40163570642471313 0.44078582525253296
0.017953954637050629 0.40709394216537476 0.42648983001708984
0.024857958778738976 0.42107674479484558 0.40924692153930664
0.13220688700675964 0.4424959123134613 0.39791712164878845
0.35974767804145813 0.46348395943641663 0.37290948629379272
0.55256420373916626 0.46578404307365417 0.3102070689201355
0.69365459680557251 0.46213275194168091 0.25832012295722961
0.024400031194090843 0.4814450740814209 0.45785307884216309
0.021198602393269539 0.49023652076721191 0.44530102610588074
0.012810755521059036 0.50253796577453613 0.42562234401702881
0.074555881321430206 0.51854497194290161 0.40428149700164795
0.2830645740032196 0.54685992002487183 0.3912937343120575
0.5007326602935791 0.56441724300384521 0.36211836338043213
0.66366541385650635 0.56392580270767212 0.30440831184387207
0.017005771398544312 0.54948407411575317 0.47849246859550476
0.012380652129650116 0.55692851543426514 0.46614620089530945
0.0027392818592488766 0.56848335266113281 0.44572100043296814
0.037723496556282043 0.58561962842941284 0.42309492826461792
0.21047745645046234 0.61564528942108154 0.41336661577224731
0.44533362984657288 0.6405377984046936 0.38570913672447205
0.62448644638061523 0.64750111103057861 0.34917297959327698
0.25490975379943848 0.024797417223453522 0.3652554452419281
0.35564437508583069 0.024268206208944321 0.34617561101913452
0.46693432331085205 0.028720840811729431 0.32512500882148743
0.54525446891784668 0.029839100316166878 0.29582878947257996
0.60898107290267944 0.020468812435865402 0.27085211873054504
0.67726171016693115 0.009091709740459919 0.25392130017280579
0.73565387725830078 0.0088786110281944275 0.2430109828710556
0.072693124413490295 0.092453539371490479 0.41614708304405212
0.14702524244785309 0.097076490521430969 0.38420543074607849
0.28800198435783386 0.10684286057949066 0.35495510697364807
0.43678468465805054 0.11329269409179688 0.33848956227302551
0.5517880916595459 0.10587533563375473 0.30834919214248657
0.6467132568359375 0.097573056817054749 0.28193822503089905
0.72249257564544678 0.091690808534622192 0.26692298054695129
0.0047702863812446594 0.19250659644603729 0.49379366636276245
0.053065206855535507 0.19922716915607452 0.49470692873001099
0.18961718678474426 0.21015119552612305 0.44370421767234802
0.37966093420982361 0.22196035087108612 0.36557415127754211
0.51423197984695435 0.23155929148197174 0.35240131616592407
0.62622570991516113 0.23306331038475037 0.32730796933174133
0.72351634502410889 0.23002594709396362 0.31076875329017639
0.0032688064966350794 0.29847818613052368 0.52440732717514038
0.020623883232474327 0.30339601635932922 0.52167260646820068
0.082116939127445221 0.32112923264503479 0.52768319845199585
0.283730149269104 0.34037423133850098 0.46456959843635559
0.49286374449729919 0.34973916411399841 0.37861275672912598
0.6098175048828125 0.36208364367485046 0.37046864628791809
0.72344034910202026 0.36667463183403015 0.35854095220565796
0.016361355781555176 0.39897993206977844 0.54884427785873413
0.016752429306507111 0.40578985214233398 0.54153847694396973
0.030807599425315857 0.42302539944648743 0.53728067874908447
0.15577186644077301 0.45150768756866455 0.54144513607025146
0.40589910745620728 0.47097530961036682 0.48841726779937744
0.58012950420379639 0.47981071472167969 0.42788487672805786
0.71475410461425781 0.48306891322135925 0.39120131731033325
0.024105759337544441 0.48807066679000854 0.5671958327293396
0.023009775206446648 0.49776345491409302 0.56198203563690186
0.016549069434404373 0.51144862174987793 0.55267167091369629
0.091137781739234924 0.5338892936706543 0.54367274045944214
0.3087121844291687 0.56250232458114624 0.54194539785385132
0.51521211862564087 0.57603102922439575 0.51742994785308838
0.68075275421142578 0.58015251159667969 0.45264479517936707
0.018046330660581589 0.5629429817199707 0.58960288763046265
0.019137827679514885 0.57266807556152344 0.582000732421875
0.016994761303067207 0.58363962173461914 0.57062411308288574
0.058031193912029266 0.60364747047424316 0.55145740509033203
0.24079731106758118 0.63605278730392456 0.54443943500518799
0.46775451302528381 0.65708243846893311 0.53438776731491089
0.63882869482040405 0.66329604387283325 0.50791662931442261
0.33780965209007263 0.005802573636174202 0.43481600284576416
0.43844693899154663 0.011364237405359745 0.43053612112998962
0.53100192546844482 0.010915524326264858 0.41424980759620667
0.60318136215209961 0.012018331326544285 0.39484444260597229
0.65970867872238159 0.0080343205481767654 0.37264257669448853
0.71252387762069702 0.0011390087893232703 0.3525366485118866
0.76706063747406006 4.4878790504299104e-05 0.33927008509635925
0.14112509787082672 0.081013530492782593 0.48623284697532654
0.2292703241109848 0.087646797299385071 0.46135833859443665
0.36071321368217468 0.087773405015468597 0.44211313128471375
0.48674154281616211 0.082308992743492126 0.43366929888725281
0.59036481380462646 0.082170359790325165 0.4134344756603241
0.67123818397521973 0.076228000223636627 0.38360074162483215
0.73365539312362671 0.064818426966667175 0.36816045641899109
0.037808332592248917 0.18776103854179382 0.57861626148223877
0.10333361476659775 0.19552630186080933 0.56402409076690674
0.24841056764125824 0.20533494651317596 0.52278560400009155
0.42370480298995972 0.21316835284233093 0.46457630395889282
0.54613584280014038 0.21634818613529205 0.45373418927192688
0.64962422847747803 0.2154080718755722 0.42748361825942993
0.73459219932556152 0.2083599865436554 0.41143873333930969
0.003808698384091258 0.29533395171165466 0.61293119192123413
0.028200156986713409 0.30305290222167969 0.61442369222640991
0.13058435916900635 0.3232160210609436 0.61302381753921509
0.34339892864227295 0.34476944804191589 0.54817330837249756
0.51927340030670166 0.35066071152687073 0.48716762661933899
0.63148373365402222 0.36009463667869568 0.47610747814178467
0.74094247817993164 0.36286243796348572 0.46303480863571167
0.0095181930810213089 0.3996049165725708 0.62818062305450439
0.0070146596990525723 0.40467670559883118 0.62327271699905396
0.04247882217168808 0.423688143491745 0.63015031814575195
0.20795942842960358 0.45619243383407593 0.64888173341751099
0.46784824132919312 0.47410693764686584 0.55317312479019165
0.61125761270523071 0.48335045576095581 0.51457452774047852
0.73489999771118164 0.49034428596496582 0.50125735998153687
0.01940072700381279 0.4940277636051178 0.64793640375137329
0.019974637776613235 0.50086843967437744 0.6473349928855896
0.018063534051179886 0.51488524675369263 0.64207905530929565
0.11921378970146179 0.54262036085128784 0.6546514630317688
0.36097231507301331 0.57054764032363892 0.64279294013977051
0.56522923707962036 0.58085435628890991 0.57713884115219116
0.70965194702148438 0.59192371368408203 0.54296451807022095
0.0152856120839715 0.57779037952423096 0.67301219701766968
0.015833057463169098 0.5876157283782959 0.66794490814208984
0.016340875998139381 0.59862130880355835 0.66199153661727905
0.082517914474010468 0.62108355760574341 0.65769451856613159
0.27839642763137817 0.65170896053314209 0.6596488356590271
0.48311308026313782 0.6694226861000061 0.65588736534118652
0.66053205728530884 0.67814838886260986 0.62913578748703003
0.44692742824554443 0.0053982003591954708 0.50935101509094238
0.5247686505317688 0.0035633163060992956 0.50742870569229126
0.59156966209411621 4.5955883251735941e-05 0.49258691072463989
0.66062909364700317 0.00051028683083131909 0.47141885757446289
0.72235625982284546 0.00066942698322236538 0.45167165994644165
0.76635205745697021 0 0.43619623780250549
0.81579720973968506 0 0.42417258024215698
0.24549408257007599 0.08010023832321167 0.55875331163406372
0.32550874352455139 0.074896745383739471 0.54172652959823608
0.43058747053146362 0.059728451073169708 0.5152052640914917
0.53839653730392456 0.046589482575654984 0.50407165288925171
0.63660788536071777 0.049105055630207062 0.491647869348526
0.70752191543579102 0.046462502330541611 0.46832424402236938
0.75699460506439209 0.024779720231890678 0.45548567175865173
0.1068890169262886 0.18500745296478271 0.64209187030792236
0.18086004257202148 0.18770295381546021 0.62283623218536377
0.32789039611816406 0.19390243291854858 0.56503522396087646
0.46784290671348572 0.19611328840255737 0.53398734331130981
0.58057701587677002 0.19394923746585846 0.531108558177948
0.68156009912490845 0.19527776539325714 0.51062512397766113
0.75601285696029663 0.18243470788002014 0.4966147243976593
0.035486482083797455 0.29557883739471436 0.68835604190826416
0.077800318598747253 0.30469101667404175 0.69371324777603149
0.21333125233650208 0.32751134037971497 0.6865009069442749
0.41984397172927856 0.34169304370880127 0.59149539470672607
0.54736852645874023 0.34577298164367676 0.56697630882263184
0.66025394201278687 0.35626733303070068 0.55805677175521851
0.76433449983596802 0.35369890928268433 0.5428917407989502
0.02361501008272171 0.40377581119537354 0.70211011171340942
0.026541108265519142 0.41032695770263672 0.7036859393119812
0.10388728231191635 0.43159303069114685 0.71285545825958252
0.29779386520385742 0.45950421690940857 0.70442157983779907
0.50101667642593384 0.4751427173614502 0.64055782556533813
0.63829940557479858 0.48222166299819946 0.59039425849914551
0.75764626264572144 0.4870854914188385 0.57739162445068359
0.022910414263606071 0.49860846996307373 0.72413122653961182
0.023484697565436363 0.50541722774505615 0.72177410125732422
0.05398477241396904 0.52282673120498657 0.7212790846824646
0.18369121849536896 0.55157667398452759 0.73539584875106812
0.39675119519233704 0.57821035385131836 0.74357908964157104
0.59466648101806641 0.58553838729858398 0.650035560131073
0.74196916818618774 0.59480470418930054 0.59820634126663208
0.019794538617134094 0.58659225702285767 0.75335144996643066
0.019940409809350967 0.59560781717300415 0.74872404336929321
0.036715023219585419 0.61029565334320068 0.74442368745803833
0.12006545811891556 0.63340139389038086 0.7455330491065979
0.31888875365257263 0.66181445121765137 0.75156247615814209
0.52309751510620117 0.67606019973754883 0.72520595788955688
0.68839830160140991 0.68442988395690918 0.68841278553009033
