assets/lut/inavision london nights.cube
# Created by: G'MIC (https://gmic.eu)
TITLE "london_nights"
# LUT size
LUT_3D_SIZE 7
# Data domain
DOMAIN_MIN 0.0 0.0 0.0
DOMAIN_MAX 1.0 1.0 1.0
# LUT data points
0.0033511891961097717 0.0011133679654449224 0.0042045442387461662
0.17757701873779297 0.0010075587779283524 0.016002325341105461
0.43992727994918823 0.0014874327462166548 0.026240942999720573
0.60757553577423096 0.00046944711357355118 0.022218577563762665
0.67182117700576782 4.2978921555913985e-05 0.028681647032499313
0.719929039478302 0.00098205264657735825 0.047720532864332199
0.74456506967544556 0 0.060477595776319504
0 0.058417122811079025 0.0006469577201642096
0.055917464196681976 0.081227980554103851 0.0069754654541611671
0.32601425051689148 0.118247389793396 0.0034919141326099634
0.59117883443832397 0.12792873382568359 0.013426014222204685
0.73476231098175049 0.10897720605134964 0.0078393528237938881
0.81471079587936401 0.11451146751642227 0.032173231244087219
0.84949743747711182 0.083944015204906464 0.033581767231225967
0.0016285316087305546 0.18351045250892639 0.0045674042776226997
0.018856437876820564 0.21464696526527405 0.0049491431564092636
0.27814960479736328 0.28684160113334656 0.0021034539677202702
0.58090060949325562 0.3402557373046875 0.0021709217689931393
0.76782059669494629 0.35679411888122559 0.00022618910588789731
0.86859959363937378 0.35284286737442017 0.0049337050877511501
0.91788917779922485 0.32222270965576172 0.0075459051877260208
0.0016678156098350883 0.28993654251098633 0.00083205278497189283
0.00052974926074966788 0.33028340339660645 0.00082241883501410484
0.15191513299942017 0.42520236968994141 0.00024295882030855864
0.53473871946334839 0.50514143705368042 0
0.76191014051437378 0.54389828443527222 0
0.88929641246795654 0.54844802618026733 0
0.95550155639648438 0.5222894549369812 1.4002182979311328e-05
0.0016053143190219998 0.36929813027381897 0
0.0016238942043855786 0.41769859194755554 0
0.064125150442123413 0.52018183469772339 0
0.46448150277137756 0.62364083528518677 0
0.7358662486076355 0.68646001815795898 0
0.88821017742156982 0.70311820507049561 0
0.97367256879806519 0.6853489875793457 0
0.0020462186075747013 0.42306539416313171 0.0031710905022919178
8.9458389993524179e-06 0.46862465143203735 0.0067395679652690887
0.021767411381006241 0.57988250255584717 0
0.3465883731842041 0.6900482177734375 0.00025923486100509763
0.68008506298065186 0.76963925361633301 0
0.86247754096984863 0.80641871690750122 0
0.97150874137878418 0.80889898538589478 0
0 0.45938163995742798 0
0 0.50733917951583862 0.0019068100955337286
0.0064400020055472851 0.61467182636260986 0
0.17745755612850189 0.72902524471282959 0
0.57608228921890259 0.81828427314758301 0
0.80107319355010986 0.87739503383636475 0
0.94244468212127686 0.90877187252044678 0
0.022115999832749367 0 0.10110313445329666
0.2262922078371048 0.00010340073640691116 0.18035829067230225
0.50629234313964844 0.00083453609840944409 0.22432409226894379
0.6436455249786377 3.6950204957975075e-05 0.24432845413684845
0.71215444803237915 1.5557981896563433e-05 0.26604655385017395
0.74713194370269775 0.0006809459300711751 0.27205398678779602
0.76209825277328491 0.00073818134842440486 0.27140963077545166
0.00092492194380611181 0.066313184797763824 0.046021629124879837
0.073438204824924469 0.10190837830305099 0.10512559115886688
0.38292044401168823 0.12829351425170898 0.15222236514091492
0.6405147910118103 0.12662220001220703 0.19191105663776398
0.77639400959014893 0.11144746094942093 0.21617487072944641
0.84936273097991943 0.12224403768777847 0.25289750099182129
0.88725215196609497 0.10775914043188095 0.27200043201446533
0.00021606146765407175 0.1969219297170639 0.041009042412042618
0.0073125949129462242 0.24577035009860992 0.086516782641410828
0.30064007639884949 0.31676647067070007 0.12796026468276978
0.62019115686416626 0.36631825566291809 0.16194507479667664
0.80108129978179932 0.37884119153022766 0.18832558393478394
0.89992541074752808 0.37667214870452881 0.22256481647491455
0.9471430778503418 0.35585516691207886 0.24993462860584259
0.012163693085312843 0.3059486448764801 0.03557625412940979
0 0.36600583791732788 0.067888148128986359
0.14263926446437836 0.45985466241836548 0.092437058687210083
0.56681185960769653 0.54272496700286865 0.12278051674365997
0.7947697639465332 0.57451736927032471 0.14413265883922577
0.91494888067245483 0.5790029764175415 0.17488221824169159
0.97834551334381104 0.55582982301712036 0.20904240012168884
0.0066065620630979538 0.38539943099021912 0.019085602834820747
4.9097398004960269e-05 0.45566186308860779 0.046149745583534241
0.039246518164873123 0.55991214513778687 0.067152611911296844
0.47758108377456665 0.65901786088943481 0.092959113419055939
0.75788718461990356 0.72056382894515991 0.1291062980890274
0.90572774410247803 0.73887461423873901 0.14112824201583862
0.98944061994552612 0.71603614091873169 0.16968119144439697
0 0.44418054819107056 0.014961901120841503
0 0.51182198524475098 0.063086777925491333
0.0052119237370789051 0.62002581357955933 0.075301662087440491
0.34651464223861694 0.7243037223815918 0.094966083765029907
0.69138520956039429 0.80303686857223511 0.10449217259883881
0.87225520610809326 0.8414878249168396 0.13601973652839661
0.98066991567611694 0.83319979906082153 0.15958245098590851
0 0.48152297735214233 0.00044842888019047678
0.0091360351070761681 0.55031245946884155 0.029216989874839783
0.0028380299918353558 0.65659362077713013 0.017810327932238579
0.058572717010974884 0.76537197828292847 0.057794801890850067
0.58036911487579346 0.85102546215057373 0.089252665638923645
0.81229466199874878 0.9089210033416748 0.10498968511819839
0.95615750551223755 0.93824344873428345 0.12419977784156799
0.040603548288345337 0 0.25286266207695007
0.28972664475440979 0.00021936753182671964 0.3486170768737793
0.5332481861114502 0 0.3958151638507843
0.65719771385192871 0.0006144355284050107 0.41566449403762817
0.7297481894493103 0.00073679006891325116 0.43502479791641235
0.76127231121063232 0 0.43799901008605957
0.77793824672698975 0.00049882777966558933 0.42799785733222961
0 0.081207945942878723 0.18595243990421295
0.089202553033828735 0.10659172385931015 0.28677082061767578
0.43046107888221741 0.11657171696424484 0.37526980042457581
0.66687148809432983 0.11881692707538605 0.41993546485900879
0.79570823907852173 0.1274087131023407 0.44695344567298889
0.86575716733932495 0.097922153770923615 0.47198200225830078
0.90486246347427368 0.12538333237171173 0.47713831067085266
0.016867170110344887 0.22709283232688904 0.1771518886089325
0.011275601573288441 0.28231537342071533 0.26172426342964172
0.34006598591804504 0.34541243314743042 0.34758764505386353
0.64842057228088379 0.38165631890296936 0.40395185351371765
0.82436519861221313 0.40020915865898132 0.44362375140190125
0.91968512535095215 0.40210837125778198 0.47787410020828247
0.97031301259994507 0.40481755137443542 0.50018298625946045
0.030508691444993019 0.34724408388137817 0.15725976228713989
4.6673944780195598e-06 0.41818675398826599 0.23343671858310699
0.15328182280063629 0.50299245119094849 0.31426048278808594
0.59282630681991577 0.57214450836181641 0.37270483374595642
0.81015485525131226 0.60322260856628418 0.41876432299613953
0.92849785089492798 0.61107414960861206 0.45515516400337219
0.99410301446914673 0.59560322761535645 0.4819999635219574
0.0058644162490963936 0.4278532862663269 0.13483497500419617
0 0.50718420743942261 0.20851677656173706
0.0842771977186203 0.60980021953582764 0.28392642736434937
0.49510863423347473 0.7003052830696106 0.34516334533691406
0.77191919088363647 0.75136095285415649 0.38768830895423889
0.91630291938781738 0.76643913984298706 0.41979852318763733
0.99585521221160889 0.74700021743774414 0.45249131321907043
0 0.47991427779197693 0.12630891799926758
0 0.56472718715667725 0.20415598154067993
0.017940700054168701 0.67431288957595825 0.27486661076545715
0.32845696806907654 0.77095508575439453 0.33184605836868286
0.70551186800003052 0.83649420738220215 0.36241862177848816
0.88454276323318481 0.87109613418579102 0.40046343207359314
0.98470169305801392 0.86263787746429443 0.43083605170249939
0.0027480481658130884 0.51896423101425171 0.055843710899353027
0.0058302036486566067 0.60335135459899902 0.15316207706928253
0 0.71495181322097778 0.22226226329803467
0.15707592666149139 0.81877261400222778 0.29501476883888245
0.59844845533370972 0.89254415035247803 0.3362603485584259
0.82764476537704468 0.93960750102996826 0.37072256207466125
0.9622076153755188 0.9688909649848938 0.4120832085609436
0.11146573722362518 0 0.37248435616493225
0.35814449191093445 0.00016160852101165801 0.44536072015762329
0.57309001684188843 0 0.49207413196563721
0.68586438894271851 0 0.51194864511489868
0.74165499210357666 0 0.52628064155578613
0.76577717065811157 0 0.53039729595184326
0.77911579608917236 0.0021561416797339916 0.52688229084014893
0.0026403239462524652 0.090374842286109924 0.35376229882240295
0.17318485677242279 0.097212530672550201 0.45383277535438538
0.48370394110679626 0.10323029756546021 0.53006196022033691
0.69844859838485718 0.10425033420324326 0.57858878374099731
0.81333905458450317 0.11455804854631424 0.60133200883865356
0.87549906969070435 0.093196123838424683 0.61339783668518066
0.91016465425491333 0.095191493630409241 0.61174893379211426
0.0025937098544090986 0.26485604047775269 0.34868302941322327
0.02737141028046608 0.30906400084495544 0.44110015034675598
0.39554020762443542 0.36373218894004822 0.52907752990722656
0.68151313066482544 0.39163672924041748 0.58843952417373657
0.84234809875488281 0.401032954454422 0.62519949674606323
0.92846280336380005 0.40503272414207458 0.64304953813552856
0.97455877065658569 0.39565536379814148 0.6481248140335083
0.013366025872528553 0.39528915286064148 0.32422196865081787
4.57763671875e-05 0.46009588241577148 0.41462263464927673
0.22545026242733002 0.53613191843032837 0.50249695777893066
0.62906730175018311 0.59456080198287964 0.56766128540039062
0.82755762338638306 0.62020248174667358 0.61314433813095093
0.9403609037399292 0.63259094953536987 0.64004057645797729
0.99675965309143066 0.6323554515838623 0.65531611442565918
0.0080201542004942894 0.48542091250419617 0.29348492622375488
0 0.56189721822738647 0.38014361262321472
0.1118718758225441 0.6530081033706665 0.46638140082359314
0.53509676456451416 0.73198199272155762 0.53961145877838135
0.78813296556472778 0.77159148454666138 0.58757370710372925
0.9247552752494812 0.78541654348373413 0.61744111776351929
0.99603259563446045 0.7744329571723938 0.64029181003570557
0.0004900913336314261 0.536113440990448 0.26853296160697937
0 0.6170731782913208 0.34621274471282959
0.051469270139932632 0.71868801116943359 0.43695574998855591
0.42704075574874878 0.81179165840148926 0.51974165439605713
0.73573517799377441 0.86467057466506958 0.56538772583007812
0.89308458566665649 0.88834935426712036 0.59270632266998291
0.99015980958938599 0.88178014755249023 0.6175045371055603
0.010083680972456932 0.57047379016876221 0.21834732592105865
0.0090627782046794891 0.65523630380630493 0.29763475060462952
0.00040307137533091009 0.76561087369918823 0.39744120836257935
0.33080309629440308 0.87571489810943604 0.49950000643730164
0.6554185152053833 0.93207800388336182 0.54791909456253052
0.84215372800827026 0.96653121709823608 0.57497489452362061
0.96726292371749878 0.98064231872558594 0.59936565160751343
0.23571701347827911 0 0.46185413002967834
0.40515404939651489 0 0.50301426649093628
0.58776122331619263 0 0.53790336847305298
0.69138836860656738 0 0.55423682928085327
0.74632722139358521 0.0007146947318688035 0.57224464416503906
0.77456271648406982 0.00041228649206459522 0.58044028282165527
0.78763240575790405 0 0.57867956161499023
0.068016171455383301 0.081110917031764984 0.49115976691246033
0.28394871950149536 0.099607847630977631 0.56397265195846558
0.53336429595947266 0.1005064994096756 0.62596803903579712
0.71688884496688843 0.089275524020195007 0.66556262969970703
0.83105987310409546 0.082101412117481232 0.69598203897476196
0.88957339525222778 0.044268321245908737 0.70653551816940308
0.91387045383453369 0.048920709639787674 0.69826650619506836
0.0031675898935645819 0.28606331348419189 0.49902051687240601
0.12179620563983917 0.32772168517112732 0.57718002796173096
0.47620871663093567 0.36841559410095215 0.65516400337219238
0.7148786187171936 0.3970489501953125 0.70789563655853271
0.8601495623588562 0.39715060591697693 0.73925572633743286
0.94117522239685059 0.4009263813495636 0.75397926568984985
0.9815065860748291 0.38981854915618896 0.7528076171875
4.3173396989004686e-05 0.43439227342605591 0.47965908050537109
0.00011662502220133319 0.49152812361717224 0.56170451641082764
0.30744504928588867 0.55366510152816772 0.64276421070098877
0.66674578189849854 0.60542500019073486 0.70318365097045898
0.84826797246932983 0.62793564796447754 0.73939502239227295
0.95321279764175415 0.63659811019897461 0.75959467887878418
0.99922329187393188 0.64421427249908447 0.76658725738525391
0.0098313279449939728 0.54017668962478638 0.45343810319900513
0 0.60502982139587402 0.53552532196044922
0.14209598302841187 0.68278670310974121 0.61226910352706909
0.58083605766296387 0.75080519914627075 0.67563390731811523
0.81464636325836182 0.78712296485900879 0.72307002544403076
0.93665742874145508 0.80270475149154663 0.74751579761505127
0.99838972091674805 0.80467140674591064 0.76290881633758545
0.003369245445355773 0.59698474407196045 0.41897493600845337
0 0.66727358102798462 0.49683916568756104
0.059651646763086319 0.75580525398254395 0.57730388641357422
0.49208253622055054 0.83453559875488281 0.64647984504699707
0.76685440540313721 0.88162910938262939 0.6996992826461792
0.90736764669418335 0.90454477071762085 0.72942042350769043
0.99440270662307739 0.90477871894836426 0.75102686882019043
0.0013033698778599501 0.62611895799636841 0.36388686299324036
0 0.70789194107055664 0.44617420434951782
0.00026663986500352621 0.80512171983718872 0.53649783134460449
0.35716849565505981 0.89594495296478271 0.62228405475616455
0.72891992330551147 0.95903366804122925 0.68596214056015015
0.86996996402740479 0.9852670431137085 0.71615844964981079
0.97483408451080322 0.99084693193435669 0.73441159725189209
0.34414982795715332 0.00012655819591600448 0.51893776655197144
0.47793108224868774 0 0.54792946577072144
0.61123383045196533 0 0.5733146071434021
0.69806063175201416 0 0.59549826383590698
0.7514992356300354 1.7891677998704836e-05 0.60856014490127563
0.79051500558853149 0.00088894413784146309 0.62936049699783325
0.79120922088623047 0.00011435116175562143 0.61612814664840698
0.17712372541427612 0.09035550057888031 0.58522206544876099
0.38660255074501038 0.088936015963554382 0.64685970544815063
0.58532571792602539 0.07229132205247879 0.69535934925079346
0.73670381307601929 0.071559906005859375 0.72799813747406006
0.83832579851150513 0.062910847365856171 0.75312316417694092
0.90184563398361206 0.076445318758487701 0.77171587944030762
0.92523908615112305 0.091815948486328125 0.76223838329315186
0.016438443213701248 0.29760921001434326 0.60975581407546997
0.25897833704948425 0.33177801966667175 0.67610651254653931
0.54287242889404297 0.37208336591720581 0.74026596546173096
0.74053949117660522 0.39282575249671936 0.78147810697555542
0.86658716201782227 0.38887885212898254 0.80953186750411987
0.94997352361679077 0.38591396808624268 0.82757633924484253
0.99506407976150513 0.39418798685073853 0.82635819911956787
0 0.45684155821800232 0.59951543807983398
0.060385491698980331 0.50360018014907837 0.66979825496673584
0.41601118445396423 0.56145519018173218 0.74038016796112061
0.70934963226318359 0.61094456911087036 0.78863966464996338
0.85989153385162354 0.63078820705413818 0.82336026430130005
0.96101611852645874 0.63599497079849243 0.84415411949157715
0.99992156028747559 0.64247745275497437 0.84376078844070435
0 0.57586348056793213 0.58329838514328003
0 0.63063168525695801 0.65187662839889526
0.20901945233345032 0.70208793878555298 0.72420287132263184
0.64375883340835571 0.75963211059570312 0.77930945158004761
0.83294028043746948 0.7944297194480896 0.81675255298614502
0.9504513144493103 0.80961698293685913 0.83657139539718628
0.99975669384002686 0.819568932056427 0.84379500150680542
0 0.64855611324310303 0.55428928136825562
0 0.70885598659515381 0.62446337938308716
0.034608595073223114 0.78533530235290527 0.69473409652709961
0.52894419431686401 0.85360300540924072 0.75599056482315063
0.79293036460876465 0.89371949434280396 0.79775959253311157
0.92407655715942383 0.91484469175338745 0.82233536243438721
0.99695664644241333 0.92137455940246582 0.83771973848342896
0 0.68229073286056519 0.49817147850990295
0 0.75495821237564087 0.57797133922576904
0.016393383964896202 0.83826416730880737 0.65523886680603027
0.41446143388748169 0.91474622488021851 0.72552406787872314
0.74743247032165527 0.96527588367462158 0.77739554643630981
0.89490205049514771 0.98828470706939697 0.80790972709655762
0.98795610666275024 0.99301159381866455 0.82354843616485596
0.41029411554336548 0 0.56008058786392212
0.51214355230331421 0 0.57815498113632202
0.62126612663269043 0 0.58451229333877563
0.6955878734588623 0.00081932218745350838 0.61679667234420776
0.73920154571533203 0 0.61262750625610352
0.78825581073760986 0 0.64396244287490845
0.82203727960586548 0 0.6696506142616272
0.27683466672897339 0.062726534903049469 0.64053153991699219
0.4485437273979187 0.08524736762046814 0.69193649291992188
0.60916036367416382 0.075898155570030212 0.72750842571258545
0.73693192005157471 0.098674893379211426 0.75533711910247803
0.82573384046554565 0.042961388826370239 0.77151370048522949
0.88758659362792969 0.039960943162441254 0.79094833135604858
0.93316668272018433 0.074165359139442444 0.80856847763061523
0.097923904657363892 0.27862471342086792 0.67699134349822998
0.36895507574081421 0.32042267918586731 0.73460912704467773
0.59880208969116211 0.3588104248046875 0.7877623438835144
0.75613665580749512 0.3849368691444397 0.8236008882522583
0.85784780979156494 0.38658574223518372 0.84332931041717529
0.94128620624542236 0.38776373863220215 0.86179560422897339
0.99758690595626831 0.38987115025520325 0.87533235549926758
0.0065126307308673859 0.45407763123512268 0.67904722690582275
0.16396300494670868 0.49586242437362671 0.73845911026000977
0.51855754852294922 0.54983842372894287 0.79492771625518799
0.74238383769989014 0.61319482326507568 0.84104382991790771
0.86788094043731689 0.63513970375061035 0.86951249837875366
0.96125870943069458 0.64261186122894287 0.88947689533233643
1 0.6418035626411438 0.89626181125640869
0.00031641044188290834 0.57939642667770386 0.66744148731231689
0.013706387020647526 0.62676966190338135 0.72467809915542603
0.36545836925506592 0.68808048963546753 0.7873610258102417
0.68584424257278442 0.74827373027801514 0.83435922861099243
0.85032474994659424 0.79188770055770874 0.866291344165802
0.95257008075714111 0.81061941385269165 0.88612651824951172
1 0.81412601470947266 0.89612346887588501
0.00092783907894045115 0.66775596141815186 0.64593309164047241
0.0014305564109236002 0.71908450126647949 0.71096396446228027
0.22471268475055695 0.78504329919815063 0.77304244041442871
0.61295127868652344 0.84534335136413574 0.82141786813735962
0.82178270816802979 0.89022922515869141 0.85291814804077148
0.93078237771987915 0.91813391447067261 0.87505543231964111
0.99676012992858887 0.92663145065307617 0.88810783624649048
0.0098028890788555145 0.71770203113555908 0.59928721189498901
0.02664032019674778 0.7804337739944458 0.67577916383743286
0.19000445306301117 0.85273236036300659 0.74515044689178467
0.52743113040924072 0.92056000232696533 0.80427050590515137
0.77917897701263428 0.96390008926391602 0.84102869033813477
0.91176503896713257 0.98685985803604126 0.86523061990737915
0.9944688081741333 0.99038058519363403 0.87707704305648804
