assets/lut/inavision louetta.cube
# Created by: G'MIC (https://gmic.eu)
TITLE "louetta"
# LUT size
LUT_3D_SIZE 5
# Data domain
DOMAIN_MIN 0.0 0.0 0.0
DOMAIN_MAX 1.0 1.0 1.0
# LUT data points
0.026287123560905457 0.024659983813762665 0.020523311570286751
0.30852821469306946 0.036311384290456772 0.0065947137773036957
0.59756314754486084 0.036539234220981598 0.0010267071193084121
0.7252655029296875 0.03007080964744091 0.0025938893668353558
0.7948153018951416 0.054364148527383804 0
0.0055611701682209969 0.21057377755641937 0.072466321289539337
0.18620346486568451 0.23923991620540619 0.025194788351655006
0.52937990427017212 0.28893527388572693 0.0057028080336749554
0.76151281595230103 0.31136170029640198 0
0.88448679447174072 0.32783627510070801 0.0001417721068719402
0 0.40097799897193909 0.12459902465343475
0.096861653029918671 0.43635138869285583 0.044663120061159134
0.51282334327697754 0.50751352310180664 0.0092277675867080688
0.79896742105484009 0.54396092891693115 0.0022177454084157944
0.94852972030639648 0.55743002891540527 0.00039439482497982681
0 0.54565203189849854 0.20967604219913483
0.021396741271018982 0.59136813879013062 0.14609096944332123
0.46102902293205261 0.67191821336746216 0.036018058657646179
0.79494458436965942 0.71956974267959595 0.0087478039786219597
0.96423804759979248 0.73565018177032471 0.002463112585246563
0 0.68056184053421021 0.33641108870506287
0.00024167228548321873 0.72835063934326172 0.30900108814239502
0.29476451873779297 0.81821531057357788 0.15816453099250793
0.76675456762313843 0.87542670965194702 0.085642002522945404
0.97310274839401245 0.90048420429229736 0.022202271968126297
0.15070445835590363 0.023653171956539154 0.24017103016376495
0.45366790890693665 0.015661546960473061 0.17681610584259033
0.66805118322372437 0.00097805843688547611 0.15530931949615479
0.7716938853263855 0.0038441228680312634 0.14019677042961121
0.82951390743255615 0.0081031797453761101 0.12796729803085327
0.00016196756041608751 0.23351185023784637 0.30776789784431458
0.20563025772571564 0.26467213034629822 0.27228039503097534
0.59913367033004761 0.27899384498596191 0.21714788675308228
0.81349647045135498 0.28564915060997009 0.15520283579826355
0.92384082078933716 0.30876219272613525 0.11492318660020828
0 0.44432732462882996 0.36597195267677307
0.036521658301353455 0.48427864909172058 0.32514014840126038
0.55661463737487793 0.54677248001098633 0.21883754432201385
0.83368700742721558 0.56576204299926758 0.18044766783714294
0.97506701946258545 0.57630258798599243 0.15633095800876617
0 0.59594374895095825 0.42685863375663757
0.009045574814081192 0.64343088865280151 0.39985179901123047
0.45895648002624512 0.72714495658874512 0.25843924283981323
0.82039189338684082 0.76147425174713135 0.20661422610282898
0.98317748308181763 0.77140724658966064 0.18680311739444733
0 0.72569739818572998 0.50836175680160522
0 0.77438688278198242 0.48920890688896179
0.23733164370059967 0.86595064401626587 0.39877450466156006
0.76484042406082153 0.91942989826202393 0.32213130593299866
0.97337800264358521 0.94368094205856323 0.26600039005279541
0.33354467153549194 0.00063864013645797968 0.45621213316917419
0.63434815406799316 0.0007111493032425642 0.43644517660140991
0.73060739040374756 0.00049653893802314997 0.40415406227111816
0.80811560153961182 0.00053100584773346782 0.39643955230712891
0.85829067230224609 0.0039681377820670605 0.3951556384563446
0.013819301500916481 0.24369184672832489 0.52418524026870728
0.31949195265769958 0.26952537894248962 0.53364360332489014
0.65932977199554443 0.27380824089050293 0.51513850688934326
0.8482392430305481 0.26211261749267578 0.48244631290435791
0.95562320947647095 0.27896234393119812 0.45272937417030334
0 0.48520484566688538 0.58657127618789673
0.087030641734600067 0.52825891971588135 0.58504009246826172
0.58534771203994751 0.57288193702697754 0.57179731130599976
0.85521495342254639 0.58673179149627686 0.53704249858856201
0.99145603179931641 0.5943911075592041 0.51094460487365723
0 0.65020674467086792 0.63110923767089844
0.011838306672871113 0.69801241159439087 0.6267133355140686
0.49341046810150146 0.76701050996780396 0.56315034627914429
0.8367195725440979 0.79455333948135376 0.53623825311660767
0.98944520950317383 0.80187654495239258 0.54563754796981812
0 0.77853655815124512 0.67973381280899048
0.00037547093234024942 0.82847481966018677 0.67886477708816528
0.24653604626655579 0.91669118404388428 0.65794134140014648
0.77468019723892212 0.96208590269088745 0.6232140064239502
0.97345638275146484 0.97626006603240967 0.57851976156234741
0.63698524236679077 0 0.57034027576446533
0.7498888373374939 4.6853459934936836e-05 0.56681305170059204
0.80517905950546265 7.5037336500827223e-05 0.55293881893157959
0.83458763360977173 0.00044394101132638752 0.55568790435791016
0.8745110034942627 0 0.55599474906921387
0.18611826002597809 0.2302524596452713 0.69015097618103027
0.48133513331413269 0.23748072981834412 0.70593869686126709
0.72809934616088867 0.22308535873889923 0.70351129770278931
0.8726116418838501 0.21750050783157349 0.68494600057601929
0.96620160341262817 0.24984221160411835 0.67149782180786133
0.0048109465278685093 0.51716673374176025 0.74363237619400024
0.29987728595733643 0.55262130498886108 0.77384942770004272
0.66608518362045288 0.58295714855194092 0.77367913722991943
0.87846791744232178 0.59112244844436646 0.7510373592376709
0.99339050054550171 0.60139888525009155 0.72850942611694336
0 0.69214755296707153 0.78090417385101318
0.089521713554859161 0.74271142482757568 0.8004755973815918
0.57191997766494751 0.79000413417816162 0.7917441725730896
0.84831154346466064 0.81130391359329224 0.78711605072021484
0.98758810758590698 0.81638032197952271 0.77243220806121826
0 0.83105713129043579 0.82359784841537476
0.0057054106146097183 0.88554877042770386 0.83994948863983154
0.3226759135723114 0.95289891958236694 0.84865003824234009
0.80585384368896484 0.98255562782287598 0.83084821701049805
0.9862205982208252 0.98834431171417236 0.8151201605796814
0.8124883770942688 0 0.62893104553222656
0.84116053581237793 0 0.62185460329055786
0.84999507665634155 0.00068366853520274162 0.61793166399002075
0.84991008043289185 0 0.60920459032058716
0.88855475187301636 0 0.65407842397689819
0.46303120255470276 0.17987437546253204 0.78072911500930786
0.63162499666213989 0.1686166375875473 0.78753066062927246
0.77634167671203613 0.1797877699136734 0.77377629280090332
0.89368224143981934 0.17398355901241302 0.77733719348907471
0.96398085355758667 0.18540175259113312 0.77414149045944214
0.27484321594238281 0.53780984878540039 0.87325382232666016
0.51588314771652222 0.55663502216339111 0.87732428312301636
0.76052933931350708 0.5697704553604126 0.87464207410812378
0.91357672214508057 0.57568067312240601 0.86364668607711792
0.99460607767105103 0.58698588609695435 0.83905196189880371
0.025862960144877434 0.73979693651199341 0.89338135719299316
0.35324785113334656 0.77370506525039673 0.91578322649002075
0.67612463235855103 0.80090928077697754 0.91182816028594971
0.88344556093215942 0.81346637010574341 0.90350711345672607
0.9948352575302124 0.82017266750335693 0.89107817411422729
0 0.86128151416778564 0.9122588038444519
0.1766580194234848 0.90413469076156616 0.93211591243743896
0.55280524492263794 0.94508039951324463 0.93616634607315063
0.8448415994644165 0.9690709114074707 0.92782622575759888
0.9921686053276062 0.97759449481964111 0.91826772689819336
