assets/lut/inavision london nights.cube
# Created by: G'MIC (https://gmic.eu)
TITLE "london_nights"
# LUT size
LUT_3D_SIZE 5
# Data domain
DOMAIN_MIN 0.0 0.0 0.0
DOMAIN_MAX 1.0 1.0 1.0
# LUT data points
0.0033511891961097717 0.0011133679654449224 0.0042045442387461662
0.32270869612693787 0.0012241437798365951 0.021574446931481361
0.60757553577423096 0.00046944711357355118 0.022218577563762665
0.70050787925720215 0.0011176912812516093 0.030149796977639198
0.74456506967544556 0 0.060477595776319504
0.00040353514486923814 0.11971946805715561 0.0027906829491257668
0.14619909226894379 0.17630060017108917 0.0040279165841639042
0.59007519483566284 0.24145008623600006 0.0062778247520327568
0.80956816673278809 0.24139489233493805 0.0064877825789153576
0.88886111974716187 0.20378567278385162 0.018404223024845123
0.0016678156098350883 0.28993654251098633 0.00083205278497189283
0.022254928946495056 0.37545686960220337 0.00091810041340067983
0.53473871946334839 0.50514143705368042 0
0.83641177415847778 0.55031472444534302 0
0.95550155639648438 0.5222894549369812 1.4002182979311328e-05
0.0018426933092996478 0.3976719081401825 0.0010846306104212999
0.00055541994515806437 0.495107501745224 1.6156365063579869e-06
0.40748351812362671 0.6623307466506958 1.8669577912078239e-05
0.8073350191116333 0.75286340713500977 0
0.97537106275558472 0.75143742561340332 0
0 0.45938163995742798 0
8.9263914560433477e-05 0.55561566352844238 0.00011731316044460982
0.17745755612850189 0.72902524471282959 0
0.70411562919616699 0.8514636754989624 0
0.94244468212127686 0.90877187252044678 0
0.030720490962266922 0 0.17581306397914886
0.39485931396484375 4.8469096327607986e-06 0.29730936884880066
0.64945346117019653 0.00068160414230078459 0.34293743968009949
0.743644118309021 1.6156365063579869e-06 0.36364805698394775
0.77274346351623535 0.00063500495161861181 0.361326664686203
0.0031026504002511501 0.14236265420913696 0.10614408552646637
0.18658344447612762 0.21565711498260498 0.22054985165596008
0.65070921182632446 0.25859948992729187 0.30213576555252075
0.85569477081298828 0.26433616876602173 0.35215467214584351
0.93544965982437134 0.25426164269447327 0.39159882068634033
0.024492735043168068 0.3238932192325592 0.086588241159915924
0.0058728386647999287 0.43550115823745728 0.17756623029708862
0.57963663339614868 0.55918782949447632 0.25542047619819641
0.87032204866409302 0.59317272901535034 0.30874061584472656
0.98725330829620361 0.574260413646698 0.35556915402412415
0.00069719203747808933 0.43732079863548279 0.061417315155267715
0 0.56566941738128662 0.15106695890426636
0.41010013222694397 0.71874946355819702 0.21303750574588776
0.83016026020050049 0.80452865362167358 0.26479604840278625
0.99092084169387817 0.79230803251266479 0.31573069095611572
0.00038408764521591365 0.49791330099105835 0.0095901787281036377
0.003040373558178544 0.63084733486175537 0.10267671942710876
0.10261747986078262 0.78991144895553589 0.17291648685932159
0.72206127643585205 0.90123653411865234 0.22738009691238403
0.95766729116439819 0.95184129476547241 0.27829420566558838
0.11146573722362518 0 0.37248435616493225
0.48104968667030334 0 0.47373205423355103
0.68586438894271851 0 0.51194864511489868
0.75682526826858521 0 0.53007334470748901
0.77911579608917236 0.0021561416797339916 0.52688229084014893
0.00015411377535201609 0.18579475581645966 0.35479289293289185
0.27489092946052551 0.23396292328834534 0.49714028835296631
0.69479000568389893 0.25072327256202698 0.58982014656066895
0.87714767456054688 0.25210750102996826 0.6297154426574707
0.94901883602142334 0.23954974114894867 0.63379418849945068
0.013366025872528553 0.39528915286064148 0.32422196865081787
0.041259512305259705 0.49724316596984863 0.45990139245986938
0.62906730175018311 0.59456080198287964 0.56766128540039062
0.89104545116424561 0.62771093845367432 0.62776082754135132
0.99675965309143066 0.6323554515838623 0.65531611442565918
0.0019007663941010833 0.51453143358230591 0.2800346314907074
0.0064663607627153397 0.63996869325637817 0.40370985865592957
0.48885279893875122 0.77786433696746826 0.52819502353668213
0.84727787971496582 0.83775866031646729 0.58951562643051147
0.99385404586791992 0.83271431922912598 0.62775325775146484
0.010083680972456932 0.57047379016876221 0.21834732592105865
0.00054666853975504637 0.70799469947814941 0.34463289380073547
0.33080309629440308 0.87571489810943604 0.49950000643730164
0.75697809457778931 0.95103245973587036 0.56181496381759644
0.96726292371749878 0.98064231872558594 0.59936565160751343
0.29280424118041992 4.846909359912388e-05 0.4929719865322113
0.52473360300064087 0 0.54402691125869751
0.69474995136260986 0 0.57519572973251343
0.77280598878860474 0.0017885843990370631 0.60402810573577881
0.78484195470809937 7.0010914896556642e-06 0.59342366456985474
0.053090743720531464 0.19137905538082123 0.55719375610351562
0.41608670353889465 0.23393237590789795 0.66022676229476929
0.73528790473937988 0.23728536069393158 0.73172664642333984
0.89862895011901855 0.23070389032363892 0.77073842287063599
0.96122521162033081 0.21903702616691589 0.76970100402832031
0 0.4474932849407196 0.54430979490280151
0.098527409136295319 0.52974599599838257 0.66140377521514893
0.69183927774429321 0.60852247476577759 0.75198745727539062
0.91383683681488037 0.63402479887008667 0.7981681227684021
0.99966967105865479 0.64266103506088257 0.80906575918197632
0.001257473835721612 0.60008025169372559 0.51067149639129639
0.0011532951612025499 0.69966530799865723 0.62165981531143188
0.56733036041259766 0.80843019485473633 0.71885287761688232
0.87335205078125 0.8580743670463562 0.77796059846878052
0.9979933500289917 0.87304592132568359 0.80501538515090942
0 0.65460062026977539 0.43418800830841064
0 0.77749276161193848 0.55706137418746948
0.3963630199432373 0.90528994798660278 0.67449569702148438
0.82205045223236084 0.97692656517028809 0.75360798835754395
0.98209273815155029 0.99211966991424561 0.78443437814712524
0.41029411554336548 0 0.56008058786392212
0.56728637218475342 0 0.57686054706573486
0.6955878734588623 0.00081932218745350838 0.61679667234420776
0.76257103681564331 0 0.62250930070877075
0.82203727960586548 0 0.6696506142616272
0.19107404351234436 0.16624894738197327 0.66391521692276001
0.51773375272750854 0.22584602236747742 0.74695539474487305
0.75106501579284668 0.24100473523139954 0.79734534025192261
0.88531571626663208 0.2058773934841156 0.8244585394859314
0.97327959537506104 0.2220342755317688 0.84882986545562744
0.0065126307308673859 0.45407763123512268 0.67904722690582275
0.3364713191986084 0.52043366432189941 0.76789343357086182
0.74238383769989014 0.61319482326507568 0.84104382991790771
0.91682225465774536 0.64018619060516357 0.88058948516845703
1 0.6418035626411438 0.89626181125640869
0.00057642319006845355 0.63065254688262939 0.65983080863952637
0.044637270271778107 0.71200048923492432 0.74950748682022095
0.65452522039413452 0.80220925807952881 0.82852625846862793
0.89236330986022949 0.86211824417114258 0.87055909633636475
0.99969756603240967 0.87773007154464722 0.89247822761535645
0.0098028890788555145 0.71770203113555908 0.59928721189498901
0.080146834254264832 0.81569689512252808 0.7114366888999939
0.52743113040924072 0.92056000232696533 0.80427050590515137
0.85359811782836914 0.97820276021957397 0.85444372892379761
0.9944688081741333 0.99038058519363403 0.87707704305648804
