assets/lut/inavision louetta.cube
# Created by: G'MIC (https://gmic.eu)
TITLE "louetta"
# LUT size
LUT_3D_SIZE 13
# Data domain
DOMAIN_MIN 0.0 0.0 0.0
DOMAIN_MAX 1.0 1.0 1.0
# LUT data points
0.026287123560905457 0.024659983813762665 0.020523311570286751
0.084489457309246063 0.027271943166851997 0.01558526698499918
0.17539727687835693 0.030958332121372223 0.012019138783216476
0.30852821469306946 0.036311384290456772 0.0065947137773036957
0.42158478498458862 0.040971480309963226 0.0033724019303917885
0.52062809467315674 0.045540843158960342 0.002104845130816102
0.59756314754486084 0.036539234220981598 0.0010267071193084121
0.64441132545471191 0.028285786509513855 0.0016932768048718572
0.68716436624526978 0.023068640381097794 0.0031747855246067047
0.7252655029296875 0.03007080964744091 0.0025938893668353558
0.75175094604492188 0.04080631211400032 0.0012949625961482525
0.77376031875610352 0.04641621932387352 0
0.7948153018951416 0.054364148527383804 0
0.007455743383616209 0.078819647431373596 0.039805781096220016
0.037305943667888641 0.079759709537029266 0.030810412019491196
0.1039745882153511 0.089583441615104675 0.02558969147503376
0.21721327304840088 0.10388506948947906 0.015496048144996166
0.34035190939903259 0.11314650624990463 0.008291296660900116
0.45687717199325562 0.1153562068939209 0.0054611056111752987
0.55597054958343506 0.11339736729860306 0.0036548092029988766
0.63336700201034546 0.10851292312145233 0.0037302204873412848
0.68731433153152466 0.10410942882299423 0.0028994092717766762
0.73269057273864746 0.1177319660782814 0.0017898409860208631
0.76922404766082764 0.12139242142438889 0.00079603010090067983
0.79803371429443359 0.12765178084373474 0
0.82519572973251343 0.13671126961708069 5.1341336074983701e-05
0.0081330994144082069 0.13900387287139893 0.055538222193717957
0.033847194164991379 0.14128386974334717 0.037438306957483292
0.10483280569314957 0.15071246027946472 0.034128151834011078
0.20035175979137421 0.16358907520771027 0.021014554426074028
0.31456172466278076 0.18288852274417877 0.011651027947664261
0.43629485368728638 0.19465196132659912 0.0084479982033371925
0.5398937463760376 0.20014362037181854 0.0055254767648875713
0.63025093078613281 0.2027503103017807 0.0031425775960087776
0.694507896900177 0.20787514746189117 0.00082265818491578102
0.74410372972488403 0.21633866429328918 0.00013994703476782888
0.78629964590072632 0.21869206428527832 0
0.82352244853973389 0.22112144529819489 7.0010914896556642e-06
0.85280895233154297 0.23302212357521057 0.001438140869140625
0.0055611701682209969 0.21057377755641937 0.072466321289539337
0.021813111379742622 0.2143549919128418 0.051172204315662384
0.084836684167385101 0.22517725825309753 0.037844039499759674
0.18620346486568451 0.23923991620540619 0.025194788351655006
0.29855000972747803 0.2589055597782135 0.01528517808765173
0.42172372341156006 0.27638596296310425 0.0088712060824036598
0.52937990427017212 0.28893527388572693 0.0057028080336749554
0.6327826976776123 0.29809454083442688 0.0015959795564413071
0.71049600839614868 0.30620145797729492 0.00029996983357705176
0.76151281595230103 0.31136170029640198 0
0.80787181854248047 0.31613138318061829 0
0.84952330589294434 0.32052570581436157 0
0.88448679447174072 0.32783627510070801 0.0001417721068719402
0.0041072769090533257 0.27911791205406189 0.090013705193996429
0.014906805008649826 0.28382956981658936 0.070898450911045074
0.056363753974437714 0.29395943880081177 0.048674594610929489
0.16207383573055267 0.31012645363807678 0.02830435149371624
0.28595754504203796 0.3321787416934967 0.018349172547459602
0.41678142547607422 0.35467049479484558 0.012975640594959259
0.53073674440383911 0.37131431698799133 0.0074133332818746567
0.63361018896102905 0.38377776741981506 0.0017647537169978023
0.7215341329574585 0.39090421795845032 0.0012252209708094597
0.77911776304244995 0.39703094959259033 0.00071831495733931661
0.82711625099182129 0.40290287137031555 1.4361213288793806e-05
0.87353360652923584 0.40759935975074768 0
0.91336303949356079 0.4106440544128418 0
0.0016104006208479404 0.34233176708221436 0.10348651558160782
0.0042736576870083809 0.34803837537765503 0.089264780282974243
0.022853806614875793 0.35632681846618652 0.063386254012584686
0.12181466817855835 0.37640541791915894 0.030747970566153526
0.26280009746551514 0.39829501509666443 0.018314436078071594
0.40349635481834412 0.42325589060783386 0.015691256150603294
0.52660399675369263 0.44352421164512634 0.0080636115744709969
0.63560384511947632 0.4591677188873291 0.0026862351223826408
0.72602498531341553 0.46780115365982056 0.0021994048729538918
0.79072701930999756 0.47516956925392151 0.0028714349027723074
0.84101575613021851 0.48020866513252258 0.00047311221715062857
0.88952100276947021 0.48497804999351501 0
0.93334472179412842 0.48766410350799561 0
0 0.40097799897193909 0.12459902465343475
2.5850184101727791e-05 0.40710875391960144 0.1104767769575119
0.011970744468271732 0.41668534278869629 0.08650004118680954
0.096861653029918671 0.43635138869285583 0.044663120061159134
0.23690120875835419 0.45755961537361145 0.020389556884765625
0.38368341326713562 0.48533192276954651 0.017676588147878647
0.51282334327697754 0.50751352310180664 0.0092277675867080688
0.62690222263336182 0.52506595849990845 0.003879741532728076
0.72732096910476685 0.53590327501296997 0.0023171070497483015
0.79896742105484009 0.54396092891693115 0.0022177454084157944
0.85084831714630127 0.54972487688064575 0.0011874180054292083
0.90221220254898071 0.55558162927627563 0
0.94852972030639648 0.55743002891540527 0.00039439482497982681
0 0.45511174201965332 0.1518627256155014
0 0.46204683184623718 0.13437120616436005
0.0055690542794764042 0.47519877552986145 0.11228338629007339
0.077193334698677063 0.49271023273468018 0.077992759644985199
0.20334151387214661 0.51304507255554199 0.034309029579162598
0.35993561148643494 0.54233121871948242 0.021224841475486755
0.49650183320045471 0.56610751152038574 0.013152522966265678
0.61473947763442993 0.58475935459136963 0.0054739858023822308
0.71822965145111084 0.5979805588722229 0.0037764755543321371
0.80197376012802124 0.60965484380722046 0.0028362798038870096
0.85613769292831421 0.61531972885131836 0.0019850337412208319
0.90849047899246216 0.62082362174987793 9.8733344202628359e-06
0.9548952579498291 0.62180596590042114 0
0 0.50325554609298706 0.17796608805656433
0 0.51103717088699341 0.16470061242580414
0.0038621940184384584 0.52442127466201782 0.14605060219764709
0.044933706521987915 0.54459905624389648 0.10608580708503723
0.15270170569419861 0.56851482391357422 0.055027876049280167
0.32690820097923279 0.59586590528488159 0.029952868819236755
0.4784492552280426 0.6204877495765686 0.022295095026493073
0.59958738088607788 0.6392475962638855 0.017467739060521126
0.70629751682281494 0.65403485298156738 0.0095868725329637527
0.79992389678955078 0.6679491400718689 0.0056236716918647289
0.86299479007720947 0.67570716142654419 0.0012123107444494963
0.9120519757270813 0.68086177110671997 6.8036250013392419e-05
0.95948535203933716 0.68143683671951294 0
0 0.54565203189849854 0.20967604219913483
0 0.55549275875091553 0.1983877569437027
0.0032200682908296585 0.56982004642486572 0.18086397647857666
0.021396741271018982 0.59136813879013062 0.14609096944332123
0.096720993518829346 0.61681050062179565 0.086766742169857025
0.28652378916740417 0.64477312564849854 0.046024233102798462
0.46102902293205261 0.67191821336746216 0.036018058657646179
0.58955645561218262 0.69310140609741211 0.02785022184252739
0.70021313428878784 0.70909816026687622 0.014093690551817417
0.79494458436965942 0.71956974267959595 0.0087478039786219597
0.86699497699737549 0.7293931245803833 0.003504839027300477
0.9162411093711853 0.7327924370765686 0.0020169576164335012
0.96423804759979248 0.73565018177032471 0.002463112585246563
0 0.5802462100982666 0.24982820451259613
0 0.59224534034729004 0.23589076101779938
0.0013518539490178227 0.60647988319396973 0.2196986973285675
0.011901287361979485 0.62951898574829102 0.20317324995994568
0.069921307265758514 0.65593242645263672 0.15444029867649078
0.2496647983789444 0.68403148651123047 0.078765928745269775
0.43987199664115906 0.71539700031280518 0.058601949363946915
0.57575267553329468 0.73709440231323242 0.04454866424202919
0.6861540675163269 0.75314986705780029 0.032310739159584045
0.78420406579971313 0.76576638221740723 0.020987477153539658
0.8670036792755127 0.77838242053985596 0.010196820832788944
0.91512250900268555 0.784443199634552 0.0050543542020022869
0.96079033613204956 0.78279280662536621 0.004652614239603281
0 0.61872553825378418 0.28852418065071106
0 0.63038831949234009 0.27809575200080872
0 0.64367222785949707 0.26298877596855164
0.0030389225576072931 0.66762149333953857 0.25265571475028992
0.040680095553398132 0.69129908084869385 0.21581242978572845
0.17982931435108185 0.72469520568847656 0.14629359543323517
0.40306726098060608 0.75128722190856934 0.097586311399936676
0.56181925535202026 0.77271062135696411 0.074572421610355377
0.67240113019943237 0.79216396808624268 0.060820993036031723
0.77607589960098267 0.80861222743988037 0.043067332357168198
0.86111289262771606 0.81801539659500122 0.022838098928332329
0.91550755500793457 0.82681262493133545 0.014821265824139118
0.96490782499313354 0.83092939853668213 0.0048020156100392342
0 0.68056184053421021 0.33641108870506287
0 0.69203990697860718 0.32911545038223267
0 0.70497864484786987 0.31884938478469849
0.00024167228548321873 0.72835063934326172 0.30900108814239502
0.0058736014179885387 0.7523655891418457 0.28674992918968201
0.082231201231479645 0.78688859939575195 0.22374147176742554
0.29476451873779297 0.81821531057357788 0.15816453099250793
0.51973891258239746 0.84181463718414307 0.12811838090419769
0.65337198972702026 0.85792803764343262 0.10617195814847946
0.76675456762313843 0.87542670965194702 0.085642002522945404
0.85699295997619629 0.88495522737503052 0.052865870296955109
0.92130720615386963 0.89458513259887695 0.034812252968549728
0.97310274839401245 0.90048420429229736 0.022202271968126297
0.04857967421412468 0.026535304263234138 0.047548271715641022
0.13017518818378448 0.028092373162508011 0.039894253015518188
0.22376999258995056 0.031393717974424362 0.034519478678703308
0.35815337300300598 0.031577404588460922 0.023457275703549385
0.46889060735702515 0.03089059516787529 0.01694355346262455
0.55967491865158081 0.029197962954640388 0.011880253441631794
0.62544488906860352 0.023859703913331032 0.011674185283482075
0.66883295774459839 0.015738153830170631 0.011472529731690884
0.70866751670837402 0.010160364210605621 0.0093659944832324982
0.73954522609710693 0.014282510615885258 0.009979248046875
0.76173824071884155 0.026397615671157837 0.0089438939467072487
0.77994883060455322 0.033335443586111069 0.0041790083050727844
0.79954344034194946 0.043136268854141235 0.0047422074712812901
0.0035522012040019035 0.081843085587024689 0.10110168159008026
0.027869550511240959 0.08558761328458786 0.087657183408737183
0.11147855967283249 0.092895060777664185 0.076243966817855835
0.2488170862197876 0.098503857851028442 0.054514162242412567
0.37463077902793884 0.10204196721315384 0.037916161119937897
0.48495626449584961 0.10303813219070435 0.026069685816764832
0.58236056566238403 0.097000271081924438 0.022092139348387718
0.6503983736038208 0.089065194129943848 0.017965354025363922
0.70207506418228149 0.086044341325759888 0.011736327782273293
0.74537783861160278 0.096016630530357361 0.0077466326765716076
0.77977985143661499 0.10559942573308945 0.0065923952497541904
0.80807805061340332 0.11627577245235443 0.0033947513438761234
0.83556389808654785 0.12726874649524689 0.0046276017092168331
0.00081971113104373217 0.14412622153759003 0.12441690266132355
0.022723881527781487 0.1478903740644455 0.10625561326742172
0.10402452200651169 0.15882085263729095 0.090752996504306793
0.21732740104198456 0.16705532371997833 0.068930819630622864
0.34218990802764893 0.17944513261318207 0.047547120600938797
0.45809060335159302 0.18435189127922058 0.032713405787944794
0.56044942140579224 0.18926987051963806 0.02432606928050518
0.64898616075515747 0.19448710978031158 0.020521335303783417
0.70953631401062012 0.20020066201686859 0.012127670459449291
0.75782531499862671 0.2078651487827301 0.0045807482674717903
0.79830420017242432 0.2098461240530014 0.0036964116152375937
0.83455789089202881 0.21413075923919678 0.0034298466052860022
0.86267054080963135 0.22965827584266663 0.0057471180334687233
0.0027094224933534861 0.21886502206325531 0.14702801406383514
0.010087959468364716 0.22211478650569916 0.12631824612617493
0.069297954440116882 0.23216333985328674 0.10076770931482315
0.18816536664962769 0.24627375602722168 0.076880529522895813
0.32139644026756287 0.26511996984481812 0.05841001495718956
0.44432768225669861 0.27689766883850098 0.041226137429475784
0.54790931940078735 0.28747248649597168 0.030850967392325401
0.64793473482131958 0.29691809415817261 0.02231903001666069
0.72278589010238647 0.30392378568649292 0.013485223986208439
0.77425003051757812 0.30765879154205322 0.0041355658322572708
0.82055133581161499 0.31099331378936768 0.0027702031657099724
0.86030882596969604 0.3173372745513916 0.0042317709885537624
0.89265543222427368 0.32362234592437744 0.0047341142781078815
0.0038190954364836216 0.28903353214263916 0.1591392308473587
0.011689967475831509 0.29399165511131287 0.14213795959949493
0.041893303394317627 0.30274456739425659 0.11277769505977631
0.1544501930475235 0.32162913680076599 0.081877388060092926
0.29909822344779968 0.34362700581550598 0.063160866498947144
0.43096581101417542 0.35981771349906921 0.044021472334861755
0.54335671663284302 0.3735998272895813 0.031667314469814301
0.64691805839538574 0.38357263803482056 0.021555732935667038
0.73523318767547607 0.39172789454460144 0.012531534768640995
0.78939306735992432 0.39763137698173523 0.0077257794328033924
0.83642804622650146 0.40277782082557678 0.0043107424862682819
0.88049995899200439 0.40849429368972778 0.0033344642724841833
0.9191058874130249 0.41060242056846619 0.0019041174091398716
0.00097217934671789408 0.35482141375541687 0.1756121814250946
0.0040570427663624287 0.36143666505813599 0.16227179765701294
0.022776046767830849 0.37028971314430237 0.13924367725849152
0.11114367097616196 0.39019328355789185 0.094302035868167877
0.26228857040405273 0.40994939208030701 0.065519757568836212
0.41051337122917175 0.43000969290733337 0.046847324818372726
0.53670167922973633 0.44830873608589172 0.033499535173177719
0.64493876695632935 0.46156686544418335 0.026030281558632851
0.73867905139923096 0.47209924459457397 0.016981326043605804
0.79916346073150635 0.48045966029167175 0.013326084241271019
0.848987877368927 0.48348778486251831 0.0070259394124150276
0.89737600088119507 0.48808342218399048 0.0052059399895370007
0.94097369909286499 0.48978468775749207 0.0043298159725964069
0 0.41412454843521118 0.19742709398269653
0.00010539036156842485 0.42155718803405762 0.18281207978725433
0.0066751665435731411 0.4310133159160614 0.16587825119495392
0.079110585153102875 0.45075234770774841 0.12388256192207336
0.21725961565971375 0.47162029147148132 0.078317828476428986
0.38618797063827515 0.49550840258598328 0.055642027407884598
0.52272087335586548 0.51622146368026733 0.04009735956788063
0.63533103466033936 0.53072661161422729 0.030430857092142105
0.73296242952346802 0.54312294721603394 0.022417061030864716
0.8049808144569397 0.55115163326263428 0.015518099069595337
0.85604965686798096 0.55556505918502808 0.010770131833851337
0.90678662061691284 0.55943173170089722 0.0074431924149394035
0.95359897613525391 0.56350457668304443 0.008894946426153183
0 0.46851426362991333 0.22174763679504395
0 0.47594127058982849 0.20846572518348694
0.0034136453177779913 0.48899650573730469 0.19345872104167938
0.035832364112138748 0.50803464651107788 0.15957528352737427
0.14654657244682312 0.53181600570678711 0.10217101126909256
0.35468041896820068 0.55693978071212769 0.070077113807201385
0.50485938787460327 0.58073455095291138 0.052342060953378677
0.62398093938827515 0.59667152166366577 0.038051020354032516
0.72613275051116943 0.60816013813018799 0.030369970947504044
0.80939197540283203 0.61830365657806396 0.020536191761493683
0.86236679553985596 0.62147504091262817 0.01215800829231739
0.91416823863983154 0.62562233209609985 0.0063765733502805233
0.96327441930770874 0.63289338350296021 0.0057747187092900276
0 0.51913076639175415 0.24548178911209106
0 0.52712607383728027 0.23554691672325134
0.0018733604811131954 0.53990167379379272 0.22229312360286713
0.015297370031476021 0.55960911512374878 0.19451922178268433
0.11617781966924667 0.5844118595123291 0.13912375271320343
0.30965796113014221 0.6117175817489624 0.090437687933444977
0.48214259743690491 0.63527822494506836 0.068334557116031647
0.60730278491973877 0.65123796463012695 0.05484301969408989
0.71504569053649902 0.66512566804885864 0.041018914431333542
0.80857747793197632 0.67886221408843994 0.030187465250492096
0.86662745475769043 0.68195205926895142 0.023338032886385918
0.91503846645355225 0.68704313039779663 0.015222631394863129
0.96510332822799683 0.69014370441436768 0.014343246817588806
0 0.56232935190200806 0.27381452918052673
0 0.57182991504669189 0.26384863257408142
0.0012696807971224189 0.58711379766464233 0.25119128823280334
0.0076339272782206535 0.60620582103729248 0.22886858880519867
0.084215231239795685 0.63154000043869019 0.1793324202299118
0.27021673321723938 0.66118615865707397 0.11639320850372314
0.45758384466171265 0.68740040063858032 0.090405531227588654
0.59223246574401855 0.70456713438034058 0.073051437735557556
0.70537835359573364 0.71959960460662842 0.054098330438137054
0.80031710863113403 0.73134243488311768 0.041906934231519699
0.8697698712348938 0.73846560716629028 0.03695252537727356
0.91785401105880737 0.7409248948097229 0.027017362415790558
0.96774882078170776 0.74438989162445068 0.018607195466756821
0 0.59740012884140015 0.30765625834465027
0 0.60776060819625854 0.29691463708877563
0.00051969639025628567 0.62060528993606567 0.2827315628528595
0.0055895638652145863 0.64276129007339478 0.2671053409576416
0.054032959043979645 0.67050457000732422 0.23071940243244171
0.23895448446273804 0.70151126384735107 0.15888826549053192
0.42818400263786316 0.7314179539680481 0.12075445055961609
0.57425248622894287 0.75312215089797974 0.098437033593654633
0.68967163562774658 0.76781880855560303 0.07926420122385025
0.78977227210998535 0.77854210138320923 0.062026496976613998
0.86823159456253052 0.78878146409988403 0.046056695282459259
0.91909646987915039 0.79244589805603027 0.040020421147346497
0.9685356616973877 0.79609888792037964 0.022482674568891525
0 0.63251352310180664 0.33903029561042786
0 0.64235430955886841 0.33015826344490051
2.1392223061411642e-05 0.65761047601699829 0.31937369704246521
0.0010751462541520596 0.67989319562911987 0.30686873197555542
0.028376920148730278 0.70521330833435059 0.27780145406723022
0.16464544832706451 0.73610407114028931 0.2073395848274231
0.38441741466522217 0.76708889007568359 0.15685111284255981
0.55236947536468506 0.78947073221206665 0.13797155022621155
0.67171823978424072 0.80583649873733521 0.11746571958065033
0.78026849031448364 0.81994104385375977 0.093837827444076538
0.86132979393005371 0.82916033267974854 0.074047550559043884
0.91759800910949707 0.8379741907119751 0.064528882503509521
0.96726405620574951 0.84036099910736084 0.043288048356771469
0 0.69334357976913452 0.38151326775550842
0 0.70087122917175293 0.37329250574111938
0 0.7179449200630188 0.36742737889289856
4.3622185330605134e-05 0.73881286382675171 0.35521328449249268
0.0039152707904577255 0.76663750410079956 0.33916375041007996
0.078177779912948608 0.7969164252281189 0.28420582413673401
0.27528664469718933 0.83131098747253418 0.22133807837963104
0.50352710485458374 0.85658103227615356 0.19362708926200867
0.64797556400299072 0.8735586404800415 0.16725681722164154
0.76509863138198853 0.88505887985229492 0.14073328673839569
0.85975033044815063 0.89925509691238403 0.11854465305805206
0.91978389024734497 0.90768367052078247 0.10455778241157532
0.97322916984558105 0.91161692142486572 0.087605178356170654
0.080090045928955078 0.027334399521350861 0.12824591994285583
0.19295030832290649 0.030205370858311653 0.10267199575901031
0.27392703294754028 0.031821619719266891 0.084824457764625549
0.40226349234580994 0.025607747957110405 0.074271947145462036
0.50470870733261108 0.016401628032326698 0.061650190502405167
0.58561515808105469 0.0099183330312371254 0.058437392115592957
0.64445203542709351 0.0061394637450575829 0.055012691766023636
0.69032752513885498 0.0040739020332694054 0.052217878401279449
0.72846293449401855 0.0039025850128382444 0.058359377086162567
0.75431710481643677 0.0068037891760468483 0.037903670221567154
0.77443534135818481 0.015903173014521599 0.035987824201583862
0.79572212696075439 0.017223462462425232 0.027940383180975914
0.81606554985046387 0.030279556289315224 0.031937409192323685
0.0050618788227438927 0.085311397910118103 0.17338225245475769
0.03512369841337204 0.089611932635307312 0.16144493222236633
0.11977033317089081 0.095085442066192627 0.15123751759529114
0.27349844574928284 0.094011940062046051 0.13279262185096741
0.40494495630264282 0.085199080407619476 0.11139138787984848
0.51391768455505371 0.075655870139598846 0.092883989214897156
0.60294979810714722 0.069200940430164337 0.0840415358543396
0.66714286804199219 0.069661080837249756 0.06646602600812912
0.72010642290115356 0.069412857294082642 0.063698321580886841
0.76278120279312134 0.076249651610851288 0.048456378281116486
0.79378926753997803 0.08147411048412323 0.040045209228992462
0.81985747814178467 0.091178655624389648 0.032926596701145172
0.84444642066955566 0.11158013343811035 0.031720016151666641
0.00096586637664586306 0.14907225966453552 0.20088489353656769
0.01907837763428688 0.15316852927207947 0.18790467083454132
0.11128231883049011 0.16065976023674011 0.17641071975231171
0.23890133202075958 0.16989098489284515 0.1566569060087204
0.37085810303688049 0.17451578378677368 0.13024288415908813
0.48735952377319336 0.17333805561065674 0.10461024940013885
0.58872932195663452 0.1721978634595871 0.086745724081993103
0.67021608352661133 0.18033222854137421 0.068658538162708282
0.7281079888343811 0.18104709684848785 0.056848101317882538
0.77642852067947388 0.1900041252374649 0.049298573285341263
0.81450217962265015 0.18996898829936981 0.036029230803251266
0.84567546844482422 0.19978143274784088 0.031712476164102554
0.87462621927261353 0.21767787635326385 0.029333315789699554
0.00080068252282217145 0.22604405879974365 0.22795693576335907
0.0088917901739478111 0.23084622621536255 0.21247966587543488
0.060022570192813873 0.24006360769271851 0.19553647935390472
0.18953382968902588 0.25607329607009888 0.16662806272506714
0.33714792132377625 0.26769176125526428 0.13693004846572876
0.46973097324371338 0.27653110027313232 0.12254605442285538
0.57456445693969727 0.28304490447044373 0.10324663668870926
0.67363768815994263 0.29186335206031799 0.077312514185905457
0.74109750986099243 0.29655379056930542 0.06084148958325386
0.79116123914718628 0.30140507221221924 0.050424106419086456
0.83453691005706787 0.30484569072723389 0.039513919502496719
0.87279206514358521 0.31165879964828491 0.035544272512197495
0.90232712030410767 0.32037779688835144 0.029651492834091187
0.00026509902090765536 0.2998126745223999 0.24179616570472717
0.0030822604894638062 0.30535644292831421 0.22872117161750793
0.020839227363467216 0.31459546089172363 0.2063373327255249
0.13147351145744324 0.33615371584892273 0.16902312636375427
0.29979664087295532 0.35414263606071472 0.14108957350254059
0.45131132006645203 0.367637038230896 0.12778715789318085
0.56321161985397339 0.37705564498901367 0.110030397772789
0.67127662897109985 0.3851655125617981 0.086397834122180939
0.75352847576141357 0.3926105797290802 0.068980678915977478
0.80469149351119995 0.39863452315330505 0.06025778129696846
0.85043364763259888 0.40332680940628052 0.047869380563497543
0.89445251226425171 0.40837419033050537 0.035638473927974701
