assets/lut/inavision vintage mob.cube
# Created by: G'MIC (https://gmic.eu)
TITLE "vintage_mob"
# LUT size
LUT_3D_SIZE 5
# Data domain
DOMAIN_MIN 0.0 0.0 0.0
DOMAIN_MAX 1.0 1.0 1.0
# LUT data points
0.050419256091117859 0.043461490422487259 0.048159416764974594
0.43818581104278564 0.054487999528646469 0.017410188913345337
0.72491639852523804 0.044254332780838013 0.00049492332618683577
0.81169825792312622 0.042598199099302292 0
0.85583305358886719 0.03325175866484642 0
0.005626424215734005 0.30209267139434814 0.10424439609050751
0.30747920274734497 0.35921511054039001 0.052747286856174469
0.71801114082336426 0.39058575034141541 3.2312730127159739e-06
0.8723481297492981 0.37071529030799866 0
0.91404688358306885 0.33181676268577576 0.001592733315192163
0 0.52772396802902222 0.18714419007301331
0.17106400430202484 0.59235084056854248 0.10516854375600815
0.70701825618743896 0.66543948650360107 0.0053293267264962196
0.91354477405548096 0.6365465521812439 0
0.96878647804260254 0.56915229558944702 0
0.0011684043565765023 0.6595301628112793 0.29759365320205688
0.050746362656354904 0.71272540092468262 0.25035378336906433
0.61660468578338623 0.8028605580329895 0.11510226875543594
0.90789210796356201 0.82369536161422729 0.013663108460605145
0.98741978406906128 0.75802558660507202 1.4002182979311328e-05
0 0.71229004859924316 0.34353145956993103
0.0023691963870078325 0.75656396150588989 0.32766208052635193
0.45894187688827515 0.83143532276153564 0.28743249177932739
0.80144733190536499 0.87888497114181519 0.16607765853404999
0.96543806791305542 0.86783605813980103 0.084982596337795258
0.24797561764717102 0.038863822817802429 0.37200406193733215
0.58730423450469971 0.04268646240234375 0.30627357959747314
0.77847939729690552 0.039976470172405243 0.25190871953964233
0.85250872373580933 0.04174206405878067 0.19473351538181305
0.88047707080841064 0.04830106720328331 0.13528086245059967
0.0075798784382641315 0.34539517760276794 0.43373939394950867
0.36535483598709106 0.3961908221244812 0.40251830220222473
0.77080994844436646 0.42347022891044617 0.35491883754730225
0.91212153434753418 0.42102128267288208 0.3142859935760498
0.9526289701461792 0.41071581840515137 0.27992528676986694
5.8925852499669418e-05 0.59835529327392578 0.48735004663467407
0.17843462526798248 0.65522998571395874 0.46745282411575317
0.73705571889877319 0.71520328521728516 0.43998414278030396
0.93048590421676636 0.68477678298950195 0.38469013571739197
0.99225717782974243 0.63580995798110962 0.34834101796150208
0.027821874246001244 0.71636885404586792 0.51743751764297485
0.070416636765003204 0.77961510419845581 0.50957751274108887
0.64129531383514404 0.85349911451339722 0.50950735807418823
0.9152991771697998 0.87151747941970825 0.4641367495059967
0.99431467056274414 0.81546813249588013 0.41359385848045349
0.00091854919446632266 0.75908452272415161 0.52570241689682007
0.059765640646219254 0.82007843255996704 0.53701663017272949
0.53360062837600708 0.88430076837539673 0.55422914028167725
0.82287836074829102 0.92154973745346069 0.51993709802627563
0.97047245502471924 0.92197448015213013 0.48819616436958313
0.53950661420822144 0.010451522655785084 0.58740150928497314
0.73906505107879639 0.013422543182969093 0.56035226583480835
0.81719982624053955 0.023015445098280907 0.52664226293563843
0.87566840648651123 0.036074589937925339 0.48866474628448486
0.90216779708862305 0.047600928694009781 0.41859328746795654
0.081566125154495239 0.34558013081550598 0.67094546556472778
0.50014978647232056 0.4081379771232605 0.67655068635940552
0.81135988235473633 0.42817229032516479 0.64417916536331177
0.92949050664901733 0.4467252790927887 0.60235655307769775
0.96700876951217651 0.46424654126167297 0.55027633905410767
0 0.64020878076553345 0.73086649179458618
0.29582959413528442 0.70011156797409058 0.73417717218399048
0.77508306503295898 0.75066125392913818 0.720947265625
0.94188189506530762 0.75541824102401733 0.69891953468322754
0.99999356269836426 0.74863111972808838 0.68380725383758545
0.0053777806460857391 0.77340662479400635 0.73771184682846069
0.11085109412670135 0.83609861135482788 0.72928273677825928
0.71894258260726929 0.89518338441848755 0.75178724527359009
0.9266781210899353 0.90837305784225464 0.7371094822883606
0.99923521280288696 0.88157624006271362 0.72087395191192627
0 0.80364716053009033 0.70365637540817261
0.091160088777542114 0.86529576778411865 0.71485006809234619
0.68598282337188721 0.93391591310501099 0.75881707668304443
0.86952668428421021 0.95940881967544556 0.76454275846481323
0.98295080661773682 0.9616207480430603 0.7383231520652771
0.75714409351348877 2.1003274014219642e-05 0.66181409358978271
0.80318522453308105 0.00083582260413095355 0.6479911208152771
0.86536544561386108 0.0083475448191165924 0.62832766771316528
0.88841408491134644 0.0043961917981505394 0.62755239009857178
0.91969472169876099 0.015058764256536961 0.59020477533340454
0.36764979362487793 0.33353456854820251 0.76311838626861572
0.62560355663299561 0.3766571581363678 0.77949529886245728
0.84024906158447266 0.39197185635566711 0.77520978450775146
0.94474619626998901 0.41703683137893677 0.74686592817306519
0.97431594133377075 0.44031813740730286 0.70041406154632568
0.13381822407245636 0.63667154312133789 0.82968753576278687
0.52496063709259033 0.70046830177307129 0.84174567461013794
0.83269375562667847 0.75595557689666748 0.84421485662460327
0.95924645662307739 0.7670663595199585 0.8324131965637207
1 0.77454328536987305 0.81071621179580688
0 0.81354111433029175 0.84745162725448608
0.34686118364334106 0.86719816923141479 0.85838097333908081
0.78403306007385254 0.91307264566421509 0.86664789915084839
0.94302105903625488 0.92784196138381958 0.86396479606628418
0.99903213977813721 0.92748838663101196 0.85945534706115723
0.00080292642815038562 0.84434610605239868 0.82129585742950439
0.27670970559120178 0.90618419647216797 0.83234590291976929
0.75805425643920898 0.96172559261322021 0.8597264289855957
0.91885668039321899 0.97999358177185059 0.87555146217346191
0.9934651255607605 0.97875106334686279 0.86649894714355469
0.83034425973892212 0.00068299536360427737 0.67700445652008057
0.83276534080505371 0 0.67848885059356689
0.86610192060470581 0 0.66940641403198242
0.89883041381835938 0 0.6660764217376709
0.9380723237991333 0 0.65737557411193848
0.51429897546768188 0.23445421457290649 0.79171204566955566
0.69334036111831665 0.35436442494392395 0.81418764591217041
0.82987970113754272 0.37812384963035583 0.81287473440170288
0.92564725875854492 0.38321986794471741 0.79185682535171509
0.98060953617095947 0.40940305590629578 0.77842897176742554
0.39273849129676819 0.58349144458770752 0.86120444536209106
0.64223760366439819 0.65960496664047241 0.87114810943603516
0.85455119609832764 0.73842883110046387 0.88266730308532715
0.94844985008239746 0.76384556293487549 0.87524718046188354
1 0.7566724419593811 0.86148345470428467
0.12771807610988617 0.78356140851974487 0.89609688520431519
0.55336123704910278 0.82524091005325317 0.89809739589691162
0.83538389205932617 0.88216793537139893 0.90402823686599731
0.95208096504211426 0.92528760433197021 0.90166008472442627
0.99949413537979126 0.92893660068511963 0.89469224214553833
0.041885703802108765 0.88747358322143555 0.90275293588638306
0.45173549652099609 0.93235337734222412 0.91057872772216797
0.80264127254486084 0.96552252769470215 0.9126657247543335
0.94101589918136597 0.97913253307342529 0.91089326143264771
0.99960774183273315 0.98189973831176758 0.90433806180953979
