assets/lut/inavision formula b.cube
# Created by: G'MIC (https://gmic.eu)
TITLE "formula_b"
# LUT size
LUT_3D_SIZE 13
# Data domain
DOMAIN_MIN 0.0 0.0 0.0
DOMAIN_MAX 1.0 1.0 1.0
# LUT data points
0.10582069307565689 0.10414742678403854 0.10237593948841095
0.13543377816677094 0.10191894322633743 0.097355470061302185
0.1938786506652832 0.10078675299882889 0.091531924903392792
0.27196228504180908 0.097592279314994812 0.08449060469865799
0.35543382167816162 0.093933314085006714 0.077936761081218719
0.4390048086643219 0.089319042861461639 0.074950695037841797
0.52238374948501587 0.086260266602039337 0.070862777531147003
0.60333985090255737 0.083459757268428802 0.065377674996852875
0.67819052934646606 0.076330222189426422 0.061025254428386688
0.74484193325042725 0.066740177571773529 0.057436984032392502
0.80310505628585815 0.062122747302055359 0.05495307594537735
0.85408937931060791 0.063970483839511871 0.055130843073129654
0.90178781747817993 0.068779006600379944 0.056665025651454926
0.10099933296442032 0.13163591921329498 0.10472811758518219
0.13580620288848877 0.12919200956821442 0.095999203622341156
0.19511117041110992 0.12988893687725067 0.089231185615062714
0.27188014984130859 0.13055114448070526 0.084796741604804993
0.35226795077323914 0.13075838983058929 0.080049373209476471
0.43600979447364807 0.12943008542060852 0.075603559613227844
0.52137660980224609 0.13024792075157166 0.068944729864597321
0.60433828830718994 0.13002748787403107 0.062468539923429489
0.68136918544769287 0.12497610598802567 0.057519171386957169
0.75009304285049438 0.11636630445718765 0.052213840186595917
0.8089560866355896 0.11121920496225357 0.045876357704401016
0.8589211106300354 0.11313497275114059 0.043279223144054413
0.90491312742233276 0.11729459464550018 0.043387573212385178
0.095202051103115082 0.18551342189311981 0.093399316072463989
0.13409079611301422 0.18471971154212952 0.087888576090335846
0.19466069340705872 0.18551184237003326 0.080806240439414978
0.2686743438243866 0.18743675947189331 0.076046079397201538
0.34740817546844482 0.18872043490409851 0.073189981281757355
0.43189305067062378 0.18940646946430206 0.069703809916973114
0.51915919780731201 0.19221492111682892 0.062683016061782837
0.60330253839492798 0.19379110634326935 0.057551231235265732
0.68150126934051514 0.19172383844852448 0.055402807891368866
0.75191760063171387 0.18645015358924866 0.054381951689720154
0.81167632341384888 0.18135571479797363 0.046545125544071198
0.86140972375869751 0.17840443551540375 0.038414601236581802
0.90729600191116333 0.17697246372699738 0.035462174564599991
0.093311280012130737 0.25609597563743591 0.069811157882213593
0.13386671245098114 0.2571713924407959 0.072239607572555542
0.19444048404693604 0.25845706462860107 0.068902000784873962
0.26693248748779297 0.2591463029384613 0.06371181458234787
0.34498500823974609 0.26209214329719543 0.063139311969280243
0.43065676093101501 0.26418194174766541 0.060772586613893509
0.51781129837036133 0.26829648017883301 0.054903484880924225
0.60140275955200195 0.27089035511016846 0.051710046827793121
0.67923820018768311 0.27097609639167786 0.051601231098175049
0.74989897012710571 0.26825466752052307 0.052426133304834366
0.81061685085296631 0.26266077160835266 0.046809867024421692
0.86162865161895752 0.2540431022644043 0.038396257907152176
0.90792113542556763 0.24588264524936676 0.033734727650880814
0.093770675361156464 0.33540287613868713 0.051678676158189774
0.13654226064682007 0.33573207259178162 0.053859502077102661
0.19733346998691559 0.33578431606292725 0.053072430193424225
0.26966714859008789 0.33578431606292725 0.053572218865156174
0.34729099273681641 0.33797654509544373 0.058073695749044418
0.43121081590652466 0.34259074926376343 0.058089088648557663
0.51745182275772095 0.34836235642433167 0.053420975804328918
0.60046708583831787 0.35199561715126038 0.049978744238615036
0.67749601602554321 0.35296642780303955 0.048271536827087402
0.74750280380249023 0.34977817535400391 0.048130739480257034
0.80835574865341187 0.34227883815765381 0.045861728489398956
0.86047536134719849 0.33031770586967468 0.040950071066617966
0.90763598680496216 0.31770259141921997 0.036738555878400803
0.092791490256786346 0.41980889439582825 0.047570500522851944
0.13912759721279144 0.41856774687767029 0.04202646017074585
0.20085383951663971 0.41693690419197083 0.040162343531847
0.27366814017295837 0.4160810112953186 0.044824037700891495
0.351136714220047 0.41749811172485352 0.054282482713460922
0.43406781554222107 0.42261698842048645 0.058206908404827118
0.51898109912872314 0.42878320813179016 0.055405814200639725
0.60164958238601685 0.43259358406066895 0.051956657320261002
0.67805671691894531 0.43268325924873352 0.048384469002485275
0.74682915210723877 0.42809450626373291 0.047445215284824371
0.80687201023101807 0.41820904612541199 0.046900101006031036
0.85887563228607178 0.40392521023750305 0.044755898416042328
0.90644341707229614 0.38898208737373352 0.041318602859973907
0.090195357799530029 0.50618010759353638 0.049355510622262955
0.1384713351726532 0.50464105606079102 0.037846792489290237
0.20108167827129364 0.50242942571640015 0.032887313514947891
0.2745673656463623 0.50111639499664307 0.037154536694288254
0.35424390435218811 0.50201332569122314 0.047601796686649323
0.43763124942779541 0.50549912452697754 0.054004788398742676
0.52138972282409668 0.51006960868835449 0.054278355091810226
0.60272693634033203 0.51324903964996338 0.051678348332643509
0.67871510982513428 0.51186954975128174 0.04824378713965416
0.74683851003646851 0.50538510084152222 0.04706307128071785
0.80596989393234253 0.49296274781227112 0.046953778713941574
0.85719794034957886 0.47661048173904419 0.046970892697572708
0.90454250574111938 0.45990505814552307 0.045856162905693054
0.085924528539180756 0.59115207195281982 0.053197823464870453
0.13522094488143921 0.58988898992538452 0.037368565797805786
0.19818922877311707 0.58799940347671509 0.028793768957257271
0.27335658669471741 0.58680826425552368 0.032045461237430573
0.35583442449569702 0.58745551109313965 0.042313743382692337
0.43984165787696838 0.58909553289413452 0.049429859966039658
0.52277261018753052 0.5906902551651001 0.050385642796754837
0.60271871089935303 0.59093135595321655 0.048005662858486176
0.67847812175750732 0.58953088521957397 0.045900039374828339
0.74643182754516602 0.58235818147659302 0.045425519347190857
0.80499088764190674 0.56861460208892822 0.047151528298854828
0.85566604137420654 0.54993605613708496 0.049074061214923859
0.90262782573699951 0.53106033802032471 0.050993286073207855
0.081607997417449951 0.67007553577423096 0.056798629462718964
0.13114146888256073 0.66913926601409912 0.038783565163612366
0.19437569379806519 0.66804701089859009 0.028842940926551819
0.27096706628799438 0.66809213161468506 0.032181143760681152
0.35523465275764465 0.66813725233078003 0.042957216501235962
0.43923640251159668 0.6681053638458252 0.049280684441328049
0.52066206932067871 0.66754001379013062 0.048046637326478958
0.60008543729782104 0.66690731048583984 0.045234352350234985
0.67552381753921509 0.66511183977127075 0.043856289237737656
0.7442702054977417 0.65855109691619873 0.044271789491176605
0.80341058969497681 0.64452981948852539 0.04673270508646965
0.85400623083114624 0.62432259321212769 0.050840176641941071
0.90120959281921387 0.604248046875 0.0549812912940979
0.078860878944396973 0.73807817697525024 0.058813385665416718
0.12778292596340179 0.73840236663818359 0.040967561304569244
0.19051870703697205 0.73847919702529907 0.031787574291229248
0.26651111245155334 0.73918277025222778 0.035346552729606628
0.3505491316318512 0.74095624685287476 0.046568747609853745
0.43371030688285828 0.73929238319396973 0.051344238221645355
0.5135953426361084 0.73705333471298218 0.049187932163476944
0.59152776002883911 0.73597222566604614 0.045785941183567047
0.66758161783218384 0.73517841100692749 0.044136542826890945
0.73806220293045044 0.73082858324050903 0.044405978173017502
0.79925817251205444 0.71822232007980347 0.046451881527900696
0.85180991888046265 0.69915425777435303 0.050643563270568848
0.9013018012046814 0.67956256866455078 0.055187240242958069
0.077446714043617249 0.79616451263427734 0.058777604252099991
0.12531192600727081 0.79752975702285767 0.041902594268321991
0.18618166446685791 0.79812610149383545 0.033176228404045105
0.25932982563972473 0.79909861087799072 0.036511305719614029
0.34042584896087646 0.80019867420196533 0.045643869787454605
0.42169386148452759 0.79845023155212402 0.051633991301059723
0.5005793571472168 0.79700326919555664 0.05171629786491394
0.57766997814178467 0.79618841409683228 0.049250088632106781
0.65230810642242432 0.79632288217544556 0.047184858471155167
0.72433269023895264 0.79379832744598389 0.04648222029209137
0.78916025161743164 0.78522759675979614 0.047425318509340286
0.84700506925582886 0.77074611186981201 0.050561103969812393
0.90124690532684326 0.75499868392944336 0.054331358522176743
0.077879033982753754 0.84798240661621094 0.058791995048522949
0.12406620383262634 0.84939146041870117 0.042676828801631927
0.18196326494216919 0.85058778524398804 0.034193750470876694
0.25147208571434021 0.85105437040328979 0.03617032989859581
0.32868915796279907 0.85054022073745728 0.044282741844654083
0.40750038623809814 0.84898781776428223 0.0520285964012146
0.48458835482597351 0.84841519594192505 0.054395157843828201
0.55937778949737549 0.84834915399551392 0.0536167211830616
0.63243979215621948 0.84878170490264893 0.051960229873657227
0.70492339134216309 0.84814584255218506 0.05067506805062294
0.7745126485824585 0.84453189373016357 0.050478257238864899
0.83927291631698608 0.83676284551620483 0.052519090473651886
0.89892220497131348 0.82625925540924072 0.055941428989171982
0.079649336636066437 0.89710909128189087 0.060130175203084946
0.12485072016716003 0.89793407917022705 0.045027773827314377
0.18018585443496704 0.89886152744293213 0.036651387810707092
0.24585911631584167 0.89836269617080688 0.037191711366176605
0.31917041540145874 0.89731723070144653 0.045064918696880341
0.39507779479026794 0.89598798751831055 0.053641777485609055
0.46945291757583618 0.89591777324676514 0.057708978652954102
0.54175716638565063 0.89649593830108643 0.057588599622249603
0.61333984136581421 0.89716380834579468 0.056825421750545502
0.68627804517745972 0.89856904745101929 0.055284284055233002
0.75955337285995483 0.89951223134994507 0.054286431521177292
0.82976639270782471 0.89758634567260742 0.055848080664873123
0.89526939392089844 0.89219439029693604 0.059416662901639938
0.10074340552091599 0.10595229268074036 0.13284961879253387
0.13291643559932709 0.10421283543109894 0.12676697969436646
0.19499504566192627 0.098873704671859741 0.12212999910116196
0.27167260646820068 0.093602873384952545 0.12214580178260803
0.35507985949516296 0.087153986096382141 0.1218394860625267
0.44017928838729858 0.081009387969970703 0.12129691988229752
0.52533066272735596 0.077218823134899139 0.1175580769777298
0.60748434066772461 0.072921305894851685 0.11197491735219955
0.68273633718490601 0.063625887036323547 0.10755335539579391
0.74902921915054321 0.051411215215921402 0.10325812548398972
0.80626845359802246 0.044938493520021439 0.1005496010184288
0.85607624053955078 0.047040604054927826 0.1007024422287941
0.90260279178619385 0.052085995674133301 0.1017468050122261
0.084615074098110199 0.13918225467205048 0.14696104824542999
0.12608331441879272 0.13323839008808136 0.13340933620929718
0.19628734886646271 0.12762671709060669 0.12001184374094009
0.27079468965530396 0.12741871178150177 0.11941987276077271
0.35088023543357849 0.12563343346118927 0.12134565412998199
0.43658968806266785 0.12314155697822571 0.11868386715650558
0.52410352230072021 0.1215580478310585 0.11174315214157104
0.60842376947402954 0.1182628720998764 0.10448472201824188
0.68575137853622437 0.11005131155252457 0.097360186278820038
0.75413352251052856 0.097529947757720947 0.087755955755710602
0.81215530633926392 0.090444944798946381 0.079926431179046631
0.86085420846939087 0.095035523176193237 0.081413701176643372
0.90534508228302002 0.10059808194637299 0.083497278392314911
0.072073981165885925 0.1948806494474411 0.14792631566524506
0.11762789636850357 0.19062493741512299 0.13444766402244568
0.19565242528915405 0.18494033813476562 0.11427229642868042
0.27102097868919373 0.18503378331661224 0.11009597778320312
0.34713706374168396 0.18629492819309235 0.11195696890354156
0.43261981010437012 0.18610271811485291 0.10794214159250259
0.52164071798324585 0.18603242933750153 0.099615283310413361
0.60669577121734619 0.18384863436222076 0.09339643269777298
0.68485522270202637 0.17825411260128021 0.088045455515384674
0.75491845607757568 0.1701880544424057 0.080323643982410431
0.81425440311431885 0.16436721384525299 0.072447501122951508
0.86321461200714111 0.16303250193595886 0.069690153002738953
0.90734177827835083 0.16210849583148956 0.069990701973438263
0.069628186523914337 0.26495546102523804 0.13101868331432343
0.11699823290109634 0.26270544528961182 0.12208395451307297
0.19328115880489349 0.25877535343170166 0.10455715656280518
0.27028021216392517 0.25861343741416931 0.097823739051818848
0.34577450156211853 0.26069182157516479 0.099863938987255096
0.43147027492523193 0.26307025551795959 0.095033116638660431
0.52042657136917114 0.26539981365203857 0.085794202983379364
0.60402607917785645 0.26445576548576355 0.081788875162601471
0.68159574270248413 0.26219865679740906 0.078497149050235748
0.75279700756072998 0.25853186845779419 0.075546741485595703
0.81366711854934692 0.25350683927536011 0.070824146270751953
0.86420083045959473 0.24415276944637299 0.066934294998645782
0.90864825248718262 0.23455825448036194 0.066492043435573578
0.072955787181854248 0.34246683120727539 0.11412698775529861
0.12006291747093201 0.34033471345901489 0.10473013669252396
0.19207398593425751 0.33651548624038696 0.089996188879013062
0.27131041884422302 0.33578199148178101 0.085387088358402252
0.34914472699165344 0.33779573440551758 0.090672031044960022
0.43280938267707825 0.34244972467422485 0.089078031480312347
0.51935195922851562 0.34700033068656921 0.082307688891887665
0.60241430997848511 0.34866118431091309 0.07730286568403244
0.67999035120010376 0.34823495149612427 0.073218539357185364
0.75138407945632935 0.34474015235900879 0.07168038934469223
0.8126339316368103 0.33717095851898193 0.071212604641914368
0.86418193578720093 0.32402151823043823 0.069457739591598511
0.90929657220840454 0.30981925129890442 0.067650169134140015
0.074596047401428223 0.42498999834060669 0.10926159471273422
0.12361478805541992 0.42225724458694458 0.093248762190341949
0.19236807525157928 0.41815873980522156 0.078059554100036621
0.27215588092803955 0.41584473848342896 0.074618242681026459
0.35266956686973572 0.4178059995174408 0.081597208976745605
0.43528011441230774 0.4229462742805481 0.085239872336387634
0.51962184906005859 0.42837488651275635 0.082870498299598694
0.60277986526489258 0.43136069178581238 0.078022763133049011
0.68163442611694336 0.43080660700798035 0.073230713605880737
0.75206345319747925 0.4255979061126709 0.071690641343593597
0.8122137188911438 0.41500529646873474 0.072806008160114288
0.86316561698913574 0.39976561069488525 0.071677953004837036
0.9086955189704895 0.38366028666496277 0.070133835077285767
0.073834136128425598 0.51036649942398071 0.1098305955529213
0.12193606793880463 0.50800389051437378 0.088452853262424469
0.18806475400924683 0.50425177812576294 0.071001313626766205
0.26740452647209167 0.50205868482589722 0.066106222569942474
0.3518926203250885 0.50232172012329102 0.072364002466201782
0.43628892302513123 0.50589346885681152 0.078867562115192413
0.52054649591445923 0.51026409864425659 0.079737253487110138
0.60366028547286987 0.51301097869873047 0.076529815793037415
0.68289393186569214 0.51155316829681396 0.072385303676128387
0.75259709358215332 0.50472646951675415 0.070863671600818634
0.81163543462753296 0.49183320999145508 0.0715370774269104
0.86182099580764771 0.47441449761390686 0.071504972875118256
0.90722036361694336 0.45653074979782104 0.071426048874855042
0.069504603743553162 0.5946277379989624 0.11140114068984985
0.11652739346027374 0.59295237064361572 0.085209190845489502
0.18054065108299255 0.58999192714691162 0.063470847904682159
0.2603183388710022 0.58777302503585815 0.057241879403591156
0.34791463613510132 0.5874747633934021 0.06379062682390213
0.43505823612213135 0.58923649787902832 0.070967637002468109
0.51998358964920044 0.59082174301147461 0.07273457944393158
0.60275119543075562 0.59221279621124268 0.070859722793102264
0.68157863616943359 0.59086424112319946 0.069172471761703491
0.75191134214401245 0.58380699157714844 0.068976953625679016
0.81082475185394287 0.57006716728210449 0.069839015603065491
0.86022710800170898 0.5502241849899292 0.071174323558807373
0.90511476993560791 0.52984118461608887 0.072919391095638275
0.064631864428520203 0.67238938808441162 0.11169222742319107
0.11076178401708603 0.67185872793197632 0.083094112575054169
0.17293138802051544 0.66978317499160767 0.059646308422088623
0.2525632381439209 0.66815006732940674 0.053310006856918335
0.34192720055580139 0.6681063175201416 0.060339923948049545
0.43056508898735046 0.66802281141281128 0.06656956672668457
0.51584804058074951 0.66789251565933228 0.066363029181957245
0.59872448444366455 0.66847938299179077 0.064844869077205658
0.67790061235427856 0.66830527782440186 0.065126620233058929
0.74953275918960571 0.66295546293258667 0.065645568072795868
0.80918949842453003 0.64779031276702881 0.067074932157993317
0.85836446285247803 0.62645578384399414 0.069305077195167542
0.90375232696533203 0.60526961088180542 0.073026232421398163
0.061000075191259384 0.74024146795272827 0.11033952236175537
0.10637807101011276 0.74069344997406006 0.082929395139217377
0.16763193905353546 0.73983633518218994 0.062156662344932556
0.24566465616226196 0.73924469947814941 0.056232556700706482
0.33337602019309998 0.73925083875656128 0.061636380851268768
0.42172732949256897 0.73863953351974487 0.066665545105934143
0.5067145824432373 0.73777198791503906 0.065984733402729034
0.58922737836837769 0.73894715309143066 0.064367406070232391
0.66936993598937988 0.74053442478179932 0.064211167395114899
0.7435421347618103 0.73789399862289429 0.064226128160953522
0.80494034290313721 0.72419458627700806 0.064429156482219696
0.8558468222618103 0.70282340049743652 0.067104414105415344
0.90319526195526123 0.68245941400527954 0.07171090692281723
0.059251613914966583 0.79858648777008057 0.10770639032125473
0.10347650200128555 0.79958844184875488 0.08217678964138031
0.16269668936729431 0.79964923858642578 0.063959099352359772
0.23737519979476929 0.79962581396102905 0.058642070740461349
0.32212525606155396 0.79934406280517578 0.063076749444007874
0.40846741199493408 0.79834085702896118 0.067919321358203888
0.49227383732795715 0.79825323820114136 0.069163426756858826
0.57337677478790283 0.7999570369720459 0.067591555416584015
0.65188974142074585 0.80185234546661377 0.065918058156967163
0.72773510217666626 0.8011091947555542 0.064266189932823181
0.7937086820602417 0.79152017831802368 0.063834682106971741
0.85013812780380249 0.77502357959747314 0.066100850701332092
0.902934730052948 0.75753390789031982 0.070562846958637238
0.059471204876899719 0.85038536787033081 0.10521312057971954
0.10235872119665146 0.851096510887146 0.080662667751312256
0.15826220810413361 0.85122513771057129 0.063463367521762848
0.2291070967912674 0.85122549533843994 0.058615323156118393
0.31015267968177795 0.85120117664337158 0.063909225165843964
0.39370134472846985 0.85040616989135742 0.070523202419281006
0.47522562742233276 0.85055994987487793 0.073317177593708038
0.55396193265914917 0.85191923379898071 0.072710566222667694
0.63135755062103271 0.85359519720077515 0.070196621119976044
0.70627379417419434 0.85381561517715454 0.067737430334091187
0.7766653299331665 0.8495674729347229 0.066182337701320648
0.84084653854370117 0.84050148725509644 0.066928774118423462
0.90039908885955811 0.82871073484420776 0.071261189877986908
0.062414132058620453 0.89885681867599487 0.10518764704465866
0.10441399365663528 0.89913159608840942 0.082492738962173462
0.15773935616016388 0.89907020330429077 0.066145308315753937
0.22453553974628448 0.89836132526397705 0.061780009418725967
0.30141609907150269 0.89764779806137085 0.06708100438117981
0.38117685914039612 0.8970751166343689 0.074443355202674866
0.45955222845077515 0.89770638942718506 0.078035302460193634
0.53571152687072754 0.89910268783569336 0.077763229608535767
0.61081337928771973 0.90097814798355103 0.075586028397083282
0.68634974956512451 0.90275311470031738 0.072647109627723694
0.76006758213043213 0.90328514575958252 0.070563435554504395
0.83017927408218384 0.90059196949005127 0.071010708808898926
0.89553892612457275 0.89431005716323853 0.074593938887119293
0.10679485648870468 0.10208138823509216 0.18378807604312897
0.14117300510406494 0.10248130559921265 0.17850783467292786
0.20014373958110809 0.097819007933139801 0.17720137536525726
0.27277359366416931 0.089996263384819031 0.18218377232551575
0.35434368252754211 0.079538203775882721 0.18750374019145966
0.44043359160423279 0.07249787449836731 0.18711544573307037
0.52666252851486206 0.06809958815574646 0.18335816264152527
0.6092522144317627 0.06262950599193573 0.17973332107067108
0.68479269742965698 0.054742880165576935 0.17777132987976074
0.75054562091827393 0.04567718505859375 0.17695713043212891
0.8068840503692627 0.039669007062911987 0.17427597939968109
0.85671913623809814 0.039373092353343964 0.16807426512241364
0.90267848968505859 0.041203219443559647 0.16253122687339783
0.084462471306324005 0.14061596989631653 0.20587719976902008
0.12718592584133148 0.1342809796333313 0.19227132201194763
0.19932696223258972 0.12701752781867981 0.17750968039035797
0.27185782790184021 0.12432494759559631 0.17959032952785492
0.34927654266357422 0.1197829470038414 0.18622982501983643
0.43670234084129333 0.1152341216802597 0.18366539478302002
0.52529764175415039 0.11170045286417007 0.17720991373062134
0.61051750183105469 0.1061268076300621 0.17127999663352966
0.68808978796005249 0.099126093089580536 0.16587664186954498
0.75559616088867188 0.090526208281517029 0.15966750681400299
0.81283414363861084 0.085407555103302002 0.15318951010704041
0.86116147041320801 0.086696282029151917 0.14776724576950073
0.90524882078170776 0.089887030422687531 0.14393910765647888
0.053165405988693237 0.20512829720973969 0.22764240205287933
0.092113211750984192 0.20152378082275391 0.21705934405326843
0.1850067526102066 0.18890507519245148 0.18513999879360199
0.27136361598968506 0.18335306644439697 0.17316825687885284
0.34712934494018555 0.18237076699733734 0.1756463497877121
0.43313056230545044 0.18027088046073914 0.17150479555130005
0.52256852388381958 0.17688408493995667 0.16417281329631805
0.60885214805603027 0.1716156005859375 0.15796570479869843
0.68750780820846558 0.16635563969612122 0.15174518525600433
0.75720876455307007 0.16061964631080627 0.14426103234291077
0.81612026691436768 0.15605035424232483 0.13708119094371796
0.86451011896133423 0.15395680069923401 0.13212844729423523
0.9078410267829895 0.1521289199590683 0.12845979630947113
0.04151153564453125 0.27860257029533386 0.2264220118522644
0.082027330994606018 0.27665567398071289 0.21647828817367554
0.16943587362766266 0.26692184805870056 0.18802051246166229
0.26778045296669006 0.25892370939254761 0.16647791862487793
0.34918203949928284 0.25732874870300293 0.16344663500785828
0.43320268392562866 0.2579074501991272 0.1572173684835434
0.52120345830917358 0.25738775730133057 0.14881278574466705
0.60585397481918335 0.25441440939903259 0.14354059100151062
0.68484622240066528 0.25132733583450317 0.13844487071037292
0.75617110729217529 0.24803037941455841 0.13384737074375153
0.81706327199935913 0.2434210479259491 0.12956744432449341
0.86690628528594971 0.23519304394721985 0.12532119452953339
0.91036981344223022 0.22613544762134552 0.12211571633815765
0.045968104153871536 0.35392045974731445 0.21244539320468903
0.08867289125919342 0.35164278745651245 0.19884678721427917
0.16861683130264282 0.34443956613540649 0.17252428829669952
