assets/lut/inavision nightlife.cube
# Created by: G'MIC (https://gmic.eu)
TITLE "nightlife"
# LUT size
LUT_3D_SIZE 13
# Data domain
DOMAIN_MIN 0.0 0.0 0.0
DOMAIN_MAX 1.0 1.0 1.0
# LUT data points
0.014468428678810596 0.011972748674452305 0.0094799865037202835
0.055525775998830795 0.012124992907047272 0.0099214445799589157
0.11478623002767563 0.014832440763711929 0.01144510880112648
0.21314780414104462 0.017840545624494553 0.011681037023663521
0.34199842810630798 0.018379285931587219 0.008453369140625
0.47628352046012878 0.01917031966149807 0.0074267666786909103
0.59747636318206787 0.021577693521976471 0.012731394730508327
0.70017063617706299 0.021408321335911751 0.016288712620735168
0.78242862224578857 0.018561240285634995 0.012336865998804569
0.8497578501701355 0.015566163696348667 0.0064658820629119873
0.90727835893630981 0.013754302635788918 0.004538816399872303
0.95910030603408813 0.0134785370901227 0.0042500216513872147
0.99764657020568848 0.013818089850246906 0.0031911064870655537
0.014971924014389515 0.044177860021591187 0.0088580558076500893
0.055200029164552689 0.045659203082323074 0.0097129670903086662
0.11220311373472214 0.052061658352613449 0.010985266417264938
0.20647852122783661 0.062818177044391632 0.0095215439796447754
0.33654481172561646 0.072711750864982605 0.0042574862018227577
0.47388526797294617 0.081705339252948761 0.0021255791652947664
0.59499692916870117 0.089065313339233398 0.0048490487970411777
0.69593900442123413 0.090669892728328705 0.0062988582067191601
0.77869254350662231 0.086697280406951904 0.0033690507989376783
0.84692859649658203 0.081016182899475098 0.00058168894611299038
0.90362679958343506 0.076352410018444061 0.00017233456310350448
0.95424157381057739 0.074161738157272339 0.00017233456310350448
0.9954490065574646 0.074046418070793152 4.3981213821098208e-05
0.014943919144570827 0.085122816264629364 0.0094755133613944054
0.055735331028699875 0.086012057960033417 0.0094622895121574402
0.11359487473964691 0.09359123557806015 0.0097640538588166237
0.20571687817573547 0.11266890913248062 0.0084211910143494606
0.33350148797035217 0.13719899952411652 0.0044144722633063793
0.46951591968536377 0.15778675675392151 0.0017330094706267118
0.58880072832107544 0.16901746392250061 0.0014862060779705644
0.68800675868988037 0.17185337841510773 0.0014634375693276525
0.77148038148880005 0.16722962260246277 0.0002310958516318351
0.8409806489944458 0.15876950323581696 0
0.8979419469833374 0.15102784335613251 0
0.94813889265060425 0.14596833288669586 0
0.99228590726852417 0.1432354599237442 0
0.01600271463394165 0.14637339115142822 0.010810582898557186
0.061007287353277206 0.14312431216239929 0.0087391575798392296
0.12116045504808426 0.14664599299430847 0.0075075337663292885
0.21102358400821686 0.16685166954994202 0.006835009902715683
0.33349871635437012 0.20188367366790771 0.0055322684347629547
0.46506461501121521 0.23354896903038025 0.0025933808647096157
0.58117401599884033 0.24881225824356079 0.00064158719033002853
0.68018895387649536 0.25336864590644836 0.00012512206740211695
0.76529502868652344 0.24813884496688843 0
0.83578026294708252 0.2378183901309967 0
0.89203554391860962 0.22819627821445465 0
0.94059926271438599 0.22135551273822784 0
0.98716998100280762 0.21620954573154449 0
0.019738320261240005 0.23321565985679626 0.011749701574444771
0.074491895735263824 0.22828847169876099 0.0072730719111859798
0.1398671418428421 0.2266668975353241 0.0042304694652557373
0.22167803347110748 0.23684090375900269 0.0041271732188761234
0.32909324765205383 0.26372915506362915 0.0047950893640518188
0.45460522174835205 0.29791229963302612 0.0032654856331646442
0.5722583532333374 0.31976267695426941 0.00067763985134661198
0.67476743459701538 0.32672324776649475 0
0.76234781742095947 0.32282105088233948 0
0.83316469192504883 0.31328994035720825 0
0.88635540008544922 0.30439847707748413 0
0.93157351016998291 0.29717898368835449 0
0.97947114706039429 0.29036709666252136 0
0.024145342409610748 0.33799523115158081 0.01079375296831131
0.091053351759910583 0.334795743227005 0.0039403131231665611
0.16606363654136658 0.33084309101104736 0.0010085311951115727
0.24190156161785126 0.32779216766357422 0.0009591046255081892
0.33519721031188965 0.3383033275604248 0.0020426581613719463
0.45108306407928467 0.36521008610725403 0.001841870485804975
0.56656110286712646 0.38814476132392883 0.00042579500586725771
0.67040693759918213 0.3975682258605957 0
0.75968509912490845 0.39475139975547791 5.0264247875020374e-06
0.83031630516052246 0.38627368211746216 0.00053607719019055367
0.88073861598968506 0.3786943256855011 0.0011344760423526168
0.9227403998374939 0.37163105607032776 0.001143227331340313
0.97130560874938965 0.3635522723197937 3.1415154808200896e-05
0.023846615105867386 0.44623824954032898 0.0083466172218322754
0.097484827041625977 0.44414746761322021 0.0012174419825896621
0.18163053691387177 0.44015166163444519 2.1541820842685411e-06
0.26492050290107727 0.43371278047561646 0
0.35616597533226013 0.43438857793807983 0.00011363309749867767
0.46040439605712891 0.44760563969612122 0.00014127843314781785
0.56701004505157471 0.46279960870742798 6.4625460254319478e-06
0.66702014207839966 0.47014087438583374 0
0.75487256050109863 0.46770590543746948 0.00027854769723489881
0.82467269897460938 0.46015146374702454 0.0037920484319329262
0.8755066990852356 0.45219460129737854 0.0039215688593685627
0.91905814409255981 0.44396033883094788 0.0038794572465121746
0.96817737817764282 0.43434047698974609 0.0005030015017837286
0.01973012275993824 0.54282295703887939 0.0059839584864675999
0.093331187963485718 0.54263651371002197 0.00021142399054951966
0.18371458351612091 0.54049009084701538 0
0.27889254689216614 0.53657907247543335 0
0.37388521432876587 0.53339564800262451 0
0.47142472863197327 0.53597366809844971 0
0.56993287801742554 0.5421067476272583 0
0.66440457105636597 0.54511690139770508 0
0.75012701749801636 0.54143399000167847 5.0264247875020374e-06
0.81962740421295166 0.53349405527114868 0.0018044415628537536
0.87204784154891968 0.52461528778076172 0.0028892217669636011
0.9176870584487915 0.51458239555358887 0.0013080522185191512
0.96897351741790771 0.5024789571762085 0
0.017002405598759651 0.62504124641418457 0.0058143767528235912
0.090362131595611572 0.62662643194198608 0.00018750359595287591
0.18341141939163208 0.62603503465652466 0
0.2840372622013092 0.62426263093948364 0
0.38155394792556763 0.6203036904335022 0
0.4763965904712677 0.61841589212417603 0
0.56988692283630371 0.61948055028915405 0
0.6613386869430542 0.6187395453453064 0
0.74652785062789917 0.61347907781600952 0
0.81752270460128784 0.60504239797592163 4.6673944780195598e-06
0.86973530054092407 0.59525203704833984 0.00016530354332644492
0.91667574644088745 0.58358085155487061 1.7113779904320836e-05
0.97040581703186035 0.56932789087295532 0
0.01701037771999836 0.69669842720031738 0.0075888540595769882
0.091125920414924622 0.69810158014297485 0.00077433866681531072
0.18315443396568298 0.69762992858886719 0
0.28245699405670166 0.69539278745651245 0
0.37986701726913452 0.69277465343475342 0
0.4731471836566925 0.69090569019317627 0
0.56464213132858276 0.69043362140655518 0
0.65471196174621582 0.68868094682693481 0
0.74021977186203003 0.68315982818603516 0
0.81217145919799805 0.67468500137329102 0
0.86540412902832031 0.66482502222061157 0
0.91207069158554077 0.65254700183868408 0
0.96653980016708374 0.63766372203826904 0
0.018471498042345047 0.75966840982437134 0.009845060296356678
0.092066638171672821 0.76016330718994141 0.0020959442481398582
0.18098685145378113 0.7590639591217041 1.4720243598276284e-05
0.27632942795753479 0.75658363103866577 0
0.37098348140716553 0.75510627031326294 0
0.46256783604621887 0.75490784645080566 0
0.5530388355255127 0.75497996807098389 0
0.64268004894256592 0.7539554238319397 0
0.7294231653213501 0.74916183948516846 0
0.80374133586883545 0.74140983819961548 0
0.85891300439834595 0.73250007629394531 0
0.90381449460983276 0.72182029485702515 0
0.95770519971847534 0.70743876695632935 0
0.020287083461880684 0.81735557317733765 0.011183794587850571
0.092261895537376404 0.81708347797393799 0.0038561352994292974
0.1760781854391098 0.81529116630554199 0.00046165316598489881
0.26615405082702637 0.81261509656906128 0
0.35733109712600708 0.81117630004882812 0
0.44816893339157104 0.81216162443161011 0
0.53873050212860107 0.81336438655853271 0
0.62917184829711914 0.81355184316635132 9.4634408014826477e-05
0.71739119291305542 0.81088739633560181 0.00018321018433198333
0.79477387666702271 0.8046269416809082 5.6996063904080074e-06
0.85351592302322388 0.79716265201568604 0
0.8996281623840332 0.78816342353820801 0
0.95146125555038452 0.77560818195343018 0
0.022441834211349487 0.87254339456558228 0.012306662276387215
0.092183999717235565 0.87151503562927246 0.0058964747004210949
0.17118628323078156 0.86913818120956421 0.0021256988402456045
0.25561875104904175 0.86640453338623047 0.00072947482112795115
0.34341543912887573 0.86481165885925293 0.00092083797790110111
0.43368440866470337 0.86613357067108154 0.0013733807718381286
0.52502459287643433 0.86899596452713013 0.0016022776253521442
0.61617362499237061 0.87067776918411255 0.0026260674931108952
0.70410454273223877 0.86867547035217285 0.0031063305214047432
0.78272926807403564 0.86468929052352905 0.0014771705027669668
0.84580743312835693 0.85869425535202026 0
0.89571142196655273 0.85124838352203369 0
0.94824659824371338 0.8405158519744873 0
0.011886387132108212 0.011282169260084629 0.034607082605361938
0.052696753293275833 0.011435640044510365 0.036263752728700638
0.11485721170902252 0.012817711569368839 0.042590107768774033
0.21254183351993561 0.014881178736686707 0.051845476031303406
0.34107348322868347 0.015444961376488209 0.057146992534399033
0.47589012980461121 0.014385866932570934 0.060145061463117599
0.59743303060531616 0.014591261744499207 0.070332743227481842
0.69919335842132568 0.012483619153499603 0.076964102685451508
0.78134948015213013 0.0091680344194173813 0.073638081550598145
0.84911942481994629 0.0074375225231051445 0.064245440065860748
0.90557730197906494 0.0067042331211268902 0.060897871851921082
0.95630878210067749 0.0069861467927694321 0.058754775673151016
0.99650323390960693 0.008389805443584919 0.050853054970502853
0.012465727515518665 0.044520583003759384 0.033444125205278397
0.052659217268228531 0.045973744243383408 0.03469543531537056
0.11269378662109375 0.048899825662374496 0.038765326142311096
0.20847634971141815 0.056504763662815094 0.042533110827207565
0.33756905794143677 0.063979126513004303 0.041558824479579926
0.47483167052268982 0.070934683084487915 0.041245553642511368
0.59667086601257324 0.075858339667320251 0.048957586288452148
0.69745534658432007 0.074600115418434143 0.053687196224927902
0.77928429841995239 0.069439098238945007 0.04766329750418663
0.84651792049407959 0.064964696764945984 0.036880239844322205
0.90215069055557251 0.061571173369884491 0.034392219036817551
0.9515576958656311 0.060701064765453339 0.033047109842300415
0.99428075551986694 0.062828093767166138 0.026756301522254944
0.012755106203258038 0.085279308259487152 0.035381779074668884
0.053238064050674438 0.087082311511039734 0.034336268901824951
0.11384042352437973 0.094128988683223724 0.034304987639188766
0.20790617167949677 0.10943048447370529 0.033486206084489822
0.33546051383018494 0.12867100536823273 0.030608652159571648
0.47060611844062805 0.14635860919952393 0.026822453364729881
0.59163415431976318 0.15505416691303253 0.028166916221380234
0.69119799137115479 0.15542863309383392 0.029222689568996429
0.77422785758972168 0.1504899263381958 0.021447919309139252
0.84276002645492554 0.14327070116996765 0.012036132626235485
0.89838862419128418 0.13608996570110321 0.010921343229711056
0.94755744934082031 0.13177976012229919 0.011002080515027046
0.99171680212020874 0.1312088817358017 0.0095078861340880394
0.012680158019065857 0.14449021220207214 0.040512744337320328
0.05686868354678154 0.1440512090921402 0.0356026291847229
0.1198275089263916 0.15106901526451111 0.030249247327446938
0.21183381974697113 0.1698191910982132 0.026557743549346924
0.33385160565376282 0.19938710331916809 0.023541124537587166
0.4660150408744812 0.22696438431739807 0.017866695299744606
0.58459889888763428 0.23942233622074127 0.014731164090335369
0.68450236320495605 0.24061077833175659 0.013360012322664261
0.76886767148971558 0.23468312621116638 0.0070778792724013329
0.83854657411575317 0.22504718601703644 0.0022688622120767832
0.8943055272102356 0.21542952954769135 0.0021286311093717813
0.9429011344909668 0.20893822610378265 0.0028831032104790211
0.98867201805114746 0.20556120574474335 0.0033603443298488855
0.01437530480325222 0.22942577302455902 0.045290343463420868
0.066579081118106842 0.22732545435428619 0.035484686493873596
0.13454537093639374 0.22960904240608215 0.026066005229949951
0.2215789258480072 0.24106219410896301 0.021593011915683746
0.33338466286659241 0.26804128289222717 0.019797232002019882
0.4589085578918457 0.30000999569892883 0.016041655093431473
0.5767521858215332 0.31751084327697754 0.011060258373618126
0.67880892753601074 0.32090848684310913 0.0075427484698593616
0.76517027616500854 0.31474897265434265 0.0038157892413437366
0.83464175462722778 0.30426979064941406 0.0016401103930547833
0.88887166976928711 0.29460352659225464 0.0015337925869971514
0.9356764554977417 0.28771421313285828 0.0019370584050193429
0.98298954963684082 0.2821330726146698 0.0026944328565150499
0.016901832073926926 0.33340913057327271 0.046244274824857712
0.078970924019813538 0.33257868885993958 0.030774328857660294
0.15569151937961578 0.33112254738807678 0.018191633746027946
0.23939104378223419 0.33057111501693726 0.013694403693079948
0.34090456366539001 0.34336844086647034 0.01340382918715477
0.4572090208530426 0.3698543906211853 0.01213492639362812
0.57129859924316406 0.39070537686347961 0.0092663932591676712
0.67363464832305908 0.39714738726615906 0.0073174270801246166
0.76078623533248901 0.39155104756355286 0.0052408552728593349
0.83019489049911499 0.38178274035453796 0.0047370609827339649
0.88237988948822021 0.37248295545578003 0.0048856399953365326
0.92715448141098022 0.3652799129486084 0.0054669696837663651
0.97509723901748657 0.35789275169372559 0.0054872999899089336
0.01454481203109026 0.44235286116600037 0.043710939586162567
0.08046424388885498 0.44266459345817566 0.022310279309749603
0.16559876501560211 0.44039317965507507 0.0084856366738677025
0.2563730776309967 0.43489867448806763 0.0049401973374187946
0.35568919777870178 0.43651044368743896 0.0055752475745975971
0.4633994996547699 0.45073351263999939 0.0060740453191101551
0.57013875246047974 0.46621900796890259 0.0054688844829797745
0.66929608583450317 0.47152310609817505 0.0049502654001116753
0.75567877292633057 0.46719667315483093 0.006017094012349844
0.82440030574798584 0.4576011598110199 0.0070093791000545025
0.87563568353652954 0.44855022430419922 0.0069438409991562366
0.91960591077804565 0.44035324454307556 0.0067551108077168465
0.96835923194885254 0.43102553486824036 0.0075520533137023449
0.0084957052022218704 0.54156303405761719 0.040010340511798859
0.070232897996902466 0.5421825647354126 0.014105583541095257
0.16203929483890533 0.54085469245910645 0.0027799569070339203
0.26449304819107056 0.53663760423660278 0.00090991752222180367
0.36787289381027222 0.53383982181549072 0.0010655571240931749
0.47089144587516785 0.53807073831558228 0.0014382904628291726
0.57055246829986572 0.54519075155258179 0.0015194163424894214
0.66566169261932373 0.54739373922348022 0.0019085154635831714
0.75100696086883545 0.54141169786453247 0.004054380115121603
0.81963872909545898 0.53146851062774658 0.0063416273333132267
0.87040358781814575 0.5220068097114563 0.0058660469949245453
0.91341167688369751 0.51289725303649902 0.0036809584125876427
0.96400457620620728 0.50127261877059937 0.0046463459730148315
0.0056213377974927425 0.62654250860214233 0.040659405291080475
0.065449416637420654 0.6283489465713501 0.01466637384146452
0.16062933206558228 0.62686967849731445 0.0026796977035701275
0.2684418261051178 0.624012291431427 0.00021540324087254703
0.37387567758560181 0.6207391619682312 0
0.47406473755836487 0.62058579921722412 6.055644917069003e-05
0.57046759128570557 0.62132257223129272 0.00024897258845157921
0.66303783655166626 0.62048614025115967 0.00068124511744827032
0.74831420183181763 0.61352348327636719 0.0024833828210830688
0.81790131330490112 0.60303425788879395 0.0047189150936901569
0.86769753694534302 0.59306079149246216 0.0036013585049659014
0.91026198863983154 0.58274334669113159 0.0013622358674183488
0.96307319402694702 0.56895500421524048 0.0027348387520760298
0.0060329362750053406 0.69892245531082153 0.045793958008289337
0.068886853754520416 0.70008069276809692 0.022413576021790504
0.16391150653362274 0.69855237007141113 0.0056923064403235912
0.27042347192764282 0.6955837607383728 0.00022343653836287558
0.37376463413238525 0.69334018230438232 0
0.4714735746383667 0.69217342138290405 0
0.56591808795928955 0.69204413890838623 0
0.65776729583740234 0.68972396850585938 0.00046980613842606544
0.74359357357025146 0.68294680118560791 0.0017789504490792751
0.81441420316696167 0.67318868637084961 0.0028414109256118536
0.86649531126022339 0.66256582736968994 0.0025135115720331669
0.91154366731643677 0.65058749914169312 0.0019337073899805546
0.9650159478187561 0.63540947437286377 0.0023121554404497147
0.0075691970996558666 0.76261788606643677 0.050720378756523132
0.072419382631778717 0.76295888423919678 0.029889633879065514
0.1647200733423233 0.76009494066238403 0.010481949895620346
0.26653772592544556 0.75721317529678345 0.00091793586034327745
0.36575621366500854 0.75514703989028931 0
0.46096041798591614 0.75514703989028931 0
0.55455553531646729 0.75608032941818237 0.00013674567162524909
0.64691197872161865 0.75474870204925537 0.00093524408293887973
0.73438131809234619 0.74934428930282593 0.0019632226321846247
0.80851805210113525 0.74069309234619141 0.0019437004812061787
0.86327826976776123 0.73102986812591553 0.0011779485503211617
0.90839838981628418 0.71917963027954102 0.00069243489997461438
0.9624062180519104 0.70386278629302979 0.00084120809333398938
0.0097687067463994026 0.82029169797897339 0.053082995116710663
0.074540562927722931 0.81915396451950073 0.035074122250080109
0.16056309640407562 0.81642776727676392 0.017180828377604485
0.2550845742225647 0.81347644329071045 0.0046287537552416325
0.35052677989006042 0.81218743324279785 0.0007334989495575428
0.44485831260681152 0.81289327144622803 0.00050647213356569409
0.53906786441802979 0.81481248140335083 0.0016631929902359843
0.63237202167510986 0.81483632326126099 0.0036897845566272736
0.72142624855041504 0.81136775016784668 0.0044744303449988365
0.79885691404342651 0.80476886034011841 0.0026024761609733105
0.85643923282623291 0.79710519313812256 0.00051535811508074403
0.90046244859695435 0.78750395774841309 0
0.95233380794525146 0.77393245697021484 2.3531445549451746e-05
0.012796199880540371 0.87465149164199829 0.054316189140081406
0.077609598636627197 0.87295991182327271 0.038907188922166824
0.15682531893253326 0.87001091241836548 0.024040192365646362
0.24416936933994293 0.86715519428253174 0.013000907376408577
0.33522877097129822 0.86565899848937988 0.0074346354231238365
0.42860874533653259 0.86708223819732666 0.0066484487615525723
0.52308839559555054 0.86968910694122314 0.0079055186361074448
0.61627978086471558 0.87095588445663452 0.0095938593149185181
0.70498126745223999 0.86974227428436279 0.0095297722145915031
0.78249871730804443 0.86547183990478516 0.0067664352245628834
0.8430250883102417 0.86001682281494141 0.0020056331995874643
0.89165174961090088 0.8523399829864502 7.4872783443424851e-05
0.94516515731811523 0.8407130241394043 0
0.011984357610344887 0.011568436399102211 0.06714707612991333
0.054846819490194321 0.01087474450469017 0.068154819309711456
0.11607380211353302 0.010863943956792355 0.077179461717605591
0.21154429018497467 0.011329246684908867 0.096987403929233551
0.33669659495353699 0.010945757851004601 0.11824007332324982
0.47068098187446594 0.0098060155287384987 0.13270561397075653
0.59378015995025635 0.0086259432137012482 0.14621983468532562
0.69613105058670044 0.0058097988367080688 0.15319597721099854
0.77831840515136719 0.0032774533610790968 0.15084582567214966
0.8466532826423645 0.0032879996579140425 0.14261533319950104
0.90301454067230225 0.0032919491641223431 0.14029258489608765
0.9531557559967041 0.0033525056205689907 0.13464294373989105
0.99517393112182617 0.004446874838322401 0.12162625044584274
0.014046179130673409 0.044968727976083755 0.0652618408203125
0.055774271488189697 0.044182181358337402 0.066871941089630127
0.11669087409973145 0.044360261410474777 0.074250318109989166
0.21036942303180695 0.04627106711268425 0.087768539786338806
0.33573818206787109 0.050835806876420975 0.1004670262336731
0.47113323211669922 0.056602910161018372 0.1087186336517334
0.59499257802963257 0.058438081294298172 0.11861507594585419
0.6965256929397583 0.054795566946268082 0.12354541569948196
0.77765476703643799 0.050059061497449875 0.11890365183353424
0.84520566463470459 0.049265634268522263 0.10924838483333588
0.89949494600296021 0.047429043799638748 0.10801973193883896
0.9484291672706604 0.046648826450109482 0.10544780641794205
0.99254322052001953 0.049883075058460236 0.095071442425251007
0.013128332793712616 0.085998266935348511 0.068699777126312256
0.053963322192430496 0.087140105664730072 0.068405225872993469
0.11639935523271561 0.090494103729724884 0.069465339183807373
0.21043869853019714 0.098672442138195038 0.073945291340351105
0.33566176891326904 0.11169818043708801 0.077720880508422852
0.47007769346237183 0.12523935735225677 0.077129095792770386
0.59182083606719971 0.12969198822975159 0.080051302909851074
0.69257056713104248 0.12760618329048157 0.083351954817771912
0.77547508478164673 0.12477601319551468 0.076399907469749451
0.84253662824630737 0.1221294030547142 0.065484888851642609
0.89757663011550903 0.11662209033966064 0.066896431148052216
0.94620305299758911 0.11333766579627991 0.068653896450996399
0.99094879627227783 0.11490806192159653 0.065789163112640381
0.0094788195565342903 0.14495839178562164 0.079230889678001404
0.051747772842645645 0.14496995508670807 0.07323010265827179
0.11670631170272827 0.15035021305084229 0.065514057874679565
0.21060352027416229 0.16355307400226593 0.06075325608253479
0.33303344249725342 0.18694354593753815 0.059156276285648346
0.46661975979804993 0.20924948155879974 0.052463006228208542
0.58645665645599365 0.21554020047187805 0.048939783126115799
0.68746829032897949 0.21335698664188385 0.049872454255819321
0.7715376615524292 0.20871120691299438 0.045019727200269699
0.84004718065261841 0.2027660608291626 0.037001948803663254
0.89518022537231445 0.19522765278816223 0.03890826553106308
0.94453436136245728 0.19057890772819519 0.042478598654270172
0.98993432521820068 0.18998491764068604 0.043496869504451752
0.0082717295736074448 0.22610901296138763 0.090706214308738708
0.054310444742441177 0.22535613179206848 0.078337877988815308
0.12288028746843338 0.2274433821439743 0.063296057283878326
0.21436093747615814 0.2361370325088501 0.054452456533908844
0.33178016543388367 0.26214241981506348 0.051183663308620453
0.46073535084724426 0.29256850481033325 0.045209158211946487
0.57944107055664062 0.30426299571990967 0.038683589547872543
0.6813543438911438 0.30353400111198425 0.036309231072664261
0.76680153608322144 0.29577267169952393 0.032161369919776917
0.83562815189361572 0.28590857982635498 0.027695644646883011
0.89090323448181152 0.27761301398277283 0.02843831293284893
0.9398912787437439 0.27256011962890625 0.031266231089830399
0.9870600700378418 0.26997262239456177 0.033711601048707962
0.0096470406278967857 0.32793536782264709 0.097066678106784821
0.061513639986515045 0.32790622115135193 0.077396124601364136
0.1349220871925354 0.32700660824775696 0.056800946593284607
0.22605949640274048 0.32689386606216431 0.045135796070098877
0.33665105700492859 0.34169831871986389 0.041446864604949951
0.45873215794563293 0.36895599961280823 0.038265451788902283
