assets/lut/inavision film gb-19.cube
# Created by: G'MIC (https://gmic.eu)
TITLE "film_gb-19"
# LUT size
LUT_3D_SIZE 5
# Data domain
DOMAIN_MIN 0.0 0.0 0.0
DOMAIN_MAX 1.0 1.0 1.0
# LUT data points
0.026030296459794044 0.017313789576292038 0.025686495006084442
0.21113435924053192 0.035969782620668411 0.034901008009910583
0.54312491416931152 0.083950340747833252 0.068086318671703339
0.90513569116592407 0.14318308234214783 0.11395790427923203
1 0.15742164850234985 0.12653294205665588
0.061216063797473907 0.20364154875278473 0.047849137336015701
0.20911364257335663 0.19186244904994965 0.050662532448768616
0.537952721118927 0.17411988973617554 0.078645117580890656
0.89863729476928711 0.16588005423545837 0.1133531928062439
1 0.17114655673503876 0.1331581175327301
0.13604371249675751 0.52814400196075439 0.1128985807299614
0.2224687933921814 0.51180684566497803 0.11399386823177338
0.53737503290176392 0.49587205052375793 0.1239064559340477
0.90020281076431274 0.4527679979801178 0.14326928555965424
0.9994158148765564 0.33516994118690491 0.14364901185035706
0.23615041375160217 0.86276686191558838 0.19200116395950317
0.26528790593147278 0.85959511995315552 0.1910155862569809
0.52554237842559814 0.84695899486541748 0.19536761939525604
0.903983473777771 0.82803404331207275 0.20595301687717438
1 0.78518885374069214 0.20441719889640808
0.26674190163612366 0.97943228483200073 0.21176470816135406
0.28274434804916382 0.95939761400222778 0.21568627655506134
0.47745507955551147 0.96337342262268066 0.22122460603713989
0.87369227409362793 0.96177965402603149 0.23538225889205933
0.99907159805297852 0.96455836296081543 0.23487073183059692
0.034340187907218933 0.029121818020939827 0.1581302285194397
0.20186445116996765 0.037832267582416534 0.1527540385723114
0.54081273078918457 0.08831787109375 0.14488232135772705
0.90368622541427612 0.14194466173648834 0.14165309071540833
1 0.16164110600948334 0.12839362025260925
0.057546578347682953 0.19603994488716125 0.16115814447402954
0.19506585597991943 0.18360653519630432 0.15352162718772888
0.5314716100692749 0.17187677323818207 0.14699800312519073
0.90029293298721313 0.16793249547481537 0.14308148622512817
0.99826490879058838 0.15664900839328766 0.12595979869365692
0.14143460988998413 0.51274269819259644 0.17927438020706177
0.2158944308757782 0.5086061954498291 0.17429044842720032
0.53091239929199219 0.4867655336856842 0.16286575794219971
0.8927229642868042 0.4439605176448822 0.15884129703044891
0.99877834320068359 0.31790512800216675 0.14871521294116974
0.23635509610176086 0.85812872648239136 0.22403943538665771
0.26196968555450439 0.85545283555984497 0.21832174062728882
0.52362143993377686 0.843406081199646 0.21423713862895966
0.89518278837203979 0.82555818557739258 0.213134765625
0.99882304668426514 0.78540658950805664 0.2074282318353653
0.26626396179199219 0.96337556838989258 0.23204588890075684
0.26915895938873291 0.96090960502624512 0.23563298583030701
0.47071382403373718 0.9620252251625061 0.22733183205127716
0.88243645429611206 0.97067177295684814 0.23915638029575348
0.99721884727478027 0.96390742063522339 0.2433948814868927
0.050956171005964279 0.051895681768655777 0.42085763812065125
0.16735923290252686 0.056212242692708969 0.41100656986236572
0.51454132795333862 0.093067869544029236 0.40009015798568726
0.88384473323822021 0.14388696849346161 0.3678794801235199
1 0.16536544263362885 0.29842579364776611
0.066508695483207703 0.1669427752494812 0.41447001695632935
0.16489169001579285 0.16089071333408356 0.41337046027183533
0.51129180192947388 0.15291790664196014 0.39824959635734558
0.89006704092025757 0.1630818247795105 0.371315598487854
0.99920344352722168 0.16157452762126923 0.28982540965080261
0.1424100250005722 0.49881133437156677 0.4211864173412323
0.19070306420326233 0.4864533543586731 0.4132668673992157
0.50988131761550903 0.4703533947467804 0.40489163994789124
0.87727433443069458 0.41802632808685303 0.37127837538719177
0.99910283088684082 0.31098535656929016 0.2908845841884613
0.23888678848743439 0.84297508001327515 0.42896807193756104
0.24827297031879425 0.84379786252975464 0.4219849705696106
0.50664746761322021 0.84377586841583252 0.41167667508125305
0.88559013605117798 0.82160192728042603 0.38132515549659729
0.99928337335586548 0.77509278059005737 0.32245784997940063
0.26666668057441711 0.95394682884216309 0.42154723405838013
0.26078587770462036 0.96077579259872437 0.4128153920173645
0.4541231095790863 0.95744794607162476 0.40744921565055847
0.86187100410461426 0.96475708484649658 0.3736407458782196
0.99924784898757935 0.97817158699035645 0.31102195382118225
0.08617033064365387 0.090377047657966614 0.7315983772277832
0.12667116522789001 0.087516769766807556 0.72777962684631348
0.45528391003608704 0.1110040694475174 0.73587048053741455
0.86275202035903931 0.15617027878761292 0.72265559434890747
1 0.1778663694858551 0.68077725172042847
0.090332269668579102 0.14082549512386322 0.73576802015304565
0.13108998537063599 0.13351936638355255 0.74120879173278809
0.44899278879165649 0.1383223831653595 0.73112308979034424
0.87094414234161377 0.16219289600849152 0.71989715099334717
1 0.18192869424819946 0.67676836252212524
0.14506770670413971 0.45959556102752686 0.73379164934158325
0.16124780476093292 0.45029613375663757 0.73232889175415039
0.44607436656951904 0.42805954813957214 0.72883135080337524
0.8561820387840271 0.38242068886756897 0.71550554037094116
0.99793839454650879 0.27008864283561707 0.68822741508483887
0.24015186727046967 0.83587181568145752 0.7424771785736084
0.24171562492847443 0.83048397302627563 0.74467301368713379
0.44490307569503784 0.82332378625869751 0.73367762565612793
0.86164569854736328 0.80384039878845215 0.72480630874633789
0.99842381477355957 0.75717580318450928 0.68702304363250732
0.2758718729019165 0.96247553825378418 0.7354121208190918
0.27731120586395264 0.96152722835540771 0.73365873098373413
0.39704632759094238 0.96302992105484009 0.73748797178268433
0.84681445360183716 0.96906691789627075 0.71592926979064941
0.99985063076019287 0.98051160573959351 0.67545127868652344
0.071587599813938141 0.1051279678940773 0.8857187032699585
0.071974374353885651 0.10586081445217133 0.88308393955230713
0.30540752410888672 0.11247627437114716 0.88441008329391479
0.81014358997344971 0.15565720200538635 0.88520795106887817
1 0.17966440320014954 0.88741189241409302
0.10836636275053024 0.11355993151664734 0.88242417573928833
0.11821043491363525 0.12109527736902237 0.88216227293014526
0.3455122709274292 0.12160306423902512 0.88244140148162842
0.81583225727081299 0.15481814742088318 0.88403850793838501
1 0.18330223858356476 0.89192360639572144
0.13750556111335754 0.3536180853843689 0.88334625959396362
0.13335534930229187 0.35146236419677734 0.88579601049423218
0.28128549456596375 0.32061463594436646 0.88235938549041748
0.80098444223403931 0.27319648861885071 0.88746744394302368
0.9993208646774292 0.2139347642660141 0.88938480615615845
0.23506937921047211 0.7996516227722168 0.90018689632415771
0.23604476451873779 0.79825222492218018 0.90113598108291626
0.32455158233642578 0.78533923625946045 0.89958351850509644
0.80098837614059448 0.76229655742645264 0.90600645542144775
0.99979323148727417 0.69232511520385742 0.90826869010925293
0.27322995662689209 0.97148191928863525 0.93252229690551758
0.26350799202919006 0.97141033411026001 0.93056511878967285
0.3087235689163208 0.97074717283248901 0.92547094821929932
0.76610153913497925 0.97012770175933838 0.94233244657516479
0.99920594692230225 0.98995357751846313 0.98170191049575806
