assets/lut/inavision brown mobster.cube
# Created by: G'MIC (https://gmic.eu)
TITLE "brown_mobster"
# LUT size
LUT_3D_SIZE 13
# Data domain
DOMAIN_MIN 0.0 0.0 0.0
DOMAIN_MAX 1.0 1.0 1.0
# LUT data points
0.001219521276652813 0.0010627746814861894 0.0019431619439274073
0.047527913004159927 0.0014114679070189595 0.0047371508553624153
0.18690897524356842 0.0032806096132844687 0.011285041458904743
0.34084931015968323 0.0057399822399020195 0.016320576891303062
0.46611747145652771 0.0067245783284306526 0.02057514525949955
0.56158977746963501 0.0067727481946349144 0.020379804074764252
0.62253057956695557 0.011127128265798092 0.018779844045639038
0.66024315357208252 0.014921928755939007 0.014472841285169125
0.69001978635787964 0.0061430986970663071 0.0091240974143147469
0.70006424188613892 0.01226362306624651 0.0094620948657393456
0.69957458972930908 0.023441972211003304 0.014626013115048409
0.69231206178665161 0.019766848534345627 0.012393771670758724
0.68861711025238037 0.01184559240937233 0.0094667617231607437
0.0025705075822770596 0.037984631955623627 0.0092129576951265335
0.058194447308778763 0.046047825366258621 0.010150549933314323
0.19764192402362823 0.047483645379543304 0.014901942573487759
0.35092473030090332 0.045721974223852158 0.019433608278632164
0.47130289673805237 0.039428874850273132 0.024059519171714783
0.56961923837661743 0.026604028418660164 0.027093237265944481
0.63313418626785278 0.018312117084860802 0.028439734131097794
0.67350089550018311 0.020063648000359535 0.028050007298588753
0.70257699489593506 0.014537900686264038 0.026721371337771416
0.71315294504165649 0.032545831054449081 0.027886798605322838
0.71668010950088501 0.043336037546396255 0.027084769681096077
0.71604031324386597 0.034032784402370453 0.025298831984400749
0.71756798028945923 0.028490148484706879 0.026725335046648979
0.0061113694682717323 0.14428366720676422 0.014977024868130684
0.06791193038225174 0.15599343180656433 0.013775560073554516
0.20584733784198761 0.16247105598449707 0.01477336511015892
0.36314100027084351 0.16763389110565186 0.019730616360902786
0.48699495196342468 0.15979085862636566 0.024572573602199554
0.57708513736724854 0.14289924502372742 0.028669783845543861
0.64202064275741577 0.12802764773368835 0.032034315168857574
0.68352138996124268 0.11436817049980164 0.032632101327180862
0.71273994445800781 0.093409746885299683 0.033989999443292618
0.72971069812774658 0.083521164953708649 0.036102805286645889
0.74157047271728516 0.066935203969478607 0.03656330332159996
0.74064111709594727 0.051310654729604721 0.035393867641687393
0.73987293243408203 0.056542042642831802 0.035870272666215897
0.03269544243812561 0.27265658974647522 0.016025183722376823
0.083930060267448425 0.28047436475753784 0.016982000321149826
0.21523085236549377 0.28817492723464966 0.017619429156184196
0.375467449426651 0.30093282461166382 0.019642595201730728
0.49900105595588684 0.29699873924255371 0.023243069648742676
0.58626914024353027 0.28187477588653564 0.028052670881152153
0.65187948942184448 0.26072117686271667 0.031454436480998993
0.69478636980056763 0.23160859942436218 0.033625911921262741
0.71970343589782715 0.20587506890296936 0.035564109683036804
0.73725134134292603 0.17967735230922699 0.03661225363612175
0.74885642528533936 0.15448471903800964 0.03845832496881485
0.75082707405090332 0.13802097737789154 0.039636470377445221
0.74967354536056519 0.12723574042320251 0.039575792849063873
0.075995728373527527 0.36346679925918579 0.021575270220637321
0.11315900087356567 0.37193572521209717 0.021713929250836372
0.21851916611194611 0.38522666692733765 0.02070402167737484
0.37641227245330811 0.40052890777587891 0.021629184484481812
0.51139968633651733 0.40650388598442078 0.024931695312261581
0.60597437620162964 0.39204448461532593 0.027847424149513245
0.66657251119613647 0.36756452918052673 0.030195035040378571
0.70674431324005127 0.33547937870025635 0.032636873424053192
0.72908270359039307 0.30529192090034485 0.034572869539260864
0.74437552690505981 0.27194350957870483 0.035331215709447861
0.75111252069473267 0.24554169178009033 0.036434412002563477
0.75347113609313965 0.22096717357635498 0.038441542536020279
0.7528805136680603 0.20821937918663025 0.039249002933502197
0.092247560620307922 0.42105570435523987 0.024399207904934883
0.13237012922763824 0.43195238709449768 0.025050114840269089
0.22152873873710632 0.44605353474617004 0.023838536813855171
0.36162236332893372 0.46230599284172058 0.023422360420227051
0.49850574135780334 0.47548490762710571 0.026406366378068924
0.613994300365448 0.47977730631828308 0.028313774615526199
0.68179690837860107 0.46052449941635132 0.029849227517843246
0.7203972339630127 0.42608720064163208 0.030960725620388985
0.74118638038635254 0.39207988977432251 0.033471394330263138
0.75389528274536133 0.35532483458518982 0.033662188798189163
0.75710391998291016 0.31517884135246277 0.032242853194475174
0.75602763891220093 0.28692477941513062 0.035150669515132904
0.75476032495498657 0.27703589200973511 0.035778239369392395
0.10622615367174149 0.45935621857643127 0.025485813617706299
0.13910193741321564 0.4702116847038269 0.027448646724224091
0.21782869100570679 0.48434898257255554 0.02741597406566143
0.34024423360824585 0.49935510754585266 0.026039483025670052
0.46846383810043335 0.51243692636489868 0.02742219902575016
0.58774107694625854 0.52374470233917236 0.029697073623538017
0.68124550580978394 0.5236365795135498 0.031414017081260681
0.73175203800201416 0.49958664178848267 0.032118193805217743
0.75302070379257202 0.46507126092910767 0.032412584871053696
0.76477259397506714 0.42962288856506348 0.032275091856718063
0.76730042695999146 0.39100196957588196 0.031853079795837402
0.76580590009689331 0.36040392518043518 0.033749211579561234
0.76400351524353027 0.3484988808631897 0.035280115902423859
0.10405119508504868 0.48236581683158875 0.023577162995934486
0.1349090039730072 0.49227708578109741 0.026656432077288628
0.20582191646099091 0.50779801607131958 0.027661401778459549
0.31246930360794067 0.52274394035339355 0.027450980618596077
0.43020308017730713 0.5350487232208252 0.027450980618596077
0.54139643907546997 0.54471045732498169 0.02933787927031517
0.64519733190536499 0.55380582809448242 0.031665518879890442
0.73560500144958496 0.55817067623138428 0.03332856297492981
0.76303577423095703 0.52829825878143311 0.033753100782632828
0.77523344755172729 0.49665474891662598 0.032702159136533737
0.77743995189666748 0.45854824781417847 0.031494621187448502
0.7752184271812439 0.42799395322799683 0.031575489789247513
0.77332013845443726 0.41734227538108826 0.033333349972963333
0.10424402356147766 0.4970666766166687 0.023529412224888802
0.13301512598991394 0.5068473219871521 0.026571162045001984
0.19499972462654114 0.52188503742218018 0.028021181002259254
0.29257339239120483 0.53610748052597046 0.027450980618596077
0.39009955525398254 0.54795980453491211 0.027518657967448235
0.49480971693992615 0.55780231952667236 0.030279526486992836
0.59614843130111694 0.56654161214828491 0.031670186668634415
0.69195860624313354 0.57548791170120239 0.034600816667079926
0.76116687059402466 0.5740208625793457 0.035294119268655777
0.78524947166442871 0.54804366827011108 0.034946784377098083
0.78641676902770996 0.51133489608764648 0.032627720385789871
0.78272140026092529 0.48361822962760925 0.03166879341006279
0.78018414974212646 0.47416254878044128 0.03162853792309761
0.10822205245494843 0.50519979000091553 0.023529412224888802
0.13186843693256378 0.51345092058181763 0.02579365111887455
0.17896033823490143 0.52716487646102905 0.027471983805298805
0.26934897899627686 0.54217052459716797 0.027450980618596077
0.35806319117546082 0.55297315120697021 0.027450980618596077
0.45513030886650085 0.56282687187194824 0.029977118596434593
0.55257701873779297 0.57219082117080688 0.031722962856292725
0.64228439331054688 0.58119505643844604 0.035076815634965897
0.72089534997940063 0.58828896284103394 0.035231690853834152
0.77862566709518433 0.5850258469581604 0.035294119268655777
0.79462128877639771 0.55873453617095947 0.034424036741256714
0.79024404287338257 0.52973383665084839 0.03322957456111908
0.78671574592590332 0.51745122671127319 0.033080607652664185
0.10802226513624191 0.50999027490615845 0.023529412224888802
0.12969626486301422 0.51770013570785522 0.025155968964099884
0.16762737929821014 0.5297359824180603 0.027450980618596077
0.24275659024715424 0.54244238138198853 0.02745564840734005
0.32250198721885681 0.5542188286781311 0.027450980618596077
0.40768995881080627 0.56392091512680054 0.028555896133184433
0.50569236278533936 0.57319444417953491 0.031358156353235245
0.58970093727111816 0.58102041482925415 0.032346747815608978
0.66170179843902588 0.58733928203582764 0.032904800027608871
0.73093467950820923 0.5924372673034668 0.034254651516675949
0.78779464960098267 0.59013628959655762 0.035294119268655777
0.79864311218261719 0.57065653800964355 0.035243555903434753
0.79402291774749756 0.56102150678634644 0.035492677241563797
0.1029055267572403 0.51177656650543213 0.022805172950029373
0.12332374602556229 0.52003931999206543 0.024162381887435913
0.15848018229007721 0.5310823917388916 0.027424173429608345
0.22082962095737457 0.54402917623519897 0.027481766417622566
0.29091852903366089 0.55967080593109131 0.027505373582243919
0.36822640895843506 0.56592738628387451 0.027528978884220123
0.45231416821479797 0.5717199444770813 0.02886333130300045
0.5388113260269165 0.58028304576873779 0.031274877488613129
0.61486035585403442 0.58598983287811279 0.031877122819423676
0.68464046716690063 0.59225785732269287 0.032539382576942444
0.75172430276870728 0.5981026291847229 0.034984901547431946
0.79863518476486206 0.60121744871139526 0.035294119268655777
0.80474269390106201 0.59733784198760986 0.035431805998086929
0.10554590821266174 0.54061782360076904 0.020439222455024719
0.12871219217777252 0.55461400747299194 0.022788252681493759
0.14463485777378082 0.56549537181854248 0.027328431606292725
0.18095310032367706 0.57426756620407104 0.028938846662640572
0.22691333293914795 0.59026044607162476 0.031289972364902496
0.30980625748634338 0.59979736804962158 0.031043319031596184
0.39991611242294312 0.60478657484054565 0.030734192579984665
0.49388965964317322 0.61652666330337524 0.031356211751699448
0.58669811487197876 0.62318944931030273 0.032740350812673569
0.66480213403701782 0.62631815671920776 0.034719638526439667
0.73855900764465332 0.63357776403427124 0.035233441740274429
0.79705381393432617 0.63978362083435059 0.03736216202378273
0.81980645656585693 0.64143991470336914 0.038480393588542938
0.0020487317815423012 0.0016697004903107882 0.019660156220197678
0.047311924397945404 0.0022699094843119383 0.024807484820485115
0.18809017539024353 0.0010579576482996345 0.030739085748791695
0.34476900100708008 0.0038896000478416681 0.035726316273212433
0.46305787563323975 0.0034859450533986092 0.036968771368265152
0.55277717113494873 0.0018575780559331179 0.034070391207933426
0.61811631917953491 0.0032849630806595087 0.031856164336204529
0.66502279043197632 0.0061492021195590496 0.02904713898897171
0.68609410524368286 0.0036939883138984442 0.024979371577501297
0.69751608371734619 0.0065846461802721024 0.023408418521285057
0.69709944725036621 0.0082822013646364212 0.022969130426645279
0.69281286001205444 0.0088144037872552872 0.019659290090203285
0.69208222627639771 0.005820046178996563 0.01950257271528244
0.0021696651820093393 0.03745555505156517 0.027350600808858871
0.059999041259288788 0.045845944434404373 0.028273414820432663
0.20529823005199432 0.049116980284452438 0.032572459429502487
0.35779431462287903 0.046196043491363525 0.037934649735689163
0.47518831491470337 0.045882221311330795 0.039518110454082489
0.56525999307632446 0.034136183559894562 0.041988685727119446
0.63573074340820312 0.031736843287944794 0.041550192981958389
0.68049371242523193 0.028571484610438347 0.043003052473068237
0.70634061098098755 0.024056872352957726 0.042357023805379868
0.72719013690948486 0.040371254086494446 0.041702374815940857
0.73221713304519653 0.043409984558820724 0.040776629000902176
0.72875738143920898 0.040302559733390808 0.038135230541229248
0.72588026523590088 0.038291078060865402 0.037341218441724777
0.0029025955591350794 0.14757664501667023 0.031170982867479324
0.070594221353530884 0.15986233949661255 0.030420685186982155
0.2208486795425415 0.17393754422664642 0.029717404395341873
0.3749789297580719 0.17174026370048523 0.033217590302228928
0.49232891201972961 0.16096553206443787 0.037918210029602051
0.58541715145111084 0.15624439716339111 0.04419853538274765
0.65163999795913696 0.14591574668884277 0.046135801821947098
0.69427406787872314 0.13146764039993286 0.048552256077528
0.72289806604385376 0.12378238141536713 0.049777012318372726
0.74259346723556519 0.11772309988737106 0.05085938423871994
0.75198882818222046 0.10171878337860107 0.051330968737602234
0.7507140040397644 0.091618523001670837 0.050888944417238235
0.75314581394195557 0.097110748291015625 0.051708415150642395
0.011229496449232101 0.2757532000541687 0.026166489347815514
0.080077216029167175 0.28546503186225891 0.028771448880434036
0.23058605194091797 0.29896783828735352 0.027623644098639488
0.38618478178977966 0.30687287449836731 0.027449904009699821
0.50515985488891602 0.30103293061256409 0.031229041516780853
0.59484457969665527 0.29093605279922485 0.038996048271656036
0.65928345918655396 0.27350339293479919 0.043024789541959763
0.70284217596054077 0.24622830748558044 0.045702047646045685
0.72901815176010132 0.22691643238067627 0.049003690481185913
0.74509704113006592 0.20536704361438751 0.049304723739624023
0.7526976466178894 0.18466661870479584 0.050581268966197968
0.75495004653930664 0.17341709136962891 0.051954545080661774
0.75579279661178589 0.1677955687046051 0.053879637271165848
0.042006444185972214 0.36146119236946106 0.02772553451359272
0.097659200429916382 0.37394946813583374 0.029386498034000397
0.22877076268196106 0.39005303382873535 0.027936898171901703
0.38459014892578125 0.40445902943611145 0.027697484940290451
0.51461607217788696 0.40931814908981323 0.029420441016554832
0.61045694351196289 0.39821118116378784 0.032521028071641922
0.67177170515060425 0.3750469982624054 0.035237763077020645
0.71170550584793091 0.34731847047805786 0.039224017411470413
0.73713606595993042 0.32021939754486084 0.047086004167795181
0.7526739239692688 0.29085662961006165 0.048358485102653503
0.75770193338394165 0.26278224587440491 0.04848911240696907
0.75897330045700073 0.24173463881015778 0.049316525459289551
0.75799268484115601 0.23812098801136017 0.051656343042850494
0.073590114712715149 0.42169687151908875 0.02808767557144165
0.11890861392021179 0.43521410226821899 0.030373202636837959
0.23157584667205811 0.45155856013298035 0.030203396454453468
0.37063887715339661 0.46596428751945496 0.029418302699923515
0.50332599878311157 0.47787374258041382 0.029697073623538017
0.61941397190093994 0.48308953642845154 0.032452721148729324
0.68710130453109741 0.46455520391464233 0.033525444567203522
0.72476577758789062 0.43365269899368286 0.03709971159696579
0.74848586320877075 0.40156412124633789 0.04261963814496994
0.76270097494125366 0.36950558423995972 0.045602221041917801
0.76519280672073364 0.33312740921974182 0.045229353010654449
0.76322454214096069 0.30499231815338135 0.046420197933912277
0.76266211271286011 0.2994295060634613 0.048499461263418198
0.090648263692855835 0.45905998349189758 0.028115037828683853
0.13975620269775391 0.4741395115852356 0.03143475204706192
0.23473814129829407 0.49109894037246704 0.032922033220529556
0.35649001598358154 0.50398111343383789 0.031297869980335236
0.47757333517074585 0.51543903350830078 0.031983394175767899
0.59472167491912842 0.52630466222763062 0.034377589821815491
0.6913456916809082 0.52998757362365723 0.035138837993144989
0.73793971538543701 0.50545507669448853 0.0368003249168396
0.75962561368942261 0.4719875156879425 0.037570714950561523
0.77242648601531982 0.43747386336326599 0.037895232439041138
0.77474677562713623 0.40261566638946533 0.04078076034784317
0.77220600843429565 0.37411713600158691 0.043920315802097321
0.77074408531188965 0.36242210865020752 0.042830090969800949
0.091365605592727661 0.48291602730751038 0.026933886110782623
0.14215110242366791 0.49697732925415039 0.030966755002737045
0.22730730473995209 0.51460713148117065 0.034897912293672562
0.33451920747756958 0.52689486742019653 0.033813208341598511
0.44556280970573425 0.53807389736175537 0.033008456230163574
0.55091887712478638 0.54826313257217407 0.033465307205915451
0.65313994884490967 0.55796247720718384 0.034758206456899643
0.74043047428131104 0.56039488315582275 0.036799158900976181
0.76937234401702881 0.53430664539337158 0.037381086498498917
0.78195422887802124 0.50294399261474609 0.037394728511571884
0.78406298160552979 0.46516269445419312 0.040769226849079132
0.78109127283096313 0.43689167499542236 0.040536545217037201
0.77985990047454834 0.42882570624351501 0.038120642304420471
0.09666888415813446 0.49797359108924866 0.025737462565302849
0.14213947951793671 0.512096107006073 0.030413100495934486
0.22102491557598114 0.5298038125038147 0.034248635172843933
0.31256416440010071 0.54092001914978027 0.033130001276731491
0.41195452213287354 0.5519108772277832 0.032510720193386078
0.51038116216659546 0.56111454963684082 0.033420339226722717
0.60461336374282837 0.5692901611328125 0.035276405513286591
0.6964184045791626 0.57805609703063965 0.037258177995681763
0.7685779333114624 0.57994025945663452 0.037246778607368469
0.79265642166137695 0.55409163236618042 0.037403721362352371
0.79353570938110352 0.51832497119903564 0.039859171956777573
0.788707435131073 0.48990985751152039 0.039117954671382904
0.78628188371658325 0.48088726401329041 0.03762449324131012
0.10483616590499878 0.50755590200424194 0.025238890200853348
0.14340949058532715 0.51969015598297119 0.030179865658283234
0.2080063670873642 0.53538364171981812 0.033710196614265442
0.29366156458854675 0.54889476299285889 0.033490274101495743
0.38207441568374634 0.55887597799301147 0.033449508249759674
0.46836277842521667 0.56813633441925049 0.033576980233192444
0.55760258436203003 0.57631504535675049 0.035760574042797089
0.64047682285308838 0.58440899848937988 0.037208735942840576
0.72458517551422119 0.59228146076202393 0.037834480404853821
0.78605860471725464 0.5908467173576355 0.03751048818230629
0.80278372764587402 0.56631088256835938 0.039285518229007721
0.79712438583374023 0.53823387622833252 0.039636455476284027
0.7925412654876709 0.52732002735137939 0.037620723247528076
0.10277086496353149 0.51127368211746216 0.024349227547645569
0.14331480860710144 0.52390825748443604 0.029381098225712776
0.20035161077976227 0.53896123170852661 0.033462043851613998
0.27938327193260193 0.55161416530609131 0.035263795405626297
0.35733994841575623 0.56171119213104248 0.035789027810096741
0.43072390556335449 0.57034182548522949 0.034482859075069427
0.5180860161781311 0.57813996076583862 0.036614794284105301
0.59683346748352051 0.58478391170501709 0.038560334593057632
0.66889995336532593 0.59124261140823364 0.03706810250878334
0.74274933338165283 0.59911125898361206 0.037958301603794098
0.79472041130065918 0.59622019529342651 0.038303166627883911
0.80301588773727417 0.57504910230636597 0.038884751498699188
0.7993776798248291 0.56544750928878784 0.039295870810747147
0.097926944494247437 0.5126335620880127 0.021323634311556816
0.13752149045467377 0.52918684482574463 0.025971686467528343
0.1958366185426712 0.54338622093200684 0.032446440309286118
0.25843155384063721 0.55333048105239868 0.033244039863348007
0.32481718063354492 0.56212949752807617 0.033215362578630447
0.39565649628639221 0.57150852680206299 0.033690359443426132
0.47536453604698181 0.57792729139328003 0.036094933748245239
0.55643200874328613 0.58497375249862671 0.038532465696334839
0.6254761815071106 0.59016656875610352 0.036735698580741882
0.69319772720336914 0.59593325853347778 0.037203636020421982
0.7585303783416748 0.60225939750671387 0.037641651928424835
0.80224686861038208 0.60270708799362183 0.038579318672418594
0.80703741312026978 0.59703558683395386 0.040023878216743469
0.10390243679285049 0.54491055011749268 0.010521623305976391
0.15407790243625641 0.56662875413894653 0.019829947501420975
0.19485226273536682 0.57826578617095947 0.028444461524486542
0.22662748396396637 0.58665215969085693 0.030179776251316071
0.27905541658401489 0.59563589096069336 0.032140154391527176
0.34517234563827515 0.60708403587341309 0.033119231462478638
0.43126040697097778 0.61124229431152344 0.034602414816617966
0.52113336324691772 0.61773025989532471 0.036525309085845947
0.60093522071838379 0.62715458869934082 0.035928778350353241
0.67481648921966553 0.63018894195556641 0.037965394556522369
0.74820762872695923 0.63646191358566284 0.038729153573513031
0.80484741926193237 0.64299160242080688 0.040408160537481308
0.82089066505432129 0.64090508222579956 0.041669134050607681
0.00090726965572685003 0.002537895692512393 0.063729181885719299
0.018245711922645569 0.0016542322700843215 0.068511396646499634
0.17460350692272186 0.00081463984679430723 0.076859444379806519
0.34581863880157471 0.0019446727819740772 0.082006402313709259
0.46530267596244812 0.0022587645798921585 0.082084968686103821
0.55000293254852295 0.00097111723152920604 0.074866950511932373
0.61460286378860474 0.00028572831070050597 0.069936729967594147
0.65934842824935913 0.0011404149699956179 0.062310222536325455
0.68542575836181641 0.00018944834300782531 0.056755214929580688
0.69433170557022095 0.0010656918166205287 0.050592970103025436
0.69781202077865601 0.0028207218274474144 0.044691123068332672
0.69219839572906494 0.0011787863913923502 0.036151375621557236
0.69180649518966675 0.0036751991137862206 0.037947487086057663
0.0027019574772566557 0.030023852363228798 0.071746557950973511
0.0511959008872509 0.042071592062711716 0.076068326830863953
0.20409677922725677 0.048985142260789871 0.085233710706233978
0.36436668038368225 0.040544949471950531 0.088566333055496216
0.48160272836685181 0.032566983252763748 0.088732294738292694
0.57074522972106934 0.022450914606451988 0.084822200238704681
0.63823813199996948 0.020570507273077965 0.08195844292640686
0.68453186750411987 0.018484123051166534 0.078830912709236145
0.71086007356643677 0.026633035391569138 0.073769107460975647
0.73002433776855469 0.031081974506378174 0.069721236824989319
0.73699057102203369 0.032527878880500793 0.065486237406730652
0.73296266794204712 0.034937750548124313 0.058387532830238342
0.73221749067306519 0.036719482392072678 0.059449873864650726
0.007613492663949728 0.14036305248737335 0.078845560550689697
0.071068406105041504 0.15729238092899323 0.082814507186412811
0.2229938805103302 0.17250652611255646 0.080494672060012817
0.38351011276245117 0.17272627353668213 0.080399893224239349
0.50400930643081665 0.16530025005340576 0.083154790103435516
0.59650027751922607 0.16840110719203949 0.083523541688919067
0.66187363862991333 0.1622326523065567 0.0829201340675354
0.70760053396224976 0.15422643721103668 0.084987059235572815
0.73712277412414551 0.15986520051956177 0.084170699119567871
0.75486433506011963 0.15296699106693268 0.081999793648719788
0.76206833124160767 0.153375044465065 0.081192240118980408
0.76395213603973389 0.14925900101661682 0.080721266567707062
0.76127618551254272 0.15616254508495331 0.078972280025482178
0.016836129128932953 0.27466505765914917 0.079554647207260132
0.077220842242240906 0.28894886374473572 0.078696444630622864
0.23675742745399475 0.30281996726989746 0.06559424102306366
0.39554238319396973 0.3106018602848053 0.064914360642433167
0.51798409223556519 0.30875441431999207 0.069653347134590149
0.60819846391677856 0.30248120427131653 0.075416043400764465
0.67270290851593018 0.29177048802375793 0.079823650419712067
0.71743512153625488 0.27881494164466858 0.083743058145046234
0.74635088443756104 0.26993697881698608 0.089931055903434753
0.76285374164581299 0.25833606719970703 0.092478089034557343
0.76954871416091919 0.24969714879989624 0.092409782111644745
0.770946204662323 0.24519306421279907 0.092460662126541138
