assets/lut/inavision 7drk 21.cube
# Created by: G'MIC (https://gmic.eu)
TITLE "7drk_21"
# LUT size
LUT_3D_SIZE 5
# Data domain
DOMAIN_MIN 0.0 0.0 0.0
DOMAIN_MAX 1.0 1.0 1.0
# LUT data points
0.0017799825873225927 0.0011187833733856678 0
0.14224416017532349 0 1.3463637515087612e-05
0.36365425586700439 0 0
0.62577700614929199 0 0
0.82941174507141113 0 2.8004365958622657e-05
0 0.1307959258556366 0
0.14592841267585754 0.12888996303081512 0
0.36539152264595032 0.17919625341892242 0
0.62552851438522339 0.22762270271778107 0.00024794036289677024
0.82787430286407471 0.22776100039482117 0
0.0051823337562382221 0.37098389863967896 0.0014199500437825918
0.19621443748474121 0.37175089120864868 0.00028101602219976485
0.36974456906318665 0.38467821478843689 0
0.62687671184539795 0.46225184202194214 0
0.82941174507141113 0.47277197241783142 5.4931639169808477e-05
0 0.68773853778839111 0
0.20365500450134277 0.68369811773300171 0.00075397867476567626
0.44227319955825806 0.68380564451217651 0.0037177142221480608
0.63456952571868896 0.69630652666091919 0.00032248403294943273
0.83273804187774658 0.7043800950050354 0
0 0.97914707660675049 0
0.22747652232646942 0.96769046783447266 0
0.46814748644828796 0.97971373796463013 0.0021049648057669401
0.65604668855667114 0.9685937762260437 0.00013786765339318663
0.84096002578735352 0.97246474027633667 0
0 0 0.079631909728050232
0.14332903921604156 0.0028923035133630037 0.080369777977466583
0.36076062917709351 0.0046218126080930233 0.13397803902626038
0.62756872177124023 0.011961664073169231 0.18800725042819977
0.8278888463973999 0.011039539240300655 0.1758127361536026
0.0021356618963181973 0.12571610510349274 0.079102776944637299
0.14514006674289703 0.12745270133018494 0.078855879604816437
0.3730522096157074 0.12500134110450745 0.080423302948474884
0.63533550500869751 0.13067421317100525 0.081361971795558929
0.84228336811065674 0.093798018991947174 0.059787929058074951
0.019020918756723404 0.37183958292007446 0.12625324726104736
0.13694353401660919 0.37491065263748169 0.066136151552200317
0.3739396333694458 0.38521715998649597 0.042153138667345047
0.63128572702407837 0.44625180959701538 0.035878770053386688
0.83877754211425781 0.44581064581871033 0.032479662448167801
0.023820959031581879 0.68738782405853271 0.17653925716876984
0.13573506474494934 0.68877911567687988 0.065363787114620209
0.41136869788169861 0.68625944852828979 0.027861261740326881
0.63111978769302368 0.69439411163330078 0.030734267085790634
0.83239907026290894 0.69043260812759399 0.035908360034227371
0.0074379267171025276 0.97326183319091797 0.17890284955501556
0.1394755095243454 0.97467595338821411 0.079818084836006165
0.41834017634391785 0.97164607048034668 0.00015124153287615627
0.6482200026512146 0.97332859039306641 0.004661979153752327
0.83972001075744629 0.96865737438201904 0.0030420192051678896
0 0 0.33854019641876221
0.19234736263751984 0.0027462230063974857 0.33677205443382263
0.38283294439315796 0.0088329389691352844 0.36792609095573425
0.62374120950698853 0.00026379752671346068 0.42792192101478577
0.82868832349777222 0.0033241272903978825 0.44946730136871338
0.0012894425308331847 0.17474658787250519 0.32996863126754761
0.14336740970611572 0.12729206681251526 0.34822708368301392
0.37955448031425476 0.10890839248895645 0.35808616876602173
0.63595199584960938 0.079926073551177979 0.41334202885627747
0.84572076797485352 0.078998029232025146 0.40227618813514709
0.0077201994135975838 0.3772922158241272 0.33881783485412598
0.11280206590890884 0.37984725832939148 0.34507575631141663
0.36830398440361023 0.37290725111961365 0.32671976089477539
0.64380413293838501 0.37789037823677063 0.32651647925376892
0.85811585187911987 0.36829414963722229 0.3086073100566864
0.014917755499482155 0.68182945251464844 0.4257013201713562
0.091345034539699554 0.68648046255111694 0.40318781137466431
0.34509432315826416 0.69329458475112915 0.28915989398956299
0.63278651237487793 0.69302254915237427 0.27137789130210876
0.85396826267242432 0.67451876401901245 0.27383327484130859
0.0018808103632181883 0.97331911325454712 0.44659507274627686
0.064737312495708466 0.97372394800186157 0.3965451717376709
0.32855251431465149 0.97765815258026123 0.21587492525577545
0.6225927472114563 0.97960072755813599 0.18395332992076874
0.84894347190856934 0.97360897064208984 0.17408828437328339
0 0 0.68111628293991089
0.22592516243457794 0.0029365390073508024 0.67979496717453003
0.44732815027236938 0.0060662813484668732 0.68854790925979614
0.63500881195068359 0.00037119249464012682 0.69785851240158081
0.82752329111099243 0.0040609920397400856 0.69523823261260986
0.025415772572159767 0.22811307013034821 0.67013585567474365
0.13572491705417633 0.12213712185621262 0.71251410245895386
0.43186965584754944 0.087939903140068054 0.69865107536315918
0.64042162895202637 0.084377065300941467 0.70777231454849243
0.84424632787704468 0.086400158703327179 0.69908452033996582
0.00076851935591548681 0.45805490016937256 0.67636954784393311
0.10667247325181961 0.44775664806365967 0.69193726778030396
0.37055414915084839 0.37068384885787964 0.69859308004379272
0.64321482181549072 0.35779431462287903 0.70216900110244751
0.8599662184715271 0.35505855083465576 0.67078351974487305
0.0059653189964592457 0.69497013092041016 0.69165486097335815
0.097588405013084412 0.69613182544708252 0.69512826204299927
0.33008164167404175 0.69280022382736206 0.68150800466537476
0.6273500919342041 0.68678194284439087 0.67112338542938232
0.85098481178283691 0.67725485563278198 0.65286898612976074
0.0051188450306653976 0.97799688577651978 0.69791197776794434
0.060606129467487335 0.97403824329376221 0.68329012393951416
0.28591457009315491 0.97953510284423828 0.63481420278549194
0.60545676946640015 0.97684371471405029 0.62860143184661865
0.84057974815368652 0.9765470027923584 0.61684989929199219
0.016438696533441544 0 0.96562314033508301
0.25377082824707031 9.6399642643518746e-05 0.9603503942489624
0.47357040643692017 0.0001132740726461634 0.96030271053314209
0.65353453159332275 0 0.96387583017349243
0.83671987056732178 0.007883378304541111 0.96397727727890015
0.0050255418755114079 0.22880040109157562 0.95953625440597534
0.12826573848724365 0.12723518908023834 0.98353499174118042
0.43517839908599854 0.10089525580406189 0.98026168346405029
0.65034300088882446 0.083870768547058105 0.97697949409484863
0.84848529100418091 0.095885932445526123 0.97030538320541382
0.010070815682411194 0.47914379835128784 0.96392780542373657
0.11403856426477432 0.45486181974411011 0.98077267408370972
0.37145587801933289 0.37013441324234009 0.99235081672668457
0.64192134141921997 0.35043010115623474 0.98767358064651489
0.85629814863204956 0.33883529901504517 0.97528380155563354
0.015691526234149933 0.70858681201934814 0.9613654613494873
0.10784275084733963 0.70618915557861328 0.9698798656463623
0.3329523503780365 0.68161630630493164 0.97961950302124023
0.62577849626541138 0.6835709810256958 0.9698367714881897
0.847503662109375 0.66903907060623169 0.97542750835418701
0.019190650433301926 0.95944374799728394 0.95753782987594604
0.064676620066165924 0.95797193050384521 0.95793652534484863
0.29797902703285217 0.95575559139251709 0.95947462320327759
0.61122828722000122 0.94986313581466675 0.95773923397064209
0.83207005262374878 0.94743025302886963 0.95245260000228882
