assets/lut/inavision hitman.cube
# Created by: G'MIC (https://gmic.eu)
TITLE "hitman"
# LUT size
LUT_3D_SIZE 13
# Data domain
DOMAIN_MIN 0.0 0.0 0.0
DOMAIN_MAX 1.0 1.0 1.0
# LUT data points
0.00022654814529232681 0.0014944936847314239 0.0026743870694190264
0.026378287002444267 0.010507277213037014 0.0085040377452969551
0.096825964748859406 0.03462798148393631 0.028258379548788071
0.19102051854133606 0.05281028151512146 0.047434579581022263
0.30982527136802673 0.067911170423030853 0.067036636173725128
0.44606983661651611 0.0861334428191185 0.09080970287322998
0.55793005228042603 0.11257922649383545 0.11447691172361374
0.64150583744049072 0.1356583833694458 0.13377858698368073
0.7023169994354248 0.15081892907619476 0.14531750977039337
0.75569033622741699 0.16631110012531281 0.15366318821907043
0.80493992567062378 0.18096281588077545 0.16440880298614502
0.84806287288665771 0.1917445957660675 0.17815768718719482
0.88564932346343994 0.19960306584835052 0.19104991853237152
0.025131404399871826 0.062349759042263031 0.02655130997300148
0.065206967294216156 0.072612941265106201 0.030445218086242676
0.14956270158290863 0.091097675263881683 0.045714136213064194
0.25476264953613281 0.10562151670455933 0.062689460813999176
0.37486955523490906 0.11971290409564972 0.080534838140010834
0.49200671911239624 0.13381227850914001 0.099983751773834229
0.5856286883354187 0.15253520011901855 0.12116853147745132
0.65615224838256836 0.16863225400447845 0.13889111578464508
0.71177577972412109 0.1798798143863678 0.15078778564929962
0.76458984613418579 0.19411283731460571 0.15999571979045868
0.81367772817611694 0.2086164802312851 0.17039820551872253
0.85651099681854248 0.21881462633609772 0.18254989385604858
0.89342278242111206 0.22673182189464569 0.1948913186788559
0.066898331046104431 0.1686989963054657 0.065145112574100494
0.10809948295354843 0.17414146661758423 0.063272692263126373
0.18909221887588501 0.18093356490135193 0.067674778401851654
0.29220813512802124 0.18936312198638916 0.079739123582839966
0.40393969416618347 0.20100648701190948 0.093886353075504303
0.50894296169281006 0.21070617437362671 0.11139219999313354
0.59537768363952637 0.22145684063434601 0.13137298822402954
0.66282856464385986 0.23159445822238922 0.14717727899551392
0.71947163343429565 0.23932990431785583 0.15888457000255585
0.7728307843208313 0.24837625026702881 0.1688036173582077
0.8214295506477356 0.25709456205368042 0.17874902486801147
0.86341327428817749 0.26219069957733154 0.1896350234746933
0.89976495504379272 0.26691824197769165 0.20096197724342346
0.10011687874794006 0.27295508980751038 0.096499711275100708
0.13671934604644775 0.27762049436569214 0.096199125051498413
0.209880530834198 0.28188523650169373 0.098644077777862549
0.30883747339248657 0.28703442215919495 0.10569275170564651
0.41791617870330811 0.29421079158782959 0.11715172976255417
0.52036648988723755 0.30195134878158569 0.13298948109149933
0.6045958399772644 0.31075623631477356 0.15022958815097809
0.67196065187454224 0.31966283917427063 0.16401489078998566
0.73003017902374268 0.32504034042358398 0.17551524937152863
0.78391367197036743 0.32790359854698181 0.18527404963970184
0.83179223537445068 0.3289743959903717 0.19314566254615784
0.87287706136703491 0.32624009251594543 0.20168955624103546
0.90829473733901978 0.32477223873138428 0.21170775592327118
0.13466426730155945 0.37941211462020874 0.12927559018135071
0.1667768806219101 0.38417944312095642 0.13311044871807098
0.23468895256519318 0.38702228665351868 0.13638506829738617
0.33315536379814148 0.38833928108215332 0.1400618702173233
0.44273778796195984 0.39233824610710144 0.14828211069107056
0.54423397779464722 0.40066957473754883 0.16314555704593658
0.62785792350769043 0.41082543134689331 0.17964063584804535
0.69376289844512939 0.41976332664489746 0.19378785789012909
0.75039380788803101 0.42427882552146912 0.20519594848155975
0.80290025472640991 0.42312446236610413 0.21250821650028229
0.84963470697402954 0.41757076978683472 0.2165599912405014
0.88892030715942383 0.40837204456329346 0.22097951173782349
0.92159527540206909 0.40066632628440857 0.22824344038963318
0.17063474655151367 0.48539650440216064 0.16793593764305115
0.20291447639465332 0.48967218399047852 0.17212991416454315
0.26991134881973267 0.49166926741600037 0.17603076994419098
0.36852261424064636 0.49211719632148743 0.17957749962806702
0.47928348183631897 0.49575331807136536 0.18742312490940094
0.58335739374160767 0.50481110811233521 0.20260506868362427
0.66753953695297241 0.51573127508163452 0.21955887973308563
0.73123300075531006 0.52464002370834351 0.23451074957847595
0.78442829847335815 0.52866631746292114 0.24603657424449921
0.83510470390319824 0.525066077709198 0.25132066011428833
0.87900114059448242 0.51466643810272217 0.25075334310531616
0.91311323642730713 0.50021094083786011 0.24980628490447998
0.9397544264793396 0.48682469129562378 0.2521827220916748
0.21309244632720947 0.5897032618522644 0.21262891590595245
0.24546124041080475 0.59371644258499146 0.21546977758407593
0.3124067485332489 0.59627920389175415 0.21954827010631561
0.40977886319160461 0.59810161590576172 0.22474843263626099
0.52079784870147705 0.60170066356658936 0.23370698094367981
0.62818354368209839 0.60977363586425781 0.24809423089027405
0.71494007110595703 0.61945027112960815 0.26442787051200867
0.77942973375320435 0.62802833318710327 0.28009578585624695
0.83180594444274902 0.63140332698822021 0.2928241491317749
0.87981712818145752 0.62618005275726318 0.29830029606819153
0.91893696784973145 0.61249548196792603 0.29577633738517761
0.94397860765457153 0.5937798023223877 0.28879141807556152
0.96009784936904907 0.57537955045700073 0.28333878517150879
0.26709476113319397 0.69004392623901367 0.25995892286300659
0.30064088106155396 0.69476163387298584 0.26261410117149353
0.36297190189361572 0.69761288166046143 0.26641750335693359
0.45417320728302002 0.69975978136062622 0.27183681726455688
0.56105661392211914 0.70241731405258179 0.28010967373847961
0.6676250696182251 0.70784753561019897 0.29275375604629517
0.75855350494384766 0.71619558334350586 0.30887541174888611
0.82780760526657104 0.72441107034683228 0.3263644278049469
0.88105499744415283 0.72756856679916382 0.34200200438499451
0.92503619194030762 0.72216790914535522 0.35086256265640259
0.95670419931411743 0.70706361532211304 0.34804579615592957
0.97128582000732422 0.68502682447433472 0.3343295156955719
0.97714245319366455 0.66245323419570923 0.32084158062934875
0.32737606763839722 0.78098905086517334 0.30627182126045227
0.35983604192733765 0.78632521629333496 0.30880904197692871
0.41516420245170593 0.78926026821136475 0.31235033273696899
0.49621617794036865 0.79058301448822021 0.31725895404815674
0.5957149863243103 0.79094374179840088 0.32429984211921692
0.6997063159942627 0.79352998733520508 0.33567965030670166
0.79308897256851196 0.80042970180511475 0.35223928093910217
0.8659292459487915 0.80859798192977905 0.37301024794578552
0.91822654008865356 0.81236433982849121 0.39464566111564636
0.95636510848999023 0.80924266576766968 0.4101102352142334
0.97981554269790649 0.79508298635482788 0.40944775938987732
0.9863014817237854 0.77121442556381226 0.38949465751647949
0.98613470792770386 0.74522602558135986 0.36727136373519897
0.38259145617485046 0.85500019788742065 0.34630265831947327
0.41300159692764282 0.85996317863464355 0.34904006123542786
0.46138432621955872 0.86274105310440063 0.35284104943275452
0.53194123506546021 0.86307656764984131 0.35790160298347473
0.62225896120071411 0.86083197593688965 0.3646543025970459
0.72081887722015381 0.86127626895904541 0.37658917903900146
0.8131558895111084 0.8663489818572998 0.39534804224967957
0.88698047399520874 0.87361204624176025 0.42067283391952515
0.93875288963317871 0.8795628547668457 0.45007750391960144
0.97318923473358154 0.88097977638244629 0.47703123092651367
0.99062645435333252 0.87161898612976074 0.48477494716644287
0.99282610416412354 0.84959417581558228 0.4628807008266449
0.98887091875076294 0.82343369722366333 0.43275827169418335
0.4247111976146698 0.90693795680999756 0.37723997235298157
0.45566678047180176 0.91186708211898804 0.38112747669219971
0.49921563267707825 0.91346067190170288 0.38536766171455383
0.56145823001861572 0.91217207908630371 0.3910057544708252
0.64191603660583496 0.90935605764389038 0.39980930089950562
0.73284238576889038 0.90820509195327759 0.41441243886947632
0.82089567184448242 0.91031557321548462 0.43682566285133362
0.89352172613143921 0.91569811105728149 0.46654051542282104
0.94595468044281006 0.9221034049987793 0.50288045406341553
0.97938710451126099 0.92773169279098511 0.54071187973022461
0.99447304010391235 0.92559343576431274 0.56272155046463013
0.99530553817749023 0.91169595718383789 0.55016255378723145
0.99167031049728394 0.89176422357559204 0.52183991670608521
0.4584108293056488 0.94184404611587524 0.40266150236129761
0.48983991146087646 0.94569945335388184 0.40745818614959717
0.5310092568397522 0.94558835029602051 0.41243952512741089
0.58611154556274414 0.94225907325744629 0.41937452554702759
0.65737950801849365 0.93824750185012817 0.43072807788848877
0.74126541614532471 0.93578565120697021 0.4491296112537384
0.8247063159942627 0.93564450740814209 0.47454696893692017
0.89456629753112793 0.93802827596664429 0.50663703680038452
0.94573938846588135 0.94214707612991333 0.54465055465698242
0.97808963060379028 0.94685250520706177 0.58537787199020386
0.99341005086898804 0.94938570261001587 0.61844444274902344
0.99605292081832886 0.94658321142196655 0.62958747148513794
0.99331343173980713 0.9366919994354248 0.62087857723236084
0.48952105641365051 0.96665340662002563 0.42594209313392639
0.52133762836456299 0.96868216991424561 0.4319341778755188
0.560566246509552 0.96659255027770996 0.43860149383544922
0.60992169380187988 0.96139734983444214 0.4472862184047699
0.67348325252532959 0.95573508739471436 0.46077445149421692
0.75107145309448242 0.95224231481552124 0.48253080248832703
0.82896256446838379 0.95010268688201904 0.50985336303710938
0.89432740211486816 0.94947361946105957 0.54208600521087646
0.94251668453216553 0.9505499005317688 0.57837110757827759
0.97410166263580322 0.95247405767440796 0.61664497852325439
0.99012041091918945 0.95713680982589722 0.65585291385650635
0.99573451280593872 0.96167147159576416 0.69087803363800049
0.99624025821685791 0.96045076847076416 0.71035075187683105
0.0071923201903700829 0.010999941267073154 0.023523367941379547
0.028677606955170631 0.01215806882828474 0.026461821049451828
0.085101887583732605 0.030379276722669601 0.044601887464523315
0.18108376860618591 0.049754828214645386 0.067264378070831299
0.30168798565864563 0.066369988024234772 0.08800823986530304
0.4344153106212616 0.08554636687040329 0.10960446298122406
0.55221539735794067 0.11218521744012833 0.13476897776126862
0.63559257984161377 0.13209876418113708 0.15402111411094666
0.69588148593902588 0.1459580659866333 0.16484609246253967
0.75246590375900269 0.16310755908489227 0.17344847321510315
0.80440008640289307 0.17873008549213409 0.18395489454269409
0.84844738245010376 0.18910209834575653 0.19600890576839447
0.88596534729003906 0.19614747166633606 0.20732612907886505
0.029663056135177612 0.070756159722805023 0.057384327054023743
0.064532846212387085 0.072120696306228638 0.058700576424598694
0.13775582611560822 0.085723757743835449 0.071295224130153656
0.24459612369537354 0.10023020952939987 0.089089401066303253
0.36351862549781799 0.11606147885322571 0.10422211885452271
0.4809345006942749 0.13158924877643585 0.12025723606348038
0.57989960908889771 0.14976944029331207 0.14116674661636353
0.65210187435150146 0.16454140841960907 0.15803036093711853
0.70894801616668701 0.17628511786460876 0.16876155138015747
0.76432901620864868 0.19145122170448303 0.17835046350955963
0.8150026798248291 0.20644785463809967 0.18901897966861725
0.85784667730331421 0.21670551598072052 0.2002260833978653
0.89442974328994751 0.22446946799755096 0.21151000261306763
0.063326925039291382 0.17004890739917755 0.097160369157791138
0.10265906900167465 0.17341934144496918 0.094789348542690277
0.18494270741939545 0.18045903742313385 0.099751383066177368
0.2894558310508728 0.18797723948955536 0.10958874225616455
0.39883321523666382 0.19934152066707611 0.11933909356594086
0.50412887334823608 0.20813360810279846 0.13354258239269257
0.59298408031463623 0.2182403951883316 0.15091262757778168
0.66155862808227539 0.22889377176761627 0.16510960459709167
0.72005581855773926 0.23793201148509979 0.17645381391048431
0.77532821893692017 0.2477409839630127 0.18657472729682922
0.82427054643630981 0.25743186473846436 0.1971745491027832
0.86591440439224243 0.26369848847389221 0.20800673961639404
0.90200155973434448 0.2693692147731781 0.21883085370063782
0.095705144107341766 0.27404433488845825 0.12427566945552826
0.13129013776779175 0.27758371829986572 0.12317933887243271
0.20561926066875458 0.28241813182830811 0.12590298056602478
0.30648618936538696 0.28794515132904053 0.13171978294849396
0.41532528400421143 0.2947654128074646 0.14056545495986938
0.5174940824508667 0.30118551850318909 0.15351957082748413
0.60248678922653198 0.30939623713493347 0.16794984042644501
0.67047536373138428 0.3189411461353302 0.18049566447734833
0.73021441698074341 0.32573768496513367 0.19214363396167755
0.7859961986541748 0.32989588379859924 0.20311515033245087
0.83483117818832397 0.33232221007347107 0.21234022080898285
0.87636452913284302 0.33245864510536194 0.22131155431270599
0.91185587644577026 0.33300787210464478 0.23118430376052856
0.13168109953403473 0.38114923238754272 0.15308111906051636
0.16356675326824188 0.38496673107147217 0.15609633922576904
0.23225767910480499 0.38792335987091064 0.15969666838645935
0.33096212148666382 0.38979670405387878 0.16312208771705627
0.43983009457588196 0.39361345767974854 0.17010590434074402
0.540943443775177 0.40163436532020569 0.18241211771965027
0.62425774335861206 0.41160577535629272 0.19665259122848511
0.6908831000328064 0.42067873477935791 0.20973826944828033
0.74919790029525757 0.42591378092765808 0.22166599333286285
0.80373549461364746 0.42657709121704102 0.2306814044713974
0.85192275047302246 0.42314106225967407 0.23620250821113586
0.8918997049331665 0.41624462604522705 0.24157574772834778
0.9253581166267395 0.41033315658569336 0.24893650412559509
0.16914117336273193 0.48832270503044128 0.19052316248416901
0.20160432159900665 0.49194049835205078 0.19425825774669647
0.26796600222587585 0.49371296167373657 0.19836443662643433
0.36608400940895081 0.49451705813407898 0.20158971846103668
0.47674554586410522 0.49773406982421875 0.20846207439899445
0.57982397079467773 0.50670313835144043 0.22172412276268005
0.66375535726547241 0.5172039270401001 0.23700651526451111
0.72820138931274414 0.52583152055740356 0.2512347400188446
0.78294795751571655 0.53011524677276611 0.26294592022895813
0.8353767991065979 0.52848196029663086 0.26945537328720093
0.88051849603652954 0.52028918266296387 0.27047517895698547
0.91537117958068848 0.5070044994354248 0.27069813013076782
0.94275450706481934 0.49434179067611694 0.2729831337928772
0.21240498125553131 0.59335857629776001 0.23465511202812195
0.24622605741024017 0.59714329242706299 0.2374296635389328
0.31266215443611145 0.59915697574615479 0.24123220145702362
0.40889346599578857 0.60076028108596802 0.24578793346881866
0.51953929662704468 0.6042054295539856 0.25380894541740417
0.62613981962203979 0.61164563894271851 0.26704251766204834
0.71321636438369751 0.62133574485778809 0.28273883461952209
0.77845841646194458 0.62972450256347656 0.29767954349517822
0.83160603046417236 0.63355964422225952 0.31022188067436218
0.87969964742660522 0.62991178035736084 0.31631824374198914
0.91808867454528809 0.61763215065002441 0.31485825777053833
0.9437214732170105 0.59933435916900635 0.30905726552009583
0.96155190467834473 0.58147495985031128 0.30415245890617371
0.26531684398651123 0.69328033924102783 0.28053134679794312
0.30044078826904297 0.69800782203674316 0.28305825591087341
0.363454669713974 0.70083284378051758 0.28661587834358215
0.4545280933380127 0.70244693756103516 0.29165881872177124
0.56214755773544312 0.70488268136978149 0.29942783713340759
0.66927886009216309 0.70965147018432617 0.31155192852020264
0.7600739598274231 0.71785622835159302 0.32709616422653198
0.82886886596679688 0.72648632526397705 0.34395936131477356
0.88161540031433105 0.73062431812286377 0.35914856195449829
0.92388337850570679 0.72619384527206421 0.36823326349258423
0.95380645990371704 0.71131247282028198 0.36573138833045959
0.96910089254379272 0.68937641382217407 0.35307329893112183
0.97679108381271362 0.66723668575286865 0.34021300077438354
0.32341334223747253 0.78291648626327515 0.32442179322242737
0.35779669880867004 0.78847026824951172 0.32710111141204834
0.41524675488471985 0.79167860746383667 0.33066099882125854
0.49755430221557617 0.79267913103103638 0.33556649088859558
0.59832823276519775 0.79308050870895386 0.34252259135246277
0.70359474420547485 0.79499465227127075 0.35326743125915527
0.7961118221282959 0.80138605833053589 0.36959096789360046
0.86694461107254028 0.81050258874893188 0.38954031467437744
0.91848212480545044 0.81623220443725586 0.40958037972450256
0.95572918653488159 0.81312328577041626 0.42558294534683228
0.9774516224861145 0.79864126443862915 0.42574658989906311
0.98483908176422119 0.77384269237518311 0.40629923343658447
0.98587119579315186 0.7484239935874939 0.38458585739135742
0.37755155563354492 0.85568559169769287 0.36222076416015625
0.41092020273208618 0.86143261194229126 0.36559310555458069
0.46206271648406982 0.86472338438034058 0.36967054009437561
0.53451550006866455 0.86527723073959351 0.37506774067878723
0.62543344497680664 0.86474382877349854 0.38268515467643738
0.72472172975540161 0.86452114582061768 0.39453139901161194
0.81614559888839722 0.86835312843322754 0.41263344883918762
0.88777607679367065 0.87611955404281616 0.43613797426223755
0.93889033794403076 0.88293719291687012 0.4634891152381897
0.97253274917602539 0.88391238451004028 0.49103274941444397
0.98927444219589233 0.87398946285247803 0.50142288208007812
0.99198645353317261 0.85155940055847168 0.48077374696731567
0.98915499448776245 0.82571554183959961 0.45032122731208801
0.4222225546836853 0.9082525372505188 0.39245593547821045
0.45545661449432373 0.91362375020980835 0.39677762985229492
0.50193727016448975 0.91509330272674561 0.40198230743408203
0.56592237949371338 0.91539871692657471 0.40876483917236328
0.64683347940444946 0.91401124000549316 0.4186859130859375
0.73775893449783325 0.91267889738082886 0.43364173173904419
0.82476228475570679 0.9138910174369812 0.45513179898262024
0.89575117826461792 0.91875672340393066 0.48289716243743896
0.946674644947052 0.92508035898208618 0.51749283075332642
0.97874373197555542 0.92934447526931763 0.55634242296218872
0.99362760782241821 0.92693865299224854 0.58384829759597778
0.99505001306533813 0.91310524940490723 0.57218962907791138
0.99186104536056519 0.89248406887054443 0.53666633367538452
0.45945644378662109 0.94361668825149536 0.41707131266593933
0.49271568655967712 0.94741874933242798 0.42271316051483154
0.53640198707580566 0.94794356822967529 0.42934039235115051
0.59399330615997314 0.94583606719970703 0.4383024275302887
0.66641831398010254 0.94272679090499878 0.45120677351951599
0.74935120344161987 0.94006448984146118 0.46969515085220337
0.83050417900085449 0.9393039345741272 0.49393999576568604
0.89822655916213989 0.94075363874435425 0.52380746603012085
0.94725871086120605 0.94442147016525269 0.56001710891723633
0.97847723960876465 0.94835811853408813 0.60072481632232666
0.99341505765914917 0.95083653926849365 0.63712114095687866
0.99605542421340942 0.94725006818771362 0.6462252140045166
0.99344742298126221 0.93648725748062134 0.62906420230865479
0.49328279495239258 0.96819084882736206 0.43979999423027039
0.52663755416870117 0.96875 0.446807861328125
0.56873917579650879 0.96814650297164917 0.4554903507232666
0.6215367317199707 0.96396613121032715 0.46653243899345398
0.68685126304626465 0.95898568630218506 0.48223847150802612
0.76245719194412231 0.95511102676391602 0.50360071659088135
0.83660382032394409 0.95240098237991333 0.52945995330810547
0.89909857511520386 0.95117509365081787 0.55932778120040894
0.94547909498214722 0.95136070251464844 0.59250819683074951
0.97574925422668457 0.95318281650543213 0.62789732217788696
0.99095737934112549 0.9568101167678833 0.66296589374542236
0.99607843160629272 0.96108967065811157 0.69573825597763062
0.99624025821685791 0.96079891920089722 0.71033704280853271
0.014565306715667248 0.016367100179195404 0.042904917150735855
0.036010280251502991 0.020502276718616486 0.052799750119447708
0.084714166820049286 0.03654053807258606 0.072837233543395996
0.16538552939891815 0.0520796999335289 0.094013616442680359
0.28031665086746216 0.067464821040630341 0.11970251053571701
0.41103139519691467 0.087748311460018158 0.1435522586107254
0.53398090600967407 0.11408212780952454 0.16811151802539825
0.61918860673904419 0.13039542734622955 0.18478095531463623
0.68112492561340332 0.14202985167503357 0.19460663199424744
0.74305444955825806 0.15999925136566162 0.20349103212356567
0.79909759759902954 0.1769566535949707 0.2121448814868927
0.84510135650634766 0.18737339973449707 0.22036431729793549
0.88265252113342285 0.19371534883975983 0.22836573421955109
0.037808824330568314 0.078285336494445801 0.10172955691814423
0.068626359105110168 0.079913102090358734 0.10710803419351578
0.13038037717342377 0.088280037045478821 0.11236713081598282
0.22919389605522156 0.10039974749088287 0.12618517875671387
0.34695738554000854 0.11436604708433151 0.14709013700485229
0.4634186327457428 0.13108892738819122 0.16139458119869232
0.56648707389831543 0.14912083745002747 0.17755521833896637
0.64168399572372437 0.1624896377325058 0.19066199660301208
0.70045524835586548 0.17366673052310944 0.19967587292194366
0.75940144062042236 0.1900397390127182 0.2087969034910202
0.8125607967376709 0.20617872476577759 0.21751077473163605
0.85600286722183228 0.21637162566184998 0.22546696662902832
0.89249193668365479 0.2234119325876236 0.23364798724651337
0.066722780466079712 0.17533646523952484 0.14738710224628448
0.10424801707267761 0.17886444926261902 0.14940270781517029
0.17723284661769867 0.1836262047290802 0.14799556136131287
0.27849709987640381 0.18945233523845673 0.15270252525806427
0.39015835523605347 0.19791273772716522 0.16374164819717407
0.49690678715705872 0.20583592355251312 0.17508503794670105
0.58891624212265015 0.2164960652589798 0.18767692148685455
0.65976130962371826 0.2275938093662262 0.19836069643497467
0.7188488245010376 0.23833395540714264 0.20793038606643677
0.77514743804931641 0.25003629922866821 0.21771042048931122
0.82551676034927368 0.26116743683815002 0.22702744603157043
0.8675304651260376 0.2691742479801178 0.23544237017631531
0.90310412645339966 0.27585148811340332 0.24423457682132721
0.094380319118499756 0.27693918347358704 0.16608665883541107
0.13040919601917267 0.28135627508163452 0.16809412837028503
0.20430494844913483 0.28645256161689758 0.16997747123241425
0.30458787083625793 0.29073676466941833 0.17356553673744202
0.41289129853248596 0.29524645209312439 0.18076618015766144
0.51550686359405518 0.30097413063049316 0.19057588279247284
0.60215097665786743 0.30979970097541809 0.20129725337028503
0.67268496751785278 0.31975746154785156 0.21196752786636353
0.733021080493927 0.3283030092716217 0.22337736189365387
0.78922510147094727 0.335592120885849 0.23435533046722412
0.83935248851776123 0.34139809012413025 0.24391801655292511
0.88132107257843018 0.34542512893676758 0.25235661864280701
0.91644680500030518 0.34909889101982117 0.26099708676338196
0.12783895432949066 0.38321614265441895 0.19062601029872894
0.16116741299629211 0.38754028081893921 0.19452771544456482
0.23179358243942261 0.39103671908378601 0.1982988566160202
0.33078444004058838 0.39342352747917175 0.20172344148159027
0.4382825493812561 0.39732140302658081 0.20774735510349274
0.53825795650482178 0.40519657731056213 0.21626324951648712
0.62264978885650635 0.41483920812606812 0.22695237398147583
0.69168198108673096 0.4240373969078064 0.23892192542552948
