assets/lut/inavision film gb-19.cube
# Created by: G'MIC (https://gmic.eu)
TITLE "film_gb-19"
# LUT size
LUT_3D_SIZE 7
# Data domain
DOMAIN_MIN 0.0 0.0 0.0
DOMAIN_MAX 1.0 1.0 1.0
# LUT data points
0.026030296459794044 0.017313789576292038 0.025686495006084442
0.12555757164955139 0.028868597000837326 0.027864718809723854
0.31438767910003662 0.04641430452466011 0.043578878045082092
0.54312491416931152 0.083950340747833252 0.068086318671703339
0.78976166248321533 0.12656746804714203 0.099455378949642181
0.98271328210830688 0.15413124859333038 0.1239706426858902
1 0.15742164850234985 0.12653294205665588
0.041999444365501404 0.12334639579057693 0.033202841877937317
0.12920482456684113 0.11584267765283585 0.033733952790498734
0.31107741594314575 0.10880937427282333 0.049628030508756638
0.53895705938339233 0.11842645704746246 0.073887541890144348
0.78555214405059814 0.13193044066429138 0.10075641423463821
0.97989732027053833 0.15238058567047119 0.1246483325958252
1 0.16573752462863922 0.13325749337673187
0.084647715091705322 0.30049705505371094 0.067505672574043274
0.14187684655189514 0.29780465364456177 0.066749364137649536
0.30470079183578491 0.28421542048454285 0.072960495948791504
0.53885090351104736 0.26329883933067322 0.088325232267379761
0.78108048439025879 0.23605403304100037 0.10774003714323044
0.97264617681503296 0.21606867015361786 0.12602876126766205
1 0.18504944443702698 0.13244321942329407
0.13604371249675751 0.52814400196075439 0.1128985807299614
0.1668006032705307 0.51710182428359985 0.11456172913312912
0.31000587344169617 0.50842976570129395 0.11551283299922943
0.53737503290176392 0.49587205052375793 0.1239064559340477
0.78538048267364502 0.47201830148696899 0.13746187090873718
0.97523790597915649 0.42606475949287415 0.14664937555789948
0.9994158148765564 0.33516994118690491 0.14364901185035706
0.20288524031639099 0.76138603687286377 0.16693891584873199
0.21198615431785583 0.74576342105865479 0.16512031853199005
0.32029041647911072 0.74671930074691772 0.16723160445690155
0.53109347820281982 0.73855376243591309 0.17188873887062073
0.78743594884872437 0.72192054986953735 0.1798274964094162
0.97594749927520752 0.69394302368164062 0.18501268327236176
0.99978822469711304 0.64416784048080444 0.18115489184856415
0.25803527235984802 0.92866635322570801 0.20626039803028107
0.25756049156188965 0.91738927364349365 0.20643992722034454
0.32548487186431885 0.92668277025222778 0.20816664397716522
0.51795083284378052 0.91645920276641846 0.21220539510250092
0.7843095064163208 0.91365492343902588 0.22019067406654358
0.98026430606842041 0.91685450077056885 0.22696669399738312
1 0.8904845118522644 0.2234501987695694
0.26674190163612366 0.97943228483200073 0.21176470816135406
0.27138572931289673 0.95694446563720703 0.21547621488571167
0.31357219815254211 0.96373474597930908 0.21568627655506134
0.47745507955551147 0.96337342262268066 0.22122460603713989
0.74829912185668945 0.96429955959320068 0.23110800981521606
0.95572584867477417 0.96463245153427124 0.23844128847122192
0.99907159805297852 0.96455836296081543 0.23487073183059692
0.029048500582575798 0.023254739120602608 0.099893830716609955
0.1232401505112648 0.028463400900363922 0.096383079886436462
0.30880287289619446 0.050727725028991699 0.096629410982131958
0.54329055547714233 0.088273681700229645 0.099438823759555817
0.78401625156402588 0.12436686456203461 0.11216600984334946
0.9755171537399292 0.15387609601020813 0.12514328956604004
1 0.16077925264835358 0.12896834313869476
0.042004887014627457 0.11667830497026443 0.10049582272768021
0.12312312424182892 0.11158350110054016 0.096942096948623657
0.30185616016387939 0.11137563735246658 0.095921322703361511
0.53563988208770752 0.11822677403688431 0.10220608860254288
0.78520148992538452 0.13107477128505707 0.11264171451330185
0.97151178121566772 0.15223976969718933 0.12543037533760071
0.99719631671905518 0.16136057674884796 0.1301691085100174
0.083312451839447021 0.29999616742134094 0.11279163509607315
0.13652725517749786 0.2929627001285553 0.10861829668283463
0.30196145176887512 0.27864649891853333 0.10590925067663193
0.54084068536758423 0.2587851881980896 0.10923410952091217
0.78456646203994751 0.23399132490158081 0.11908989399671555
0.97560012340545654 0.20332558453083038 0.12789894640445709
0.99899184703826904 0.1703132688999176 0.12807531654834747
0.14084500074386597 0.51818835735321045 0.13598589599132538
0.16511701047420502 0.51153481006622314 0.13508583605289459
0.30397096276283264 0.50818580389022827 0.13306647539138794
0.53452605009078979 0.48969569802284241 0.13171456754207611
0.77570885419845581 0.47071757912635803 0.14083665609359741
0.97363066673278809 0.41342008113861084 0.14653229713439941
0.99920111894607544 0.32659393548965454 0.14450846612453461
0.20342646539211273 0.74856507778167725 0.17811256647109985
0.21195736527442932 0.74226099252700806 0.17541696131229401
0.31619125604629517 0.7497941255569458 0.17619673907756805
0.52858036756515503 0.7324756383895874 0.17540685832500458
0.7820199728012085 0.71590697765350342 0.18077917397022247
0.97578281164169312 0.68847799301147461 0.18452519178390503
0.99910521507263184 0.63043612241744995 0.17998072504997253
0.25852462649345398 0.9281730055809021 0.20927278697490692
0.25759929418563843 0.91468936204910278 0.20885941386222839
0.32216036319732666 0.92581546306610107 0.20933839678764343
0.52131962776184082 0.91520482301712036 0.21289101243019104
0.7728613018989563 0.92174440622329712 0.22133715450763702
0.97643071413040161 0.90707588195800781 0.22705323994159698
0.9969523549079895 0.89525735378265381 0.22872771322727203
0.26869559288024902 0.97050672769546509 0.21600727736949921
0.26814329624176025 0.9548640251159668 0.21840023994445801
0.30690228939056396 0.96268647909164429 0.21677525341510773
0.48087683320045471 0.96095758676528931 0.21808384358882904
0.74427998065948486 0.9681439995765686 0.22997921705245972
0.96346926689147949 0.96627473831176758 0.24022491276264191
0.99678397178649902 0.96261274814605713 0.24073351919651031
0.039673000574111938 0.036066479980945587 0.23072828352451324
0.11665571480989456 0.03230825811624527 0.2274974137544632
0.29370445013046265 0.052983887493610382 0.22182779014110565
0.53250831365585327 0.088235296308994293 0.21335893869400024
0.78560775518417358 0.1239740252494812 0.2023327499628067
0.97233271598815918 0.15436133742332458 0.17686982452869415
0.99988174438476562 0.16461311280727386 0.14257590472698212
0.043539877980947495 0.1089661717414856 0.23166655004024506
0.10813936591148376 0.1039576381444931 0.22970940172672272
0.2841152548789978 0.10484249889850616 0.22107769548892975
0.52415400743484497 0.11572633683681488 0.21217329800128937
0.78371083736419678 0.13677699863910675 0.20028552412986755
0.97372210025787354 0.15807037055492401 0.17716850340366364
0.99840819835662842 0.16463664174079895 0.14341814815998077
0.081699013710021973 0.28786897659301758 0.23591834306716919
0.12512707710266113 0.28029462695121765 0.23166565597057343
0.28447827696800232 0.26738956570625305 0.22318124771118164
0.52493786811828613 0.25247648358345032 0.21495877206325531
0.77986514568328857 0.23474596440792084 0.20426583290100098
0.97003459930419922 0.20393179357051849 0.18353722989559174
0.99920344352722168 0.1717345267534256 0.14723919332027435
0.14171166718006134 0.5092511773109436 0.24520525336265564
0.16314205527305603 0.50350654125213623 0.2398463636636734
0.29491880536079407 0.49797984957695007 0.23400169610977173
0.52650922536849976 0.48219737410545349 0.2223723977804184
0.77636194229125977 0.46342238783836365 0.20740796625614166
0.96597945690155029 0.41076469421386719 0.19143868982791901
0.99850177764892578 0.3259505033493042 0.16152235865592957
0.20686984062194824 0.74394088983535767 0.26374638080596924
0.21392485499382019 0.74596327543258667 0.25815492868423462
0.30953794717788696 0.74586987495422363 0.25291690230369568
0.52796542644500732 0.72912967205047607 0.24379035830497742
0.77986425161361694 0.7176324725151062 0.23224377632141113
0.97476637363433838 0.68490612506866455 0.21276605129241943
0.99920344352722168 0.63774055242538452 0.19062298536300659
0.25771436095237732 0.91862255334854126 0.27245655655860901
0.25428628921508789 0.92487961053848267 0.27151000499725342
0.30977264046669006 0.92729657888412476 0.26617693901062012
0.51136541366577148 0.91745907068252563 0.25958561897277832
0.77100706100463867 0.9151265025138855 0.25158879160881042
0.97449707984924316 0.90684050321578979 0.24326910078525543
0.99914455413818359 0.89779841899871826 0.23919731378555298
0.26436337828636169 0.9569857120513916 0.26966673135757446
0.25673419237136841 0.96061432361602783 0.27375009655952454
0.29095357656478882 0.96418017148971558 0.26962283253669739
0.46620765328407288 0.96125423908233643 0.26003196835517883
0.74738693237304688 0.9648253321647644 0.25560718774795532
0.96949177980422974 0.96636068820953369 0.25178930163383484
0.99847358465194702 0.96819460391998291 0.24742487072944641
0.050956171005964279 0.051895681768655777 0.42085763812065125
0.098347850143909454 0.051623880863189697 0.41193532943725586
0.26737317442893982 0.06465582549571991 0.4092700183391571
0.51454132795333862 0.093067869544029236 0.40009015798568726
0.76785457134246826 0.12711422145366669 0.38471361994743347
0.96262311935424805 0.15600046515464783 0.34750095009803772
1 0.16536544263362885 0.29842579364776611
0.056152462959289551 0.098810814321041107 0.41606029868125916
0.099135331809520721 0.096553310751914978 0.41597175598144531
0.26272979378700256 0.098394833505153656 0.40970697999000549
0.51162230968475342 0.11027128994464874 0.39596831798553467
0.76950252056121826 0.13526076078414917 0.38112863898277283
0.96944159269332886 0.15891876816749573 0.35433518886566162
0.99949651956558228 0.16424587368965149 0.29484787583351135
0.085011288523674011 0.26563462615013123 0.41541656851768494
0.11093749850988388 0.25729814171791077 0.41653984785079956
0.2608892023563385 0.24928757548332214 0.40771591663360596
0.51215189695358276 0.23411820828914642 0.3992857038974762
0.76726406812667847 0.21480558812618256 0.38346210122108459
0.97103679180145264 0.18875609338283539 0.35171180963516235
0.99920344352722168 0.16924460232257843 0.28809395432472229
0.1424100250005722 0.49881133437156677 0.4211864173412323
0.15172375738620758 0.49068599939346313 0.41674268245697021
0.26996412873268127 0.48390761017799377 0.41086810827255249
0.50988131761550903 0.4703533947467804 0.40489163994789124
0.75868403911590576 0.44206130504608154 0.38443300127983093
0.96327447891235352 0.39142930507659912 0.35101965069770813
0.99910283088684082 0.31098535656929016 0.2908845841884613
0.20864027738571167 0.73644077777862549 0.42921644449234009
0.2060207724571228 0.73537492752075195 0.42404034733772278
0.28672146797180176 0.72854650020599365 0.41851675510406494
0.50875604152679443 0.7238953709602356 0.41007077693939209
0.76271998882293701 0.70754837989807129 0.39499542117118835
0.97260934114456177 0.67278462648391724 0.3598293662071228
0.99837440252304077 0.62094491720199585 0.30662742257118225
0.25896176695823669 0.91109603643417358 0.42624405026435852
0.25414741039276123 0.92360466718673706 0.42197304964065552
0.29657232761383057 0.91615015268325806 0.41806921362876892
0.49712836742401123 0.91947746276855469 0.41175955533981323
0.7612311840057373 0.91472089290618896 0.39247468113899231
0.97289329767227173 0.90852874517440796 0.36417472362518311
1 0.88950681686401367 0.32747241854667664
0.26666668057441711 0.95394682884216309 0.42154723405838013
0.25815552473068237 0.96038329601287842 0.41620832681655884
0.28326913714408875 0.95662099123001099 0.41201439499855042
0.4541231095790863 0.95744794607162476 0.40744921565055847
0.7257392406463623 0.96674656867980957 0.38549429178237915
0.95930510759353638 0.96357482671737671 0.35707324743270874
0.99924784898757935 0.97817158699035645 0.31102195382118225
0.077248863875865936 0.078885547816753387 0.63863778114318848
0.090446382761001587 0.077996708452701569 0.62760531902313232
0.22762249410152435 0.082374528050422668 0.63353127241134644
0.48342934250831604 0.10543616861104965 0.62836331129074097
0.75517719984054565 0.13646146655082703 0.61468881368637085
0.96567875146865845 0.16536341607570648 0.58884656429290771
1 0.17353299260139465 0.55426430702209473
0.076971851289272308 0.10064191371202469 0.63052612543106079
0.09542490541934967 0.098725982010364532 0.63437962532043457
0.22733049094676971 0.10058990120887756 0.63273799419403076
0.48138812184333801 0.11494956165552139 0.62111258506774902
0.74789601564407349 0.13949593901634216 0.6047050952911377
0.96436792612075806 0.16883498430252075 0.59430766105651855
0.9997367262840271 0.17383426427841187 0.54338675737380981
0.093565873801708221 0.23399682343006134 0.62823683023452759
0.10570048540830612 0.22926004230976105 0.63246279954910278
0.21855057775974274 0.22248205542564392 0.62095612287521362
0.48038685321807861 0.21028892695903778 0.61319637298583984
0.75549256801605225 0.19584664702415466 0.60712254047393799
0.96972787380218506 0.18520678579807281 0.5848812460899353
0.99902081489562988 0.1655600517988205 0.55336827039718628
0.14374929666519165 0.47972968220710754 0.62605917453765869
0.14718535542488098 0.47351574897766113 0.6250881552696228
0.22917728126049042 0.46609079837799072 0.61979728937149048
0.47428253293037415 0.44782942533493042 0.61390960216522217
0.74142485857009888 0.42145898938179016 0.6029897928237915
0.95593851804733276 0.37190359830856323 0.58518248796463013
0.99822312593460083 0.28663024306297302 0.55438154935836792
0.21065381169319153 0.7319832444190979 0.63935542106628418
0.20798259973526001 0.72607487440109253 0.63898813724517822
0.26009050011634827 0.72025531530380249 0.63424777984619141
0.4735567569732666 0.71302616596221924 0.62150239944458008
0.74511623382568359 0.69410556554794312 0.61419332027435303
0.96430015563964844 0.66207021474838257 0.5894395112991333
0.99787765741348267 0.60508692264556885 0.54744201898574829
0.26301807165145874 0.92406457662582397 0.6322634220123291
0.26248514652252197 0.92469173669815063 0.62906098365783691
0.28845101594924927 0.92144638299942017 0.63082748651504517
0.46466207504272461 0.91584306955337524 0.62245094776153564
0.74320524930953979 0.91241639852523804 0.61613333225250244
0.96128255128860474 0.90712994337081909 0.59273391962051392
0.99898892641067505 0.88291871547698975 0.5546562671661377
0.27416759729385376 0.96142929792404175 0.62312722206115723
0.2728322446346283 0.96268868446350098 0.62370562553405762
0.29343530535697937 0.96234995126724243 0.61781102418899536
0.42822334170341492 0.96112757921218872 0.62593662738800049
0.7142871618270874 0.9685136079788208 0.6111152172088623
0.95646214485168457 0.97450721263885498 0.58110713958740234
0.99957257509231567 0.97746986150741577 0.5430063009262085
0.085237957537174225 0.098029762506484985 0.79997134208679199
0.084073007106781006 0.097096480429172516 0.79903078079223633
0.16760511696338654 0.09759896993637085 0.80788308382034302
0.41878986358642578 0.11557088792324066 0.8148307204246521
0.72515910863876343 0.14392523467540741 0.81350791454315186
0.9438970685005188 0.17336945235729218 0.80583184957504272
1 0.1815936416387558 0.77826851606369019
0.09660637378692627 0.10796529799699783 0.8071715235710144
0.10019881278276443 0.10463009774684906 0.81080204248428345
0.1799113005399704 0.10472895205020905 0.8169630765914917
0.42217981815338135 0.12217102199792862 0.81919217109680176
0.72134357690811157 0.14561988413333893 0.80617070198059082
0.9562566876411438 0.18067087233066559 0.80816060304641724
1 0.19073271751403809 0.77519857883453369
0.10456547141075134 0.19184745848178864 0.82104158401489258
0.10898666083812714 0.1861664205789566 0.81979548931121826
0.17112627625465393 0.17856791615486145 0.82260644435882568
0.40448188781738281 0.17590609192848206 0.81474632024765015
0.71530425548553467 0.17181730270385742 0.81101781129837036
0.95442873239517212 0.19383838772773743 0.8074454665184021
0.9999280571937561 0.19338086247444153 0.79072970151901245
0.14501109719276428 0.43536281585693359 0.81357795000076294
0.14544856548309326 0.42817890644073486 0.81624966859817505
0.1895335465669632 0.41952139139175415 0.81583601236343384
0.40169307589530945 0.40108627080917358 0.81579935550689697
0.70498913526535034 0.37576884031295776 0.81498265266418457
0.94694411754608154 0.33711498975753784 0.80587875843048096
0.99945276975631714 0.24546851217746735 0.79325062036514282
0.20685189962387085 0.69692361354827881 0.82723355293273926
0.20612475275993347 0.69168746471405029 0.82740861177444458
0.22579972445964813 0.69149458408355713 0.82448780536651611
0.40871590375900269 0.67569661140441895 0.82248753309249878
0.70898950099945068 0.66983872652053833 0.81919193267822266
0.96079415082931519 0.63513749837875366 0.81080251932144165
0.9996832013130188 0.56130421161651611 0.79394239187240601
0.26270610094070435 0.91057157516479492 0.82677322626113892
0.26326680183410645 0.91388052701950073 0.82488751411437988
0.2701151967048645 0.91486448049545288 0.82645142078399658
0.40554940700531006 0.90662002563476562 0.8217737078666687
0.70600217580795288 0.90659785270690918 0.82531321048736572
0.95589399337768555 0.89886736869812012 0.82061481475830078
0.99920731782913208 0.87942349910736084 0.7976691722869873
0.27692380547523499 0.96358990669250488 0.83069628477096558
0.27720978856086731 0.96133220195770264 0.83046746253967285
0.27700001001358032 0.96006160974502563 0.82837212085723877
0.36571687459945679 0.96245467662811279 0.82525938749313354
0.66061598062515259 0.96155697107315063 0.81877106428146362
0.94142764806747437 0.97023767232894897 0.80329412221908569
0.99974697828292847 0.98362463712692261 0.78797799348831177
0.071587599813938141 0.1051279678940773 0.8857187032699585
0.065645433962345123 0.10730744898319244 0.88380569219589233
0.10100730508565903 0.10437536984682083 0.88226604461669922
0.30540752410888672 0.11247627437114716 0.88441008329391479
0.65525835752487183 0.13881315290927887 0.88577044010162354
0.93549215793609619 0.17222748696804047 0.8884463906288147
1 0.17966440320014954 0.88741189241409302
0.10379883646965027 0.11447888612747192 0.88185042142868042
0.10741057991981506 0.11655010282993317 0.88223081827163696
0.13994514942169189 0.11514982581138611 0.88242840766906738
0.34316149353981018 0.1170225590467453 0.88467645645141602
0.66043418645858765 0.13845759630203247 0.87998390197753906
0.93458503484725952 0.17770378291606903 0.89003145694732666
1 0.18543659150600433 0.8912503719329834
0.10840149223804474 0.13266167044639587 0.88247549533843994
0.11433878540992737 0.13412231206893921 0.88231682777404785
0.14254069328308105 0.15189439058303833 0.88469463586807251
0.32726666331291199 0.13885043561458588 0.88127052783966064
0.65764927864074707 0.14095567166805267 0.88036316633224487
0.93613827228546143 0.17979709804058075 0.88745772838592529
1 0.1755429208278656 0.89227825403213501
0.13750556111335754 0.3536180853843689 0.88334625959396362
0.13621340692043304 0.34722134470939636 0.88287985324859619
0.14194594323635101 0.35231113433837891 0.88551157712936401
0.28128549456596375 0.32061463594436646 0.88235938549041748
0.6417582631111145 0.28818789124488831 0.88564479351043701
0.91909992694854736 0.26679110527038574 0.89007723331451416
0.9993208646774292 0.2139347642660141 0.88938480615615845
0.19861632585525513 0.65370374917984009 0.89402848482131958
0.20038922131061554 0.65067523717880249 0.89120131731033325
0.19237637519836426 0.6514933705329895 0.89370197057723999
0.31433224678039551 0.64122873544692993 0.88988769054412842
0.64280682802200317 0.61423999071121216 0.89163744449615479
0.93687242269515991 0.58275741338729858 0.89662748575210571
1 0.50937831401824951 0.89902448654174805
0.26180791854858398 0.90029746294021606 0.91052556037902832
0.26670658588409424 0.89704698324203491 0.90679234266281128
0.25259843468666077 0.90000975131988525 0.91143012046813965
0.32097592949867249 0.89625173807144165 0.90993088483810425
0.61865818500518799 0.88817554712295532 0.91447514295578003
0.93285477161407471 0.88113820552825928 0.92348021268844604
0.99918866157531738 0.85770934820175171 0.92595440149307251
0.27322995662689209 0.97148191928863525 0.93252229690551758
0.27235466241836548 0.96638995409011841 0.92843782901763916
0.25537067651748657 0.97428649663925171 0.93113315105438232
0.3087235689163208 0.97074717283248901 0.92547094821929932
0.58092761039733887 0.96814197301864624 0.9311835765838623
0.91879951953887939 0.98199903964996338 0.96157008409500122
0.99920594692230225 0.98995357751846313 0.98170191049575806
