assets/lut/inavision fogstrated.cube
LUT_3D_SIZE 6
0.000000 0.000000 0.000000
0.161877 0.000000 0.000000
0.352218 0.000000 0.000000
0.537358 0.000000 0.000000
0.719224 0.000000 0.000000
0.898245 0.000000 0.000000
0.000000 0.197450 0.000000
0.161877 0.197450 0.000000
0.352218 0.197450 0.000000
0.537358 0.197450 0.000000
0.719224 0.197450 0.000000
0.898245 0.197450 0.000000
0.000000 0.403347 0.000000
0.161877 0.403347 0.000000
0.352218 0.403347 0.000000
0.537358 0.403347 0.000000
0.719224 0.403347 0.000000
0.898245 0.403347 0.000000
0.000000 0.596748 0.000000
0.161877 0.596748 0.000000
0.352218 0.596748 0.000000
0.537358 0.596748 0.000000
0.719224 0.596748 0.000000
0.898245 0.596748 0.000000
0.000000 0.782713 0.000000
0.161877 0.782713 0.000000
0.352218 0.782713 0.000000
0.537358 0.782713 0.000000
0.719224 0.782713 0.000000
0.898245 0.782713 0.000000
0.000000 0.962829 0.000000
0.161877 0.962829 0.000000
0.352218 0.962829 0.000000
0.537358 0.962829 0.000000
0.719224 0.962829 0.000000
0.898245 0.962829 0.000000
0.000000 0.000000 0.158155
0.161877 0.000000 0.158155
0.352218 0.000000 0.158155
0.537358 0.000000 0.158155
0.719224 0.000000 0.158155
0.898245 0.000000 0.158155
0.000000 0.197450 0.158155
0.161877 0.197450 0.158155
0.352218 0.197450 0.158155
0.537358 0.197450 0.158155
0.719224 0.197450 0.158155
0.898245 0.197450 0.158155
0.000000 0.403347 0.158155
0.161877 0.403347 0.158155
0.352218 0.403347 0.158155
0.537358 0.403347 0.158155
0.719224 0.403347 0.158155
0.898245 0.403347 0.158155
0.000000 0.596748 0.158155
0.161877 0.596748 0.158155
0.352218 0.596748 0.158155
0.537358 0.596748 0.158155
0.719224 0.596748 0.158155
0.898245 0.596748 0.158155
0.000000 0.782713 0.158155
0.161877 0.782713 0.158155
0.352218 0.782713 0.158155
0.537358 0.782713 0.158155
0.719224 0.782713 0.158155
0.898245 0.782713 0.158155
0.000000 0.962829 0.158155
0.161877 0.962829 0.158155
0.352218 0.962829 0.158155
0.537358 0.962829 0.158155
0.719224 0.962829 0.158155
0.898245 0.962829 0.158155
0.000000 0.000000 0.349542
0.161877 0.000000 0.349542
0.352218 0.000000 0.349542
0.537358 0.000000 0.349542
0.719224 0.000000 0.349542
0.898245 0.000000 0.349542
0.000000 0.197450 0.349542
0.161877 0.197450 0.349542
0.352218 0.197450 0.349542
0.537358 0.197450 0.349542
0.719224 0.197450 0.349542
0.898245 0.197450 0.349542
0.000000 0.403347 0.349542
0.161877 0.403347 0.349542
0.352218 0.403347 0.349542
0.537358 0.403347 0.349542
0.719224 0.403347 0.349542
0.898245 0.403347 0.349542
0.000000 0.596748 0.349542
0.161877 0.596748 0.349542
0.352218 0.596748 0.349542
0.537358 0.596748 0.349542
0.719224 0.596748 0.349542
0.898245 0.596748 0.349542
0.000000 0.782713 0.349542
0.161877 0.782713 0.349542
0.352218 0.782713 0.349542
0.537358 0.782713 0.349542
0.719224 0.782713 0.349542
0.898245 0.782713 0.349542
0.000000 0.962829 0.349542
0.161877 0.962829 0.349542
0.352218 0.962829 0.349542
0.537358 0.962829 0.349542
0.719224 0.962829 0.349542
0.898245 0.962829 0.349542
0.000000 0.000000 0.535561
0.161877 0.000000 0.535561
0.352218 0.000000 0.535561
0.537358 0.000000 0.535561
0.719224 0.000000 0.535561
0.898245 0.000000 0.535561
0.000000 0.197450 0.535561
0.161877 0.197450 0.535561
0.352218 0.197450 0.535561
0.537358 0.197450 0.535561
0.719224 0.197450 0.535561
0.898245 0.197450 0.535561
0.000000 0.403347 0.535561
0.161877 0.403347 0.535561
0.352218 0.403347 0.535561
0.537358 0.403347 0.535561
0.719224 0.403347 0.535561
0.898245 0.403347 0.535561
0.000000 0.596748 0.535561
0.161877 0.596748 0.535561
0.352218 0.596748 0.535561
0.537358 0.596748 0.535561
0.719224 0.596748 0.535561
0.898245 0.596748 0.535561
0.000000 0.782713 0.535561
0.161877 0.782713 0.535561
0.352218 0.782713 0.535561
0.537358 0.782713 0.535561
0.719224 0.782713 0.535561
0.898245 0.782713 0.535561
0.000000 0.962829 0.535561
0.161877 0.962829 0.535561
0.352218 0.962829 0.535561
0.537358 0.962829 0.535561
0.719224 0.962829 0.535561
0.898245 0.962829 0.535561
0.000000 0.000000 0.718366
0.161877 0.000000 0.718366
0.352218 0.000000 0.718366
0.537358 0.000000 0.718366
0.719224 0.000000 0.718366
0.898245 0.000000 0.718366
0.000000 0.197450 0.718366
0.161877 0.197450 0.718366
0.352218 0.197450 0.718366
0.537358 0.197450 0.718366
0.719224 0.197450 0.718366
0.898245 0.197450 0.718366
0.000000 0.403347 0.718366
0.161877 0.403347 0.718366
0.352218 0.403347 0.718366
0.537358 0.403347 0.718366
0.719224 0.403347 0.718366
0.898245 0.403347 0.718366
0.000000 0.596748 0.718366
0.161877 0.596748 0.718366
0.352218 0.596748 0.718366
0.537358 0.596748 0.718366
0.719224 0.596748 0.718366
0.898245 0.596748 0.718366
0.000000 0.782713 0.718366
0.161877 0.782713 0.718366
0.352218 0.782713 0.718366
0.537358 0.782713 0.718366
0.719224 0.782713 0.718366
0.898245 0.782713 0.718366
0.000000 0.962829 0.718366
0.161877 0.962829 0.718366
0.352218 0.962829 0.718366
0.537358 0.962829 0.718366
0.719224 0.962829 0.718366
0.898245 0.962829 0.718366
0.000000 0.000000 0.898245
0.161877 0.000000 0.898245
0.352218 0.000000 0.898245
0.537358 0.000000 0.898245
0.719224 0.000000 0.898245
0.898245 0.000000 0.898245
0.000000 0.197450 0.898245
0.161877 0.197450 0.898245
0.352218 0.197450 0.898245
0.537358 0.197450 0.898245
0.719224 0.197450 0.898245
0.898245 0.197450 0.898245
0.000000 0.403347 0.898245
0.161877 0.403347 0.898245
0.352218 0.403347 0.898245
0.537358 0.403347 0.898245
0.719224 0.403347 0.898245
0.898245 0.403347 0.898245
0.000000 0.596748 0.898245
0.161877 0.596748 0.898245
0.352218 0.596748 0.898245
0.537358 0.596748 0.898245
0.719224 0.596748 0.898245
0.898245 0.596748 0.898245
0.000000 0.782713 0.898245
0.161877 0.782713 0.898245
0.352218 0.782713 0.898245
0.537358 0.782713 0.898245
0.719224 0.782713 0.898245
0.898245 0.782713 0.898245
0.000000 0.962829 0.898245
0.161877 0.962829 0.898245
0.352218 0.962829 0.898245
0.537358 0.962829 0.898245
0.719224 0.962829 0.898245
0.898245 0.962829 0.898245
