assets/lut/inavision vintage mob.cube
# Created by: G'MIC (https://gmic.eu)
TITLE "vintage_mob"
# LUT size
LUT_3D_SIZE 13
# Data domain
DOMAIN_MIN 0.0 0.0 0.0
DOMAIN_MAX 1.0 1.0 1.0
# LUT data points
0.050419256091117859 0.043461490422487259 0.048159416764974594
0.15756052732467651 0.048779342323541641 0.037929743528366089
0.28529641032218933 0.05335775762796402 0.025211812928318977
0.43818581104278564 0.054487999528646469 0.017410188913345337
0.57586061954498291 0.047451619058847427 0.014000896364450455
0.66819018125534058 0.044298283755779266 0.0060259499587118626
0.72491639852523804 0.044254332780838013 0.00049492332618683577
0.76020538806915283 0.044345855712890625 0
0.78699523210525513 0.043299086391925812 0
0.81169825792312622 0.042598199099302292 0
0.8321947455406189 0.043132256716489792 0
0.84641319513320923 0.040993545204401016 0
0.85583305358886719 0.03325175866484642 0
0.022833520546555519 0.12015843391418457 0.063439927995204926
0.095601804554462433 0.12829247117042542 0.052526287734508514
0.20037834346294403 0.14372551441192627 0.042241338640451431
0.3538307249546051 0.16219530999660492 0.02892373688519001
0.50870335102081299 0.16550078988075256 0.015900466591119766
0.62767952680587769 0.16221985220909119 0.004899896215647459
0.70769983530044556 0.1594320684671402 0.00026155359228141606
0.76010900735855103 0.15696160495281219 0
0.79739075899124146 0.15472172200679779 0
0.82696586847305298 0.15448719263076782 0
0.84980136156082153 0.15500855445861816 0
0.8640475869178772 0.15117718279361725 0
0.8718147873878479 0.13793902099132538 0
0.017407599836587906 0.20679709315299988 0.081246472895145416
0.083097361028194427 0.21484147012233734 0.065944015979766846
0.1833355575799942 0.23244734108448029 0.054009530693292618
0.32920676469802856 0.25745674967765808 0.038645710796117783
0.48453956842422485 0.27482336759567261 0.018894150853157043
0.6147647500038147 0.27938470244407654 0.0042344336397945881
0.70927608013153076 0.27664440870285034 7.1088004915509373e-05
0.77323246002197266 0.27155375480651855 0
0.81711465120315552 0.26780426502227783 0
0.84995990991592407 0.26632976531982422 0
0.8741689920425415 0.26565274596214294 0.00024132821999955922
0.887501060962677 0.25788509845733643 0.0012250563595443964
0.89195543527603149 0.23835356533527374 2.154182038793806e-05
0.005626424215734005 0.30209267139434814 0.10424439609050751
0.052765656262636185 0.31277555227279663 0.085371829569339752
0.15303315222263336 0.33186173439025879 0.070084556937217712
0.30747920274734497 0.35921511054039001 0.052747286856174469
0.47354599833488464 0.3836790919303894 0.026301665231585503
0.61367940902709961 0.39357903599739075 0.0052824132144451141
0.71801114082336426 0.39058575034141541 3.2312730127159739e-06
0.78950923681259155 0.3823845386505127 0
0.83671241998672485 0.37514176964759827 0
0.8723481297492981 0.37071529030799866 0
0.89680218696594238 0.36573576927185059 1.8490061847842298e-05
0.91015475988388062 0.35378283262252808 0.0013473212020471692
0.91404688358306885 0.33181676268577576 0.001592733315192163
9.1193702246528119e-05 0.38983100652694702 0.1297493577003479
0.018419781699776649 0.40330642461776733 0.10778548568487167
0.11230927705764771 0.42333674430847168 0.088615968823432922
0.27399766445159912 0.45252710580825806 0.067751355469226837
0.45615091919898987 0.48295426368713379 0.034715257585048676
0.60973644256591797 0.49755004048347473 0.0069821975193917751
0.72329151630401611 0.49579346179962158 7.3242190410383046e-05
0.80137526988983154 0.48604807257652283 0
0.85364407300949097 0.47539886832237244 0
0.89030379056930542 0.46616253256797791 0
0.91567343473434448 0.45603764057159424 0
0.9308280348777771 0.44156798720359802 1.3164445590518881e-05
0.93751335144042969 0.42153105139732361 0.0027507108170539141
0 0.46452552080154419 0.15693077445030212
0.001286181272007525 0.47935590147972107 0.13224083185195923
0.062787957489490509 0.49922436475753784 0.10749062895774841
0.22293847799301147 0.52872127294540405 0.080192267894744873
0.42073434591293335 0.56296044588088989 0.039875179529190063
0.59420484304428101 0.58487033843994141 0.0093469507992267609
0.71929389238357544 0.58838117122650146 0.00061896827537566423
0.80552107095718384 0.5802578330039978 0
0.86358040571212769 0.56776231527328491 0
0.90327632427215576 0.55452430248260498 0
0.93037664890289307 0.53939789533615112 0
0.94705915451049805 0.52154463529586792 0
0.95601624250411987 0.4996224045753479 0
0 0.52772396802902222 0.18714419007301331
0 0.54291951656341553 0.16166971623897552
0.024999072775244713 0.56289970874786377 0.13453064858913422
0.17106400430202484 0.59235084056854248 0.10516854375600815
0.37614008784294128 0.62753951549530029 0.062984198331832886
0.56632453203201294 0.65444928407669067 0.02319253608584404
0.70701825618743896 0.66543948650360107 0.0053293267264962196
0.8044237494468689 0.66269981861114502 0.00018938850553240627
0.86975383758544922 0.65178674459457397 0
0.91354477405548096 0.6365465521812439 0
0.94200170040130615 0.61781018972396851 0
0.9591982364654541 0.59476560354232788 0
0.96878647804260254 0.56915229558944702 0
0 0.58083122968673706 0.22182548046112061
0 0.59643536806106567 0.20010665059089661
0.013286516070365906 0.61660301685333252 0.17766191065311432
0.13711363077163696 0.64466190338134766 0.15254895389080048
0.33504250645637512 0.67864489555358887 0.11286844313144684
0.53373914957046509 0.70894348621368408 0.058670341968536377
0.68974310159683228 0.72696876525878906 0.021034600213170052
0.79893898963928223 0.73130857944488525 0.0043380437418818474
0.87351012229919434 0.72532927989959717 9.6579162345733494e-05
0.92173349857330322 0.7112889289855957 0
0.95088881254196167 0.6905512809753418 0
0.96780002117156982 0.66457110643386841 0
0.97827231884002686 0.63589704036712646 0
0 0.62465327978134155 0.26021692156791687
0 0.63993710279464722 0.2425205409526825
0.0054681366309523582 0.65858209133148193 0.22592119872570038
0.1005762442946434 0.68470317125320435 0.20565621554851532
0.28648915886878967 0.71719729900360107 0.16730929911136627
0.4939873218536377 0.75002223253250122 0.10558464378118515
0.66237419843673706 0.77273398637771606 0.053529191762208939
0.78090518712997437 0.78436344861984253 0.022279553115367889
0.86636644601821899 0.78575098514556885 0.0049655241891741753
0.92204886674880981 0.77522176504135132 0.00047445858945138752
0.9544188380241394 0.75531816482543945 7.180606644396903e-06
0.97282308340072632 0.72896784543991089 0
0.98483479022979736 0.69989216327667236 0
0.0011684043565765023 0.6595301628112793 0.29759365320205688
0 0.6732017993927002 0.28311160206794739
0.00024040072457864881 0.68967467546463013 0.26869082450866699
0.050746362656354904 0.71272540092468262 0.25035378336906433
0.21753063797950745 0.74325335025787354 0.21491535007953644
0.43431121110916138 0.77634590864181519 0.16162028908729553
0.61660468578338623 0.8028605580329895 0.11510226875543594
0.74473178386688232 0.81974273920059204 0.074197225272655487
0.84073203802108765 0.82779490947723389 0.035305622965097427
0.90789210796356201 0.82369536161422729 0.013663108460605145
0.94895410537719727 0.80850255489349365 0.003889420535415411
0.97249579429626465 0.78555262088775635 0.00030750947189517319
0.98741978406906128 0.75802558660507202 1.4002182979311328e-05
0.0021650874987244606 0.68467837572097778 0.32590219378471375
0 0.6967429518699646 0.31356945633888245
0 0.71230196952819824 0.30102622509002686
0.019379859790205956 0.73255562782287598 0.28556215763092041
0.16069260239601135 0.76003271341323853 0.25859248638153076
0.37129977345466614 0.79139262437820435 0.22312721610069275
0.56315392255783081 0.81907296180725098 0.1902710497379303
0.69871246814727783 0.8391578197479248 0.15463607013225555
0.79982185363769531 0.85175234079360962 0.10870426893234253
0.88055425882339478 0.85473448038101196 0.062387533485889435
0.93588685989379883 0.84794908761978149 0.030735913664102554
0.96750044822692871 0.83128160238265991 0.012639363296329975
0.9867168664932251 0.80653893947601318 0.0068044327199459076
0.00013515996397472918 0.70061898231506348 0.33918654918670654
0 0.71305215358734131 0.33087658882141113
0 0.72743058204650879 0.3218168318271637
0.0073262234218418598 0.746329665184021 0.31059971451759338
0.11825720220804214 0.77076059579849243 0.29368165135383606
0.31668144464492798 0.79982870817184448 0.27175453305244446
0.51205873489379883 0.82725143432617188 0.24947892129421234
0.64967656135559082 0.84753870964050293 0.220640629529953
0.75099939107894897 0.86171966791152954 0.17795227468013763
0.84438490867614746 0.87153041362762451 0.12506422400474548
0.91641849279403687 0.8735770583152771 0.084246538579463959
0.95774894952774048 0.86302763223648071 0.058040078729391098
0.9808850884437561 0.84318572282791138 0.039754532277584076
0 0.71229004859924316 0.34353145956993103
0 0.72489029169082642 0.33870545029640198
0 0.73901629447937012 0.33366972208023071
0.0023691963870078325 0.75656396150588989 0.32766208052635193
0.083982296288013458 0.77791327238082886 0.31842291355133057
0.26597636938095093 0.80499565601348877 0.30457386374473572
0.45894187688827515 0.83143532276153564 0.28743249177932739
0.59609556198120117 0.85031229257583618 0.26156917214393616
0.69743269681930542 0.86428296566009521 0.2213173508644104
0.80144733190536499 0.87888497114181519 0.16607765853404999
0.88805818557739258 0.88772392272949219 0.12433011084794998
0.93731415271759033 0.88311153650283813 0.1047147735953331
0.96543806791305542 0.86783605813980103 0.084982596337795258
0.10077837854623795 0.046178270131349564 0.14037415385246277
0.23414212465286255 0.049461860209703445 0.11825527250766754
0.35370799899101257 0.054938089102506638 0.098302386701107025
0.49145472049713135 0.050999332219362259 0.077692635357379913
0.6126980185508728 0.043978177011013031 0.068310998380184174
0.69619297981262207 0.041528169065713882 0.057532008737325668
0.7480347752571106 0.041584629565477371 0.036156956106424332
0.77862280607223511 0.041747298091650009 0.015442447736859322
0.80272978544235229 0.040548857301473618 0.011312955990433693
0.82599139213562012 0.039568599313497543 0.0138397216796875
0.84437960386276245 0.042312547564506531 0.0099572427570819855
0.85571473836898804 0.044024106115102768 0.0023856817279011011
0.86276757717132568 0.039720512926578522 4.9366670282324776e-05
0.025664025917649269 0.12969551980495453 0.15913078188896179
0.10611365735530853 0.13806435465812683 0.14150205254554749
0.22296364605426788 0.15012447535991669 0.12790192663669586
0.3846861720085144 0.1603543609380722 0.10949398577213287
0.53910231590270996 0.16024328768253326 0.088344022631645203
0.65396225452423096 0.15859968960285187 0.067810595035552979
0.73113089799880981 0.15573978424072266 0.044743720442056656
0.78067708015441895 0.15321548283100128 0.024898678064346313
0.81484478712081909 0.15152323246002197 0.017342347651720047
0.84249812364578247 0.15224072337150574 0.019086934626102448
0.86333197355270386 0.15666884183883667 0.018211424350738525
0.87533873319625854 0.15835362672805786 0.0090516479685902596
0.88056927919387817 0.1491750031709671 0.003404280636459589
0.022670954465866089 0.22031815350055695 0.18201085925102234
0.088203132152557373 0.22664435207843781 0.16526314616203308
0.19710329174995422 0.24038901925086975 0.15115535259246826
0.35271918773651123 0.26050135493278503 0.13262316584587097
0.51157689094543457 0.27485257387161255 0.10598023235797882
0.64071810245513916 0.27980819344520569 0.077328264713287354
0.73418688774108887 0.27662166953086853 0.051185205578804016
0.79486072063446045 0.27118721604347229 0.030067309737205505
0.83480197191238403 0.26872608065605164 0.022662831470370293
0.86563169956207275 0.26867321133613586 0.026596952229738235
0.8880733847618103 0.27053654193878174 0.030783604830503464
0.89944952726364136 0.26682955026626587 0.025001689791679382
0.90226078033447266 0.25142470002174377 0.016180479899048805
0.012514824979007244 0.32073357701301575 0.20788772404193878
0.060049798339605331 0.32782426476478577 0.19009308516979218
0.16261816024780273 0.34302148222923279 0.17465610802173615
0.322784423828125 0.36661723256111145 0.15582183003425598
0.49382138252258301 0.38914120197296143 0.12654748558998108
0.63659363985061646 0.3993895947933197 0.090721875429153442
0.74197149276733398 0.39546889066696167 0.055163081735372543
0.81002998352050781 0.3856809139251709 0.030068162828683853
0.85301011800765991 0.37890714406967163 0.023935295641422272
0.88669061660766602 0.37629753351211548 0.023961234837770462
0.9105566143989563 0.37314358353614807 0.029323399066925049
0.92169052362442017 0.36294308304786682 0.032702397555112839
0.92426735162734985 0.34411889314651489 0.027175379917025566
0.00066314399009570479 0.41125103831291199 0.23415112495422363
0.020486285910010338 0.42162102460861206 0.21542927622795105
0.11214099824428558 0.43795040249824524 0.1987219899892807
0.2799409031867981 0.46321728825569153 0.1790156364440918
0.46938517689704895 0.49237680435180664 0.14653293788433075
0.62776046991348267 0.5086168646812439 0.10506479442119598
0.74373537302017212 0.50527417659759521 0.064230374991893768
0.82006263732910156 0.4927598237991333 0.034743335098028183
0.86754810810089111 0.48173421621322632 0.023231685161590576
0.90255653858184814 0.47318762540817261 0.016959724947810173
0.92742776870727539 0.46330565214157104 0.019976118579506874
0.94066435098648071 0.44863042235374451 0.023032154887914658
0.94572615623474121 0.42891722917556763 0.020820213481783867
0 0.48752123117446899 0.25915384292602539
0.00079356174683198333 0.50022047758102417 0.23953497409820557
0.055753070861101151 0.5171923041343689 0.22072187066078186
0.22211810946464539 0.54357290267944336 0.19940184056758881
0.43038275837898254 0.57710385322570801 0.16357432305812836
0.60829156637191772 0.60013866424560547 0.12261331826448441
0.73451137542724609 0.6018708348274231 0.085770338773727417
0.82008582353591919 0.59063351154327393 0.051756720989942551
0.87454646825790405 0.57658594846725464 0.02882111445069313
0.91231191158294678 0.56213593482971191 0.020076900720596313
0.93929147720336914 0.54637742042541504 0.019390929490327835
0.95518714189529419 0.52735334634780884 0.01697470061480999
0.96296918392181396 0.50590556859970093 0.01581026054918766
0 0.55114865303039551 0.28384792804718018
0 0.56494128704071045 0.26475602388381958
0.018997985869646072 0.58314406871795654 0.24643975496292114
0.16197545826435089 0.61041021347045898 0.2255236953496933
0.37894377112388611 0.64485436677932739 0.19338005781173706
0.57625865936279297 0.67276126146316528 0.15582519769668579
0.71683728694915771 0.68258118629455566 0.12011436372995377
0.81393152475357056 0.6765020489692688 0.080096207559108734
0.87747126817703247 0.66246086359024048 0.045034162700176239
0.91969996690750122 0.64551454782485962 0.030350165441632271
0.94790691137313843 0.62628418207168579 0.022092392668128014
0.96499896049499512 0.60268509387969971 0.015242707915604115
0.97433775663375854 0.57712918519973755 0.014656964689493179
0 0.6037866473197937 0.30962574481964111
0 0.61816716194152832 0.29365798830986023
0.0080189574509859085 0.63707238435745239 0.28004735708236694
0.12533971667289734 0.66416573524475098 0.2653505802154541
0.33501902222633362 0.69763362407684326 0.23968838155269623
0.54284524917602539 0.72752028703689575 0.20128118991851807
0.69693899154663086 0.74437910318374634 0.16133786737918854
0.80526822805404663 0.7465895414352417 0.12096349895000458
0.87983453273773193 0.73790204524993896 0.081365026533603668
0.92646574974060059 0.72241759300231934 0.054771319031715393
0.95502251386642456 0.70152455568313599 0.037363644689321518
0.97177976369857788 0.67461156845092773 0.024323511868715286
0.98193198442459106 0.64546489715576172 0.020815126597881317
0.0013551001902669668 0.64614754915237427 0.33752429485321045
0 0.6606605052947998 0.32525825500488281
0.0030724171083420515 0.67973905801773071 0.31648573279380798
0.092136666178703308 0.70571357011795044 0.30599844455718994
0.28538140654563904 0.73720026016235352 0.28409343957901001
0.49776348471641541 0.76730269193649292 0.24552679061889648
0.66292303800582886 0.78896194696426392 0.20575198531150818
0.78088760375976562 0.79959958791732788 0.16632892191410065
0.86887544393539429 0.79990005493164062 0.12480515241622925
0.92558318376541138 0.78913122415542603 0.093595646321773529
0.95701080560684204 0.76883786916732788 0.070343166589736938
0.97507190704345703 0.74214082956314087 0.050482373684644699
0.98744195699691772 0.71274453401565552 0.043135177344083786
0.0093638552352786064 0.67851930856704712 0.36727204918861389
4.7721114242449403e-06 0.69275474548339844 0.35704195499420166
0.00010501637007109821 0.71080011129379272 0.34956216812133789
0.052153345197439194 0.73495155572891235 0.33937743306159973
0.22467926144599915 0.76446247100830078 0.31927564740180969
0.4405742883682251 0.79398822784423828 0.28901958465576172
0.61366647481918335 0.81707406044006348 0.25902456045150757
0.73785495758056641 0.83378219604492188 0.2247624397277832
0.84065264463424683 0.84311622381210327 0.18227109313011169
0.91232955455780029 0.83974355459213257 0.14719228446483612
0.95239830017089844 0.82495224475860596 0.1168157234787941
0.97401422262191772 0.80181145668029785 0.085924424231052399
0.98958420753479004 0.77434670925140381 0.072824068367481232
0.01156590785831213 0.70158088207244873 0.39060941338539124
1.020244508254109e-05 0.71501940488815308 0.38232636451721191
0 0.73246121406555176 0.37539881467819214
0.027267215773463249 0.75448185205459595 0.36678749322891235
0.17928600311279297 0.78183990716934204 0.35193389654159546
0.39375695586204529 0.80982130765914917 0.33211565017700195
0.57337367534637451 0.83382630348205566 0.31322190165519714
0.69790953397750854 0.85300147533416748 0.28866931796073914
0.80261784791946411 0.86675417423248291 0.25224173069000244
0.88769525289535522 0.8713262677192688 0.21268835663795471
0.94103169441223145 0.86507171392440796 0.1774931401014328
0.96988368034362793 0.84829223155975342 0.14045636355876923
0.9886162281036377 0.82485014200210571 0.12027765810489655
0.0042603584006428719 0.71710187196731567 0.40230324864387512
0 0.72997468709945679 0.39610186219215393
0 0.74651706218719482 0.39171674847602844
0.017077965661883354 0.76744621992111206 0.38692286610603333
0.14786379039287567 0.79272514581680298 0.3786957859992981
0.35322654247283936 0.81949752569198608 0.36627089977264404
0.53529852628707886 0.84315341711044312 0.35486772656440735
0.65738815069198608 0.86157149076461792 0.33843991160392761
0.75641804933547974 0.87593060731887817 0.30877846479415894
0.85057538747787476 0.88651072978973389 0.27074998617172241
0.92032653093338013 0.88946354389190674 0.24228999018669128
0.96006101369857788 0.8805047869682312 0.21393229067325592
0.98403602838516235 0.86196458339691162 0.18393249809741974
5.1341336074983701e-05 0.72814840078353882 0.40532806515693665
0 0.74099332094192505 0.40169394016265869
0 0.75681442022323608 0.40062496066093445
0.01550578698515892 0.77671128511428833 0.40060997009277344
0.1263432651758194 0.7998238205909729 0.3977910578250885
0.3075045645236969 0.82476264238357544 0.39132300019264221
0.4812590479850769 0.84740346670150757 0.38285371661186218
0.60438418388366699 0.86396610736846924 0.36834466457366943
0.70232844352722168 0.8774304986000061 0.34231400489807129
0.8040429949760437 0.89178109169006348 0.30546849966049194
0.88852512836456299 0.90132695436477661 0.2787940502166748
0.93949806690216064 0.89918535947799683 0.25942766666412354
0.96934539079666138 0.88593542575836182 0.23303079605102539
0.16305157542228699 0.043373376131057739 0.25558212399482727
0.3240659236907959 0.047815762460231781 0.23286794126033783
0.42618989944458008 0.05237274244427681 0.20771799981594086
0.535594642162323 0.047998197376728058 0.18006302416324615
0.6361737847328186 0.043248973786830902 0.16471880674362183
0.71242600679397583 0.040769822895526886 0.1517537534236908
0.76415669918060303 0.039254043251276016 0.13163706660270691
0.79553210735321045 0.038913965225219727 0.10824960470199585
0.81800466775894165 0.038670409470796585 0.091664105653762817
0.83986049890518188 0.037767507135868073 0.08142891526222229
0.8563421368598938 0.042267326265573502 0.07227807492017746
0.86520272493362427 0.046735052019357681 0.054108444601297379
0.86988019943237305 0.045390557497739792 0.034086145460605621
0.020458132028579712 0.13595069944858551 0.26531544327735901
0.11749865859746933 0.14538650214672089 0.25209486484527588
0.25140172243118286 0.15495674312114716 0.23618894815444946
0.41650378704071045 0.16160552203655243 0.21532264351844788
0.56226617097854614 0.16104646027088165 0.19558899104595184
0.67223680019378662 0.15805944800376892 0.17727215588092804
0.74927055835723877 0.15321503579616547 0.15648870170116425
0.79861420392990112 0.14976243674755096 0.13291727006435394
0.83105456829071045 0.15078739821910858 0.11290095001459122
0.85711348056793213 0.15302762389183044 0.10205576568841934
0.87604081630706787 0.16110450029373169 0.093879044055938721
0.88633936643600464 0.16680574417114258 0.07732824981212616
0.89031946659088135 0.16234368085861206 0.062520541250705719
0.010624410584568977 0.23142018914222717 0.29204049706459045
0.081962183117866516 0.23969164490699768 0.27829116582870483
0.20971962809562683 0.2534814178943634 0.26386946439743042
0.37623223662376404 0.27108609676361084 0.24621650576591492
0.53375864028930664 0.28184393048286438 0.22651608288288116
0.65929216146469116 0.28477561473846436 0.20491138100624084
0.75230401754379272 0.28030258417129517 0.18240690231323242
0.81114572286605835 0.27536794543266296 0.15761606395244598
0.84941190481185913 0.27507126331329346 0.14172109961509705
0.8803480863571167 0.27801105380058289 0.13682447373867035
0.90184766054153442 0.28308966755867004 0.12855687737464905
0.91302645206451416 0.28425148129463196 0.11372449994087219
0.91547936201095581 0.27446773648262024 0.099367402493953705
0.006075885146856308 0.33479529619216919 0.3206900954246521
0.050720784813165665 0.34447124600410461 0.30496317148208618
0.16391846537590027 0.35926496982574463 0.29106330871582031
0.33674973249435425 0.38047125935554504 0.27583727240562439
0.51192241907119751 0.40050408244132996 0.25654464960098267
0.65228652954101562 0.41000762581825256 0.23240923881530762
0.75759649276733398 0.40612563490867615 0.20527474582195282
0.82272768020629883 0.3976786732673645 0.17915455996990204
0.86342859268188477 0.39299574494361877 0.16720397770404816
0.89949649572372437 0.39294159412384033 0.15892529487609863
0.92425549030303955 0.39264211058616638 0.15093490481376648
0.93632501363754272 0.38724479079246521 0.14244459569454193
0.9389532208442688 0.3730187714099884 0.12800654768943787
0.00022657806403003633 0.42988413572311401 0.34614205360412598
0.013085907325148582 0.44170105457305908 0.33039960265159607
0.09961574524641037 0.45756807923316956 0.31613835692405701
0.28141921758651733 0.48121505975723267 0.30184885859489441
0.48519819974899292 0.50701797008514404 0.28213170170783997
0.64388400316238403 0.52226024866104126 0.25600704550743103
0.75776070356369019 0.51929163932800293 0.22689259052276611
0.83211559057235718 0.50815689563751221 0.20044378936290741
0.87727928161621094 0.50004911422729492 0.18248657882213593
0.91280663013458252 0.49259549379348755 0.1645052433013916
0.9392014741897583 0.48391208052635193 0.15733090043067932
0.95360440015792847 0.47253558039665222 0.14839531481266022
0.95847898721694946 0.45629748702049255 0.13295073807239532
0 0.51009267568588257 0.36735743284225464
7.5037336500827223e-05 0.52319097518920898 0.35218450427055359
0.038729574531316757 0.54027467966079712 0.33839806914329529
0.2167993038892746 0.5647856593132019 0.32467985153198242
0.44598484039306641 0.59459477663040161 0.30544793605804443
0.62269133329391479 0.61534053087234497 0.28179311752319336
0.74614334106445312 0.6167486310005188 0.25689223408699036
0.83192086219787598 0.60552740097045898 0.22892293334007263
0.88463866710662842 0.59337782859802246 0.19947099685668945
0.92055147886276245 0.57928848266601562 0.18176646530628204
