assets/lut/inavision gremerta.cube
# Created by: G'MIC (https://gmic.eu)
TITLE "gremerta"
# LUT size
LUT_3D_SIZE 5
# Data domain
DOMAIN_MIN 0.0 0.0 0.0
DOMAIN_MAX 1.0 1.0 1.0
# LUT data points
0.0025639103259891272 0.0020526212174445391 0.0028004066552966833
0.18041282892227173 0.0030543159227818251 0.0026142345741391182
0.36432716250419617 0.0085233505815267563 0.0017338921315968037
0.56035345792770386 0.0058788522146642208 0.010403726249933243
0.75862067937850952 0.032196853309869766 0.0061678867787122726
0.0024962183088064194 0.19595761597156525 0.013503414578735828
0.18082715570926666 0.19314125180244446 0.003174695884808898
0.36450585722923279 0.20177379250526428 0.0036981170997023582
0.55962008237838745 0.21350358426570892 0.00084318273002281785
0.76005417108535767 0.2245771586894989 0.003387511009350419
0.0043809628114104271 0.38431373238563538 0.010889524593949318
0.18265162408351898 0.38499534130096436 0.0017155216773971915
0.37071838974952698 0.3906148374080658 0.011748699471354485
0.55902969837188721 0.40344351530075073 0.01283003855496645
0.76036173105239868 0.41905757784843445 0.0063165551982820034
0.025694573298096657 0.59936255216598511 0.0014052446931600571
0.19679120182991028 0.59627681970596313 0.00082110235234722495
0.38111302256584167 0.59357261657714844 0.0084378710016608238
0.56793832778930664 0.60196167230606079 0.017644904553890228
0.76736140251159668 0.61862355470657349 0.0099764950573444366
0.044621024280786514 0.81628942489624023 0.0031064948998391628
0.21536730229854584 0.81371283531188965 0.0040586283430457115
0.39596527814865112 0.81168609857559204 0.008806595578789711
0.58397763967514038 0.81698828935623169 0.012002862989902496
0.78169697523117065 0.82980036735534668 0.0088214650750160217
0.003407392418012023 0.00056870403932407498 0.16439725458621979
0.18058581650257111 0.0014479693491011858 0.1665073037147522
0.36270448565483093 0.00065917969914153218 0.17932641506195068
0.56135445833206177 1.5617819371982478e-05 0.18867889046669006
0.75866717100143433 0.0095575219020247459 0.1811007559299469
0.013088645413517952 0.19615325331687927 0.16636133193969727
0.18266360461711884 0.19325964152812958 0.1625576913356781
0.36292007565498352 0.1975732296705246 0.1695583313703537
0.55953609943389893 0.19516892731189728 0.16491611301898956
0.75822287797927856 0.2012665718793869 0.16843569278717041
0.0085215251892805099 0.38428297638893127 0.17421574890613556
0.17888237535953522 0.3869897723197937 0.15491834282875061
0.36856308579444885 0.39204877614974976 0.16325268149375916
0.55872708559036255 0.39843964576721191 0.1664448082447052
0.75728017091751099 0.40718820691108704 0.16249126195907593
0.0028216491919010878 0.59899085760116577 0.18016389012336731
0.17792707681655884 0.59828084707260132 0.1668374091386795
0.37320777773857117 0.59619796276092529 0.16794957220554352
0.5637621283531189 0.60140508413314819 0.17159342765808105
0.76206082105636597 0.61287850141525269 0.16531054675579071
0.02227313444018364 0.81770831346511841 0.17843137681484222
0.1980508416891098 0.81597578525543213 0.1753009706735611
0.38393554091453552 0.81360280513763428 0.17334559559822083
0.57505500316619873 0.81656217575073242 0.17213542759418488
0.77372926473617554 0.82596737146377563 0.16643305122852325
0.015954485163092613 0.0013786765048280358 0.33529412746429443
0.1872895210981369 0.0047184661962091923 0.33672422170639038
0.3709600567817688 0.0032859803177416325 0.34768387675285339
0.56094366312026978 0.00094101851573213935 0.35774409770965576
0.75808823108673096 0.00056367763318121433 0.36073675751686096
0.0029823901131749153 0.19464640319347382 0.33392146229743958
0.17785298824310303 0.19451235234737396 0.33147948980331421
0.36683419346809387 0.19043156504631042 0.33855322003364563
0.55783140659332275 0.18549981713294983 0.34286865592002869
0.75632745027542114 0.18254843354225159 0.34713864326477051
0.0060926699079573154 0.39064282178878784 0.34528002142906189
0.17765329778194427 0.38831391930580139 0.33515539765357971
0.36473506689071655 0.38811960816383362 0.33529412746429443
0.55748456716537476 0.39000830054283142 0.33529412746429443
0.75541108846664429 0.3948204517364502 0.33529412746429443
0.0041349823586642742 0.59908497333526611 0.36013695597648621
0.17518788576126099 0.59853935241699219 0.34761720895767212
0.36473259329795837 0.60140234231948853 0.33681514859199524
0.55953055620193481 0.60007637739181519 0.33534204959869385
0.75899922847747803 0.6063428521156311 0.33137577772140503
0.012145712040364742 0.81691175699234009 0.36274510622024536
0.18672779202461243 0.81524550914764404 0.35502034425735474
0.3737809956073761 0.81454598903656006 0.34540238976478577
0.56788337230682373 0.81531059741973877 0.33941948413848877
0.76835328340530396 0.82193416357040405 0.33529412746429443
0.0034488602541387081 0.0090628527104854584 0.51292890310287476
0.18511851131916046 0.0096244961023330688 0.51302295923233032
0.37911844253540039 0.0066155525855720043 0.5172763466835022
0.56369322538375854 0.0035137101076543331 0.52422869205474854
0.75860637426376343 0.00077676214277744293 0.53157490491867065
0.0014368393458425999 0.20123445987701416 0.51280218362808228
0.17876040935516357 0.19617563486099243 0.51157075166702271
0.37234801054000854 0.1916106790304184 0.51292890310287476
0.55772525072097778 0.19153186678886414 0.51399725675582886
0.75544905662536621 0.18141518533229828 0.52119165658950806
0.0052206004038453102 0.39921838045120239 0.51704806089401245
0.17712067067623138 0.39148080348968506 0.51288449764251709
0.36507889628410339 0.38955983519554138 0.51295214891433716
0.55650562047958374 0.39009633660316467 0.51292890310287476
0.75473582744598389 0.39047518372535706 0.51303654909133911
0.0068014706484973431 0.60373365879058838 0.5261041522026062
0.1772671639919281 0.59817719459533691 0.51738494634628296
0.36338430643081665 0.59862202405929565 0.51573473215103149
0.55779105424880981 0.59788256883621216 0.51310122013092041
0.75827068090438843 0.60222923755645752 0.51085197925567627
0.0097432751208543777 0.81795787811279297 0.53372824192047119
0.18222799897193909 0.81353569030761719 0.52705013751983643
0.36812308430671692 0.8109017014503479 0.52073556184768677
0.5635947585105896 0.81244522333145142 0.51676338911056519
0.76592415571212769 0.81834852695465088 0.51291489601135254
0.0030407626181840897 0.015892522409558296 0.69666242599487305
0.18734173476696014 0.011215868405997753 0.6963009238243103
0.38236469030380249 0.0057095997035503387 0.69826561212539673
0.56883734464645386 0.0035689410287886858 0.70186954736709595
0.76272308826446533 0.0015265969559550285 0.7062828540802002
0.0044802050106227398 0.21386182308197021 0.69615852832794189
0.18337416648864746 0.19875010848045349 0.69507181644439697
0.37344497442245483 0.18789622187614441 0.69548100233078003
0.56221753358840942 0.18781234323978424 0.69677162170410156
0.75874149799346924 0.18367063999176025 0.70055246353149414
0.006051680538803339 0.41205185651779175 0.69658654928207397
0.1772671639919281 0.39995583891868591 0.69340771436691284
0.36300459504127502 0.39290907979011536 0.69522935152053833
0.55741572380065918 0.39035278558731079 0.69528186321258545
0.75752907991409302 0.39039668440818787 0.69625174999237061
0.0068014706484973431 0.61402231454849243 0.70150399208068848
0.1772671639919281 0.60535734891891479 0.69620388746261597
0.36078432202339172 0.59986782073974609 0.6969878077507019
0.55746018886566162 0.59827953577041626 0.69640219211578369
0.76018846035003662 0.60164576768875122 0.69514280557632446
0.0090085500851273537 0.8229445219039917 0.70973730087280273
0.18049012124538422 0.81520044803619385 0.70366406440734863
0.36512559652328491 0.80920904874801636 0.70099258422851562
0.56229102611541748 0.81068569421768188 0.69844377040863037
0.76648741960525513 0.81713038682937622 0.6959494948387146
