assets/lut/inavision formula b.cube
# Created by: G'MIC (https://gmic.eu)
TITLE "formula_b"
# LUT size
LUT_3D_SIZE 5
# Data domain
DOMAIN_MIN 0.0 0.0 0.0
DOMAIN_MAX 1.0 1.0 1.0
# LUT data points
0.10582069307565689 0.10414742678403854 0.10237593948841095
0.27196228504180908 0.097592279314994812 0.08449060469865799
0.52238374948501587 0.086260266602039337 0.070862777531147003
0.74484193325042725 0.066740177571773529 0.057436984032392502
0.90178781747817993 0.068779006600379944 0.056665025651454926
0.093311280012130737 0.25609597563743591 0.069811157882213593
0.26693248748779297 0.2591463029384613 0.06371181458234787
0.51781129837036133 0.26829648017883301 0.054903484880924225
0.74989897012710571 0.26825466752052307 0.052426133304834366
0.90792113542556763 0.24588264524936676 0.033734727650880814
0.090195357799530029 0.50618010759353638 0.049355510622262955
0.2745673656463623 0.50111639499664307 0.037154536694288254
0.52138972282409668 0.51006960868835449 0.054278355091810226
0.74683851003646851 0.50538510084152222 0.04706307128071785
0.90454250574111938 0.45990505814552307 0.045856162905693054
0.078860878944396973 0.73807817697525024 0.058813385665416718
0.26651111245155334 0.73918277025222778 0.035346552729606628
0.5135953426361084 0.73705333471298218 0.049187932163476944
0.73806220293045044 0.73082858324050903 0.044405978173017502
0.9013018012046814 0.67956256866455078 0.055187240242958069
0.079649336636066437 0.89710909128189087 0.060130175203084946
0.24585911631584167 0.89836269617080688 0.037191711366176605
0.46945291757583618 0.89591777324676514 0.057708978652954102
0.68627804517745972 0.89856904745101929 0.055284284055233002
0.89526939392089844 0.89219439029693604 0.059416662901639938
0.11263655126094818 0.099713928997516632 0.2500661313533783
0.2733059823513031 0.089408710598945618 0.25598618388175964
0.52605855464935303 0.064039073884487152 0.26118838787078857
0.75128358602523804 0.048206061124801636 0.26339370012283325
0.90204739570617676 0.036065913736820221 0.23566779494285583
0.028548507019877434 0.28833463788032532 0.32622388005256653
0.25327408313751221 0.26242130994796753 0.2590978741645813
0.52019727230072021 0.24940718710422516 0.23543755710124969
0.75899362564086914 0.24021038413047791 0.2232155054807663
0.91304671764373779 0.22202761471271515 0.20053157210350037
0.041090797632932663 0.52433192729949951 0.30934527516365051
0.23469793796539307 0.51015990972518921 0.23307099938392639
0.51550900936126709 0.50848352909088135 0.21321001648902893
0.7596626877784729 0.49805253744125366 0.19652347266674042
0.91205799579620361 0.45415657758712769 0.18578483164310455
0.036060452461242676 0.7468109130859375 0.28055694699287415
0.21075332164764404 0.74127066135406494 0.19012276828289032
0.49489304423332214 0.74057406187057495 0.17368873953819275
0.73733562231063843 0.73365610837936401 0.17141541838645935
0.90418559312820435 0.6789589524269104 0.16636089980602264
0.04048469290137291 0.90191686153411865 0.24227438867092133
0.19421423971652985 0.8986656665802002 0.16925457119941711
0.44579935073852539 0.89986550807952881 0.16770310699939728
0.6812097430229187 0.90226948261260986 0.15654650330543518
0.89494103193283081 0.89481103420257568 0.15215864777565002
0.10173670202493668 0.08496837317943573 0.50076454877853394
0.27614206075668335 0.078154154121875763 0.50905883312225342
0.52667874097824097 0.074868224561214447 0.51248455047607422
0.75462847948074341 0.066716887056827545 0.50275892019271851
0.90541321039199829 0.030678886920213699 0.46170017123222351
0.045425683259963989 0.29008138179779053 0.56546330451965332
0.26145085692405701 0.25900048017501831 0.51310139894485474
0.52550560235977173 0.24493919312953949 0.50427472591400146
0.75575149059295654 0.23579531908035278 0.50539672374725342
0.91698688268661499 0.21785293519496918 0.45414212346076965
0.032764434814453125 0.54063659906387329 0.59729689359664917
0.12895433604717255 0.54284763336181641 0.60319381952285767
0.49792635440826416 0.50954228639602661 0.51291310787200928
0.75195932388305664 0.50081795454025269 0.4996151328086853
0.91056078672409058 0.48229944705963135 0.47117522358894348
0.032201461493968964 0.76152908802032471 0.5885547399520874
0.13316237926483154 0.76098203659057617 0.56490278244018555
0.48581027984619141 0.74616736173629761 0.48765143752098083
0.74465543031692505 0.73578411340713501 0.47362810373306274
0.90721029043197632 0.69020867347717285 0.47449383139610291
0.03790530189871788 0.90597295761108398 0.5272141695022583
0.1651606559753418 0.90387368202209473 0.47294935584068298
0.45783108472824097 0.90175998210906982 0.44244742393493652
0.7023082971572876 0.90093964338302612 0.45434856414794922
0.89057201147079468 0.89094829559326172 0.4532618522644043
0.086637355387210846 0.074729308485984802 0.73438996076583862
0.27962279319763184 0.073058590292930603 0.74947124719619751
0.52066397666931152 0.065059170126914978 0.75021862983703613
0.7467271089553833 0.058438468724489212 0.73652356863021851
0.90333437919616699 0.028663709759712219 0.68059706687927246
0.046958565711975098 0.279542475938797 0.77544772624969482
0.26018261909484863 0.25313290953636169 0.75051760673522949
0.51582109928131104 0.23750583827495575 0.74676024913787842
0.75284534692764282 0.22825425863265991 0.74122929573059082
0.92049127817153931 0.21403579413890839 0.6892324686050415
0.039040043950080872 0.53524166345596313 0.82602965831756592
0.18204832077026367 0.52155172824859619 0.80336219072341919
0.50888502597808838 0.50625699758529663 0.74242091178894043
0.75012367963790894 0.50470119714736938 0.73059147596359253
0.91257280111312866 0.5003545880317688 0.70512640476226807
0.039272233843803406 0.76117515563964844 0.83111953735351562
0.10324668139219284 0.76268422603607178 0.83627468347549438
0.37644654512405396 0.76376986503601074 0.83786803483963013
0.72378766536712646 0.74461978673934937 0.75574266910552979
0.90252327919006348 0.7275504469871521 0.72682976722717285
0.043654363602399826 0.91207075119018555 0.77260947227478027
0.10001154989004135 0.91375666856765747 0.77801156044006348
0.3961518406867981 0.91599595546722412 0.76572597026824951
0.73035937547683716 0.89786523580551147 0.73523521423339844
0.89573132991790771 0.89582806825637817 0.72883135080337524
0.081496819853782654 0.07066287100315094 0.91084229946136475
0.25588658452033997 0.058246791362762451 0.91401749849319458
0.47224375605583191 0.067798450589179993 0.90482574701309204
0.69704705476760864 0.055407684296369553 0.90664339065551758
0.89839440584182739 0.064315065741539001 0.89486724138259888
0.039399690926074982 0.24709707498550415 0.93214863538742065
0.23836067318916321 0.23389454185962677 0.91823345422744751
0.47740492224693298 0.23583541810512543 0.91897749900817871
0.70094281435012817 0.2156461775302887 0.91858404874801636
0.90717875957489014 0.22778075933456421 0.9017220139503479
0.029984058812260628 0.48340111970901489 0.96719688177108765
0.20684947073459625 0.47368437051773071 0.94498038291931152
0.50268208980560303 0.49570947885513306 0.91305625438690186
0.71386396884918213 0.49942734837532043 0.90816366672515869
0.90413957834243774 0.49132207036018372 0.90537762641906738
0.04017944261431694 0.70723611116409302 0.99056905508041382
0.13061453402042389 0.70223653316497803 0.991851806640625
0.42578127980232239 0.71352827548980713 0.97446489334106445
0.73256111145019531 0.73788058757781982 0.90810084342956543
0.90581750869750977 0.7344779372215271 0.89083164930343628
0.046234056353569031 0.90935432910919189 0.9851607084274292
0.11172454059123993 0.90588819980621338 0.9822344183921814
0.34799367189407349 0.90824878215789795 0.9910358190536499
0.62655895948410034 0.91127932071685791 0.99307847023010254
0.88702487945556641 0.89718246459960938 0.90549230575561523
