assets/lut/inavision vfb 21.cube
# Created by: G'MIC (https://gmic.eu)
TITLE "vfb_21"
# LUT size
LUT_3D_SIZE 13
# Data domain
DOMAIN_MIN 0.0 0.0 0.0
DOMAIN_MAX 1.0 1.0 1.0
# LUT data points
0.018472500145435333 0.022493146359920502 0.01593933068215847
0.06831030547618866 0.025857888162136078 0.022461850196123123
0.1478116512298584 0.031018605455756187 0.016391977667808533
0.24724949896335602 0.038622252643108368 0.01162980031222105
0.35814318060874939 0.043770208954811096 0.0075454562902450562
0.46603560447692871 0.039456684142351151 0.002473300090059638
0.53923743963241577 0.034459911286830902 1.2925092050863896e-05
0.59094548225402832 0.028814248740673065 0.00067898619454354048
0.63548707962036133 0.028289509937167168 0.0016794092953205109
0.67522692680358887 0.0317344069480896 0.00065012910636141896
0.70640450716018677 0.034296583384275436 0.0020083407871425152
0.73723834753036499 0.042219482362270355 5.1341336074983701e-05
0.77541714906692505 0.058082506060600281 0
0.0088331932201981544 0.078147739171981812 0.04890129342675209
0.036138199269771576 0.080278597772121429 0.041309148073196411
0.083876393735408783 0.09222208708524704 0.036236975342035294
0.16527445614337921 0.10566264390945435 0.028806857764720917
0.28034931421279907 0.11514706909656525 0.017945367842912674
0.39760869741439819 0.11886568367481232 0.0057248584926128387
0.49500337243080139 0.11708632856607437 0.00051404169062152505
0.57128423452377319 0.11258838325738907 0.00070199405308812857
0.63394349813461304 0.11264980584383011 0.00045164520270191133
0.68885397911071777 0.11781600117683411 0.00017911125905811787
0.73275494575500488 0.12326851487159729 0.00013224284339230508
0.76666826009750366 0.1303074061870575 0
0.80197274684906006 0.14213241636753082 0
0.0045074610970914364 0.13399282097816467 0.061046525835990906
0.031523760408163071 0.13400194048881531 0.049263089895248413
0.080384708940982819 0.14309585094451904 0.042544271796941757
0.1541256308555603 0.15703487396240234 0.032254088670015335
0.26097676157951355 0.17284108698368073 0.021849464625120163
0.37736302614212036 0.18830108642578125 0.0099596809595823288
0.48188525438308716 0.19807519018650055 0.0021524466574192047
0.57123541831970215 0.2028348296880722 0.00035436294274404645
0.64515393972396851 0.20622898638248444 0
0.70763391256332397 0.21072092652320862 0
0.75954663753509521 0.21638189256191254 0
0.80010592937469482 0.22327382862567902 0
0.83624500036239624 0.2324366420507431 0
1.4002182979311328e-05 0.19553534686565399 0.076720878481864929
0.012400683015584946 0.19761238992214203 0.0640440434217453
0.063702210783958435 0.20524369180202484 0.05255667120218277
0.14292985200881958 0.21990542113780975 0.039857197552919388
0.2459786981344223 0.24074482917785645 0.02776406891644001
0.36487048864364624 0.2610662579536438 0.013621222227811813
0.47727778553962708 0.27747011184692383 0.0033909068442881107
0.57613086700439453 0.28929916024208069 0.00089703727280721068
0.65908354520797729 0.29747241735458374 0.00050012924475595355
0.72670304775238037 0.30202415585517883 0.0014937157975509763
0.78422290086746216 0.30697691440582275 0.00057603424647822976
0.83190059661865234 0.31426522135734558 0
0.87143111228942871 0.32259833812713623 0
0 0.25987130403518677 0.09500344842672348
0.0025060167536139488 0.26511466503143311 0.081053473055362701
0.040443390607833862 0.27493184804916382 0.066866122186183929
0.12228929251432419 0.29027214646339417 0.048987265676259995
0.23328456282615662 0.3111516535282135 0.027724068611860275
0.3570106029510498 0.33357632160186768 0.0088007459416985512
0.47578606009483337 0.35394737124443054 0.0014341914793476462
0.58127802610397339 0.37090012431144714 0.00027735091862268746
0.67246824502944946 0.38415125012397766 0.00018597771122585982
0.74754220247268677 0.39273512363433838 0.00082189519889652729
0.80869370698928833 0.39735075831413269 0.00022033990535419434
0.86105608940124512 0.40392333269119263 0
0.90516138076782227 0.41119575500488281 0
0 0.32248228788375854 0.11461899429559708
0.00022461835760623217 0.32992398738861084 0.099506646394729614
0.027705952525138855 0.34120053052902222 0.082696817815303802
0.10640652477741241 0.35706052184104919 0.059961926192045212
0.22118990123271942 0.3776792585849762 0.029794206842780113
0.3515617847442627 0.40102279186248779 0.0059722303412854671
0.47478267550468445 0.42434754967689514 0.00010986327833961695
0.58437788486480713 0.4450700581073761 0
0.68189382553100586 0.46147501468658447 0
0.76262021064758301 0.4732343852519989 0
0.82688093185424805 0.48016679286956787 0
0.88287842273712158 0.48606327176094055 0
0.93195199966430664 0.49192216992378235 0
0 0.3810151219367981 0.13592500984668732
0.00026098513626493514 0.38892665505409241 0.12003146857023239
0.024981150403618813 0.39985936880111694 0.10167417675256729
0.09616503119468689 0.41659718751907349 0.07745826244354248
0.2062174379825592 0.43824592232704163 0.044599719345569611
0.33775413036346436 0.46353170275688171 0.014263153076171875
0.46629256010055542 0.48880878090858459 0.0019236995140090585
0.58300882577896118 0.51093989610671997 7.5396369538793806e-06
0.68643194437026978 0.52873033285140991 0
0.77176022529602051 0.54221957921981812 0
0.83840644359588623 0.55102646350860596 0
0.89616972208023071 0.5574038028717041 0
0.94893628358840942 0.56253457069396973 0
0 0.43551120162010193 0.1597694605588913
0.00053538900101557374 0.44322362542152405 0.14340373873710632
0.021219769492745399 0.45361277461051941 0.12557791173458099
0.082513831555843353 0.4709981381893158 0.10149465501308441
0.18547634780406952 0.49460047483444214 0.069143541157245636
0.31730568408966064 0.5220833420753479 0.031977470964193344
0.45277649164199829 0.5487445592880249 0.0082731358706951141
0.57659202814102173 0.57092583179473877 0.00061805575387552381
0.68649715185165405 0.58893066644668579 0
0.7777521014213562 0.60362881422042847 0
0.84757900238037109 0.61490708589553833 0
0.90568310022354126 0.62316328287124634 0
0.95882326364517212 0.62950718402862549 0
0 0.48523074388504028 0.18701612949371338
0.0003490821982268244 0.49348863959312439 0.17079678177833557
0.012927844189107418 0.50452780723571777 0.15428496897220612
0.06299871951341629 0.52259081602096558 0.13113328814506531
0.16143472492694855 0.54746055603027344 0.097110018134117126
0.29588371515274048 0.57723122835159302 0.054374590516090393
0.43772429227828979 0.60550260543823242 0.020305005833506584
0.56719613075256348 0.62738615274429321 0.0051370058208703995
0.68190354108810425 0.64494645595550537 0.00026316923322156072
0.77892756462097168 0.66072624921798706 0
0.85302501916885376 0.67394024133682251 0
0.91173583269119263 0.68387377262115479 0
0.96413320302963257 0.69104772806167603 0
6.0676124121528119e-05 0.5266069769859314 0.21984359622001648
0 0.5364004373550415 0.20582050085067749
0.0023942235857248306 0.5497550368309021 0.19136136770248413
0.038295432925224304 0.5688096284866333 0.16951501369476318
0.13481628894805908 0.59379297494888306 0.13495169579982758
0.2743166983127594 0.62521463632583618 0.09151904284954071
0.42374575138092041 0.65618979930877686 0.050902467221021652
0.55665570497512817 0.67890310287475586 0.02536558173596859
0.67353498935699463 0.69730502367019653 0.0075606550090014935
0.77537935972213745 0.71436470746994019 0.00072052900213748217
0.85364270210266113 0.72865009307861328 0.00039771586307324469
0.91297739744186401 0.73919737339019775 0.0014799828641116619
0.96525800228118896 0.74568122625350952 0.00086369231576099992
0 0.55852556228637695 0.25705099105834961
0 0.57071280479431152 0.24810276925563812
2.3336971935350448e-05 0.58718335628509521 0.23628829419612885
0.019621187821030617 0.60760921239852905 0.21566741168498993
0.10905633121728897 0.63160014152526855 0.18486796319484711
0.24971550703048706 0.66280025243759155 0.14958389103412628
0.4052298367023468 0.69679105281829834 0.11352299898862839
0.54313671588897705 0.72387838363647461 0.078453600406646729
0.66460078954696655 0.74419856071472168 0.040608827024698257
0.77201855182647705 0.76207059621810913 0.012078244239091873
0.85319864749908447 0.77525413036346436 0.0078461738303303719
0.91080647706985474 0.78610539436340332 0.01331405621021986
0.96376335620880127 0.79273742437362671 0.0043185213580727577
0 0.59369552135467529 0.29446256160736084
2.1392224880401045e-06 0.60701245069503784 0.29015406966209412
0.00091033638454973698 0.62473070621490479 0.28083083033561707
0.020465642213821411 0.64651387929916382 0.26193094253540039
0.095158472657203674 0.67017292976379395 0.23699028789997101
0.22604455053806305 0.70091485977172852 0.21047934889793396
0.38160234689712524 0.73788231611251831 0.1810181587934494
0.52444648742675781 0.7692335844039917 0.14850956201553345
0.65010100603103638 0.79056400060653687 0.10881833732128143
0.76265501976013184 0.8045467734336853 0.058643609285354614
0.84850752353668213 0.81318467855453491 0.032242540270090103
0.90771728754043579 0.82416129112243652 0.025614660233259201
0.96257662773132324 0.83281832933425903 0.0039578904397785664
0 0.64219933748245239 0.32859939336776733
0.0015581317711621523 0.65644484758377075 0.32688239216804504
0.0094668371602892876 0.67496788501739502 0.31971147656440735
0.0359840989112854 0.69705712795257568 0.30449149012565613
0.10115769505500793 0.72115319967269897 0.28439062833786011
0.21763847768306732 0.75385522842407227 0.26274311542510986
0.36345180869102478 0.791206955909729 0.23978991806507111
0.50405192375183105 0.82294338941574097 0.21707992255687714
0.62937945127487183 0.8446696400642395 0.18981625139713287
0.74239832162857056 0.85630220174789429 0.14100088179111481
0.83401960134506226 0.86104857921600342 0.090404227375984192
0.90180224180221558 0.86987698078155518 0.055309638381004333
0.95973557233810425 0.88056308031082153 0.021019041538238525
0.035052116960287094 0.026560360565781593 0.049072910100221634
0.10654663294553757 0.029414411634206772 0.046417895704507828
0.18804255127906799 0.034003566950559616 0.041054878383874893
0.29271766543388367 0.038242653012275696 0.035546768456697464
0.4031166136264801 0.038007326424121857 0.029001543298363686
0.50008118152618408 0.03145739808678627 0.019907813519239426
0.56869089603424072 0.025815222412347794 0.010293669067323208
0.61899185180664062 0.01926574669778347 0.0089851981028914452
0.65824216604232788 0.018258024007081985 0.0062439115718007088
0.69064140319824219 0.02192077599465847 0.0029555824585258961
0.7173532247543335 0.023283101618289948 0.0049928254447877407
0.7447277307510376 0.031549416482448578 0.0013750861398875713
0.78019881248474121 0.050521191209554672 0
0.0030611823312938213 0.084984272718429565 0.11383040249347687
0.024644425138831139 0.08705737441778183 0.099349573254585266
0.087889909744262695 0.096118569374084473 0.091789856553077698
0.18543481826782227 0.10803455859422684 0.082694843411445618
0.30369129776954651 0.11482702195644379 0.069761313498020172
0.42059847712516785 0.11286956071853638 0.051084317266941071
0.52170884609222412 0.10821025818586349 0.031708676367998123
0.59749573469161987 0.10220443457365036 0.023855919018387794
0.65441435575485229 0.098997510969638824 0.014376337639987469
0.70296353101730347 0.10510557889938354 0.0053969738073647022
0.74212783575057983 0.11094553023576736 0.0059928144328296185
0.77476584911346436 0.1202520951628685 0.002930749673396349
0.80863773822784424 0.13549382984638214 9.8733340564649552e-05
0.0034805897157639265 0.13805897533893585 0.12664702534675598
0.035711251199245453 0.13818593323230743 0.11083297431468964
0.088683634996414185 0.14672975242137909 0.10190208256244659
0.1697394847869873 0.16154436767101288 0.090960107743740082
0.27967646718025208 0.1768399178981781 0.077447362244129181
0.39894101023674011 0.18769651651382446 0.060278095304965973
0.50747668743133545 0.19518318772315979 0.039610065519809723
0.59729164838790894 0.19998957216739655 0.026587288826704025
0.66646939516067505 0.20135726034641266 0.015195794403553009
0.72250068187713623 0.20626634359359741 0.0056928298436105251
0.76996630430221558 0.2126392275094986 0.0041240467689931393
0.80858838558197021 0.21934759616851807 0.0021045759785920382
0.84290403127670288 0.22878143191337585 0.00035099702654406428
8.8276581664104015e-05 0.20268775522708893 0.14413279294967651
0.01403407659381628 0.20359878242015839 0.12980252504348755
0.065861180424690247 0.21066686511039734 0.11853824555873871
0.14998120069503784 0.22569708526134491 0.10556172579526901
0.26150384545326233 0.2456703782081604 0.089744344353675842
0.38549554347991943 0.26256477832794189 0.070598334074020386
0.49839499592781067 0.27746528387069702 0.049848295748233795
0.59885889291763306 0.28929802775382996 0.034838657826185226
0.67883908748626709 0.29695883393287659 0.022971687838435173
0.7410120964050293 0.30131292343139648 0.012041009962558746
0.79499143362045288 0.30511605739593506 0.0051613152027130127
0.84024792909622192 0.31125697493553162 0.0017249163938686252
0.87729811668395996 0.31957298517227173 0.00041237624827772379
0 0.27038896083831787 0.16392754018306732
0.0021556629799306393 0.27432867884635925 0.15027423202991486
0.038437172770500183 0.28319594264030457 0.13735572993755341
0.12313757836818695 0.2982591986656189 0.12071368843317032
0.24153324961662292 0.31859534978866577 0.098885662853717804
0.37093266844749451 0.33951342105865479 0.073107339441776276
0.49028387665748596 0.35882782936096191 0.051596891134977341
0.59812051057815552 0.37454140186309814 0.037750110030174255
0.68798625469207764 0.38594517111778259 0.023905301466584206
0.75782221555709839 0.39335304498672485 0.0088981632143259048
0.81714063882827759 0.39631074666976929 0.0031650317832827568
0.8691253662109375 0.40144103765487671 0.0009529413073323667
0.91220885515213013 0.41018617153167725 0
0 0.33526772260665894 0.18453191220760345
1.9746668840525672e-05 0.34171849489212036 0.17042119801044464
0.022475417703390121 0.35188308358192444 0.15620188415050507
0.1011311262845993 0.36759662628173828 0.13717611134052277
0.22194430232048035 0.38783583045005798 0.11036589741706848
0.35792970657348633 0.41093894839286804 0.077537432312965393
0.48220843076705933 0.43339544534683228 0.052109260112047195
0.59442222118377686 0.4519650936126709 0.036215376108884811
0.69383913278579712 0.46631130576133728 0.019513912498950958
0.77228444814682007 0.4766789972782135 0.0059587215073406696
0.83433705568313599 0.48208299279212952 0.0025145886465907097
0.89021784067153931 0.48698312044143677 0.0015803019050508738
0.94066148996353149 0.49400436878204346 0.00043664072290994227
0 0.39508426189422607 0.20641162991523743
0 0.40196496248245239 0.19233794510364532
0.015083433128893375 0.41184529662132263 0.17772382497787476
0.083183154463768005 0.42818513512611389 0.15897500514984131
0.198452427983284 0.44995409250259399 0.13359729945659637
0.33888018131256104 0.47513815760612488 0.10068453848361969
0.47197145223617554 0.4997330904006958 0.068339236080646515
0.59034270048141479 0.51956361532211304 0.042403560131788254
0.69657069444656372 0.53615301847457886 0.020006829872727394
0.78220653533935547 0.54911470413208008 0.007044564001262188
0.84509897232055664 0.55678576231002808 0.0045422571711242199
0.90190428495407104 0.56233388185501099 0.0038527394644916058
0.95764696598052979 0.56848466396331787 0.0037285599391907454
0 0.45012590289115906 0.22970400750637054
0 0.45665839314460754 0.21666112542152405
0.0085206720978021622 0.46564361453056335 0.20365048944950104
0.062412861734628677 0.48305425047874451 0.18577642738819122
0.16915185749530792 0.50674360990524292 0.16295146942138672
0.31332683563232422 0.53412926197052002 0.13142326474189758
0.4561913013458252 0.56035786867141724 0.094103299081325531
0.58135569095611572 0.5801970362663269 0.05981903150677681
0.69362539052963257 0.59790593385696411 0.028752660378813744
0.78678035736083984 0.61291539669036865 0.012406397610902786
0.8539729118347168 0.62351417541503906 0.0094329388812184334
0.91108691692352295 0.63113278150558472 0.0077250013127923012
0.96661818027496338 0.63894706964492798 0.0050467099063098431
3.7339155824156478e-05 0.50050228834152222 0.2554679811000824
0 0.50826287269592285 0.24290518462657928
0.0033872716594487429 0.51853567361831665 0.23109954595565796
0.043327003717422485 0.53664356470108032 0.21381509304046631
0.1406644731760025 0.56157582998275757 0.18968059122562408
0.28660637140274048 0.59115386009216309 0.15802982449531555
0.43814268708229065 0.61828815937042236 0.12306005507707596
0.56789481639862061 0.63784021139144897 0.088649839162826538
0.68396878242492676 0.65495109558105469 0.05046539381146431
0.78475862741470337 0.6706852912902832 0.024428663775324821
0.85829466581344604 0.68351155519485474 0.02179800346493721
0.91687273979187012 0.69308924674987793 0.022661127150058746
0.97107446193695068 0.70063483715057373 0.019540809094905853
0.0017996694659814239 0.54233819246292114 0.2855534553527832
0 0.55303162336349487 0.2744472324848175
0.00025533040752634406 0.56672400236129761 0.26335042715072632
0.024207200855016708 0.58511435985565186 0.24693605303764343
0.11471141874790192 0.61001837253570557 0.22234980762004852
0.26363968849182129 0.64214032888412476 0.19304552674293518
0.42430558800697327 0.67225062847137451 0.16313117742538452
0.55524379014968872 0.69240379333496094 0.13166257739067078
0.66942721605300903 0.70896196365356445 0.093557290732860565
0.7752271294593811 0.72606801986694336 0.058175675570964813
0.85593706369400024 0.73968100547790527 0.04991690069437027
0.91764950752258301 0.74835753440856934 0.052589580416679382
0.97180306911468506 0.7544093132019043 0.046074226498603821
0.0011396220652386546 0.57588106393814087 0.31952774524688721
0 0.58974748849868774 0.31175824999809265
0 0.60577100515365601 0.30229839682579041
0.0070915971882641315 0.62399446964263916 0.28639525175094604
0.082389384508132935 0.64776051044464111 0.26374050974845886
0.23278939723968506 0.68196314573287964 0.23959217965602875
0.40422973036766052 0.71686267852783203 0.21441596746444702
0.54177135229110718 0.73967450857162476 0.18362890183925629
0.65945011377334595 0.756195068359375 0.14387035369873047
0.76948744058609009 0.77463251352310181 0.10102798044681549
0.85371708869934082 0.78771466016769409 0.087657585740089417
0.91462510824203491 0.79486358165740967 0.086868822574615479
0.97053027153015137 0.80132955312728882 0.068351566791534424
0.0001026826721499674 0.61286181211471558 0.35394993424415588
0 0.62908303737640381 0.34978011250495911
0 0.64649277925491333 0.34241244196891785
0.0021437550894916058 0.66380453109741211 0.32788661122322083
0.054022006690502167 0.68400675058364868 0.30754521489143372
0.19504083693027496 0.71882414817810059 0.28659835457801819
0.37104800343513489 0.7585824728012085 0.26509213447570801
0.52152085304260254 0.78495973348617554 0.24079002439975739
0.64617478847503662 0.79886525869369507 0.20776648819446564
0.76008123159408569 0.81459915637969971 0.16401855647563934
0.84797221422195435 0.82670140266418457 0.14053145051002502
0.91130310297012329 0.83447057008743286 0.12323684990406036
0.96980267763137817 0.84449201822280884 0.085451938211917877
0 0.66400885581970215 0.38669559359550476
3.2477284548804164e-05 0.67996639013290405 0.38504877686500549
0.00081115425564348698 0.69754010438919067 0.37991619110107422
0.0098300706595182419 0.71623736619949341 0.36838170886039734
0.059862714260816574 0.73631507158279419 0.35138711333274841
0.1840851753950119 0.77083122730255127 0.33341747522354126
0.34879791736602783 0.81156325340270996 0.31564363837242126
0.49911636114120483 0.83988863229751587 0.30103379487991333
0.62723249197006226 0.85552996397018433 0.28259003162384033
0.7438318133354187 0.86853659152984619 0.24494007229804993
0.83866786956787109 0.87801182270050049 0.20534425973892212
0.90799403190612793 0.88626670837402344 0.1714300662279129
0.96730369329452515 0.89752990007400513 0.13282442092895508
0.066212490200996399 0.026917776092886925 0.13633456826210022
0.16515713930130005 0.030436348170042038 0.12368457019329071
0.23711760342121124 0.034742873162031174 0.092243745923042297
0.3336733877658844 0.03751889243721962 0.078619621694087982
0.43372189998626709 0.03539237380027771 0.066616296768188477
0.51886826753616333 0.02845548652112484 0.059683091938495636
0.5862392783164978 0.015616802498698235 0.056280471384525299
0.63979220390319824 0.0061296951025724411 0.055123511701822281
0.68038016557693481 0.0052557853050529957 0.048010434955358505
0.71138447523117065 0.010961540043354034 0.0379498191177845
0.73801088333129883 0.0096445716917514801 0.037654083222150803
0.76221781969070435 0.018801804631948471 0.027280770242214203
0.79290580749511719 0.040097150951623917 0.01736043207347393
0.0017724878853186965 0.08771127462387085 0.18022030591964722
0.01782570593059063 0.092632666230201721 0.16906782984733582
0.085861712694168091 0.1019306555390358 0.16219502687454224
0.20043559372425079 0.11108513921499252 0.15145362913608551
0.32714799046516418 0.11305739730596542 0.13534806668758392
0.43900755047798157 0.10801295936107635 0.12253881990909576
0.53976619243621826 0.097334824502468109 0.10861875116825104
0.61596900224685669 0.088491924107074738 0.09355628490447998
0.67383015155792236 0.076846659183502197 0.079695850610733032
0.72168397903442383 0.084445193409919739 0.063493527472019196
0.76031053066253662 0.092613488435745239 0.057747919112443924
0.79090023040771484 0.10562754422426224 0.046830300241708755
0.82214099168777466 0.12546247243881226 0.034459717571735382
0.0051850262098014355 0.14476871490478516 0.19697710871696472
0.033759202808141708 0.14598493278026581 0.18364666402339935
0.092606686055660248 0.15393729507923126 0.17440968751907349
0.1864369809627533 0.1676655113697052 0.16240569949150085
0.30113080143928528 0.18041127920150757 0.14940172433853149
0.41536346077919006 0.18828493356704712 0.13726896047592163
0.52447623014450073 0.1928342878818512 0.1175006628036499
0.61788845062255859 0.19644905626773834 0.099234700202941895
0.68661296367645264 0.19231992959976196 0.084201425313949585
0.74039208889007568 0.1983618438243866 0.067796789109706879
0.78526532649993896 0.21018461883068085 0.057914555072784424
0.82175266742706299 0.21624250710010529 0.048610597848892212
0.85465830564498901 0.22542780637741089 0.039079088717699051
0.00031092026620171964 0.2124212384223938 0.21698614954948425
0.015697089955210686 0.21309368312358856 0.20349141955375671
0.069761760532855988 0.21966242790222168 0.19294308125972748
0.16180481016635895 0.23424017429351807 0.1817474365234375
0.27649685740470886 0.25241932272911072 0.16893041133880615
0.39891120791435242 0.26596561074256897 0.15399767458438873
0.51557707786560059 0.27714034914970398 0.13440386950969696
0.62172061204910278 0.28746876120567322 0.11519245803356171
0.69959884881973267 0.29428142309188843 0.095379561185836792
0.75739783048629761 0.30123782157897949 0.077497221529483795
0.80731379985809326 0.30784249305725098 0.064383819699287415
0.85038584470748901 0.3131164014339447 0.050954438745975494
0.88654547929763794 0.3199211061000824 0.041260499507188797
0 0.28305423259735107 0.23820020258426666
0.0038542952388525009 0.2858736515045166 0.22493122518062592
0.04366099089384079 0.29362249374389648 0.21346370875835419
0.13131058216094971 0.3087526261806488 0.20134155452251434
0.25303000211715698 0.32855224609375 0.18576683104038239
0.38375762104988098 0.34700384736061096 0.16762855648994446
0.505604088306427 0.36328503489494324 0.14795196056365967
0.61739307641983032 0.37621337175369263 0.12816862761974335
0.70583510398864746 0.38689038157463074 0.10481011122465134
0.77192342281341553 0.3945770263671875 0.082648031413555145
0.82765495777130127 0.39942800998687744 0.067699700593948364
0.87813740968704224 0.40526515245437622 0.049534458667039871
0.92132401466369629 0.41411352157592773 0.031707406044006348
0 0.34955191612243652 0.25939846038818359
0.00034637452336028218 0.35531702637672424 0.24529312551021576
0.024548549205064774 0.36501619219779968 0.23353159427642822
0.10201487690210342 0.38059324026107788 0.22085441648960114
0.22669422626495361 0.40089666843414307 0.20486046373844147
