assets/lut/inavision nightlife.cube
# Created by: G'MIC (https://gmic.eu)
TITLE "nightlife"
# LUT size
LUT_3D_SIZE 5
# Data domain
DOMAIN_MIN 0.0 0.0 0.0
DOMAIN_MAX 1.0 1.0 1.0
# LUT data points
0.014468428678810596 0.011972748674452305 0.0094799865037202835
0.21314780414104462 0.017840545624494553 0.011681037023663521
0.59747636318206787 0.021577693521976471 0.012731394730508327
0.8497578501701355 0.015566163696348667 0.0064658820629119873
0.99764657020568848 0.013818089850246906 0.0031911064870655537
0.01600271463394165 0.14637339115142822 0.010810582898557186
0.21102358400821686 0.16685166954994202 0.006835009902715683
0.58117401599884033 0.24881225824356079 0.00064158719033002853
0.83578026294708252 0.2378183901309967 0
0.98716998100280762 0.21620954573154449 0
0.023846615105867386 0.44623824954032898 0.0083466172218322754
0.26492050290107727 0.43371278047561646 0
0.56701004505157471 0.46279960870742798 6.4625460254319478e-06
0.82467269897460938 0.46015146374702454 0.0037920484319329262
0.96817737817764282 0.43434047698974609 0.0005030015017837286
0.01701037771999836 0.69669842720031738 0.0075888540595769882
0.28245699405670166 0.69539278745651245 0
0.56464213132858276 0.69043362140655518 0
0.81217145919799805 0.67468500137329102 0
0.96653980016708374 0.63766372203826904 0
0.022441834211349487 0.87254339456558228 0.012306662276387215
0.25561875104904175 0.86640453338623047 0.00072947482112795115
0.52502459287643433 0.86899596452713013 0.0016022776253521442
0.78272926807403564 0.86468929052352905 0.0014771705027669668
0.94824659824371338 0.8405158519744873 0
0.016153613105416298 0.014304053038358688 0.11695624142885208
0.21390372514724731 0.0090714851394295692 0.14549174904823303
0.59105914831161499 0.0038166420999914408 0.22574050724506378
0.84760862588882446 0.0038330378010869026 0.21740977466106415
0.99386215209960938 0.0021761874668300152 0.19646693766117096
0.0076156468130648136 0.15388216078281403 0.12930677831172943
0.20948231220245361 0.15347443521022797 0.11696928739547729
0.5870479941368103 0.17951063811779022 0.1137363538146019
0.83940553665161133 0.17347671091556549 0.10928377509117126
0.98934000730514526 0.17137475311756134 0.11532542109489441
0.0061638327315449715 0.43655091524124146 0.17615748941898346
0.22283604741096497 0.43831446766853333 0.086977176368236542
0.57081294059753418 0.46006655693054199 0.079760715365409851
0.82485073804855347 0.43616589903831482 0.081003494560718536
0.97696352005004883 0.4156515896320343 0.085340835154056549
0 0.69976282119750977 0.18494179844856262
0.2233784943819046 0.69581151008605957 0.082600235939025879
0.5575789213180542 0.69064438343048096 0.062330566346645355
0.8152194619178772 0.66616475582122803 0.069681040942668915
0.95712512731552124 0.62898522615432739 0.074601098895072937
0.0021414961665868759 0.8760753870010376 0.17274706065654755
0.20985257625579834 0.86706233024597168 0.08889305591583252
0.51126372814178467 0.86923688650131226 0.071158543229103088
0.77251482009887695 0.86522781848907471 0.073097839951515198
0.94820326566696167 0.83579951524734497 0.05774790421128273
0.025640718638896942 0.019375968724489212 0.43395358324050903
0.2877088189125061 0.0063005033880472183 0.43133723735809326
0.60620713233947754 0.0029636607505381107 0.47719302773475647
0.84358882904052734 0.011700229719281197 0.46290329098701477
0.98777562379837036 0.0057762297801673412 0.43527388572692871
0.0074524073861539364 0.23633971810340881 0.42499157786369324
0.23142488300800323 0.15741866827011108 0.42566922307014465
0.59734523296356201 0.12662802636623383 0.44486808776855469
0.83774572610855103 0.13533879816532135 0.42446243762969971
0.98271220922470093 0.15128695964813232 0.40727955102920532
0.0081620458513498306 0.45715305209159851 0.43400129675865173
0.19288343191146851 0.45420974493026733 0.42169895768165588
0.58485639095306396 0.44708162546157837 0.41146829724311829
0.82644212245941162 0.42269185185432434 0.39260217547416687
0.98384284973144531 0.42265516519546509 0.3928602933883667
0 0.69497334957122803 0.43993708491325378
0.16950161755084991 0.69120091199874878 0.38551178574562073
0.54504048824310303 0.68718934059143066 0.38082873821258545
0.81096059083938599 0.66514706611633301 0.3864898681640625
0.96140497922897339 0.6358107328414917 0.38554659485816956
0.0089803962036967278 0.87189632654190063 0.39865481853485107
0.19267307221889496 0.86478656530380249 0.35917940735816956
0.51404857635498047 0.86196625232696533 0.37408468127250671
0.75899815559387207 0.85790020227432251 0.37111517786979675
0.94488334655761719 0.83793598413467407 0.369529128074646
0.031273860484361649 0.018674004822969437 0.76845234632492065
0.32030051946640015 0.0010756548726931214 0.76438534259796143
0.60713410377502441 0.0096352072432637215 0.76940149068832397
0.84220975637435913 0.0070515354163944721 0.74799501895904541
0.9894905686378479 0.0059068119153380394 0.69654101133346558
0.009920845739543438 0.26568999886512756 0.76599818468093872
0.24569071829319 0.15869289636611938 0.77051585912704468
0.59037703275680542 0.1390833854675293 0.76347631216049194
0.83905029296875 0.14221829175949097 0.73908513784408569
0.98407000303268433 0.14909856021404266 0.68861246109008789
0.010304020717740059 0.49757665395736694 0.7658088207244873
0.2079119086265564 0.46323373913764954 0.76645416021347046
0.58664995431900024 0.45921081304550171 0.75666666030883789
0.82866698503494263 0.44684532284736633 0.72967326641082764
0.97395533323287964 0.43388569355010986 0.69266176223754883
0.0063443500548601151 0.71872645616531372 0.75005209445953369
0.19092085957527161 0.70623469352722168 0.7398298978805542
0.58757805824279785 0.72158747911453247 0.75325512886047363
0.83587163686752319 0.71631139516830444 0.74405795335769653
0.9522818922996521 0.68985116481781006 0.71467739343643188
0.00060922960983589292 0.8690493106842041 0.6779821515083313
0.19094061851501465 0.87402814626693726 0.68105614185333252
0.52287846803665161 0.85504341125488281 0.67632210254669189
0.80727231502532959 0.87699848413467407 0.71947824954986572
0.95571458339691162 0.86075764894485474 0.71845090389251709
0.03020445816218853 0.030798593536019325 0.98516196012496948
0.29934471845626831 0.0054189343936741352 0.97089314460754395
0.57734471559524536 0.0063084024004638195 0.98140186071395874
0.81503695249557495 0.00050784839550033212 0.97899210453033447
0.98778688907623291 0 0.94379377365112305
0.0061568017117679119 0.24493400752544403 0.98277461528778076
0.22799445688724518 0.15662160515785217 0.97350966930389404
0.54805266857147217 0.15371453762054443 0.97405493259429932
0.80060631036758423 0.14238998293876648 0.97387021780014038
0.98120397329330444 0.14322978258132935 0.94635128974914551
0.0071373432874679565 0.46497452259063721 0.97687208652496338
0.2060343474149704 0.42911633849143982 0.97027534246444702
0.56682103872299194 0.45853418111801147 0.96237558126449585
0.80964940786361694 0.44481262564659119 0.97291260957717896
0.983154296875 0.43251702189445496 0.94047343730926514
0.011010682210326195 0.68143796920776367 0.97576135396957397
0.20492261648178101 0.66641092300415039 0.96667402982711792
0.5897907018661499 0.69805312156677246 0.97715699672698975
0.83369928598403931 0.71958577632904053 0.96936392784118652
0.9770316481590271 0.70757424831390381 0.93991613388061523
0.012540435418486595 0.89055830240249634 0.95793545246124268
0.20789255201816559 0.89065009355545044 0.95892345905303955
0.57973402738571167 0.89368349313735962 0.95847868919372559
0.85203897953033447 0.91638100147247314 0.96754860877990723
0.99071896076202393 0.90900558233261108 0.96135032176971436
