assets/lut/inavision film gb-19.cube
# Created by: G'MIC (https://gmic.eu)
TITLE "film_gb-19"
# LUT size
LUT_3D_SIZE 13
# Data domain
DOMAIN_MIN 0.0 0.0 0.0
DOMAIN_MAX 1.0 1.0 1.0
# LUT data points
0.026030296459794044 0.017313789576292038 0.025686495006084442
0.065072335302829742 0.019432367756962776 0.0237897839397192
0.12555757164955139 0.028868597000837326 0.027864718809723854
0.21113435924053192 0.035969782620668411 0.034901008009910583
0.31438767910003662 0.04641430452466011 0.043578878045082092
0.42677757143974304 0.062829352915287018 0.054293658584356308
0.54312491416931152 0.083950340747833252 0.068086318671703339
0.66400152444839478 0.10652841627597809 0.083673737943172455
0.78976166248321533 0.12656746804714203 0.099455378949642181
0.90513569116592407 0.14318308234214783 0.11395790427923203
0.98271328210830688 0.15413124859333038 0.1239706426858902
1 0.15812839567661285 0.1279701441526413
1 0.15742164850234985 0.12653294205665588
0.030301321297883987 0.058676403015851974 0.026524847373366356
0.06602931022644043 0.055933620780706406 0.024346534162759781
0.12533631920814514 0.057576585561037064 0.029518591240048409
0.20902197062969208 0.059264104813337326 0.036970101296901703
0.31194117665290833 0.06499876081943512 0.045666489750146866
0.42418566346168518 0.076207257807254791 0.056959144771099091
0.53991961479187012 0.092737205326557159 0.07091299444437027
0.6608121395111084 0.110073521733284 0.086540684103965759
0.78771990537643433 0.12482388317584991 0.10107088088989258
0.90282684564590454 0.13896028697490692 0.11467668414115906
0.98085904121398926 0.15095983445644379 0.12582671642303467
1 0.15887987613677979 0.13205975294113159
1 0.16110906004905701 0.13188332319259644
0.041999444365501404 0.12334639579057693 0.033202841877937317
0.073292329907417297 0.12010550498962402 0.030302727594971657
0.12920482456684113 0.11584267765283585 0.033733952790498734
0.2095261812210083 0.11147204786539078 0.040295246988534927
0.31107741594314575 0.10880937427282333 0.049628030508756638
0.42332684993743896 0.11091561615467072 0.060926474630832672
0.53895705938339233 0.11842645704746246 0.073887541890144348
0.65983647108078003 0.12522925436496735 0.087206684052944183
0.78555214405059814 0.13193044066429138 0.10075641423463821
0.9011957049369812 0.1415376216173172 0.11330783367156982
0.97989732027053833 0.15238058567047119 0.1246483325958252
1 0.16186228394508362 0.13210758566856384
1 0.16573752462863922 0.13325749337673187
0.061216063797473907 0.20364154875278473 0.047849137336015701
0.086579792201519012 0.20175738632678986 0.045138265937566757
0.13488557934761047 0.19819846749305725 0.046325519680976868
0.20911364257335663 0.19186244904994965 0.050662532448768616
0.30778989195823669 0.1846010684967041 0.058266643434762955
0.42139989137649536 0.17868843674659729 0.06788654625415802
0.537952721118927 0.17411988973617554 0.078645117580890656
0.65837997198104858 0.16767622530460358 0.08999226987361908
0.78203350305557251 0.16364265978336334 0.10165133327245712
0.89863729476928711 0.16588005423545837 0.1133531928062439
0.97800582647323608 0.16940955817699432 0.1233225092291832
1 0.17208634316921234 0.13110525906085968
1 0.17114655673503876 0.1331581175327301
0.084647715091705322 0.30049705505371094 0.067505672574043274
0.10248611867427826 0.30022665858268738 0.065940544009208679
0.14187684655189514 0.29780465364456177 0.066749364137649536
0.20927457511425018 0.29189512133598328 0.068485960364341736
0.30470079183578491 0.28421542048454285 0.072960495948791504
0.41978704929351807 0.27478751540184021 0.079874776303768158
0.53885090351104736 0.26329883933067322 0.088325232267379761
0.65855169296264648 0.24925342202186584 0.0978255495429039
0.78108048439025879 0.23605403304100037 0.10774003714323044
0.89510089159011841 0.22706696391105652 0.11774912476539612
0.97264617681503296 0.21606867015361786 0.12602876126766205
0.99946224689483643 0.20035406947135925 0.13126395642757416
1 0.18504944443702698 0.13244321942329407
0.10889173299074173 0.4121946394443512 0.089110024273395538
0.11998654901981354 0.41042029857635498 0.090101458132266998
0.15172308683395386 0.40738573670387268 0.090711139142513275
0.21385698020458221 0.40190213918685913 0.090666316449642181
0.30609613656997681 0.39624676108360291 0.09274166077375412
0.4191417396068573 0.38794359564781189 0.097513042390346527
0.53879964351654053 0.37649786472320557 0.10388882458209991
0.65931463241577148 0.36306506395339966 0.111955426633358
0.7833256721496582 0.34642693400382996 0.1204102486371994
0.89607906341552734 0.32777273654937744 0.12807130813598633
0.97189944982528687 0.30262079834938049 0.13358457386493683
0.99908655881881714 0.26634684205055237 0.13570919632911682
1 0.23107582330703735 0.1347355991601944
0.13604371249675751 0.52814400196075439 0.1128985807299614
0.14168728888034821 0.52344709634780884 0.11410296708345413
0.1668006032705307 0.51710182428359985 0.11456172913312912
0.2224687933921814 0.51180684566497803 0.11399386823177338
0.31000587344169617 0.50842976570129395 0.11551283299922943
0.41898587346076965 0.50261831283569336 0.11892510205507278
0.53737503290176392 0.49587205052375793 0.1239064559340477
0.65918320417404175 0.48748055100440979 0.13069999217987061
0.78538048267364502 0.47201830148696899 0.13746187090873718
0.90020281076431274 0.4527679979801178 0.14326928555965424
0.97523790597915649 0.42606475949287415 0.14664937555789948
0.99906086921691895 0.38351404666900635 0.14617599546909332
0.9994158148765564 0.33516994118690491 0.14364901185035706
0.16792508959770203 0.6455237865447998 0.13885229825973511
0.16932274401187897 0.63713616132736206 0.13902655243873596
0.18726392090320587 0.62776577472686768 0.13854853808879852
0.23429965972900391 0.62286555767059326 0.13848085701465607
0.31518471240997314 0.62279772758483887 0.14038120210170746
0.4197235107421875 0.61863523721694946 0.14309103786945343
0.53506797552108765 0.6154211163520813 0.1471501886844635
0.6586194634437561 0.60933488607406616 0.15192484855651855
0.78734016418457031 0.59673964977264404 0.15731038153171539
0.90292537212371826 0.58012247085571289 0.16180829703807831
0.97551721334457397 0.56142926216125488 0.16276194155216217
0.99872994422912598 0.53364646434783936 0.16246439516544342
0.99901360273361206 0.49157169461250305 0.15974816679954529
0.20288524031639099 0.76138603687286377 0.16693891584873199
0.20112898945808411 0.75292950868606567 0.16600745916366577
0.21198615431785583 0.74576342105865479 0.16512031853199005
0.24952559173107147 0.7458835244178772 0.16544046998023987
0.32029041647911072 0.74671930074691772 0.16723160445690155
0.41747370362281799 0.74244439601898193 0.16919706761837006
0.53109347820281982 0.73855376243591309 0.17188873887062073
0.65603125095367432 0.73348015546798706 0.17563484609127045
0.78743594884872437 0.72192054986953735 0.1798274964094162
0.90426760911941528 0.70581108331680298 0.18304738402366638
0.97594749927520752 0.69394302368164062 0.18501268327236176
0.99902224540710449 0.67606967687606812 0.1840006411075592
0.99978822469711304 0.64416784048080444 0.18115489184856415
0.23615041375160217 0.86276686191558838 0.19200116395950317
0.23215368390083313 0.85425084829330444 0.19050168991088867
0.23730763792991638 0.85270661115646362 0.18988047540187836
0.26528790593147278 0.85959511995315552 0.1910155862569809
0.32435375452041626 0.85881781578063965 0.19208346307277679
0.41353052854537964 0.85178768634796143 0.19303001463413239
0.52554237842559814 0.84695899486541748 0.19536761939525604
0.65189129114151001 0.84554415941238403 0.1988726407289505
0.78558844327926636 0.83814531564712524 0.20266681909561157
0.903983473777771 0.82803404331207275 0.20595301687717438
0.97685140371322632 0.8242831826210022 0.20820994675159454
0.99955016374588013 0.81081926822662354 0.20782759785652161
1 0.78518885374069214 0.20441719889640808
0.25803527235984802 0.92866635322570801 0.20626039803028107
0.25513607263565063 0.91895163059234619 0.2062591016292572
0.25756049156188965 0.91738927364349365 0.20643992722034454
0.27728095650672913 0.92558073997497559 0.20758266746997833
0.32548487186431885 0.92668277025222778 0.20816664397716522
0.40685999393463135 0.92077517509460449 0.20947813987731934
0.51795083284378052 0.91645920276641846 0.21220539510250092
0.6477733850479126 0.91647875308990479 0.21602232754230499
0.7843095064163208 0.91365492343902588 0.22019067406654358
0.90497958660125732 0.91186630725860596 0.22414703667163849
0.98026430606842041 0.91685450077056885 0.22696669399738312
1 0.91037106513977051 0.2269088476896286
1 0.8904845118522644 0.2234501987695694
0.26693758368492126 0.96126151084899902 0.21146641671657562
0.26636376976966858 0.94871401786804199 0.21232418715953827
0.26908683776855469 0.94230175018310547 0.21372233331203461
0.28281483054161072 0.94851124286651611 0.21450331807136536
0.32072588801383972 0.95291441679000854 0.21502061188220978
0.39244306087493896 0.95115625858306885 0.21660977602005005
0.50103414058685303 0.94867140054702759 0.22014743089675903
0.63385826349258423 0.94889980554580688 0.22451628744602203
0.77416056394577026 0.94788080453872681 0.22920945286750793
0.90074419975280762 0.94541764259338379 0.23331135511398315
0.97875034809112549 0.94963175058364868 0.23605753481388092
0.99980181455612183 0.9505956768989563 0.23610976338386536
1 0.93999499082565308 0.2322830855846405
0.26674190163612366 0.97943228483200073 0.21176470816135406
0.26793888211250305 0.96568399667739868 0.21313108503818512
0.27138572931289673 0.95694446563720703 0.21547621488571167
0.28274434804916382 0.95939761400222778 0.21568627655506134
0.31357219815254211 0.96373474597930908 0.21568627655506134
0.37482348084449768 0.96401757001876831 0.21750316023826599
0.47745507955551147 0.96337342262268066 0.22122460603713989
0.60963404178619385 0.96464705467224121 0.22603587806224823
0.74829912185668945 0.96429955959320068 0.23110800981521606
0.87369227409362793 0.96177965402603149 0.23538225889205933
0.95572584867477417 0.96463245153427124 0.23844128847122192
0.99071460962295532 0.96776866912841797 0.23806069791316986
0.99907159805297852 0.96455836296081543 0.23487073183059692
0.02532590925693512 0.019501794129610062 0.055898044258356094
0.062614947557449341 0.021799543872475624 0.052103124558925629
0.12334872782230377 0.028174711391329765 0.053813111037015915
0.20803909003734589 0.036196149885654449 0.057376142591238022
0.3111819326877594 0.048270564526319504 0.062095686793327332
0.42461913824081421 0.065544232726097107 0.068033717572689056
0.54216575622558594 0.08587270975112915 0.076809979975223541
0.66083502769470215 0.10686003416776657 0.088081493973731995
0.78345829248428345 0.12500034272670746 0.10050512850284576
0.8983033299446106 0.14203625917434692 0.1128329411149025
0.9770311713218689 0.15415690839290619 0.12321491539478302
1 0.16032421588897705 0.12927915155887604
1 0.16030396521091461 0.12874937057495117
0.029370177537202835 0.057997968047857285 0.054745811969041824
0.063533812761306763 0.056207858026027679 0.050996202975511551
0.12268485128879547 0.056748185306787491 0.052970975637435913
0.20602534711360931 0.060281027108430862 0.056388329714536667
0.30789226293563843 0.066793270409107208 0.061610352247953415
0.42117428779602051 0.077800124883651733 0.068703703582286835
0.53824889659881592 0.092400945723056793 0.078190505504608154
0.65943390130996704 0.10761065036058426 0.089460738003253937
0.78482228517532349 0.12248595058917999 0.10136587172746658
0.89849174022674561 0.13763512670993805 0.11327654123306274
0.97492241859436035 0.15116286277770996 0.12500253319740295
0.99978327751159668 0.15969298779964447 0.13328811526298523
1 0.16265901923179626 0.13405652344226837
0.040259283035993576 0.12044019252061844 0.058289516717195511
0.069887079298496246 0.11815106123685837 0.053885798901319504
0.12557230889797211 0.11486481130123138 0.054467715322971344
0.20624913275241852 0.11262702196836472 0.057053450495004654
0.30674433708190918 0.11041305959224701 0.063292965292930603
0.41967034339904785 0.11199550330638885 0.071132689714431763
0.53728443384170532 0.11676955968141556 0.080357708036899567
0.65860825777053833 0.12175758183002472 0.090765006840229034
0.78339332342147827 0.1288331001996994 0.10155561566352844
0.89730715751647949 0.13965004682540894 0.11278302222490311
0.97315365076065063 0.15147198736667633 0.12364561855792999
0.99923539161682129 0.16197071969509125 0.13202798366546631
0.99974370002746582 0.1667059063911438 0.13339971005916595
0.059137515723705292 0.20261970162391663 0.06796969473361969
0.082839891314506531 0.20037789642810822 0.064035184681415558
0.13131566345691681 0.1968032568693161 0.063591107726097107
0.20625539124011993 0.19084720313549042 0.065041050314903259
0.30571398138999939 0.1834285706281662 0.069534420967102051
0.42045289278030396 0.17670759558677673 0.076086558401584625
0.53823161125183105 0.17110307514667511 0.084222577512264252
0.65794026851654053 0.16474436223506927 0.093459680676460266
0.78087443113327026 0.16048356890678406 0.10317681729793549
0.89654278755187988 0.16249740123748779 0.11314690113067627
0.97307467460632324 0.16606684029102325 0.12272428721189499
0.99924355745315552 0.16928717494010925 0.1294708251953125
0.99882227182388306 0.16966325044631958 0.13121737539768219
0.083341039717197418 0.30116969347000122 0.081626221537590027
0.099753119051456451 0.29888546466827393 0.07900606095790863
0.13863138854503632 0.295998215675354 0.078298173844814301
0.20674514770507812 0.29023909568786621 0.078901104629039764
0.30539295077323914 0.28161415457725525 0.080928251147270203
0.42301654815673828 0.27072083950042725 0.08533274382352829
0.54217493534088135 0.25954130291938782 0.091556698083877563
0.65990328788757324 0.24682404100894928 0.099570088088512421
0.78262513875961304 0.23348577320575714 0.10853850096464157
0.89761531352996826 0.2218504399061203 0.11734415590763092
0.97422832250595093 0.20962940156459808 0.12475068122148514
0.99939888715744019 0.19479413330554962 0.1293938159942627
0.99963200092315674 0.18019987642765045 0.12971554696559906
0.11006462574005127 0.41102975606918335 0.097424842417240143
0.11974576860666275 0.40755406022071838 0.096839696168899536
0.14911220967769623 0.40453490614891052 0.097037024796009064
0.21033018827438354 0.40076276659965515 0.096499621868133545
0.30529257655143738 0.39373043179512024 0.097023040056228638
0.4230836033821106 0.38271030783653259 0.099637053906917572
0.54228562116622925 0.37223014235496521 0.10425292700529099
0.65980726480484009 0.36105090379714966 0.11149254441261292
0.78332817554473877 0.34425699710845947 0.11978694051504135
0.89919894933700562 0.32319658994674683 0.12720809876918793
0.97600919008255005 0.29650247097015381 0.13226568698883057
0.99991357326507568 0.2621549665927887 0.13481278717517853
0.99991106986999512 0.2291729599237442 0.13401958346366882
0.13822200894355774 0.52355968952178955 0.11702799797058105
0.14155308902263641 0.51806581020355225 0.11682066321372986
0.16450369358062744 0.51373696327209473 0.11727462708950043
0.21856185793876648 0.51167374849319458 0.11686639487743378
0.30712413787841797 0.50734227895736694 0.11728031188249588
0.41893148422241211 0.49847269058227539 0.11898983269929886
0.53683227300643921 0.49168893694877625 0.12240421026945114
0.65611660480499268 0.48472186923027039 0.1286175400018692
0.78098386526107788 0.47131681442260742 0.13621915876865387
0.89956402778625488 0.45089855790138245 0.14200688898563385
0.97779810428619385 0.42251449823379517 0.14491464197635651
0.99991536140441895 0.38226693868637085 0.14525927603244781
0.99905908107757568 0.33694282174110413 0.14351890981197357
0.1688208281993866 0.63778609037399292 0.14086821675300598
0.16880722343921661 0.63073229789733887 0.13977837562561035
0.18529210984706879 0.62512731552124023 0.13967044651508331
0.23184889554977417 0.62531501054763794 0.1399703174829483
0.31225061416625977 0.62396317720413208 0.14100596308708191
0.41741585731506348 0.61691021919250488 0.14225950837135315
0.53290367126464844 0.61054432392120361 0.14477905631065369
0.65463608503341675 0.60309326648712158 0.14915105700492859
0.78267163038253784 0.59319370985031128 0.15543214976787567
0.9013216495513916 0.57917958498001099 0.16054071485996246
0.97661751508712769 0.55981194972991943 0.16243872046470642
0.99934232234954834 0.53051650524139404 0.16237878799438477
0.99819201231002808 0.48631429672241211 0.15893492102622986
0.20295661687850952 0.75514686107635498 0.16702589392662048
0.20023848116397858 0.74773925542831421 0.1653163880109787
0.21070650219917297 0.74293941259384155 0.16465471684932709
0.24775967001914978 0.74602478742599487 0.16535906493663788
0.31779175996780396 0.74792224168777466 0.16684873402118683
0.41501662135124207 0.74259281158447266 0.1681530773639679
0.52899575233459473 0.73398745059967041 0.16997452080249786
0.6532554030418396 0.72404223680496216 0.17303451895713806
0.78439843654632568 0.71569520235061646 0.17792397737503052
0.90265733003616333 0.7055816650390625 0.18235057592391968
0.97582924365997314 0.69261288642883301 0.1841496080160141
0.9987722635269165 0.67068403959274292 0.18333674967288971
0.99844127893447876 0.63733303546905518 0.18078319728374481
0.23584967851638794 0.85953247547149658 0.18970480561256409
0.23173700273036957 0.85181909799575806 0.18912029266357422
0.23676037788391113 0.84906250238418579 0.18878196179866791
0.26361334323883057 0.8550952672958374 0.18912428617477417
0.32206684350967407 0.85855132341384888 0.19032791256904602
0.4122583270072937 0.8542826771736145 0.19272567331790924
0.52546405792236328 0.84517598152160645 0.1940201073884964
0.65110832452774048 0.84012705087661743 0.19777794182300568
0.78301161527633667 0.83537155389785767 0.2019723504781723
0.90189915895462036 0.82677805423736572 0.20559538900852203
0.97590792179107666 0.82011294364929199 0.20816327631473541
0.99907183647155762 0.80860430002212524 0.20882885158061981
0.99864274263381958 0.78653573989868164 0.20641998946666718
0.25874248147010803 0.92786163091659546 0.20432887971401215
0.2555941641330719 0.91854411363601685 0.20363493263721466
0.25783684849739075 0.91504985094070435 0.20397762954235077
0.27630603313446045 0.92175257205963135 0.20497027039527893
0.32377329468727112 0.92696493864059448 0.20616665482521057
0.40803930163383484 0.9227604866027832 0.20837080478668213
0.52212917804718018 0.9151427149772644 0.21138529479503632
0.64894253015518188 0.91564339399337769 0.2159019410610199
0.78091591596603394 0.91587382555007935 0.22026845812797546
0.90264743566513062 0.91056913137435913 0.22388488054275513
0.97936356067657471 0.90984153747558594 0.22723467648029327
0.99988776445388794 0.91077268123626709 0.23002870380878448
0.99890077114105225 0.89858770370483398 0.2273499071598053
0.2691987156867981 0.9603545069694519 0.20944659411907196
0.26808425784111023 0.94841259717941284 0.2104203850030899
0.26934799551963806 0.94208824634552002 0.21117672324180603
0.28164049983024597 0.9475712776184082 0.21172435581684113
0.32011514902114868 0.95276165008544922 0.2121834009885788
0.39659669995307922 0.95072472095489502 0.21466811001300812
0.50953614711761475 0.94571328163146973 0.21888215839862823
0.6374669075012207 0.94807231426239014 0.22397896647453308
0.77111142873764038 0.95045500993728638 0.22884395718574524
0.8972582221031189 0.94667273759841919 0.23319864273071289
0.97843313217163086 0.94606447219848633 0.2369583398103714
0.99982959032058716 0.94798964262008667 0.2385299950838089
0.99934476613998413 0.94137823581695557 0.23611734807491302
0.26888385415077209 0.97595375776290894 0.21184813976287842
0.26899510622024536 0.96293020248413086 0.21192300319671631
0.27036201953887939 0.95529067516326904 0.21348614990711212
0.28015989065170288 0.95780783891677856 0.2145860493183136
0.31156238913536072 0.96234607696533203 0.2141583114862442
0.37801191210746765 0.96240413188934326 0.21562300622463226
0.48311558365821838 0.96105504035949707 0.21915678679943085
0.61056220531463623 0.96341174840927124 0.22489196062088013
0.74415880441665649 0.96603310108184814 0.23054254055023193
0.8709600567817688 0.96454381942749023 0.23593312501907349
0.95786631107330322 0.96440774202346802 0.23921568691730499
0.99168062210083008 0.96482712030410767 0.23951517045497894
0.99752020835876465 0.96265560388565063 0.23821024596691132
0.029048500582575798 0.023254739120602608 0.099893830716609955
0.064553126692771912 0.023896116763353348 0.096461385488510132
0.1232401505112648 0.028463400900363922 0.096383079886436462
0.20618073642253876 0.03675701841711998 0.096272364258766174
0.30880287289619446 0.050727725028991699 0.096629410982131958
0.42392227053642273 0.06898161768913269 0.096915945410728455
0.54329055547714233 0.088273681700229645 0.099438823759555817
0.66210281848907471 0.10714735090732574 0.10548181086778641
0.78401625156402588 0.12436686456203461 0.11216600984334946
0.89856773614883423 0.14139293134212494 0.1187426820397377
0.9755171537399292 0.15387609601020813 0.12514328956604004
0.99987757205963135 0.16040550172328949 0.13029207289218903
1 0.16077925264835358 0.12896834313869476
0.032610364258289337 0.057199351489543915 0.098609715700149536
0.064108036458492279 0.055162496864795685 0.096499316394329071
0.12093433737754822 0.054955784231424332 0.096652224659919739
0.2026517242193222 0.059820991009473801 0.095321387052536011
0.30408164858818054 0.068686075508594513 0.094545610249042511
0.41829127073287964 0.080406069755554199 0.096745163202285767
0.53822225332260132 0.094037093222141266 0.10001024603843689
0.66122591495513916 0.10804775357246399 0.10568130761384964
0.78635376691818237 0.1230398565530777 0.11195967346429825
0.89923912286758423 0.13863755762577057 0.11872032284736633
0.97263157367706299 0.15165811777114868 0.12656061351299286
0.99848216772079468 0.15935683250427246 0.13446719944477081
0.99939918518066406 0.16087616980075836 0.1340850442647934
0.042004887014627457 0.11667830497026443 0.10049582272768021
0.069181688129901886 0.11449203640222549 0.097245506942272186
0.12312312424182892 0.11158350110054016 0.096942096948623657
0.20224988460540771 0.11020468920469284 0.095522068440914154
0.30185616016387939 0.11137563735246658 0.095921322703361511
0.41575121879577637 0.11392256617546082 0.097913585603237152
0.53563988208770752 0.11822677403688431 0.10220608860254288
0.65940326452255249 0.1234227791428566 0.1074875146150589
0.78520148992538452 0.13107477128505707 0.11264171451330185
0.8979799747467041 0.14201346039772034 0.11871674656867981
0.97151178121566772 0.15223976969718933 0.12543037533760071
0.99759984016418457 0.15926253795623779 0.13093695044517517
0.99719631671905518 0.16136057674884796 0.1301691085100174
0.059026278555393219 0.20008404552936554 0.10558231174945831
0.080841198563575745 0.19770199060440063 0.10177116841077805
0.12849302589893341 0.193836510181427 0.1005278080701828
0.20300909876823425 0.18832193315029144 0.099305160343647003
0.30164808034896851 0.18194904923439026 0.098963461816310883
0.4166262149810791 0.17632733285427094 0.10100024193525314
0.53670883178710938 0.17193955183029175 0.10478208959102631
0.65848219394683838 0.16657842695713043 0.10967916995286942
0.78296267986297607 0.16295149922370911 0.11491464078426361
0.8975183367729187 0.16358974575996399 0.11990660429000854
0.97194129228591919 0.16422659158706665 0.12490473687648773
0.99847757816314697 0.16369564831256866 0.12849214673042297
0.99747884273529053 0.16043440997600555 0.12661491334438324
0.083312451839447021 0.29999616742134094 0.11279163509607315
0.098195694386959076 0.29680782556533813 0.10968023538589478
0.13652725517749786 0.2929627001285553 0.10861829668283463
0.20433986186981201 0.2874915599822998 0.10714787244796753
0.30196145176887512 0.27864649891853333 0.10590925067663193
0.42020344734191895 0.26815938949584961 0.10664725303649902
0.54084068536758423 0.2587851881980896 0.10923410952091217
0.65995830297470093 0.24791999161243439 0.11365912854671478
0.78456646203994751 0.23399132490158081 0.11908989399671555
0.90030199289321899 0.21869093179702759 0.12425242364406586
0.97560012340545654 0.20332558453083038 0.12789894640445709
