assets/lut/inavision vfb 21.cube
# Created by: G'MIC (https://gmic.eu)
TITLE "vfb_21"
# LUT size
LUT_3D_SIZE 7
# Data domain
DOMAIN_MIN 0.0 0.0 0.0
DOMAIN_MAX 1.0 1.0 1.0
# LUT data points
0.018472500145435333 0.022493146359920502 0.01593933068215847
0.1478116512298584 0.031018605455756187 0.016391977667808533
0.35814318060874939 0.043770208954811096 0.0075454562902450562
0.53923743963241577 0.034459911286830902 1.2925092050863896e-05
0.63548707962036133 0.028289509937167168 0.0016794092953205109
0.70640450716018677 0.034296583384275436 0.0020083407871425152
0.77541714906692505 0.058082506060600281 0
0.0045074610970914364 0.13399282097816467 0.061046525835990906
0.080384708940982819 0.14309585094451904 0.042544271796941757
0.26097676157951355 0.17284108698368073 0.021849464625120163
0.48188525438308716 0.19807519018650055 0.0021524466574192047
0.64515393972396851 0.20622898638248444 0
0.75954663753509521 0.21638189256191254 0
0.83624500036239624 0.2324366420507431 0
0 0.25987130403518677 0.09500344842672348
0.040443390607833862 0.27493184804916382 0.066866122186183929
0.23328456282615662 0.3111516535282135 0.027724068611860275
0.47578606009483337 0.35394737124443054 0.0014341914793476462
0.67246824502944946 0.38415125012397766 0.00018597771122585982
0.80869370698928833 0.39735075831413269 0.00022033990535419434
0.90516138076782227 0.41119575500488281 0
0 0.3810151219367981 0.13592500984668732
0.024981150403618813 0.39985936880111694 0.10167417675256729
0.2062174379825592 0.43824592232704163 0.044599719345569611
0.46629256010055542 0.48880878090858459 0.0019236995140090585
0.68643194437026978 0.52873033285140991 0
0.83840644359588623 0.55102646350860596 0
0.94893628358840942 0.56253457069396973 0
0 0.48523074388504028 0.18701612949371338
0.012927844189107418 0.50452780723571777 0.15428496897220612
0.16143472492694855 0.54746055603027344 0.097110018134117126
0.43772429227828979 0.60550260543823242 0.020305005833506584
0.68190354108810425 0.64494645595550537 0.00026316923322156072
0.85302501916885376 0.67394024133682251 0
0.96413320302963257 0.69104772806167603 0
0 0.55852556228637695 0.25705099105834961
2.3336971935350448e-05 0.58718335628509521 0.23628829419612885
0.10905633121728897 0.63160014152526855 0.18486796319484711
0.4052298367023468 0.69679105281829834 0.11352299898862839
0.66460078954696655 0.74419856071472168 0.040608827024698257
0.85319864749908447 0.77525413036346436 0.0078461738303303719
0.96376335620880127 0.79273742437362671 0.0043185213580727577
0 0.64219933748245239 0.32859939336776733
0.0094668371602892876 0.67496788501739502 0.31971147656440735
0.10115769505500793 0.72115319967269897 0.28439062833786011
0.36345180869102478 0.791206955909729 0.23978991806507111
0.62937945127487183 0.8446696400642395 0.18981625139713287
0.83401960134506226 0.86104857921600342 0.090404227375984192
0.95973557233810425 0.88056308031082153 0.021019041538238525
0.066212490200996399 0.026917776092886925 0.13633456826210022
0.23711760342121124 0.034742873162031174 0.092243745923042297
0.43372189998626709 0.03539237380027771 0.066616296768188477
0.5862392783164978 0.015616802498698235 0.056280471384525299
0.68038016557693481 0.0052557853050529957 0.048010434955358505
0.73801088333129883 0.0096445716917514801 0.037654083222150803
0.79290580749511719 0.040097150951623917 0.01736043207347393
0.0051850262098014355 0.14476871490478516 0.19697710871696472
0.092606686055660248 0.15393729507923126 0.17440968751907349
0.30113080143928528 0.18041127920150757 0.14940172433853149
0.52447623014450073 0.1928342878818512 0.1175006628036499
0.68661296367645264 0.19231992959976196 0.084201425313949585
0.78526532649993896 0.21018461883068085 0.057914555072784424
0.85465830564498901 0.22542780637741089 0.039079088717699051
0 0.28305423259735107 0.23820020258426666
0.04366099089384079 0.29362249374389648 0.21346370875835419
0.25303000211715698 0.32855224609375 0.18576683104038239
0.505604088306427 0.36328503489494324 0.14795196056365967
0.70583510398864746 0.38689038157463074 0.10481011122465134
0.82765495777130127 0.39942800998687744 0.067699700593948364
0.92132401466369629 0.41411352157592773 0.031707406044006348
0 0.41033068299293518 0.2806912362575531
0.0097327586263418198 0.42802160978317261 0.25574004650115967
0.19160279631614685 0.46538001298904419 0.2292855978012085
0.47966712713241577 0.51184862852096558 0.18154571950435638
0.70549291372299194 0.54384249448776245 0.12549644708633423
0.85574579238891602 0.56572240591049194 0.08620058000087738
0.96704930067062378 0.57942777872085571 0.054939448833465576
0.00046129414113238454 0.51735877990722656 0.32653155922889709
0.00012383554712869227 0.53768855333328247 0.30724304914474487
0.10933048278093338 0.57782918214797974 0.27924665808677673
0.4396919310092926 0.63267892599105835 0.23551711440086365
0.68251967430114746 0.66697722673416138 0.17649589478969574
0.85806065797805786 0.69413286447525024 0.13505332171916962
0.97711265087127686 0.71021908521652222 0.10568024963140488
0.0018041423754766583 0.5954551100730896 0.38427016139030457
0 0.6254008412361145 0.36895677447319031
0.067481741309165955 0.6666567325592041 0.3407575786113739
0.40033742785453796 0.73436838388442993 0.30320125818252563
0.65740609169006348 0.77070397138595581 0.25566712021827698
0.85101854801177979 0.80179286003112793 0.20609764754772186
0.97521936893463135 0.81544226408004761 0.18033766746520996
0 0.68535983562469482 0.44554021954536438
0 0.71584033966064453 0.43951383233070374
0.038213856518268585 0.75309580564498901 0.41817978024482727
0.33701044321060181 0.82660031318664551 0.39055421948432922
0.6283336877822876 0.86706960201263428 0.36076420545578003
0.85002106428146362 0.90153259038925171 0.31013235449790955
0.973663330078125 0.92260622978210449 0.27646276354789734
0.18073177337646484 0.022354964166879654 0.3319517970085144
0.38341620564460754 0.02997150830924511 0.3149256706237793
0.5088382363319397 0.019752621650695801 0.27689710259437561
0.63463950157165527 0.0029497931245714426 0.26137265563011169
0.71785295009613037 0.0060566621832549572 0.24389506876468658
0.77315801382064819 0.0086736343801021576 0.22639788687229156
0.83215242624282837 0.013357169926166534 0.22487400472164154
0.012028996832668781 0.15784123539924622 0.35668441653251648
0.13532006740570068 0.16732212901115417 0.34325620532035828
0.35087728500366211 0.18434500694274902 0.32964867353439331
0.56891143321990967 0.18844947218894958 0.31401723623275757
0.71291762590408325 0.18570561707019806 0.29711592197418213
0.81113731861114502 0.19182981550693512 0.27778726816177368
0.8800051212310791 0.20600029826164246 0.26500633358955383
0.00088913860963657498 0.30452176928520203 0.40405058860778809
0.034090302884578705 0.32015889883041382 0.38446655869483948
0.29393574595451355 0.35069572925567627 0.3713742196559906
0.53744345903396606 0.37623190879821777 0.35239878296852112
0.72842657566070557 0.38963910937309265 0.32904377579689026
0.85277926921844482 0.40328735113143921 0.30862271785736084
0.93930119276046753 0.41637453436851501 0.28962871432304382
0.0038645577151328325 0.44185659289360046 0.44132503867149353
0.00060827215202152729 0.46216413378715515 0.42684972286224365
0.20167075097560883 0.5006401538848877 0.41592898964881897
0.50431853532791138 0.54000377655029297 0.39329767227172852
0.72435510158538818 0.56366455554962158 0.36767736077308655
0.87215638160705566 0.58322244882583618 0.33964014053344727
0.98106813430786133 0.58917534351348877 0.31897938251495361
0.00011046166764572263 0.55193817615509033 0.48110118508338928
0 0.57552081346511841 0.47053462266921997
0.098831385374069214 0.61830949783325195 0.4557727575302124
0.46223863959312439 0.6691737174987793 0.4315161406993866
0.70177417993545532 0.69579344987869263 0.40674424171447754
0.86740297079086304 0.72013944387435913 0.38135722279548645
0.98638367652893066 0.72925448417663574 0.35659754276275635
0.00026405183598399162 0.63079512119293213 0.52099478244781494
0 0.66001015901565552 0.5124695897102356
0.058486189693212509 0.71102595329284668 0.50193721055984497
0.41367694735527039 0.76689225435256958 0.47001957893371582
0.67441737651824951 0.80360347032546997 0.44950652122497559
0.85894614458084106 0.82582074403762817 0.42415988445281982
0.98096084594726562 0.84101498126983643 0.40349271893501282
7.3242190410383046e-05 0.71987897157669067 0.56627017259597778
0 0.74444961547851562 0.56334841251373291
0.034067939966917038 0.79268395900726318 0.5586472749710083
0.33322298526763916 0.85752511024475098 0.54170918464660645
0.62122929096221924 0.90559959411621094 0.51676005125045776
0.84049773216247559 0.92849957942962646 0.48117858171463013
0.97277063131332397 0.95493006706237793 0.46769037842750549
0.3330131471157074 0.0026630177162587643 0.46595928072929382
0.49522030353546143 0.0014021032257005572 0.45619192719459534
0.63489514589309692 0.0037502064369618893 0.44276723265647888
0.68296223878860474 0.0014034046325832605 0.42204993963241577
0.74947661161422729 0.0035862643271684647 0.4185912013053894
0.7993323802947998 0.0056078443303704262 0.40937823057174683
0.85664981603622437 0.0045263553038239479 0.40723854303359985
0.05596097931265831 0.15210656821727753 0.48841461539268494
0.21293897926807404 0.15988112986087799 0.49168398976325989
0.42223036289215088 0.16787001490592957 0.48947295546531677
0.60683423280715942 0.15194588899612427 0.4864673912525177
0.73891347646713257 0.16469380259513855 0.47924318909645081
0.83158272504806519 0.17376059293746948 0.46352973580360413
0.89488345384597778 0.18323186039924622 0.45869672298431396
0.00033153459662571549 0.32053524255752563 0.5424073338508606
0.085390083491802216 0.33745214343070984 0.54294264316558838
0.35237786173820496 0.35752600431442261 0.53974831104278564
0.57931482791900635 0.37928050756454468 0.53052318096160889
0.75417876243591309 0.3866102397441864 0.51971554756164551
0.86962223052978516 0.39356818795204163 0.50225937366485596
0.94925451278686523 0.40621286630630493 0.49278166890144348
0.00079233507858589292 0.471291184425354 0.58364111185073853
0.0056352950632572174 0.49197953939437866 0.58236038684844971
0.25174856185913086 0.52674567699432373 0.58412265777587891
0.53629487752914429 0.55510467290878296 0.57116901874542236
0.75830584764480591 0.57502144575119019 0.55555623769760132
0.88486665487289429 0.58754223585128784 0.53404194116592407
0.9879990816116333 0.59113067388534546 0.51853317022323608
0.0037200329825282097 0.58676749467849731 0.61711519956588745
0.002353728050366044 0.61287158727645874 0.61545950174331665
0.17798353731632233 0.65395098924636841 0.61458253860473633
0.48324340581893921 0.69549274444580078 0.60382282733917236
0.72689718008041382 0.71706932783126831 0.58512896299362183
0.88416606187820435 0.73851090669631958 0.56636697053909302
0.99134713411331177 0.74576801061630249 0.54498696327209473
0.0039535225369036198 0.67220902442932129 0.64444977045059204
0.00027854769723489881 0.70279723405838013 0.64215761423110962
0.11535714566707611 0.74700254201889038 0.64454787969589233
0.44004151225090027 0.80240243673324585 0.63449275493621826
0.68073219060897827 0.83337092399597168 0.61562436819076538
0.86454075574874878 0.85513710975646973 0.59962993860244751
0.98381197452545166 0.86167073249816895 0.57761615514755249
0.0037964016664773226 0.7579118013381958 0.68429499864578247
0 0.78959327936172485 0.68444067239761353
0.0054854596965014935 0.8362957239151001 0.69013082981109619
0.31803774833679199 0.89043217897415161 0.68068826198577881
0.6219971776008606 0.93506664037704468 0.66335052251815796
0.83278632164001465 0.95896744728088379 0.6414111852645874
0.97144031524658203 0.97020059823989868 0.62166315317153931
0.50712060928344727 8.6167283370741643e-06 0.55169999599456787
0.61606895923614502 0.00082198495510965586 0.55409181118011475
0.71172219514846802 0.00015851188800297678 0.54925692081451416
0.73540794849395752 0.0014719046885147691 0.53299069404602051
0.76933342218399048 0.0016959246713668108 0.52485412359237671
0.81364500522613525 0 0.52920317649841309
0.85715097188949585 0.0034833571407943964 0.53478235006332397
0.14966097474098206 0.12195787578821182 0.59559953212738037
0.32700720429420471 0.12393982708454132 0.60526865720748901
0.50107347965240479 0.12623065710067749 0.60641670227050781
0.65549451112747192 0.13080276548862457 0.60520106554031372
0.76594966650009155 0.14034631848335266 0.60257935523986816
0.84554004669189453 0.1236485168337822 0.59749966859817505
0.90527713298797607 0.16152895987033844 0.59587055444717407
0.044988788664340973 0.32794111967086792 0.655345618724823
0.21916061639785767 0.34451806545257568 0.66510438919067383
0.43406420946121216 0.35945397615432739 0.67057043313980103
0.63363617658615112 0.37198635935783386 0.66492784023284912
0.77961069345474243 0.37862697243690491 0.66191047430038452
0.88385921716690063 0.38287827372550964 0.65007102489471436
0.95843243598937988 0.40166574716567993 0.64053100347518921
0.0044100293889641762 0.50035840272903442 0.69900071620941162
0.093107275664806366 0.51902884244918823 0.70639944076538086
0.3540615439414978 0.54727691411972046 0.71711128950119019
0.5959007740020752 0.56801998615264893 0.71266680955886841
0.78723305463790894 0.57804220914840698 0.70457041263580322
0.9019399881362915 0.58501464128494263 0.68789017200469971
0.99222135543823242 0.59104567766189575 0.6786351203918457
0.00010871139238588512 0.61680096387863159 0.73330426216125488
0.01019019354134798 0.64412480592727661 0.7386971116065979
0.25887313485145569 0.68253761529922485 0.74671214818954468
0.52835839986801147 0.71337532997131348 0.74459123611450195
0.75744074583053589 0.73075193166732788 0.72842055559158325
0.89119499921798706 0.74071669578552246 0.7179945707321167
0.99423325061798096 0.74771356582641602 0.70451349020004272
0 0.71162718534469604 0.75400680303573608
0 0.73826760053634644 0.75736278295516968
0.17262330651283264 0.78271514177322388 0.76579678058624268
0.47024786472320557 0.82618081569671631 0.76858735084533691
0.71130090951919556 0.84900522232055664 0.75408625602722168
0.87261134386062622 0.86431866884231567 0.74117958545684814
0.98742812871932983 0.87359344959259033 0.72526431083679199
0 0.79031544923782349 0.7859569787979126
0 0.82682740688323975 0.79070687294006348
0.036660555750131607 0.87742018699645996 0.80356103181838989
0.37893912196159363 0.91182202100753784 0.80344134569168091
0.65918266773223877 0.95356643199920654 0.79367464780807495
0.85297143459320068 0.97904586791992188 0.77955669164657593
0.97763389348983765 0.98615181446075439 0.76396524906158447
0.68631529808044434 0.0019507763208821416 0.60951393842697144
0.70971101522445679 0 0.60678881406784058
0.75702720880508423 0 0.60704898834228516
0.79842311143875122 0.0010901805944740772 0.60205602645874023
0.80023384094238281 1.4361213288793806e-05 0.6030469536781311
0.82750576734542847 0 0.60729801654815674
0.86554896831512451 0.0028847937937825918 0.61959505081176758
0.32204192876815796 0.10142255574464798 0.66397064924240112
0.43481582403182983 0.091931752860546112 0.67030990123748779
0.58313226699829102 0.082624219357967377 0.67727422714233398
0.68825662136077881 0.093686677515506744 0.68256384134292603
0.78774112462997437 0.096465200185775757 0.68854451179504395
0.8632386326789856 0.10915052890777588 0.69328123331069946
0.91550654172897339 0.14124326407909393 0.69955301284790039
0.20962196588516235 0.33079773187637329 0.73484104871749878
0.36542537808418274 0.33990320563316345 0.74502348899841309
0.52451556921005249 0.34454783797264099 0.75271081924438477
0.688029944896698 0.35566514730453491 0.75178313255310059
0.80545502901077271 0.35955819487571716 0.7537834644317627
0.90445876121520996 0.3687041699886322 0.75510686635971069
0.96349203586578369 0.38083866238594055 0.75136262178421021
0.063901923596858978 0.52688169479370117 0.78363239765167236
0.23599688708782196 0.5382378101348877 0.79433715343475342
0.45515400171279907 0.55015450716018677 0.80240732431411743
0.659934401512146 0.56446731090545654 0.80628329515457153
0.81139272451400757 0.57253468036651611 0.80655974149703979
0.91908007860183716 0.57675778865814209 0.80004560947418213
0.99579048156738281 0.58402246236801147 0.79643934965133667
0.0054867914877831936 0.65236395597457886 0.81359958648681641
0.095461949706077576 0.67769414186477661 0.82400786876678467
0.37041482329368591 0.70144689083099365 0.83248215913772583
0.59661686420440674 0.72475516796112061 0.83867007493972778
0.78849071264266968 0.73792511224746704 0.833881676197052
0.90748459100723267 0.74295967817306519 0.82744425535202026
0.99851876497268677 0.74828779697418213 0.81897634267807007
0 0.74602913856506348 0.83365309238433838
0.030777007341384888 0.775959312915802 0.84212887287139893
0.27531960606575012 0.80984854698181152 0.85224008560180664
0.54122865200042725 0.84187793731689453 0.85695928335189819
0.75607645511627197 0.86205571889877319 0.8547670841217041
0.88877671957015991 0.8741525411605835 0.85041189193725586
0.99449580907821655 0.87881648540496826 0.83915507793426514
1.9088445696979761e-05 0.83593660593032837 0.86320263147354126
4.703297236119397e-05 0.85999840497970581 0.87130552530288696
0.091404318809509277 0.90944355726242065 0.8859328031539917
0.44328945875167847 0.94104325771331787 0.88964396715164185
0.70745682716369629 0.97238904237747192 0.88762021064758301
0.86568367481231689 0.98489731550216675 0.8836902379989624
0.98492836952209473 0.98862701654434204 0.87127101421356201
0.78274053335189819 0.00023336971935350448 0.64811289310455322
0.78154993057250977 0 0.64583414793014526
0.79850989580154419 0 0.64254856109619141
0.81379115581512451 7.4678311648312956e-05 0.63207703828811646
0.81958800554275513 0.00080006918869912624 0.62055075168609619
0.83939093351364136 0 0.64106214046478271
0.85851722955703735 0.0081189321354031563 0.65839076042175293
0.4832647442817688 0.035471539944410324 0.71846562623977661
0.55450528860092163 0.072578355669975281 0.72022855281829834
0.6451229453086853 0.084181644022464752 0.72228395938873291
0.729938805103302 0.083088234066963196 0.7236626148223877
0.81039714813232422 0.081603139638900757 0.72752058506011963
0.87340688705444336 0.098646663129329681 0.74016046524047852
0.91501271724700928 0.13192242383956909 0.7469322681427002
0.38470739126205444 0.31290715932846069 0.80129945278167725
0.4870198667049408 0.3203742504119873 0.80456483364105225
0.61846154928207397 0.32659140229225159 0.80687505006790161
0.73570078611373901 0.33702507615089417 0.80762290954589844
0.83430016040802002 0.34147536754608154 0.81130349636077881
0.9161522388458252 0.35205826163291931 0.8142402172088623
0.9648672342300415 0.36203348636627197 0.80731326341629028
0.27871596813201904 0.53297692537307739 0.859080970287323
0.40974670648574829 0.54012691974639893 0.86279898881912231
0.55100744962692261 0.54442495107650757 0.86449664831161499
0.72949391603469849 0.55531162023544312 0.86708515882492065
0.84783458709716797 0.56701600551605225 0.86795127391815186
0.94062358140945435 0.57035988569259644 0.86514568328857422
0.99924015998840332 0.57316172122955322 0.85773241519927979
0.13634276390075684 0.68208461999893188 0.8896675705909729
0.31007665395736694 0.69984287023544312 0.89863342046737671
0.48336023092269897 0.70950454473495483 0.90138936042785645
0.6778252124786377 0.72676831483840942 0.90324276685714722
0.82763659954071045 0.73773223161697388 0.90120947360992432
0.93622595071792603 0.7397579550743103 0.89559668302536011
1 0.74588817358016968 0.8869774341583252
0.019502034410834312 0.79017096757888794 0.9082828164100647
0.18379025161266327 0.8134843111038208 0.91652363538742065
0.41616743803024292 0.83536207675933838 0.92181611061096191
0.6223260760307312 0.85289245843887329 0.92402422428131104
0.7992059588432312 0.86964505910873413 0.92188692092895508
0.91383850574493408 0.87228822708129883 0.91547322273254395
0.99913907051086426 0.88293027877807617 0.90903568267822266
0.00011668485967675224 0.86604464054107666 0.92819130420684814
0.090052060782909393 0.88234293460845947 0.93433791399002075
0.34291926026344299 0.90525716543197632 0.93631601333618164
0.55398350954055786 0.94376879930496216 0.94382435083389282
0.7704433798789978 0.95951372385025024 0.94032835960388184
0.89275354146957397 0.98020327091217041 0.94066643714904785
0.9910355806350708 0.98472130298614502 0.93038845062255859
