assets/lut/jtsemple mysticpurplesunset.cube
# Created by: G'MIC (https://gmic.eu)
TITLE "mysticpurplesunset"
# LUT size
LUT_3D_SIZE 7
# Data domain
DOMAIN_MIN 0.0 0.0 0.0
DOMAIN_MAX 1.0 1.0 1.0
# LUT data points
5.6008731917245314e-05 0.00049959070747718215 5.3854550060350448e-05
0.083694905042648315 0.00051359290955588222 0.00073738844366744161
0.27501645684242249 0.00036980124423280358 0.0051677930168807507
0.47097823023796082 0.0036505307070910931 0.0014759137993678451
0.66846519708633423 0.0026211608201265335 0.0025869032833725214
0.86322319507598877 0.0096216686069965363 2.154182038793806e-05
0.99963825941085815 0.03526083379983902 0
4.4878790504299104e-05 0.1134103387594223 0.0024005216546356678
0.10610538721084595 0.1183144822716713 0.0012177411699667573
0.29887786507606506 0.12165521085262299 0.0046591367572546005
0.49209186434745789 0.11959010362625122 0.0023930119350552559
0.69261771440505981 0.11938629299402237 0.0039127576164901257
0.89143151044845581 0.12681165337562561 0.0041697784326970577
1 0.15146037936210632 0.007781054824590683
0.0058966544456779957 0.29539963603019714 0.0078054093755781651
0.1326044499874115 0.30005720257759094 0.0085193263366818428
0.32398101687431335 0.30521363019943237 0.015901602804660797
0.52409613132476807 0.3084513247013092 0.012878148816525936
0.72548449039459229 0.30716636776924133 0.0072628543712198734
0.92502105236053467 0.30409377813339233 0.012602967210114002
1 0.3189454972743988 0.036254853010177612
0.01075636874884367 0.48279526829719543 0.017960058525204659
0.16707330942153931 0.49188700318336487 0.025566190481185913
0.36468786001205444 0.500499427318573 0.037503980100154877
0.57416069507598877 0.5078778862953186 0.04021332785487175
0.78846633434295654 0.51326471567153931 0.032445631921291351
0.97744530439376831 0.51302051544189453 0.038012754172086716
1 0.52546143531799316 0.065027631819248199
0.025857528671622276 0.6867668628692627 0.045859765261411667
0.21558977663516998 0.70090305805206299 0.065381653606891632
0.42432555556297302 0.71173352003097534 0.079314455389976501
0.63992094993591309 0.7198185920715332 0.084350436925888062
0.85798990726470947 0.73086327314376831 0.087677031755447388
0.99532145261764526 0.73384904861450195 0.094581544399261475
1 0.74090832471847534 0.10934454202651978
0.089244768023490906 0.90679073333740234 0.10752195119857788
0.28841659426689148 0.91284441947937012 0.12510736286640167
0.49954235553741455 0.91987115144729614 0.13724741339683533
0.71659260988235474 0.929027259349823 0.14311526715755463
0.92944210767745972 0.9343116283416748 0.14937610924243927
1 0.92437756061553955 0.15537053346633911
1 0.92565172910690308 0.16450321674346924
0.16299498081207275 1 0.17624491453170776
0.36117815971374512 1 0.1895972341299057
0.56844514608383179 1 0.1986912339925766
0.77700233459472656 1 0.204393669962883
0.95676606893539429 1 0.21083568036556244
1 1 0.21630853414535522
1 1 0.22263532876968384
0 0.00049923168262466788 0.096368007361888885
0.087202407419681549 0.0016813689144328237 0.10788191109895706
0.27933186292648315 0.00055901025189086795 0.110617496073246
0.47319623827934265 0.00077155616600066423 0.10863789916038513
0.66916447877883911 0.0014127244940027595 0.10973877459764481
0.8639063835144043 5.385455096984515e-06 0.10440268367528915
0.99997663497924805 0.01115685235708952 0.10265426337718964
0.0022524066735059023 0.11760252714157104 0.12223666161298752
0.10156306624412537 0.11613716930150986 0.12728279829025269
0.29866057634353638 0.11933315545320511 0.13076561689376831
0.4942728579044342 0.11162655055522919 0.12357018887996674
0.6936725378036499 0.11679569631814957 0.12245948612689972
0.89429366588592529 0.10721429437398911 0.12660965323448181
1 0.13189050555229187 0.13890677690505981
0.0071547864936292171 0.29801976680755615 0.14010071754455566
0.12991289794445038 0.30188366770744324 0.14472341537475586
0.32575362920761108 0.30631443858146667 0.15437726676464081
0.52715754508972168 0.30523288249969482 0.15348981320858002
0.72977858781814575 0.30771863460540771 0.15421281754970551
0.93533146381378174 0.30491930246353149 0.1579197496175766
1 0.31606012582778931 0.17730504274368286
0.011135101318359375 0.48353135585784912 0.16557137668132782
0.16742154955863953 0.49320134520530701 0.17501102387905121
0.36663684248924255 0.50259697437286377 0.18920302391052246
0.57398909330368042 0.5084453821182251 0.19826203584671021
0.78569489717483521 0.5158921480178833 0.20048654079437256
0.97821122407913208 0.51817935705184937 0.20496773719787598
1 0.52863913774490356 0.22118385136127472
0.029987799003720284 0.68908345699310303 0.213847815990448
0.22171671688556671 0.70329082012176514 0.23062862455844879
0.42864185571670532 0.71806555986404419 0.2448403537273407
0.63909566402435303 0.72399801015853882 0.25230753421783447
0.85143095254898071 0.73118710517883301 0.26011836528778076
0.99949240684509277 0.73377722501754761 0.26717373728752136
1 0.7443041205406189 0.27638229727745056
0.096122398972511292 0.91243690252304077 0.28093090653419495
0.29874062538146973 0.91991674900054932 0.30123350024223328
0.50813823938369751 0.93504011631011963 0.31365779042243958
0.72504705190658569 0.93196755647659302 0.31827789545059204
0.93269389867782593 0.9297909140586853 0.32589849829673767
1 0.93250250816345215 0.33094990253448486
0.99969899654388428 0.93538165092468262 0.3393808901309967
0.17242267727851868 1 0.35563516616821289
0.37290501594543457 1 0.37047213315963745
0.58085054159164429 1 0.37765210866928101
0.79455208778381348 1 0.37973073124885559
0.98105210065841675 0.99984830617904663 0.38881701231002808
1 1 0.39574608206748962
1 1 0.40430501103401184
0.0039497227407991886 0 0.27389585971832275
0.10778931528329849 0.00016030704136937857 0.281532883644104
0.28445947170257568 0.0030322654638439417 0.2802683413028717
0.47406256198883057 0.0059167901054024696 0.27567929029464722
0.66812902688980103 0.010330469347536564 0.27329927682876587
0.86136084794998169 0.0071038189344108105 0.27357986569404602
0.99969196319580078 0.0077157714404165745 0.27558252215385437
0.0016200944082811475 0.11433295160531998 0.2918020486831665
0.098593495786190033 0.11248306930065155 0.29934272170066833
0.29578059911727905 0.1193087100982666 0.3042747974395752
0.49593183398246765 0.12337594479322433 0.29929769039154053
0.69730234146118164 0.12344013154506683 0.29347637295722961
0.89729219675064087 0.11770469695329666 0.29441523551940918
1 0.13378033041954041 0.30472609400749207
0.0047441371716558933 0.29414984583854675 0.30856025218963623
0.12952154874801636 0.30021980404853821 0.31666147708892822
0.32458081841468811 0.30941054224967957 0.32838991284370422
0.52883297204971313 0.30850553512573242 0.33103862404823303
0.73547786474227905 0.30840742588043213 0.33005315065383911
0.94293320178985596 0.30937883257865906 0.33178400993347168
1 0.32175716757774353 0.34516224265098572
0.011992959305644035 0.48379284143447876 0.33883145451545715
0.17144222557544708 0.49458101391792297 0.3488958477973938
0.37032854557037354 0.50714170932769775 0.36483350396156311
0.57682341337203979 0.51258993148803711 0.37523487210273743
0.78833967447280884 0.51850682497024536 0.38010260462760925
0.97431445121765137 0.52402865886688232 0.38453081250190735
1 0.5346304178237915 0.39780122041702271
0.035935554653406143 0.69380313158035278 0.39361345767974854
0.22636356949806213 0.70674335956573486 0.40831741690635681
0.43280813097953796 0.72011369466781616 0.42499434947967529
0.64066457748413086 0.72752207517623901 0.43351587653160095
0.856681227684021 0.73206162452697754 0.43891140818595886
0.99820530414581299 0.73506176471710205 0.44691970944404602
0.99983644485473633 0.74686193466186523 0.46078240871429443
0.099206037819385529 0.91010880470275879 0.46933156251907349
0.30138048529624939 0.92770940065383911 0.48474442958831787
0.51130086183547974 0.93408709764480591 0.49817278981208801
0.72361969947814941 0.93484944105148315 0.50264871120452881
0.93124771118164062 0.94948440790176392 0.50806647539138794
1 0.95215201377868652 0.5146600604057312
0.99847990274429321 0.94926649332046509 0.5304451584815979
0.17573083937168121 1 0.55475687980651855
0.37784117460250854 1 0.56482827663421631
0.58620429039001465 1 0.56742441654205322
0.79782319068908691 0.99745875597000122 0.56577819585800171
0.97754228115081787 0.99998754262924194 0.57671254873275757
1 1 0.58739447593688965
1 1 0.59929823875427246
0.010207291692495346 0 0.45644566416740417
0.11734342575073242 0.00063674029661342502 0.46321091055870056
0.284322589635849 0.0054285535588860512 0.46241992712020874
0.47561275959014893 0.0079146437346935272 0.45739895105361938
0.66854327917098999 0.0027731950394809246 0.4552026093006134
0.86175411939620972 0.001616055378690362 0.45798683166503906
0.99955195188522339 0.0042051728814840317 0.4640202522277832
0.016134075820446014 0.11414540559053421 0.4706290066242218
0.11634814739227295 0.12240747362375259 0.47946739196777344
0.29615628719329834 0.13174633681774139 0.4835699200630188
0.49750405550003052 0.13397011160850525 0.48043689131736755
0.69876229763031006 0.12298142910003662 0.47584396600723267
0.89701437950134277 0.12050682306289673 0.47672885656356812
1 0.13797210156917572 0.48877325654029846
0.010384129360318184 0.29288044571876526 0.49078360199928284
0.1416047066450119 0.30166906118392944 0.49892604351043701
0.32894578576087952 0.31104534864425659 0.51001465320587158
0.5314326286315918 0.31379690766334534 0.51443243026733398
0.73629653453826904 0.31165659427642822 0.51596838235855103
0.93600428104400635 0.31509914994239807 0.52036482095718384
1 0.32900553941726685 0.53386062383651733
0.013852093368768692 0.4889889657497406 0.52780461311340332
0.17823074758052826 0.49872136116027832 0.53603297472000122
0.3774418830871582 0.51061666011810303 0.55335670709609985
0.58254164457321167 0.5166364312171936 0.56383335590362549
0.79624408483505249 0.52165979146957397 0.56864190101623535
0.98385870456695557 0.5305178165435791 0.5792420506477356
1 0.54055523872375488 0.59493780136108398
0.043268494307994843 0.707794189453125 0.58767020702362061
0.23452074825763702 0.71186763048171997 0.59961402416229248
0.44239163398742676 0.72223567962646484 0.6181645393371582
0.64775681495666504 0.73000514507293701 0.62800502777099609
0.85790187120437622 0.73315906524658203 0.63487046957015991
0.99953043460845947 0.73916804790496826 0.64660739898681641
1 0.7506483793258667 0.66344934701919556
0.10825349390506744 0.92436593770980835 0.66911083459854126
0.30845114588737488 0.93646508455276489 0.68242794275283813
0.52081388235092163 0.9343191385269165 0.69595813751220703
0.73007881641387939 0.9419018030166626 0.70333045721054077
0.93303859233856201 0.95034182071685791 0.71268177032470703
0.99999028444290161 0.95013606548309326 0.72538560628890991
0.99957489967346191 0.95560240745544434 0.73772644996643066
0.18025349080562592 1 0.76669526100158691
0.38229405879974365 1 0.77451509237289429
0.59410804510116577 1 0.77469879388809204
0.81079757213592529 0.99830013513565063 0.78146600723266602
0.98219674825668335 0.99897319078445435 0.788676917552948
1 1 0.80030709505081177
1 1 0.80646038055419922
0.003434349549934268 0 0.65097302198410034
0.11204910278320312 0.0010069005656987429 0.65924888849258423
0.27884054183959961 0.0039066239260137081 0.65918260812759399
0.47353661060333252 0.0030408822931349277 0.65406376123428345
0.67107605934143066 0 0.65365487337112427
0.86582058668136597 0 0.66186767816543579
0.99985063076019287 0.00027537625283002853 0.66770839691162109
0.011799411848187447 0.12019288539886475 0.66717171669006348
0.1216730922460556 0.12792313098907471 0.67474907636642456
0.29627183079719543 0.13616243004798889 0.68137675523757935
0.50039637088775635 0.13471648097038269 0.67964738607406616
0.70497757196426392 0.1195569634437561 0.67775076627731323
0.90398842096328735 0.11623017489910126 0.68089669942855835
1 0.13523863255977631 0.69088727235794067
0.011733036488294601 0.29727998375892639 0.69671881198883057
0.14492221176624298 0.30610477924346924 0.70403146743774414
0.33165636658668518 0.31437245011329651 0.71353310346603394
0.53682667016983032 0.31560513377189636 0.71833062171936035
0.74231815338134766 0.31561991572380066 0.72393655776977539
0.93622249364852905 0.32076823711395264 0.73405152559280396
1 0.33470520377159119 0.73868930339813232
0.012325436808168888 0.49525856971740723 0.73859566450119019
0.17990425229072571 0.50714355707168579 0.75042092800140381
0.38357645273208618 0.51684403419494629 0.76740568876266479
0.58965891599655151 0.52106648683547974 0.77316486835479736
0.7970050573348999 0.52432054281234741 0.77983975410461426
0.98019731044769287 0.53468430042266846 0.80541491508483887
1 0.54638844728469849 0.80481970310211182
0.043401308357715607 0.71102225780487061 0.80221754312515259
0.24012257158756256 0.72253376245498657 0.82050985097885132
0.44990813732147217 0.73203516006469727 0.84155553579330444
0.65940356254577637 0.73636037111282349 0.84638136625289917
0.86593306064605713 0.74124675989151001 0.85284364223480225
0.998790442943573 0.74719697237014771 0.87347376346588135
1 0.75526887178421021 0.87323033809661865
0.11647544056177139 0.93056637048721313 0.87966287136077881
0.31429725885391235 0.93969815969467163 0.90992444753646851
0.5229114294052124 0.94658821821212769 0.9201432466506958
0.73531234264373779 0.95378649234771729 0.92643964290618896
0.94458436965942383 0.95389789342880249 0.93115544319152832
0.99941611289978027 0.95303428173065186 0.94144302606582642
0.99997472763061523 0.95548349618911743 0.94921010732650757
0.18598227202892303 0.99996966123580933 0.9621766209602356
0.38649541139602661 1 0.9758337140083313
0.59912151098251343 0.99921685457229614 0.97434002161026001
0.80713421106338501 0.99409264326095581 0.97997957468032837
0.98239576816558838 0.9921572208404541 0.97508507966995239
0.99833279848098755 0.99775731563568115 0.98715430498123169
0.99987393617630005 0.99943739175796509 0.99332684278488159
0 0 0.85302197933197021
0.094693638384342194 0 0.86521536111831665
0.2694050669670105 0.00086687871953472495 0.86039721965789795
0.46787720918655396 0.00019980038632638752 0.84984058141708374
0.67104464769363403 0 0.8472169041633606
0.86814004182815552 0 0.86159294843673706
0.99984598159790039 0 0.86251485347747803
0.001119516440667212 0.11829910427331924 0.87924081087112427
0.11212857067584991 0.12561720609664917 0.88921666145324707
0.2946341335773468 0.13289736211299896 0.89283674955368042
0.50207233428955078 0.13117145001888275 0.88310670852661133
0.71232235431671143 0.12236560136079788 0.8809095025062561
0.91228026151657104 0.12114320695400238 0.894153892993927
1 0.13354003429412842 0.89169406890869141
0.01070003118366003 0.29710620641708374 0.91190135478973389
0.14756956696510315 0.30769863724708557 0.9219590425491333
0.33620741963386536 0.31556236743927002 0.92569297552108765
0.54511749744415283 0.31877011060714722 0.91990166902542114
0.75582766532897949 0.31969892978668213 0.92895853519439697
0.94639092683792114 0.32652002573013306 0.93998986482620239
1 0.33964088559150696 0.92157888412475586
0.021728694438934326 0.49520280957221985 0.95000374317169189
0.18923875689506531 0.51001226902008057 0.96766942739486694
0.39021039009094238 0.51912510395050049 0.96394652128219604
0.59876817464828491 0.52241307497024536 0.95622402429580688
0.81012451648712158 0.52887433767318726 0.973064124584198
0.98171806335449219 0.53965729475021362 0.99078869819641113
1 0.55211144685745239 0.96734702587127686
0.049274399876594543 0.71120351552963257 0.98339563608169556
0.24577711522579193 0.72542256116867065 0.99663680791854858
0.45608824491500854 0.73332077264785767 0.99752700328826904
0.66497683525085449 0.73398399353027344 0.99133551120758057
0.87817847728729248 0.74381464719772339 0.99209964275360107
0.9998936653137207 0.75304979085922241 1
1 0.76111513376235962 0.99797874689102173
0.11962264031171799 0.9255669116973877 1
0.31880390644073486 0.93829631805419922 1
0.52962577342987061 0.9471057653427124 1
0.74029022455215454 0.94839721918106079 1
0.95171177387237549 0.95465397834777832 0.99892479181289673
0.9992489218711853 0.9576188325881958 1
0.99872541427612305 0.95143657922744751 1
0.19015954434871674 1 1
0.39317229390144348 1 1
0.60754597187042236 1 1
0.81750762462615967 1 1
0.98998540639877319 0.99845594167709351 0.99980252981185913
0.99970823526382446 1 1
0.999278724193573 1 1
0 0 0.99882364273071289
0.085625939071178436 0 1
0.26578068733215332 0 0.99948424100875854
0.4638637900352478 0 0.99529552459716797
0.66505640745162964 0 0.98833739757537842
0.86044871807098389 0 0.98689520359039307
0.99876278638839722 0 0.97972828149795532
0.00011488970631035045 0.11955424398183823 1
0.11596313118934631 0.12525857985019684 1
0.30044081807136536 0.13164283335208893 1
0.50559622049331665 0.13162751495838165 1
0.71427822113037109 0.12779337167739868 0.9993167519569397
0.91437846422195435 0.12719140946865082 0.99725490808486938
1 0.13767093420028687 0.99214363098144531
0.013053580187261105 0.30320531129837036 1
0.16135993599891663 0.31216934323310852 1
0.34790274500846863 0.32031452655792236 1
0.55474430322647095 0.32377272844314575 1
0.76321148872375488 0.32634344696998596 1
0.94803625345230103 0.3327382504940033 1
1 0.34465706348419189 0.99971216917037964
0.042373836040496826 0.50460577011108398 1
0.20925351977348328 0.51617562770843506 1
0.40284076333045959 0.52513980865478516 1
0.60971438884735107 0.52966398000717163 1
0.81300175189971924 0.5363394021987915 1
0.97257882356643677 0.54648220539093018 1
1 0.55861681699752808 1
0.075012475252151489 0.72202306985855103 1
0.26104941964149475 0.73251950740814209 1
0.46483790874481201 0.740772545337677 1
0.6735992431640625 0.74235612154006958 1
0.87684237957000732 0.75111943483352661 1
0.99317240715026855 0.75910001993179321 1
1 0.7689940333366394 1
0.1282641738653183 0.93457305431365967 0.99984407424926758
0.32662659883499146 0.9455750584602356 0.99937647581100464
0.5377737283706665 0.949024498462677 0.99348944425582886
0.74906343221664429 0.94281917810440063 0.99625498056411743
0.95320987701416016 0.95985311269760132 1
0.99995523691177368 0.95738565921783447 1
0.99969601631164551 0.96012139320373535 0.99915289878845215
0.19203171133995056 1 1
0.39720657467842102 1 1
0.6119500994682312 1 1
0.82456910610198975 1 1
0.98964673280715942 0.99996966123580933 1
1 1 1
1 1 1
