assets/lut/jtsemple springmorning.cube
# Created by: G'MIC (https://gmic.eu)
TITLE "springmorning"
# LUT size
LUT_3D_SIZE 13
# Data domain
DOMAIN_MIN 0.0 0.0 0.0
DOMAIN_MAX 1.0 1.0 1.0
# LUT data points
0.00025455249124206603 0.0024581160396337509 0.014138420112431049
0.018330099061131477 0.0030183978378772736 0.015279179438948631
0.085363201797008514 0.0012088550720363855 0.015010818839073181
0.17304445803165436 0.00087944482220336795 0.015544592402875423
0.26460212469100952 0.00010663201101124287 0.018603844568133354
0.35319334268569946 0.00041180779226124287 0.018137838691473007
0.43591514229774475 0.0024609435349702835 0.012233524583280087
0.51388585567474365 0.0077033848501741886 0.0063371099531650543
0.58950281143188477 0.015837246552109718 0.0027571434620767832
0.66300117969512939 0.02227853424847126 0.0016107895644381642
0.73592281341552734 0.02218220941722393 0.0030357660725712776
0.80917584896087646 0.018314465880393982 0.0063946740701794624
0.88325017690658569 0.014125734567642212 0.011456986889243126
0.00018651626305654645 0.050380825996398926 0.0067949183285236359
0.01559918001294136 0.051740594208240509 0.0093189766630530357
0.085572920739650726 0.049231823533773422 0.0073530459776520729
0.17546722292900085 0.045833002775907516 0.00844573974609375
0.26724022626876831 0.041194330900907516 0.012429525144398212
0.35604235529899597 0.041429497301578522 0.013216923922300339
0.4382348358631134 0.048809606581926346 0.0093172108754515648
0.51584732532501221 0.059413205832242966 0.0050872056744992733
0.59000277519226074 0.069792069494724274 0.002624706132337451
0.66227829456329346 0.07598239928483963 0.0022892074193805456
0.73430287837982178 0.076250247657299042 0.0041909161955118179
0.80698007345199585 0.072737060487270355 0.0083611728623509407
0.88048338890075684 0.068695873022079468 0.014227638952434063
0 0.12450138479471207 0.0056342179886996746
0.013754257932305336 0.12464704364538193 0.0060459808446466923
0.082266546785831451 0.12362663447856903 0.0052062091417610645
0.17300093173980713 0.12002256512641907 0.0056258109398186207
0.26557916402816772 0.11563572287559509 0.0074039534665644169
0.35461151599884033 0.11436386406421661 0.0076755150221288204
0.43767634034156799 0.1165817528963089 0.0057217166759073734
0.51532620191574097 0.12224103510379791 0.0035500321537256241
0.58893829584121704 0.12830048799514771 0.0022507612593472004
0.66083788871765137 0.13151192665100098 0.0026545803993940353
0.73238116502761841 0.13132581114768982 0.0053409500978887081
0.804351806640625 0.12868814170360565 0.010781965218484402
0.87800168991088867 0.12663820385932922 0.017819363623857498
0 0.1972334086894989 0.0070976107381284237
0.019360905513167381 0.19711710512638092 0.0062762689776718616
0.084576688706874847 0.19628961384296417 0.0052882772870361805
0.1701970100402832 0.19450731575489044 0.0052696079947054386
0.26183456182479858 0.19162152707576752 0.0050182566046714783
0.3509509265422821 0.18833477795124054 0.0044946558773517609
0.43487244844436646 0.18781998753547668 0.0032601000275462866
0.51311248540878296 0.18952856957912445 0.00201390590518713
0.58693408966064453 0.19183206558227539 0.0016637465450912714
0.65882140398025513 0.19298367202281952 0.0023529950994998217
0.73021411895751953 0.19161269068717957 0.0055282441899180412
0.8024066686630249 0.18893960118293762 0.012062207795679569
0.87547421455383301 0.18660768866539001 0.020300053060054779
0 0.27071300148963928 0.0081410128623247147
0.024407660588622093 0.27005022764205933 0.0066750920377671719
0.088138163089752197 0.26918190717697144 0.0052945003844797611
0.16920103132724762 0.26792755722999573 0.0045742709189653397
0.25819948315620422 0.26572111248970032 0.0036521162837743759
0.34702977538108826 0.26272672414779663 0.0026122897397726774
0.43136104941368103 0.26081201434135437 0.0018199248006567359
0.51024985313415527 0.26005014777183533 0.0012864057207480073
0.58483612537384033 0.26013413071632385 0.00093994138296693563
0.65708005428314209 0.25979021191596985 0.0015905492473393679
0.72901082038879395 0.2581976056098938 0.0044158189557492733
0.80069255828857422 0.2556738555431366 0.010316078551113605
0.87446713447570801 0.25465524196624756 0.017766436561942101
0 0.34539735317230225 0.0085729416459798813
0.027202397584915161 0.3435119092464447 0.0065488778054714203
0.090850174427032471 0.34251391887664795 0.0052326577715575695
0.16939157247543335 0.3411649763584137 0.0038731445092707872
0.25653848052024841 0.339143306016922 0.002589057432487607
0.34471398591995239 0.33678522706031799 0.0017567353788763285
0.42984330654144287 0.33466774225234985 0.0012366799637675285
0.50861811637878418 0.33350619673728943 0.00075324560748413205
0.58442157506942749 0.3323504626750946 0.00073529413202777505
0.65684008598327637 0.33147025108337402 0.0011271757539361715
0.72853070497512817 0.33071041107177734 0.0029294779524207115
0.80029135942459106 0.32979539036750793 0.0067850002087652683
0.87405407428741455 0.33013412356376648 0.011686631478369236
7.4678311648312956e-05 0.41994291543960571 0.0087622553110122681
0.030242171138525009 0.41837507486343384 0.0065814447589218616
0.094530351459980011 0.41622984409332275 0.0050478465855121613
0.17198267579078674 0.41524794697761536 0.0034543504007160664
0.25760048627853394 0.41294869780540466 0.0021128933876752853
0.34545999765396118 0.41162842512130737 0.0014357622712850571
0.43073382973670959 0.40921187400817871 0.00078376318560913205
0.51097559928894043 0.40785947442054749 0.00073529413202777505
0.5859142541885376 0.40784314274787903 0.00073529413202777505
0.65816307067871094 0.40784314274787903 0.00094945571618154645
0.72983038425445557 0.40784314274787903 0.0019200643291696906
0.80124366283416748 0.40767627954483032 0.0040244306437671185
0.87459522485733032 0.40791782736778259 0.0068759694695472717
0.0004504035459831357 0.4964192807674408 0.0091028697788715363
0.03517710417509079 0.49309703707695007 0.0068394080735743046
0.10066875070333481 0.49194991588592529 0.005196006502956152
0.17723765969276428 0.48924213647842407 0.0035062602255493402
0.261604905128479 0.48878335952758789 0.0021105597261339426
0.34875118732452393 0.48620638251304626 0.00133577233646065
0.4338374137878418 0.48504900932312012 0.00074067956302314997
0.51359671354293823 0.48504900932312012 0.00073529413202777505
0.58875590562820435 0.48504900932312012 0.00073529413202777505
0.66081887483596802 0.48504900932312012 0.0007697610417380929
0.73186206817626953 0.48504900932312012 0.0014987720642238855
0.80320447683334351 0.48587855696678162 0.0022486068774014711
0.87577486038208008 0.4881598949432373 0.0041061998344957829
0.0014705433277413249 0.57317227125167847 0.0099023552611470222
0.04234744980931282 0.57011377811431885 0.0075309602543711662
0.10872840136289597 0.56731885671615601 0.0058108610101044178
0.18468461930751801 0.56617647409439087 0.0042062797583639622
0.26726838946342468 0.56418043375015259 0.0025495642330497503
0.3528684675693512 0.56226265430450439 0.0016795438714325428
0.43710976839065552 0.56225490570068359 0.0011025822022929788
0.51641380786895752 0.56225490570068359 0.00079758587526157498
0.59183883666992188 0.56225490570068359 0.00078125001164153218
0.66406375169754028 0.56227433681488037 0.0010259291157126427
0.73523133993148804 0.56385898590087891 0.0014705882640555501
0.80635601282119751 0.56639242172241211 0.0017294491408392787
0.8790019154548645 0.56923097372055054 0.0025290993507951498
0.0036857456434518099 0.65107405185699463 0.011049996130168438
0.051094129681587219 0.64760863780975342 0.0088092880323529243
0.11831681430339813 0.64490240812301636 0.0067900861613452435
0.19362618029117584 0.64338237047195435 0.0052730184979736805
0.27421551942825317 0.6413453221321106 0.0037720922846347094
0.35754126310348511 0.63948684930801392 0.0025324204470962286
0.43995246291160583 0.63946080207824707 0.0019026811933144927
0.51961332559585571 0.63946080207824707 0.0016707476461306214
0.5949133038520813 0.63959109783172607 0.0015540628228336573
0.66803115606307983 0.64168077707290649 0.0015120562165975571
0.73974555730819702 0.64373654127120972 0.0016590791055932641
0.81142604351043701 0.646678626537323 0.0019827450159937143
0.88461428880691528 0.64985257387161255 0.0024703680537641048
0.007426826748996973 0.73006808757781982 0.012440460734069347
0.061276994645595551 0.72652554512023926 0.010560697875916958
0.1289067268371582 0.72381490468978882 0.0085026007145643234
0.20302887260913849 0.72104907035827637 0.0068095340393483639
0.28170537948608398 0.7201952338218689 0.0055071213282644749
0.36306571960449219 0.71851581335067749 0.0043710297904908657
0.44409966468811035 0.71754765510559082 0.0034782709553837776
0.52286630868911743 0.71805387735366821 0.0029168969485908747
0.59896582365036011 0.71980708837509155 0.0026290894020348787
0.67276757955551147 0.72108000516891479 0.0024031095672398806
0.7454189658164978 0.72390240430831909 0.0024077771231532097
0.81823122501373291 0.72679126262664795 0.0026559268590062857
0.89200037717819214 0.72991013526916504 0.0034507452510297298
0.01290429849177599 0.81021016836166382 0.01400731410831213
0.071787305176258087 0.80636113882064819 0.01237939577549696
0.13974234461784363 0.80326253175735474 0.010646655224263668
0.21291941404342651 0.80108606815338135 0.0089530646800994873
0.29021468758583069 0.7990381121635437 0.0075289555825293064
0.36977317929267883 0.79799795150756836 0.0065223993733525276
0.44958120584487915 0.79781901836395264 0.0058469288051128387
0.52790993452072144 0.79801404476165771 0.005196934100240469
0.60399782657623291 0.79937756061553955 0.0046327477321028709
0.67858350276947021 0.80157846212387085 0.0043585831299424171
0.75220012664794922 0.80425125360488892 0.0042268643155694008
0.8259395956993103 0.80737584829330444 0.0044094608165323734
0.90064805746078491 0.81076967716217041 0.0049633551388978958
0.020815277472138405 0.8913872241973877 0.015743166208267212
0.083030745387077332 0.88751465082168579 0.014329752884805202
0.1510595977306366 0.88434392213821411 0.012896309606730938
0.22357158362865448 0.88169670104980469 0.011553820222616196
0.29935196042060852 0.8799780011177063 0.010264333337545395
0.37759897112846375 0.8788180947303772 0.0092341406270861626
0.45637688040733337 0.8784974217414856 0.0083453012630343437
0.53416460752487183 0.87896788120269775 0.007505469024181366
0.61045163869857788 0.880484938621521 0.0068884007632732391
0.68543869256973267 0.88274967670440674 0.0063801934011280537
0.75986123085021973 0.88551217317581177 0.0061906403861939907
0.83452701568603516 0.88878583908081055 0.00619532261043787
0.9101681113243103 0.89228332042694092 0.0067077339626848698
0.00092435348778963089 0.0016501033678650856 0.065334945917129517
0.02443249337375164 0.0021181444171816111 0.065804637968540192
0.088152743875980377 0.0018132827244699001 0.065166056156158447
0.17474688589572906 0.0010684742592275143 0.065267182886600494
0.26688703894615173 0.00019297879771329463 0.066656537353992462
0.35561725497245789 0.00037913603591732681 0.066232629120349884
0.43827879428863525 0.0018522524042055011 0.061690550297498703
0.51636028289794922 0.0058180266059935093 0.054364342242479324
0.59075480699539185 0.012267722748219967 0.047500863671302795
0.66398543119430542 0.017855849117040634 0.044773519039154053
0.73612630367279053 0.01800689660012722 0.048879541456699371
0.80876415967941284 0.014849015511572361 0.056843731552362442
0.88260728120803833 0.011805874295532703 0.065594002604484558
3.7518668250413612e-05 0.049225617200136185 0.057088829576969147
0.016441090032458305 0.050854790955781937 0.057168520987033844
0.085076034069061279 0.049784701317548752 0.056312471628189087
0.17558877170085907 0.04617062583565712 0.057546533644199371
0.27002078294754028 0.04215017706155777 0.060324247926473618
0.35887977480888367 0.041711259633302689 0.061085257679224014
0.44155877828598022 0.047065377235412598 0.057768415659666061
0.51827007532119751 0.055979184806346893 0.051978707313537598
0.59161245822906494 0.065162360668182373 0.047378391027450562
0.66322058439254761 0.071150518953800201 0.046630427241325378
0.73440295457839966 0.071912102401256561 0.051317822188138962
0.8066365122795105 0.069313108921051025 0.059514559805393219
0.87974482774734497 0.065885357558727264 0.068298399448394775
0 0.12296833842992783 0.055921249091625214
0.014622781425714493 0.12313421070575714 0.054947707802057266
0.083118543028831482 0.12188035249710083 0.053994782269001007
0.17486073076725006 0.11976265907287598 0.054408501833677292
0.26910430192947388 0.11687006056308746 0.055882621556520462
0.35840228199958801 0.11439111828804016 0.055759474635124207
0.4414597749710083 0.11500127613544464 0.053147409111261368
0.51824426651000977 0.11925623565912247 0.049273382872343063
0.59088528156280518 0.12439454346895218 0.046617068350315094
0.66151094436645508 0.12803976237773895 0.047998793423175812
0.73248916864395142 0.12868253886699677 0.053682979196310043
0.8041185736656189 0.12709318101406097 0.062096301466226578
0.87731832265853882 0.12525466084480286 0.070917226374149323
0 0.1962217390537262 0.058794058859348297
0.018689578399062157 0.19611498713493347 0.056469831615686417
0.084053933620452881 0.19586203992366791 0.054990101605653763
0.17153438925743103 0.19537264108657837 0.054108250886201859
0.26485875248908997 0.19295758008956909 0.053048811852931976
0.35460487008094788 0.18893836438655853 0.051517695188522339
0.43838015198707581 0.18660083413124084 0.048910927027463913
0.51588624715805054 0.18704172968864441 0.046211753040552139
0.58841538429260254 0.18891456723213196 0.044928651303052902
0.6593661904335022 0.19036664068698883 0.047249767929315567
0.73034816980361938 0.19024832546710968 0.053665220737457275
0.80233842134475708 0.18909785151481628 0.062650732696056366
0.87522757053375244 0.18827888369560242 0.071421727538108826
0 0.27018964290618896 0.061033003032207489
0.020867934450507164 0.26947632431983948 0.058216843754053116
0.084056869149208069 0.26927956938743591 0.055283177644014359
0.16746003925800323 0.26841196417808533 0.053111687302589417
0.25893190503120422 0.26637336611747742 0.050546593964099884
0.34924423694610596 0.26270920038223267 0.048159819096326828
0.43410074710845947 0.25996002554893494 0.045644842088222504
0.51256644725799561 0.2586556077003479 0.04350675642490387
0.58578312397003174 0.25871923565864563 0.042509458959102631
0.65736681222915649 0.25870978832244873 0.044819626957178116
0.72903549671173096 0.25788816809654236 0.051359184086322784
0.80067425966262817 0.25706523656845093 0.059922926127910614
0.87418335676193237 0.25718143582344055 0.068097524344921112
0 0.3448539674282074 0.062351346015930176
0.020270733162760735 0.34327676892280579 0.058683387935161591
0.083142988383769989 0.34250631928443909 0.055346962064504623
0.16437985002994537 0.34126359224319458 0.051903653889894485
0.25462993979454041 0.33941128849983215 0.048724602907896042
0.34536817669868469 0.33654940128326416 0.045740928500890732
0.43108820915222168 0.33425885438919067 0.043269768357276917
0.51111513376235962 0.33228805661201477 0.041589010506868362
0.58482837677001953 0.33129134774208069 0.040914632380008698
0.65725278854370117 0.3309619128704071 0.043039388954639435
0.72859424352645874 0.33065760135650635 0.048367191106081009
0.80021589994430542 0.33069205284118652 0.055238671600818634
0.87355637550354004 0.33121326565742493 0.062323566526174545
0 0.41955515742301941 0.063416965305805206
0.020831134170293808 0.41757422685623169 0.059338856488466263
0.084490202367305756 0.41594919562339783 0.055381476879119873
0.16461610794067383 0.41484171152114868 0.051527045667171478
0.25381821393966675 0.41277328133583069 0.047668889164924622
0.34455373883247375 0.41128188371658325 0.044147953391075134
0.43152251839637756 0.40852248668670654 0.041592244058847427
0.51239538192749023 0.40784314274787903 0.040541257709264755
0.58660656213760376 0.40784314274787903 0.040718872100114822
0.65833753347396851 0.40784314274787903 0.04224732518196106
0.72987020015716553 0.40784314274787903 0.045807063579559326
0.80113351345062256 0.40784412622451782 0.050865743309259415
0.87414294481277466 0.40880030393600464 0.056686911731958389
0 0.49528738856315613 0.06486491858959198
0.024690920487046242 0.4928739070892334 0.060669347643852234
0.089984729886054993 0.49071702361106873 0.056437533348798752
0.16895417869091034 0.48900976777076721 0.052206557244062424
0.25656735897064209 0.48808225989341736 0.048119876533746719
0.34685659408569336 0.48543277382850647 0.044236667454242706
0.43418782949447632 0.48504900932312012 0.041240915656089783
0.51484042406082153 0.48504900932312012 0.040330026298761368
0.58922260999679565 0.48504900932312012 0.040778424590826035
0.66117149591445923 0.48504900932312012 0.042262881994247437
0.73188483715057373 0.48505067825317383 0.044446773827075958
0.80305469036102295 0.48633340001106262 0.047772634774446487
0.87547188997268677 0.48876824975013733 0.052082646638154984
8.7782915215939283e-05 0.57174915075302124 0.066869296133518219
0.032030683010816574 0.56940144300460815 0.062772907316684723
0.098770484328269958 0.5662044882774353 0.058595035225152969
0.17646883428096771 0.56567776203155518 0.054466757923364639
0.26176255941390991 0.56253468990325928 0.050346076488494873
0.35005044937133789 0.56225490570068359 0.046491973102092743
0.43655309081077576 0.56225490570068359 0.043581075966358185
0.51642155647277832 0.56225490570068359 0.042446374893188477
0.59208250045776367 0.56225490570068359 0.042661074548959732
0.66413849592208862 0.56225490570068359 0.043572939932346344
0.73508745431900024 0.56356257200241089 0.044911913573741913
0.80598676204681396 0.56639677286148071 0.046898666769266129
0.87838602066040039 0.56929510831832886 0.049904737621545792
0.0010827606311067939 0.64945554733276367 0.069418951869010925
0.041245449334383011 0.64673036336898804 0.06566561758518219
0.10887333005666733 0.64343750476837158 0.061837602406740189
0.18528424203395844 0.64242744445800781 0.057953584939241409
0.26800662279129028 0.6395002007484436 0.054257038980722427
0.35364401340484619 0.63946080207824707 0.050843723118305206
0.43783348798751831 0.63946080207824707 0.048326410353183746
0.51799887418746948 0.63946080207824707 0.046962440013885498
0.59411883354187012 0.63946330547332764 0.046668391674757004
0.66752493381500244 0.64075213670730591 0.04674384742975235
0.73917698860168457 0.64337271451950073 0.047473128885030746
0.81080746650695801 0.64635664224624634 0.048559721559286118
0.88359326124191284 0.64920508861541748 0.051013484597206116
0.0035954792983829975 0.72822278738021851 0.072428219020366669
0.051659170538187027 0.72478270530700684 0.069189079105854034
0.11974821239709854 0.72186315059661865 0.065684676170349121
0.19478493928909302 0.72049903869628906 0.06241874024271965
0.27511435747146606 0.71826493740081787 0.059255111962556839
0.35806208848953247 0.71677184104919434 0.056368794292211533
0.44060245156288147 0.71666860580444336 0.05422789603471756
0.52059799432754517 0.71680563688278198 0.052738189697265625
0.59737557172775269 0.71846872568130493 0.051874555647373199
0.67148888111114502 0.72058165073394775 0.051492698490619659
0.74431586265563965 0.72308677434921265 0.051626496016979218
0.81691145896911621 0.7259175181388855 0.052517522126436234
0.89069688320159912 0.72918701171875 0.054355815052986145
0.007676741573959589 0.80806195735931396 0.075735427439212799
0.062438320368528366 0.80450224876403809 0.0728302001953125
0.13072730600833893 0.80169808864593506 0.070071309804916382
0.20482796430587769 0.79920810461044312 0.067267820239067078
0.28329485654830933 0.79782307147979736 0.064673736691474915
0.36419990658760071 0.79720139503479004 0.062447968870401382
0.44518822431564331 0.79668533802032471 0.060568325221538544
0.52460139989852905 0.79739582538604736 0.059135839343070984
0.60157579183578491 0.79819029569625854 0.057925805449485779
0.67657101154327393 0.80054843425750732 0.05715574324131012
0.75044262409210205 0.80312532186508179 0.056839197874069214
0.82424169778823853 0.80632573366165161 0.057350937277078629
0.89886540174484253 0.80970680713653564 0.058884222060441971
0.014083787798881531 0.88908225297927856 0.079034082591533661
0.073984034359455109 0.8852468729019165 0.076718106865882874
0.1422944962978363 0.88223040103912354 0.074455916881561279
0.21548713743686676 0.8798864483833313 0.072153098881244659
0.29251816868782043 0.87829577922821045 0.070105455815792084
0.37166094779968262 0.8771633505821228 0.068253614008426666
0.4513716995716095 0.87694436311721802 0.066797472536563873
0.5301971435546875 0.87753391265869141 0.065337099134922028
0.60717713832855225 0.87916189432144165 0.0639176145195961
0.68273794651031494 0.88134992122650146 0.062899194657802582
0.75757503509521484 0.88428366184234619 0.062408864498138428
0.83250033855438232 0.88742750883102417 0.062626466155052185
0.90769463777542114 0.89098203182220459 0.06361871212720871
0.0011368994601070881 0.0023275488056242466 0.13534098863601685
0.028110712766647339 0.0022399902809411287 0.13375027477741241
0.091730453073978424 0.0019416359718888998 0.13009414076805115
0.17701245844364166 0.0010147992288693786 0.12706145644187927
0.26822397112846375 0.00017197552369907498 0.12459035962820053
0.35634186863899231 0.00029512293986044824 0.12259739637374878
0.43881934881210327 0.0013267965987324715 0.11962923407554626
0.51661545038223267 0.0035371070262044668 0.11494588106870651
0.59111672639846802 0.0072013256140053272 0.11089032888412476
0.66406702995300293 0.01052557211369276 0.1098918542265892
0.73580056428909302 0.011295244097709656 0.1125098317861557
0.80835133790969849 0.010508817620575428 0.11875670403242111
0.88202047348022461 0.0087223127484321594 0.12621480226516724
0 0.052397515624761581 0.13060866296291351
0.017151806503534317 0.053972791880369186 0.12866273522377014
0.086356863379478455 0.050071656703948975 0.12567885220050812
0.17705927789211273 0.045511059463024139 0.12276856601238251
0.27086177468299866 0.042200740426778793 0.12053005397319794
0.35964679718017578 0.041434343904256821 0.11912183463573456
0.4424976110458374 0.044981010258197784 0.11673392355442047
0.51902520656585693 0.051355071365833282 0.11329399794340134
0.59178918600082397 0.058077853173017502 0.11063727736473083
0.66306203603744507 0.062989749014377594 0.11059258878231049
0.73418498039245605 0.064739376306533813 0.11377087980508804
0.80622726678848267 0.064085192978382111 0.11977003514766693
0.87927848100662231 0.06263260543346405 0.12699542939662933
0 0.12387837469577789 0.12715594470500946
0.017642674967646599 0.12412772327661514 0.12600816786289215
0.085954658687114716 0.12104831635951996 0.12416263669729233
0.1771090179681778 0.11879242211580276 0.12092744559049606
0.27089101076126099 0.11584755033254623 0.11847242712974548
0.35991263389587402 0.11357022821903229 0.1165492907166481
0.44290962815284729 0.11319912225008011 0.11419612169265747
0.51909047365188599 0.11574778705835342 0.11193807423114777
0.59106457233428955 0.11926572024822235 0.11046022921800613
0.66131454706192017 0.12229207158088684 0.11166200786828995
0.73217153549194336 0.12410462647676468 0.11504132300615311
0.80385804176330566 0.12459851801395416 0.12044486403465271
0.87690043449401855 0.12463091313838959 0.12716107070446014
0 0.19671104848384857 0.12664134800434113
0.020768199115991592 0.19628027081489563 0.12436583638191223
0.084848307073116302 0.19568796455860138 0.12233723700046539
0.17366102337837219 0.19437254965305328 0.11958480626344681
0.26713111996650696 0.1916813850402832 0.11673372983932495
0.35668656229972839 0.18775229156017303 0.1142926961183548
0.44009503722190857 0.18494817614555359 0.11224854737520218
0.51677006483078003 0.18460741639137268 0.11064226925373077
0.58853018283843994 0.18567918241024017 0.1103329211473465
0.65923398733139038 0.18701529502868652 0.11169999092817307
0.73019063472747803 0.18832015991210938 0.11456120759248734
0.80243170261383057 0.18937090039253235 0.11921472102403641
0.87533318996429443 0.1900249570608139 0.12505538761615753
0 0.27120715379714966 0.1264747828245163
