assets/lut/jtsemple springmorning.cube
# Created by: G'MIC (https://gmic.eu)
TITLE "springmorning"
# LUT size
LUT_3D_SIZE 5
# Data domain
DOMAIN_MIN 0.0 0.0 0.0
DOMAIN_MAX 1.0 1.0 1.0
# LUT data points
0.00025455249124206603 0.0024581160396337509 0.014138420112431049
0.17304445803165436 0.00087944482220336795 0.015544592402875423
0.43591514229774475 0.0024609435349702835 0.012233524583280087
0.66300117969512939 0.02227853424847126 0.0016107895644381642
0.88325017690658569 0.014125734567642212 0.011456986889243126
0 0.1972334086894989 0.0070976107381284237
0.1701970100402832 0.19450731575489044 0.0052696079947054386
0.43487244844436646 0.18781998753547668 0.0032601000275462866
0.65882140398025513 0.19298367202281952 0.0023529950994998217
0.87547421455383301 0.18660768866539001 0.020300053060054779
7.4678311648312956e-05 0.41994291543960571 0.0087622553110122681
0.17198267579078674 0.41524794697761536 0.0034543504007160664
0.43073382973670959 0.40921187400817871 0.00078376318560913205
0.65816307067871094 0.40784314274787903 0.00094945571618154645
0.87459522485733032 0.40791782736778259 0.0068759694695472717
0.0036857456434518099 0.65107405185699463 0.011049996130168438
0.19362618029117584 0.64338237047195435 0.0052730184979736805
0.43995246291160583 0.63946080207824707 0.0019026811933144927
0.66803115606307983 0.64168077707290649 0.0015120562165975571
0.88461428880691528 0.64985257387161255 0.0024703680537641048
0.020815277472138405 0.8913872241973877 0.015743166208267212
0.22357158362865448 0.88169670104980469 0.011553820222616196
0.45637688040733337 0.8784974217414856 0.0083453012630343437
0.68543869256973267 0.88274967670440674 0.0063801934011280537
0.9101681113243103 0.89228332042694092 0.0067077339626848698
0.0022839864250272512 0.0038291481323540211 0.20559234917163849
0.18059258162975311 0.00091911765048280358 0.19570182263851166
0.43831372261047363 0.00079650880070403218 0.18438081443309784
0.66325515508651733 0.0052277659997344017 0.17816527187824249
0.88143092393875122 0.0059324675239622593 0.19017487764358521
0 0.19955556094646454 0.19744820892810822
0.17670179903507233 0.19376243650913239 0.18979816138744354
0.43983018398284912 0.18314546346664429 0.18018968403339386
0.65862041711807251 0.18342903256416321 0.17977941036224365
0.87525147199630737 0.19070963561534882 0.18423900008201599
0 0.42078167200088501 0.19455645978450775
0.15723338723182678 0.41434827446937561 0.1836293637752533
0.4310569167137146 0.40784475207328796 0.17681446671485901
0.65891015529632568 0.40784555673599243 0.17718307673931122
0.87591195106506348 0.41278880834579468 0.17958943545818329
0 0.64841651916503906 0.20201893150806427
0.17320217192173004 0.6412506103515625 0.19208134710788727
0.43111357092857361 0.63946080207824707 0.1848028302192688
0.66662728786468506 0.64079266786575317 0.18449784815311432
0.88568407297134399 0.64811116456985474 0.18775308132171631
0.0056853201240301132 0.8863518238067627 0.213701531291008
0.20105035603046417 0.87841683626174927 0.20803499221801758
0.44181013107299805 0.87614428997039795 0.20324923098087311
0.67857223749160767 0.88053292036056519 0.20115289092063904
0.90595537424087524 0.88947039842605591 0.20213674008846283
0.0093538621440529823 0.0054189646616578102 0.41038540005683899
0.19064077734947205 0.0013774199178442359 0.4039100706577301
0.43395039439201355 0 0.39525362849235535
0.66260606050491333 0.00053333956748247147 0.39268234372138977
0.88071262836456299 0.0011052748886868358 0.39701977372169495
0.002278944943100214 0.20519906282424927 0.40566322207450867
0.1793903112411499 0.19344106316566467 0.4000287652015686
0.4348149299621582 0.18269048631191254 0.39174619317054749
0.65957474708557129 0.18290290236473083 0.38930931687355042
0.875 0.18783409893512726 0.39067739248275757
0 0.42452877759933472 0.40334451198577881
0.17019005119800568 0.41518428921699524 0.39627128839492798
0.43362569808959961 0.4078463613986969 0.38953456282615662
0.66095328330993652 0.4137570858001709 0.3873295783996582
0.87829899787902832 0.41573062539100647 0.39077019691467285
0 0.65106552839279175 0.40944778919219971
0.16928242146968842 0.6433832049369812 0.40406790375709534
0.4283941388130188 0.64065313339233398 0.39925301074981689
0.66597050428390503 0.64602112770080566 0.39993768930435181
0.8886101245880127 0.65119367837905884 0.40382659435272217
0.0014084760332480073 0.88657861948013306 0.42086437344551086
0.18751226365566254 0.87946397066116333 0.41856461763381958
0.43592867255210876 0.87870973348617554 0.41509494185447693
0.67719066143035889 0.88318037986755371 0.41496646404266357
0.90745919942855835 0.89111500978469849 0.41741201281547546
0.0080030849203467369 0.0045455931685864925 0.61346530914306641
0.19127278029918671 0.0013601863756775856 0.60857003927230835
0.42842653393745422 0 0.60684788227081299
0.66614687442779541 0 0.60928648710250854
0.88485676050186157 0 0.61265033483505249
0.0010614731581881642 0.20412556827068329 0.61125338077545166
0.17605184018611908 0.19321446120738983 0.60772061347961426
0.42450255155563354 0.18659673631191254 0.60390865802764893
0.6601300835609436 0.18523280322551727 0.60433906316757202
0.87885099649429321 0.18764699995517731 0.60798299312591553
0 0.42686474323272705 0.61062675714492798
0.16942556202411652 0.41798198223114014 0.60744816064834595
0.43335416913032532 0.41176632046699524 0.60329020023345947
0.66445022821426392 0.41569057106971741 0.60254621505737305
0.8821483850479126 0.41960784792900085 0.60820215940475464
0 0.65491533279418945 0.61530190706253052
0.17290486395359039 0.64762371778488159 0.61219602823257446
0.43945330381393433 0.64439302682876587 0.61005938053131104
0.6706843376159668 0.65137487649917603 0.61187386512756348
0.89208817481994629 0.6556963324546814 0.61979007720947266
0.0036836063954979181 0.88892138004302979 0.62624561786651611
0.19479219615459442 0.88300591707229614 0.62603771686553955
0.4482787549495697 0.88232821226119995 0.6243407130241394
0.68522924184799194 0.88788259029388428 0.62578409910202026
0.91233301162719727 0.89570540189743042 0.63093185424804688
0.0053870854899287224 0.0034773433580994606 0.81810003519058228
0.18735490739345551 0.00091911765048280358 0.81315881013870239
0.41999438405036926 0 0.81500869989395142
0.65935194492340088 0 0.82013440132141113
0.89070087671279907 0 0.82623386383056641
0.00024449964985251427 0.20454622805118561 0.81492060422897339
0.17309024930000305 0.19509223103523254 0.81121218204498291
0.41403985023498535 0.19001609086990356 0.81100195646286011
0.65514707565307617 0.1888212263584137 0.81486612558364868
0.8858330249786377 0.19166892766952515 0.82174408435821533
0 0.4302554726600647 0.81331378221511841
0.16853930056095123 0.42342600226402283 0.80848640203475952
0.42165270447731018 0.41857078671455383 0.8081476092338562
0.66206419467926025 0.41960784792900085 0.8121224045753479
0.88738703727722168 0.42346048355102539 0.82045286893844604
0.0010216656373813748 0.65923041105270386 0.8164944052696228
0.18076635897159576 0.65514707565307617 0.81039190292358398
0.44028925895690918 0.6512255072593689 0.81219220161437988
0.67359691858291626 0.65557348728179932 0.81509345769882202
0.89707696437835693 0.66124719381332397 0.8252142071723938
0.02313925139605999 0.8931891918182373 0.82747870683670044
0.22475399076938629 0.8885301947593689 0.82603687047958374
0.4683133065700531 0.88719964027404785 0.8271978497505188
0.69322657585144043 0.89430779218673706 0.82718133926391602
0.91898715496063232 0.90225166082382202 0.83498543500900269
