assets/lut/jtsemple nostalgiahoney.cube
# Created by: G'MIC (https://gmic.eu)
TITLE "nostalgiahoney"
# LUT size
LUT_3D_SIZE 5
# Data domain
DOMAIN_MIN 0.0 0.0 0.0
DOMAIN_MAX 1.0 1.0 1.0
# LUT data points
0 0 0
0.051611866801977158 0.0031547695398330688 0.00044320797314867377
0.36877891421318054 0 0
0.67727124691009521 0 0
0.96905785799026489 0.0084202932193875313 0
0.00017074884090106934 0.10378278791904449 0
0.1154976487159729 0.12720425426959991 0.0008269815007224679
0.46226829290390015 0.13862526416778564 0
0.77773904800415039 0.15051472187042236 0.0003509521484375
1 0.18382871150970459 0.0074679357931017876
0.0088298572227358818 0.45155981183052063 0.0006245332770049572
0.17000897228717804 0.4625248908996582 0.00543238315731287
0.49248117208480835 0.45758005976676941 0.0022180892992764711
0.79852545261383057 0.46051734685897827 0.012570474296808243
1 0.46294015645980835 0.023219238966703415
0.018035558983683586 0.74611818790435791 0.0078183338046073914
0.19005769491195679 0.74730825424194336 0.018906597048044205
0.48817911744117737 0.73100429773330688 0.0012622160138562322
0.78278708457946777 0.72167074680328369 0.010192063637077808
1 0.71100854873657227 0.010301986709237099
0.03647860512137413 0.98541724681854248 0.025519756600260735
0.22052128612995148 0.98055475950241089 0.019988249987363815
0.47929319739341736 0.96007305383682251 0.0021665983367711306
0.75964146852493286 0.94255322217941284 0
0.99866729974746704 0.93027520179748535 0
0.0026481628883630037 0.0011915469076484442 0.094802752137184143
0.063331201672554016 0.00079131778329610825 0.10509999841451645
0.37944683432579041 0 0.099411338567733765
0.6977611780166626 0 0.11778588593006134
0.98477679491043091 0 0.14885923266410828
5.6547276471974328e-05 0.1139073520898819 0.15564441680908203
0.12376703321933746 0.13750101625919342 0.17990832030773163
0.47735422849655151 0.13625158369541168 0.18107876181602478
0.79257011413574219 0.14398746192455292 0.18874552845954895
1 0.17842401564121246 0.21256276965141296
0.0043143029324710369 0.45929887890815735 0.19833135604858398
0.17099717259407043 0.47064024209976196 0.1994895339012146
0.50022387504577637 0.4647003710269928 0.19829057157039642
0.80602741241455078 0.4696258008480072 0.19667342305183411
1 0.46984210610389709 0.21940061450004578
0.011171452701091766 0.75008666515350342 0.21233236789703369
0.19748091697692871 0.74940311908721924 0.20942820608615875
0.48937520384788513 0.73531609773635864 0.19367052614688873
0.78367781639099121 0.72231966257095337 0.18157503008842468
1 0.71249830722808838 0.19038756191730499
0.03411203995347023 0.98627448081970215 0.2346186637878418
0.22485075891017914 0.97780895233154297 0.21648858487606049
0.48292487859725952 0.95199167728424072 0.18078732490539551
0.75822156667709351 0.93566453456878662 0.15908138453960419
0.99790400266647339 0.92442601919174194 0.14996959269046783
0 0 0.35913765430450439
0.094602979719638824 0 0.37095990777015686
0.38763156533241272 0 0.37743136286735535
0.71270638704299927 0 0.38792577385902405
0.99046564102172852 0 0.40436697006225586
0 0.1293141096830368 0.42502287030220032
0.1374858170747757 0.14934961497783661 0.44237038493156433
0.47950059175491333 0.15505592525005341 0.4510953426361084
0.79900920391082764 0.16603139042854309 0.45164817571640015
1 0.18671335279941559 0.4599740207195282
0 0.46704554557800293 0.46479851007461548
0.16967085003852844 0.46962189674377441 0.46321338415145874
0.49960193037986755 0.46858805418014526 0.46131700277328491
0.81157618761062622 0.4679463803768158 0.45429760217666626
1 0.46963000297546387 0.46312111616134644
0.0011815389152616262 0.74905127286911011 0.47324433922767639
0.18748162686824799 0.74597632884979248 0.46475350856781006
0.48307240009307861 0.73199284076690674 0.4517931342124939
0.78194707632064819 0.72112369537353516 0.4296468198299408
1 0.71349060535430908 0.42729604244232178
0.027561381459236145 0.98337960243225098 0.48466545343399048
0.22136768698692322 0.97435349225997925 0.46532469987869263
0.47826957702636719 0.95043361186981201 0.43929511308670044
0.75094348192214966 0.93202191591262817 0.41259828209877014
0.996165931224823 0.92320317029953003 0.39698028564453125
0 0 0.61231768131256104
0.10533279925584793 0 0.62979614734649658
0.39162865281105042 0 0.6392676830291748
0.71927213668823242 0 0.6485169529914856
0.99132412672042847 0 0.66642278432846069
0 0.13103730976581573 0.69253367185592651
0.14522697031497955 0.15120166540145874 0.71418333053588867
0.47946161031723022 0.15991804003715515 0.71758675575256348
0.80465996265411377 0.17135940492153168 0.72377103567123413
1 0.18831178545951843 0.73195260763168335
0 0.47375637292861938 0.73077797889709473
0.17404258251190186 0.4745643138885498 0.73995840549468994
0.50236052274703979 0.4686274528503418 0.73731005191802979
0.81300491094589233 0.46690821647644043 0.73693561553955078
1 0.46879565715789795 0.73476552963256836
0 0.75183302164077759 0.7357795238494873
0.17606866359710693 0.74639111757278442 0.73086869716644287
0.48441055417060852 0.72966623306274414 0.71807068586349487
0.77740085124969482 0.71779990196228027 0.70631033182144165
1 0.70865809917449951 0.70062875747680664
0.011740830726921558 0.98161762952804565 0.73645377159118652
0.20875987410545349 0.97270673513412476 0.71903985738754272
0.47509008646011353 0.94539833068847656 0.69767063856124878
0.74618077278137207 0.92612373828887939 0.67671102285385132
0.99342483282089233 0.91841179132461548 0.65921145677566528
0.00095038319705054164 0 0.84471529722213745
0.10914755612611771 0 0.86375224590301514
0.39573720097541809 0 0.87502217292785645
0.71610081195831299 0.0065419063903391361 0.87924784421920776
0.99258720874786377 0 0.90774667263031006
0.0007909138803370297 0.15053845942020416 0.9213259220123291
0.14973226189613342 0.16442400217056274 0.94202321767807007
0.48497354984283447 0.15757760405540466 0.94939541816711426
0.81425255537033081 0.16814233362674713 0.95513135194778442
0.99988853931427002 0.1907159835100174 0.9697527289390564
0.00040031882235780358 0.46929818391799927 0.95974451303482056
0.18489311635494232 0.47627535462379456 0.96526503562927246
0.50135201215744019 0.46914982795715332 0.96179097890853882
0.8147699236869812 0.46604710817337036 0.95880520343780518
1 0.47092804312705994 0.96032577753067017
0 0.74392664432525635 0.96724444627761841
0.17788343131542206 0.74411356449127197 0.96028715372085571
0.47542130947113037 0.72791963815689087 0.94377118349075317
0.77406352758407593 0.71491307020187378 0.93334794044494629
0.99986052513122559 0.70648998022079468 0.93056941032409668
0.0057223751209676266 0.97860252857208252 0.96255820989608765
0.19984510540962219 0.97122597694396973 0.94717603921890259
0.46898040175437927 0.94056069850921631 0.92395836114883423
0.74205666780471802 0.92275369167327881 0.90896522998809814
0.98831379413604736 0.91458451747894287 0.89873450994491577
