assets/lut/jtsemple minimalistcaffeination.cube
# Created by: G'MIC (https://gmic.eu)
TITLE "minimalistcaffeination"
# LUT size
LUT_3D_SIZE 13
# Data domain
DOMAIN_MIN 0.0 0.0 0.0
DOMAIN_MAX 1.0 1.0 1.0
# LUT data points
0 0 0
0.00048362882807850838 0 0
0.031261712312698364 0 0
0.099585451185703278 0 0
0.17827416956424713 0 0
0.25967100262641907 0 0
0.34226757287979126 0 0
0.42385980486869812 0 0
0.50386470556259155 0 0
0.58067142963409424 0 0
0.65547478199005127 0 0
0.72932523488998413 0 0
0.80387461185455322 0 0
0.00045798806240782142 0.0082706380635499954 2.5670668037491851e-05
0.00078739837044849992 0.0097875408828258514 0.00041753731784410775
0.035313505679368973 0.0078263524919748306 0.0003329408064018935
0.10489905625581741 0.0077925287187099457 0
0.18088515102863312 0.010153152979910374 0
0.26057019829750061 0.0091739576309919357 0
0.3432164192199707 0.0045924019068479538 0
0.42687544226646423 0.00090007408289238811 0
0.50848174095153809 0 0.00032205021125264466
0.58629238605499268 0 4.2006548028439283e-05
0.66126877069473267 0 0
0.73503220081329346 8.5239786130841821e-05 0
0.80916780233383179 0.001825863728299737 0.00052235921612009406
0.00031563252559863031 0.058316145092248917 6.5343519963789731e-05
0.00057775457389652729 0.057920001447200775 0.00025495642330497503
0.03337840735912323 0.056781455874443054 5.3869509429205209e-05
0.10422065854072571 0.055767431855201721 0
0.18094374239444733 0.055250909179449081 0
0.26035389304161072 0.051450002938508987 0
0.34378117322921753 0.043273370712995529 0
0.42928236722946167 0.033014573156833649 0
0.51323193311691284 0.024835757911205292 0
0.59301024675369263 0.021943170577287674 0
0.66939002275466919 0.022506564855575562 0
0.74335193634033203 0.025621496140956879 0
0.81733733415603638 0.035066492855548859 0.0013718249974772334
0 0.12719929218292236 0.0012115179561078548
0.00051384721882641315 0.12515009939670563 0.0006881863228045404
0.030783664435148239 0.12335392087697983 9.0744913904927671e-05
0.10004383325576782 0.11906471848487854 0
0.1786169707775116 0.11687855422496796 0
0.25941985845565796 0.1127007007598877 0
0.34503120183944702 0.10522030293941498 0
0.43240106105804443 0.097020767629146576 0
0.51895296573638916 0.090570546686649323 0
0.60186028480529785 0.08799947053194046 0
0.68066501617431641 0.088592544198036194 0
0.75593298673629761 0.092189401388168335 0
0.83056753873825073 0.10226177424192429 7.0010914896556642e-06
0 0.19436702132225037 0.0057839038781821728
0.0046849716454744339 0.19330012798309326 0.0057504540309309959
0.038348060101270676 0.19080117344856262 0.0035245409235358238
0.10162663459777832 0.18693707883358002 0.00042265350930392742
0.17852646112442017 0.18579298257827759 0
0.26109445095062256 0.18410155177116394 0
0.34891039133071899 0.18017569184303284 0
0.43878453969955444 0.17540541291236877 0
0.52798151969909668 0.17194569110870361 0
0.61361372470855713 0.17128886282444 0
0.6950681209564209 0.17406569421291351 0
0.77271902561187744 0.1799062192440033 0
0.8474152684211731 0.19155038893222809 0
0.00070779840461909771 0.26417699456214905 0.0094595067203044891
0.011832383461296558 0.26496055722236633 0.010733705013990402
0.045114524662494659 0.26522061228752136 0.007805543951690197
0.10369424521923065 0.26495984196662903 0.0017994450172409415
0.18009042739868164 0.26529222726821899 0
0.26600170135498047 0.265616774559021 0
0.35713475942611694 0.26494109630584717 0
0.44966161251068115 0.26403149962425232 0
0.54112941026687622 0.26417860388755798 0
0.62899410724639893 0.26696622371673584 0
0.71259379386901855 0.2728877067565918 0
0.79165959358215332 0.28175133466720581 0
0.86773562431335449 0.29426473379135132 0
0.0016833585686981678 0.34304565191268921 0.0075574237853288651
0.015492652542889118 0.34652361273765564 0.011510108597576618
0.047743525356054306 0.35026556253433228 0.010449981316924095
0.10596078634262085 0.35301461815834045 0.0034484562929719687
0.18443083763122559 0.35533657670021057 3.2312731491401792e-05
0.27456963062286377 0.35750380158424377 0
0.36938661336898804 0.3596002459526062 0
0.46439477801322937 0.36191141605377197 9.6923227829392999e-05
0.55780965089797974 0.36563235521316528 0.0018498589051887393
0.64742165803909302 0.37214270234107971 0.0014540429692715406
0.73238813877105713 0.38147595524787903 0.00021739286603406072
0.8124045729637146 0.39330783486366272 0.00013535443576984107
0.88889455795288086 0.40666383504867554 0.00078313489211723208
0.00096535775810480118 0.43425554037094116 0.0015519384760409594
0.016450187191367149 0.43908113241195679 0.0055896984413266182
0.050637621432542801 0.44488608837127686 0.0087864147499203682
0.11104224622249603 0.45006173849105835 0.0037758771795779467
0.19355536997318268 0.45432767271995544 4.5955883251735941e-05
0.28717842698097229 0.45832449197769165 0
0.38514992594718933 0.46279773116111755 0
0.48223543167114258 0.46813169121742249 0.00074578082421794534
0.57722347974777222 0.47501644492149353 0.0056766285561025143
0.66793626546859741 0.48455303907394409 0.0050802193582057953
0.75345396995544434 0.49660018086433411 0.0020235995762050152
0.83350890874862671 0.51058405637741089 0.0015567255904898047
0.90976685285568237 0.52415746450424194 0.003069320460781455
0.0019998888019472361 0.53439033031463623 0
0.023380473256111145 0.54018509387969971 0.00053338444558903575
0.062721759080886841 0.54721426963806152 0.0024703680537641048
0.12588398158550262 0.55381745100021362 0.0017209521029144526
0.20967258512973785 0.55952942371368408 4.5955883251735941e-05
0.30452084541320801 0.56500422954559326 0
0.40375971794128418 0.57129347324371338 0
0.50224405527114868 0.5790247917175293 0.0011641558958217502
0.59807103872299194 0.58827358484268188 0.0047681471332907677
0.68896645307540894 0.59946215152740479 0.0057410444132983685
0.77422499656677246 0.6123008131980896 0.0041485805995762348
0.85426962375640869 0.62693703174591064 0.0040185814723372459
0.92998576164245605 0.6402738094329834 0.0058789718896150589
0.0067804525606334209 0.63925790786743164 0
0.037590805441141129 0.64600521326065063 0
0.084100343286991119 0.65369051694869995 8.1499885709490627e-05
0.14977796375751495 0.66108661890029907 0.00032276826095767319
0.23271182179450989 0.66747021675109863 6.4625460254319478e-06
0.32646548748016357 0.67351967096328735 3.7698184769396903e-06
0.42497524619102478 0.68059492111206055 0.00021505917538888752
0.52380365133285522 0.68924790620803833 0.001583593082614243
0.61944109201431274 0.6991468071937561 0.0038850372657179832
0.70985066890716553 0.7104610800743103 0.0051662069745361805
0.7942013144493103 0.72247219085693359 0.0055180569179356098
0.8730846643447876 0.7352367639541626 0.0064704893156886101
0.94808226823806763 0.74628573656082153 0.0095333624631166458
0.018172724172472954 0.74613207578659058 0
0.057257857173681259 0.75354015827178955 0
0.10972375422716141 0.7615278959274292 0
0.17739342153072357 0.76876527070999146 2.423454679956194e-05
0.25920924544334412 0.77496957778930664 0.0005345961544662714
0.35109323263168335 0.7807692289352417 0.00076329847797751427
0.44809424877166748 0.78708714246749878 0.0011749267578125
0.54564517736434937 0.79486793279647827 0.0019412769470363855
0.64061492681503296 0.803844153881073 0.0034560258500277996
0.72993111610412598 0.81370347738265991 0.0048575755208730698
0.81270647048950195 0.82420635223388672 0.0064179515466094017
0.89018541574478149 0.8343958854675293 0.0092775383964180946
0.96427649259567261 0.84321421384811401 0.013482696376740932
0.034798476845026016 0.85314428806304932 0
0.07973809540271759 0.86027932167053223 0
0.13637605309486389 0.86772066354751587 0
0.20591357350349426 0.87438064813613892 0.00023103601415641606
0.28702762722969055 0.8797566294670105 0.0012867647456005216
0.37657260894775391 0.88451129198074341 0.0018232756992802024
0.47146311402320862 0.88944113254547119 0.0021001179702579975
0.56737130880355835 0.89523428678512573 0.0025409774389117956
0.66086679697036743 0.90203177928924561 0.0032258427236229181
0.7483828067779541 0.91004860401153564 0.0044897790066897869
0.82919859886169434 0.91882264614105225 0.0074664694257080555
0.90564441680908203 0.92751485109329224 0.011841493658721447
0.97729671001434326 0.9349934458732605 0.01784801110625267
0.055140551179647446 0.9581979513168335 0
0.10425437241792679 0.96360856294631958 0
0.16383270919322968 0.96892642974853516 2.3336971935350448e-05
0.23411694169044495 0.97325462102890015 0.0010399313177913427
0.31422033905982971 0.97653770446777344 0.0024920892901718616
0.40166199207305908 0.97894918918609619 0.0037534227594733238
0.49339497089385986 0.98101449012756348 0.0043448954820632935
0.58689838647842407 0.98355239629745483 0.0043145571835339069
0.6780058741569519 0.9865720272064209 0.0043559805490076542
0.76381981372833252 0.99001157283782959 0.0057243946939706802
0.84364235401153564 0.9930838942527771 0.0096276374533772469
0.91877371072769165 0.99599611759185791 0.015192488208413124
0.98650282621383667 0.99756759405136108 0.02261861227452755
8.3818624261766672e-05 0 0.0021967270877212286
0.00081092986511066556 0 0.0014038535300642252
0.032675635069608688 0 0.0037544849328696728
0.099033758044242859 0 0.0065586166456341743
0.17772464454174042 0 0.0038311078678816557
0.26000156998634338 0 0.0012132233241572976
0.34263825416564941 0 0.0023452758323401213
0.42372229695320129 0 0.0064630098640918732
0.5033612847328186 0 0.010989350266754627
0.57982420921325684 0 0.010753212496638298
0.65501886606216431 0 0.0077087702229619026
0.72907459735870361 0 0.0050844228826463223
0.80339896678924561 0.00010735006799222901 0.0062032365240156651
0.00075339520117267966 0.010597917251288891 0.0019307454349473119
0.00048297058674506843 0.0094744367524981499 0.0011932970955967903
0.032384071499109268 0.0069580376148223877 0.0033449807669967413
0.10137994587421417 0.0078934468328952789 0.0077247018925845623
0.17787277698516846 0.0097448611631989479 0.0061419466510415077
0.25861510634422302 0.0083000482991337776 0.0034605138935148716
0.34197041392326355 0.0049701016396284103 0.0035603542346507311
0.42539104819297791 0.0020620757713913918 0.0068228477612137794
0.50706493854522705 0.00049827428301796317 0.010342930443584919
0.58545559644699097 0.00016932768630795181 0.0093571832403540611
0.66101324558258057 0.00049103383207693696 0.0067965490743517876
0.73534327745437622 0.0027155857533216476 0.0067910589277744293
0.80943220853805542 0.010500754229724407 0.010416142642498016
0.00016141404921654612 0.059604346752166748 0.00042373058386147022
0.00028435201966203749 0.057747110724449158 0.00087317673023790121
0.03014921210706234 0.05690726637840271 0.0026524113491177559
0.10019011795520782 0.05649731308221817 0.0064271963201463223
0.177093505859375 0.053927656263113022 0.004718780517578125
0.25721469521522522 0.048967368900775909 0.001932241371832788
0.34152665734291077 0.043093260377645493 0.0016273049404844642
0.42723587155342102 0.036593973636627197 0.0026347290258854628
0.51150810718536377 0.03062204085290432 0.0041469051502645016
0.59234678745269775 0.028220202773809433 0.0036796419881284237
0.66982316970825195 0.030463200062513351 0.002497115870937705
0.74452108144760132 0.037305869162082672 0.0038059009239077568
0.8186376690864563 0.050209343433380127 0.010297602973878384
0 0.12724246084690094 0.0050502554513514042
0.0010486677056178451 0.1254083663225174 0.0057814652100205421
0.032487202435731888 0.12411470711231232 0.0065486682578921318
0.099116258323192596 0.12091009318828583 0.0057872249744832516
0.1757655143737793 0.1174767017364502 0.0014986523892730474
0.25707349181175232 0.11287971585988998 3.2417447073385119e-05
0.34291338920593262 0.10649313777685165 2.8632668545469642e-05
0.43085706233978271 0.10067388415336609 7.010067201917991e-05
0.51825672388076782 0.095291391015052795 0.000459169881651178
0.60242855548858643 0.093329377472400665 0.00057017005747184157
0.68220525979995728 0.096123456954956055 0.00019516290922183543
0.75808650255203247 0.10204816609621048 0.00084357167361304164
0.83220994472503662 0.11417237669229507 0.0042959772981703281
0 0.19592460989952087 0.016768541187047958
0.0051021203398704529 0.19511209428310394 0.016525642946362495
0.039811842143535614 0.19319987297058105 0.014443805441260338
0.10231257230043411 0.18981030583381653 0.0089387781918048859
0.17798872292041779 0.18793357908725739 0.0022522571962326765
0.26047572493553162 0.18641003966331482 0.00030475691892206669
0.3485260009765625 0.18259274959564209 0.00022116268519312143
0.43880167603492737 0.1794486939907074 0.00027266857796348631
0.52879077196121216 0.1764712780714035 0.00080805760808289051
0.61567854881286621 0.17646481096744537 0.0010534997563809156
0.69799196720123291 0.18043960630893707 0.00088334927568212152
0.7751498818397522 0.18719208240509033 0.0018880506977438927
0.84995871782302856 0.19923059642314911 0.0045307534746825695
0.00019261977286078036 0.26744064688682556 0.025734188035130501
0.011121787130832672 0.26853692531585693 0.025690235197544098
0.045997634530067444 0.26911035180091858 0.022394321858882904
0.10508012771606445 0.26837509870529175 0.0147310895845294
0.1813858300447464 0.26836088299751282 0.005640755407512188
0.26767510175704956 0.2682948112487793 0.0022231906186789274
0.3590729832649231 0.26795545220375061 0.0022052540443837643
0.45192381739616394 0.26796567440032959 0.0038753882981836796
0.54385417699813843 0.26895993947982788 0.0064745736308395863
0.63251441717147827 0.27179667353630066 0.0075556584633886814
0.71610790491104126 0.27776038646697998 0.0080896113067865372
0.7948378324508667 0.28638982772827148 0.010869343765079975
0.86981028318405151 0.29893305897712708 0.017075033858418465
0.0007234461372718215 0.34790554642677307 0.027295654639601707
0.015185561962425709 0.35126140713691711 0.03009529784321785
0.049942750483751297 0.35485002398490906 0.028043350204825401
0.10906489938497543 0.35750892758369446 0.019790768623352051
0.18798443675041199 0.35966968536376953 0.0082828300073742867
0.27857553958892822 0.36145371198654175 0.0028986013494431973
0.37363460659980774 0.3638463020324707 0.0039629917591810226
0.4687214195728302 0.36720514297485352 0.011121189221739769
0.56245940923690796 0.37163397669792175 0.019747102633118629
0.65235000848770142 0.37783071398735046 0.021364623680710793
0.73708003759384155 0.38602012395858765 0.020682420581579208
0.81603288650512695 0.39675933122634888 0.024924019351601601
0.89133733510971069 0.4096735417842865 0.033364091068506241
0.00073529413202777505 0.43934720754623413 0.020391605794429779
0.017529431730508804 0.44470027089118958 0.026972990483045578
0.055193882435560226 0.45079314708709717 0.029366347938776016
0.11661894619464874 0.45619538426399231 0.023086173459887505
0.19872348010540009 0.4603525698184967 0.010903512127697468
0.29299795627593994 0.46435260772705078 0.0036404479760676622
0.39067801833152771 0.46905487775802612 0.0058212727308273315
0.48800051212310791 0.47564777731895447 0.018649980425834656
0.58309906721115112 0.48328408598899841 0.03100229986011982
0.67386800050735474 0.49163460731506348 0.033812861889600754
0.75891590118408203 0.5016058087348938 0.032290216535329819
0.83797496557235718 0.51376116275787354 0.036358237266540527
0.91252243518829346 0.5262177586555481 0.045087449252605438
0.0016159955412149429 0.53980988264083862 0.0088754240423440933
0.024267174303531647 0.54687118530273438 0.017865244299173355
0.066870413720607758 0.55482971668243408 0.025547461584210396
0.13127370178699493 0.56193679571151733 0.02465788833796978
0.21484661102294922 0.56780505180358887 0.016539869830012321
0.31019771099090576 0.57328838109970093 0.010670351795852184
0.40976348519325256 0.58001118898391724 0.014125569723546505
0.50886958837509155 0.5886002779006958 0.026778247207403183
0.60460758209228516 0.5987318754196167 0.03848826140165329
0.69524472951889038 0.60878276824951172 0.042971126735210419
0.7796480655670166 0.61863631010055542 0.043417509645223618
0.85797464847564697 0.63026946783065796 0.047195777297019958
0.93209594488143921 0.64129984378814697 0.054967302829027176
0.0055035310797393322 0.64587175846099854 0.002141227014362812
0.037139233201742172 0.65447449684143066 0.0090504661202430725
0.085627809166908264 0.66358977556228638 0.019700398668646812
0.15283785760402679 0.67144489288330078 0.025173844769597054
0.23649315536022186 0.67774492502212524 0.024393389001488686
0.33119243383407593 0.68374872207641602 0.022859117016196251
0.43037468194961548 0.69078618288040161 0.026537712663412094
0.52962422370910645 0.69979071617126465 0.035545304417610168
0.62555593252182007 0.71052545309066772 0.044572390615940094
0.71558815240859985 0.72038346529006958 0.049842264503240585
0.79886293411254883 0.72952055931091309 0.052968341857194901
0.87614709138870239 0.73902434110641479 0.05719299241900444
0.94906711578369141 0.74746185541152954 0.064928792417049408
0.014336260966956615 0.75391602516174316 0.00066365260863676667
0.0545223169028759 0.7632681131362915 0.0067561729811131954
0.10870502144098282 0.77279359102249146 0.018106691539287567
0.17817080020904541 0.78081738948822021 0.028123205527663231
0.26137915253639221 0.78663218021392822 0.032613176852464676
0.35446405410766602 0.79161369800567627 0.034458503127098083
0.45229348540306091 0.79731655120849609 0.037743885070085526
0.5506206750869751 0.80467385053634644 0.042969647794961929
0.64557099342346191 0.81349843740463257 0.048691079020500183
0.73430335521697998 0.82202285528182983 0.05400308221578598
0.81579345464706421 0.82997357845306396 0.059148181229829788
0.89156776666641235 0.83756446838378906 0.065265655517578125
0.96391922235488892 0.84417641162872314 0.07349521666765213
0.029431555420160294 0.86183661222457886 0.0028343051671981812
0.075397863984107971 0.87082004547119141 0.0099287144839763641
0.1335923820734024 0.87948542833328247 0.022329546511173248
0.20467099547386169 0.88653987646102905 0.034186463803052902
0.28727173805236816 0.89125597476959229 0.04088287428021431
0.37849181890487671 0.89467364549636841 0.04443562775850296
0.47396031022071838 0.89834803342819214 0.046831242740154266
0.57030314207077026 0.90307754278182983 0.049250569194555283
0.66410762071609497 0.90894794464111328 0.052171744406223297
0.75086218118667603 0.91531920433044434 0.056926488876342773
0.83039230108261108 0.9221610426902771 0.063993982970714569
0.90519028902053833 0.92877733707427979 0.072149254381656647
0.97580194473266602 0.93468761444091797 0.081343285739421844
0.048281874507665634 0.96511006355285645 0.010533321648836136
0.098326198756694794 0.97146093845367432 0.019014650955796242
0.15947766602039337 0.97706782817840576 0.031295999884605408
0.2314649224281311 0.98070627450942993 0.04253794252872467
0.31293711066246033 0.9829181432723999 0.04983050748705864
0.40166452527046204 0.98432964086532593 0.053710352629423141
0.49494749307632446 0.98550480604171753 0.055509351193904877
0.58815628290176392 0.98714452981948853 0.05661526694893837
0.67946833372116089 0.98926287889480591 0.05804525688290596
0.76452499628067017 0.99128764867782593 0.062322624027729034
0.8427162766456604 0.99361157417297363 0.070121973752975464
0.91661900281906128 0.99597293138504028 0.079013317823410034
0.98434734344482422 0.99742519855499268 0.088451862335205078
0.00026254093972966075 2.3336971935350448e-05 0.044023089110851288
0.0019597969949245453 0 0.039455458521842957
0.033275961875915527 0 0.043677549809217453
0.097354114055633545 0 0.049121960997581482
0.17551027238368988 2.0225375919835642e-05 0.045450501143932343
0.25854620337486267 4.5507094910135493e-05 0.037879358977079391
0.34174194931983948 0 0.03904208168387413
0.42250257730484009 0 0.043372135609388351
0.50137776136398315 0 0.045925453305244446
0.57814294099807739 0 0.044199012219905853
0.65343743562698364 0 0.039962515234947205
0.72828847169876099 0.00014458451187238097 0.035250764340162277
0.80277228355407715 0.004299552645534277 0.035902839154005051
0.0009173374273814261 0.0083551295101642609 0.039096187800168991
0.00025157554773613811 0.007341332733631134 0.036481671035289764
0.027171250432729721 0.0069269067607820034 0.04042091965675354
0.094008050858974457 0.0076067904010415077 0.046227280050516129
0.17271293699741364 0.0070729721337556839 0.044874079525470734
0.25488054752349854 0.0036007151938974857 0.041230116039514542
0.33925735950469971 0.0033375609200447798 0.039034824818372726
0.42319896817207336 0.002778281457722187 0.040317833423614502
0.50446385145187378 0.0013723336160182953 0.041550714522600174
0.58288633823394775 0.000901270832400769 0.04038512334227562
0.65948200225830078 0.0024682588409632444 0.037510007619857788
0.73467534780502319 0.010117758996784687 0.035737700760364532
0.80948907136917114 0.025564709678292274 0.040244203060865402
1.5946930943755433e-05 0.057170405983924866 0.030151337385177612
0 0.056017361581325531 0.032282423228025436
0.024624094367027283 0.055966425687074661 0.036730494350194931
0.093795984983444214 0.053463641554117203 0.040770318359136581
0.17208541929721832 0.048308026045560837 0.037760116159915924
0.25339534878730774 0.041586633771657944 0.033384092152118683
0.33847609162330627 0.039069995284080505 0.031801380217075348
0.42467513680458069 0.037282727658748627 0.032149206846952438
0.50888383388519287 0.033386647701263428 0.033834926784038544
0.590259850025177 0.031226692721247673 0.03381824865937233
0.66859608888626099 0.036083653569221497 0.032752435654401779
0.74452346563339233 0.047910053282976151 0.034840647131204605
0.81952452659606934 0.064699389040470123 0.042602028697729111
0 0.12522362172603607 0.03522104024887085
0.00083639106014743447 0.12518802285194397 0.03759479895234108
0.031488936394453049 0.12466743588447571 0.039702009409666061
0.097631223499774933 0.1207234114408493 0.038126733154058456
0.1734335720539093 0.11470836400985718 0.029886955395340919
0.25458595156669617 0.10865306109189987 0.023523353040218353
0.34097129106521606 0.10378651320934296 0.02327117882668972
0.42914092540740967 0.1006312221288681 0.023906603455543518
0.51650017499923706 0.096627451479434967 0.02711169607937336
0.6012381911277771 0.095099717378616333 0.028039161115884781
0.68190497159957886 0.10017607361078262 0.028098311275243759
0.75853663682937622 0.11025132983922958 0.032914180308580399
0.83371585607528687 0.12566179037094116 0.043119199573993683
0 0.19580276310443878 0.047206595540046692
0.0048998664133250713 0.19632317125797272 0.04757976159453392
0.039716023951768875 0.19570697844028473 0.046529881656169891
0.10123901069164276 0.19260919094085693 0.04143606498837471
0.17662245035171509 0.18918149173259735 0.03315010666847229
0.25993087887763977 0.18520456552505493 0.027998561039566994
0.34816843271255493 0.18187236785888672 0.027845360338687897
0.43848302960395813 0.17999966442584991 0.027866078540682793
0.52878022193908691 0.17840565741062164 0.030951391905546188
0.6160462498664856 0.17910049855709076 0.033349353820085526
0.69891071319580078 0.18431355059146881 0.035383649170398712
0.7768288254737854 0.19294539093971252 0.043189957737922668
0.85094302892684937 0.2066577821969986 0.054119512438774109
0 0.26952400803565979 0.05643216148018837
0.010581042617559433 0.2718513011932373 0.05671590194106102
0.046376083046197891 0.27255284786224365 0.05442383885383606
0.10592878609895706 0.27204751968383789 0.048504535108804703
0.18233340978622437 0.27100196480751038 0.041358094662427902
0.26881128549575806 0.26928064227104187 0.038533933460712433
0.36032727360725403 0.26849237084388733 0.040444977581501007
0.45346194505691528 0.27017980813980103 0.04239775612950325
0.545249342918396 0.27166041731834412 0.045709092170000076
0.63434410095214844 0.27559232711791992 0.049341194331645966
0.71811681985855103 0.28170955181121826 0.054982759058475494
0.79622828960418701 0.29033446311950684 0.066765636205673218
0.87143087387084961 0.303274005651474 0.079407744109630585
0.00046799602569080889 0.35189008712768555 0.06008128821849823
0.015118138864636421 0.35547229647636414 0.062000006437301636
0.052480179816484451 0.3591817319393158 0.060747094452381134
0.1125696524977684 0.36188539862632751 0.055036894977092743
