assets/lut/jtsemple crispromance.cube
# Created by: G'MIC (https://gmic.eu)
TITLE "crispromance"
# LUT size
LUT_3D_SIZE 7
# Data domain
DOMAIN_MIN 0.0 0.0 0.0
DOMAIN_MAX 1.0 1.0 1.0
# LUT data points
5.834242983837612e-05 0.00072829303098842502 0.0020497341174632311
0.065191783010959625 0.0022540821228176355 5.7594450481701642e-05
0.24086065590381622 0.0011383056407794356 0
0.42749196290969849 0 0.00011668485967675224
0.61432218551635742 0 0.0044033722952008247
0.78408384323120117 0.013321596197783947 0
0.9240460991859436 0.049247201532125473 0
0 0.10503071546554565 0
0.084387592971324921 0.10628880560398102 0
0.26320734620094299 0.10672727227210999 0
0.4566895067691803 0.10135167092084885 0
0.64631021022796631 0.098433025181293488 0
0.82398557662963867 0.11787892132997513 0.00017053940973710269
0.96905326843261719 0.16480422019958496 0.0038744907360523939
0.0001035802488331683 0.28382095694541931 0.0010979147627949715
0.10259951651096344 0.2873593270778656 0.00026227167109027505
0.28667464852333069 0.28929471969604492 0.00027142692124471068
0.48865434527397156 0.29331454634666443 0.00066384708043187857
0.68605029582977295 0.29840773344039917 0.0015672271838411689
0.87236738204956055 0.31093445420265198 0.0089715998619794846
0.99824166297912598 0.34763500094413757 0.030337059870362282
0.0024021074641495943 0.48660627007484436 0.0050935032777488232
0.13316546380519867 0.49764901399612427 0.0049426509067416191
0.32846081256866455 0.5097888708114624 0.0088530443608760834
0.53655695915222168 0.52045702934265137 0.013088480569422245
0.73455017805099487 0.53499090671539307 0.018922723829746246
0.92078518867492676 0.5569758415222168 0.040308170020580292
1 0.58674836158752441 0.074534878134727478
0.018266715109348297 0.71145617961883545 0.025900179520249367
0.19313512742519379 0.73089408874511719 0.036316186189651489
0.40168967843055725 0.74689096212387085 0.051913019269704819
0.61293703317642212 0.75987184047698975 0.06170196458697319
0.81253361701965332 0.78399527072906494 0.075086243450641632
0.98011273145675659 0.80069726705551147 0.1013309583067894
1 0.82766759395599365 0.13123582303524017
0.093654975295066833 0.94350737333297729 0.097446173429489136
0.28760093450546265 0.95452064275741577 0.11649977415800095
0.49683544039726257 0.95776355266571045 0.13241094350814819
0.7023165225982666 0.96461999416351318 0.14274796843528748
0.88508546352386475 0.98505479097366333 0.15706983208656311
0.99720460176467896 0.98768270015716553 0.17785143852233887
1 0.99688667058944702 0.19449111819267273
0.19570612907409668 1 0.18575835227966309
0.38654056191444397 1 0.20072093605995178
0.58741956949234009 1 0.21249374747276306
0.78346031904220581 1 0.22105160355567932
0.95375728607177734 1 0.22902235388755798
1 1 0.2408575713634491
1 1 0.24956449866294861
0.00011298983736196533 0.00059480854542925954 0.090910986065864563
0.068557366728782654 0.0091543309390544891 0.09800226241350174
0.24550598859786987 0.0027224670629948378 0.10079670697450638
0.43038469552993774 0 0.10184980183839798
0.61718684434890747 0 0.098408445715904236
0.78735482692718506 0.0049939621239900589 0.081072278320789337
0.93118852376937866 0.035965908318758011 0.10208762437105179
0 0.10571961104869843 0.11793199181556702
0.088641315698623657 0.11169961839914322 0.12641541659832001
0.26578125357627869 0.10936059057712555 0.12107425928115845
0.46093922853469849 0.10531976819038391 0.11557844281196594
0.65073168277740479 0.096857480704784393 0.11303561180830002
0.82483768463134766 0.10149563103914261 0.12030860781669617
0.97121047973632812 0.15219077467918396 0.14889121055603027
0.0022296682000160217 0.28436195850372314 0.14166547358036041
0.10770172625780106 0.29069852828979492 0.14209602773189545
0.28967112302780151 0.29230323433876038 0.1461634486913681
0.49258887767791748 0.29662972688674927 0.15204864740371704
0.68921345472335815 0.30015674233436584 0.15496291220188141
0.87291765213012695 0.30876931548118591 0.17038321495056152
0.99797230958938599 0.3474196195602417 0.20330895483493805
0.0039446214213967323 0.48669981956481934 0.17081108689308167
0.13387548923492432 0.4997577965259552 0.17305944859981537
0.3291262686252594 0.5133853554725647 0.18716660141944885
0.53913718461990356 0.52357631921768188 0.20034514367580414
0.73755121231079102 0.53980183601379395 0.21195177733898163
0.91998457908630371 0.56424224376678467 0.23381216824054718
1 0.5911327600479126 0.26520299911499023
0.02257181890308857 0.71760785579681396 0.22525361180305481
0.19410976767539978 0.73662477731704712 0.23488697409629822
0.40351420640945435 0.75623422861099243 0.25532698631286621
0.61737704277038574 0.76705241203308105 0.27211734652519226
0.8164370059967041 0.78445243835449219 0.28871443867683411
0.97698122262954712 0.8032233715057373 0.31338939070701599
1 0.82912403345108032 0.33943420648574829
0.10199317336082458 0.95195025205612183 0.3136717677116394
0.29035541415214539 0.961231529712677 0.32433012127876282
0.50156956911087036 0.96992272138595581 0.34268015623092651
0.70894402265548706 0.97409725189208984 0.35795339941978455
0.89457321166992188 0.97495144605636597 0.37374734878540039
0.99889284372329712 0.98012036085128784 0.39359936118125916
1 0.99613195657730103 0.40997549891471863
0.20057165622711182 1 0.39487272500991821
0.39144611358642578 1 0.40781354904174805
0.59400737285614014 1 0.42003887891769409
0.7902488112449646 1 0.43172299861907959
0.95755857229232788 1 0.44399651885032654
1 1 0.45506489276885986
1 1 0.45925390720367432
4.5237822632770985e-05 0.00029117360827513039 0.30072072148323059
0.059234693646430969 0.0083747263997793198 0.30279383063316345
0.23062148690223694 0.0017129785846918821 0.29926612973213196
0.42319828271865845 0 0.2949584424495697
0.61270236968994141 0 0.29386913776397705
0.78550738096237183 0 0.29964748024940491
0.93221539258956909 0.020765969529747963 0.31153315305709839
0.0063468185253441334 0.10642338544130325 0.33416545391082764
0.086585327982902527 0.11055506020784378 0.33587092161178589
0.25715219974517822 0.10907261818647385 0.33344647288322449
0.45648801326751709 0.10001228004693985 0.33021309971809387
0.65030735731124878 0.088345468044281006 0.33105218410491943
0.82685667276382446 0.097522825002670288 0.34158587455749512
0.9716726541519165 0.15366457402706146 0.35943913459777832
0.011206174269318581 0.28125599026679993 0.35354411602020264
0.11179423332214355 0.28806623816490173 0.35751980543136597
0.28882735967636108 0.29321998357772827 0.36349594593048096
0.49295446276664734 0.29643112421035767 0.36898687481880188
0.69194751977920532 0.30079036951065063 0.37379109859466553
0.87378597259521484 0.31592392921447754 0.38721269369125366
0.99690651893615723 0.35666084289550781 0.41052496433258057
0.0067746629938483238 0.48729905486106873 0.38178440928459167
0.1397472470998764 0.50330406427383423 0.39104747772216797
0.33425527811050415 0.51820147037506104 0.40540677309036255
0.54430830478668213 0.52815467119216919 0.41948246955871582
0.74499553442001343 0.54492336511611938 0.43250218033790588
0.92020660638809204 0.56628710031509399 0.44986248016357422
1 0.59389328956604004 0.47302013635635376
0.027066832408308983 0.71680814027786255 0.43737733364105225
0.20106831192970276 0.74155610799789429 0.45262584090232849
0.41059750318527222 0.76289921998977661 0.47204867005348206
0.62245184183120728 0.77146321535110474 0.490925133228302
0.81905347108840942 0.78746205568313599 0.50851404666900635
0.96452420949935913 0.80448538064956665 0.52673792839050293
0.99993437528610229 0.82534307241439819 0.54613518714904785
0.10909707844257355 0.94372963905334473 0.51853710412979126
0.29740935564041138 0.95853567123413086 0.53242534399032593
0.50667256116867065 0.97175866365432739 0.55031341314315796
0.70845925807952881 0.97923862934112549 0.56624948978424072
0.8909497857093811 0.98293513059616089 0.58210104703903198
0.99705100059509277 0.98215091228485107 0.59788388013839722
0.99882012605667114 0.99720174074172974 0.61106818914413452
0.20434798300266266 1 0.59063529968261719
0.39470040798187256 1 0.60323446989059448
0.59378039836883545 1 0.61376917362213135
0.78519809246063232 1 0.62604081630706787
0.95425117015838623 0.99983078241348267 0.64097493886947632
1 1 0.65083926916122437
1 1 0.65163755416870117
4.0929458918981254e-05 0 0.49968016147613525
0.069765515625476837 0.00042975929682143033 0.50367492437362671
0.22720661759376526 0 0.50054246187210083
0.41835841536521912 0 0.49757561087608337
0.60942810773849487 0 0.50038820505142212
0.78504592180252075 1.1488970812933985e-05 0.51199537515640259
0.93453598022460938 0.022630130872130394 0.52174371480941772
0.00098410213831812143 0.10464112460613251 0.53402209281921387
0.082028754055500031 0.10933274030685425 0.53872025012969971
0.25530600547790527 0.10579600930213928 0.54079961776733398
0.45619621872901917 0.097891941666603088 0.53848040103912354
0.65006357431411743 0.094837993383407593 0.54164749383926392
0.83017253875732422 0.11318643391132355 0.55662888288497925
0.97515964508056641 0.1660645604133606 0.56973302364349365
0.0014476103242486715 0.28434151411056519 0.55462050437927246
0.10435450077056885 0.29104453325271606 0.56322884559631348
0.29148241877555847 0.29684647917747498 0.57130295038223267
0.49773052334785461 0.30135652422904968 0.57316642999649048
0.69416910409927368 0.31083518266677856 0.57963061332702637
0.87995404005050659 0.33333432674407959 0.5963742733001709
0.99807369709014893 0.37265807390213013 0.61510103940963745
0.0033251144923269749 0.49488946795463562 0.58154726028442383
0.13899384438991547 0.50908452272415161 0.59433233737945557
0.34153658151626587 0.52472150325775146 0.60598814487457275
0.55134326219558716 0.53742331266403198 0.61520677804946899
0.75103557109832764 0.55703628063201904 0.62773960828781128
0.93438589572906494 0.5804174542427063 0.6455962061882019
1 0.60692018270492554 0.66638559103012085
0.035443175584077835 0.72938114404678345 0.6348450779914856
0.21144025027751923 0.74813306331634521 0.64991474151611328
0.42276051640510559 0.76602721214294434 0.66305452585220337
0.63081037998199463 0.77771157026290894 0.67308223247528076
0.82330131530761719 0.79428565502166748 0.68951213359832764
0.97747087478637695 0.81186211109161377 0.70506531000137329
0.99996107816696167 0.83170855045318604 0.722309410572052
0.1208483949303627 0.94971239566802979 0.70168066024780273
0.30950528383255005 0.96030569076538086 0.71457093954086304
0.51649260520935059 0.9628605842590332 0.72339522838592529
0.71620762348175049 0.96671962738037109 0.73175054788589478
0.9012417197227478 0.9780731201171875 0.74533736705780029
0.99975913763046265 0.98925435543060303 0.76097053289413452
0.99538546800613403 0.99654972553253174 0.77217954397201538
0.21001115441322327 1 0.76591205596923828
0.40003970265388489 1 0.77422940731048584
0.59746891260147095 1 0.77656406164169312
0.78603023290634155 0.99997782707214355 0.78436422348022461
0.9563063383102417 0.99807024002075195 0.79646509885787964
1 1 0.8111579418182373
1 1 0.81397944688796997
0 0 0.67603319883346558
0.077220633625984192 0 0.68201714754104614
0.231978639960289 0 0.68113106489181519
0.42167124152183533 0 0.67820018529891968
0.61136919260025024 0 0.67957222461700439
0.78580838441848755 7.5396369538793806e-06 0.68683183193206787
0.93559318780899048 0.013745446689426899 0.69118428230285645
0 0.1027967557311058 0.70884084701538086
0.088437654078006744 0.10569348931312561 0.7137945294380188
0.26115524768829346 0.10387787222862244 0.71543002128601074
0.46278795599937439 0.10235034674406052 0.71352159976959229
0.6580803394317627 0.10540493577718735 0.72146904468536377
0.83836185932159424 0.12139847874641418 0.73743689060211182
0.98032641410827637 0.16750988364219666 0.74726015329360962
0.0001294304383918643 0.28824970126152039 0.729056715965271
0.11027691513299942 0.29520317912101746 0.7369573712348938
0.30013391375541687 0.30290263891220093 0.74271184206008911
0.50882065296173096 0.30960088968276978 0.74318093061447144
0.70723843574523926 0.32171326875686646 0.7568737268447876
0.88778173923492432 0.34503349661827087 0.77937185764312744
0.99729639291763306 0.38219034671783447 0.79327511787414551
0.0035717235878109932 0.50383603572845459 0.75027787685394287
0.14982552826404572 0.51753294467926025 0.76334166526794434
0.35215538740158081 0.53519302606582642 0.77167117595672607
0.5633203387260437 0.54815816879272461 0.77809250354766846
0.76488417387008667 0.56804782152175903 0.791839599609375
0.93854403495788574 0.59412896633148193 0.81535720825195312
1 0.61960774660110474 0.83634215593338013
0.039264515042304993 0.74174422025680542 0.79493457078933716
0.2232477068901062 0.7603258490562439 0.80981278419494629
0.43577456474304199 0.77808576822280884 0.81725770235061646
0.64375710487365723 0.78561806678771973 0.82338368892669678
0.83412641286849976 0.80176019668579102 0.83582144975662231
0.98168838024139404 0.82043355703353882 0.85375076532363892
1 0.84447330236434937 0.87635457515716553
0.1312711089849472 0.97201895713806152 0.85879921913146973
0.32114389538764954 0.97824108600616455 0.86877208948135376
0.53139746189117432 0.98107326030731201 0.87251359224319458
0.72642123699188232 0.98229938745498657 0.87733793258666992
0.90766638517379761 0.98748159408569336 0.88817012310028076
0.99996858835220337 0.99446785449981689 0.9053342342376709
0.99914288520812988 0.99688875675201416 0.92035543918609619
0.21566370129585266 1 0.92293202877044678
0.40687757730484009 1 0.92194753885269165
0.60490351915359497 0.99999380111694336 0.91993367671966553
0.79646134376525879 0.99558871984481812 0.92752057313919067
0.96732234954833984 0.99813151359558105 0.93863946199417114
1 0.99842363595962524 0.95690524578094482
0.99967634677886963 0.99840301275253296 0.95705682039260864
9.5322553534060717e-05 0 0.83325648307800293
0.081566862761974335 0 0.83930599689483643
0.23564217984676361 0.00016964183305390179 0.83663463592529297
0.4297831654548645 0.0037218132056295872 0.83196651935577393
0.61628872156143188 0.00045100192073732615 0.82925200462341309
0.78476691246032715 0 0.82532417774200439
0.93546640872955322 0.0061249379068613052 0.82235836982727051
0.002561846049502492 0.10265161842107773 0.86374616622924805
0.099687598645687103 0.10811667144298553 0.86369794607162476
0.26515263319015503 0.11744578927755356 0.86182838678359985
0.4692179262638092 0.1247754693031311 0.86225646734237671
0.66783785820007324 0.11785366386175156 0.87249904870986938
0.84983360767364502 0.11889151483774185 0.88180142641067505
0.99105525016784668 0.16144733130931854 0.88467216491699219
0.0036849675234407187 0.29510787129402161 0.88166791200637817
0.12655983865261078 0.30442598462104797 0.88354384899139404
0.30907100439071655 0.31424111127853394 0.88816756010055542
0.51853424310684204 0.32265573740005493 0.88999444246292114
0.72286301851272583 0.33116129040718079 0.90724402666091919
0.89972841739654541 0.34955048561096191 0.92564398050308228
0.99798375368118286 0.38583570718765259 0.9273868203163147
0.007725689560174942 0.5148160457611084 0.90082621574401855
0.16412042081356049 0.53095030784606934 0.90638798475265503
0.36376047134399414 0.54580420255661011 0.92137467861175537
0.57393884658813477 0.5600886344909668 0.92751240730285645
0.77864593267440796 0.58034461736679077 0.93987566232681274
0.93991881608963013 0.60294872522354126 0.96359288692474365
0.99960619211196899 0.62688171863555908 0.96132665872573853
0.044083837419748306 0.75120037794113159 0.9432671070098877
0.23382723331451416 0.77231365442276001 0.95036166906356812
0.4456278383731842 0.78679102659225464 0.96209090948104858
0.65417349338531494 0.7979007363319397 0.97158676385879517
0.84854400157928467 0.81242638826370239 0.97378003597259521
0.9815564751625061 0.83047538995742798 0.98710924386978149
1 0.84816640615463257 0.99538743495941162
0.14057163894176483 0.96734774112701416 0.98748695850372314
0.32973870635032654 0.97704106569290161 0.99592047929763794
0.53856581449508667 0.97989284992218018 0.99675518274307251
0.73480737209320068 0.98757344484329224 0.99498927593231201
0.91280287504196167 0.99135023355484009 0.99901777505874634
0.99994611740112305 0.99741280078887939 0.99968475103378296
1 0.99738693237304688 1
0.22238799929618835 1 1
0.41365864872932434 1 1
0.61215531826019287 1 1
0.80336916446685791 0.99718427658081055 1
0.96886688470840454 0.99775731563568115 1
1 1 1
1 1 1
0.0021321764215826988 0 0.96585547924041748
0.087424106895923615 0 0.97264474630355835
0.24038317799568176 0.0040654949843883514 0.96871256828308105
0.43664434552192688 0.023868022486567497 0.95999413728713989
0.62051582336425781 0.0086517632007598877 0.95186668634414673
0.78666788339614868 0.0015544666675850749 0.93925613164901733
0.93154597282409668 0.012344794347882271 0.9244534969329834
0.0172920823097229 0.10995127260684967 0.98990797996520996
0.11576159298419952 0.11650974303483963 0.99001133441925049
0.27414131164550781 0.13722449541091919 0.98804140090942383
0.47599625587463379 0.15249879658222198 0.98686611652374268
0.6735871434211731 0.13826221227645874 0.98912531137466431
0.85363566875457764 0.13854625821113586 0.98479568958282471
0.98951858282089233 0.17707216739654541 0.97318023443222046
0.020604779943823814 0.30840364098548889 0.99560004472732544
0.15220499038696289 0.31893593072891235 0.99538236856460571
0.32592543959617615 0.33240953087806702 0.99687939882278442
0.52956485748291016 0.34297049045562744 0.99748116731643677
0.73537552356719971 0.34789243340492249 0.99883604049682617
0.91470038890838623 0.36548194289207458 0.99905776977539062
1 0.40066671371459961 0.99511516094207764
0.028140213340520859 0.53014767169952393 0.99917834997177124
0.19211803376674652 0.5463569164276123 0.99854737520217896
0.38520842790603638 0.56043684482574463 1
0.59080809354782104 0.57509583234786987 1
0.7965691089630127 0.59336906671524048 1
0.96672898530960083 0.61628258228302002 1
1 0.64143902063369751 0.99880760908126831
0.07139916718006134 0.76510101556777954 1
0.25610452890396118 0.78403294086456299 0.99945765733718872
0.46095061302185059 0.79578310251235962 1
0.6682707667350769 0.80553758144378662 1
0.86237937211990356 0.82023495435714722 1
0.99350148439407349 0.83803188800811768 1
1 0.86196726560592651 0.99972522258758545
0.15654996037483215 0.97923088073730469 1
0.34094119071960449 0.98411184549331665 0.99953395128250122
0.54481661319732666 0.97791773080825806 1
0.74489951133728027 0.98533183336257935 1
0.91977995634078979 0.99594813585281372 0.99965149164199829
1 0.99813652038574219 1
1 1 0.99995142221450806
0.23409996926784515 1 1
0.42105719447135925 1 1
0.618674635887146 1 1
0.81211847066879272 1 1
0.97666388750076294 0.99970752000808716 0.99941068887710571
1 1 1
1 1 1
