assets/lut/jtsemple brightgreen.cube
# Created by: G'MIC (https://gmic.eu)
TITLE "brightgreen"
# LUT size
LUT_3D_SIZE 5
# Data domain
DOMAIN_MIN 0.0 0.0 0.0
DOMAIN_MAX 1.0 1.0 1.0
# LUT data points
0 0 0
0.02137400396168232 0 0
0.2580934464931488 0 0
0.52847194671630859 0 0
0.81143593788146973 0 0
0.00056708842748776078 0.067109830677509308 0.0033842497505247593
0.048543579876422882 0.084654085338115692 0.00035256778937764466
0.30949532985687256 0.090352617204189301 0
0.58298999071121216 0.094559855759143829 0.00063729379326105118
0.86298215389251709 0.12583845853805542 0
0.001155853271484375 0.35238352417945862 0
0.0989503413438797 0.37037962675094604 0
0.36411774158477783 0.3911837637424469 0
0.64804756641387939 0.40641987323760986 0
0.93082815408706665 0.4128032922744751 0
0.035360854119062424 0.64830946922302246 0
0.18341216444969177 0.67086851596832275 0
0.43728280067443848 0.68748456239700317 0
0.72165614366531372 0.69965189695358276 0
0.98952877521514893 0.71097105741500854 0.010699552483856678
0.094096437096595764 0.94357156753540039 0.022582873702049255
0.27680346369743347 0.96185845136642456 0.0099329780787229538
0.52534776926040649 0.96831268072128296 0.0097474940121173859
0.79925912618637085 0.97078567743301392 0.012863294221460819
1 0.97883975505828857 0.042570136487483978
0 0.00013302073057275265 0.0057001598179340363
0.018839562311768532 0.00042453841888345778 0.01433976087719202
0.25812917947769165 0.00033955293474718928 0.02488790825009346
0.52673161029815674 0 0.036173518747091293
0.808582603931427 0.0012512506218627095 0.03545258566737175
0.0025166829582303762 0.069872014224529266 0.034310106188058853
0.055890761315822601 0.08621649444103241 0.043163597583770752
0.30872824788093567 0.09781888872385025 0.051341261714696884
0.58452516794204712 0.099318154156208038 0.057630814611911774
0.8695981502532959 0.11298727989196777 0.078592546284198761
3.2312730127159739e-06 0.35663586854934692 0.072502195835113525
0.10072936862707138 0.37464484572410583 0.088271975517272949
0.36881324648857117 0.3961741030216217 0.099684692919254303
0.65225023031234741 0.41206970810890198 0.11523603647947311
0.93733745813369751 0.41923320293426514 0.122923843562603
0.0091895014047622681 0.65464586019515991 0.12474744021892548
0.1655711829662323 0.67698752880096436 0.13694213330745697
0.43714284896850586 0.69340622425079346 0.14942730963230133
0.72659158706665039 0.70540094375610352 0.16181547939777374
0.99102330207824707 0.71291649341583252 0.18867690861225128
0.047976713627576828 0.94802463054656982 0.22776727378368378
0.24659407138824463 0.96553134918212891 0.22628104686737061
0.52030318975448608 0.97084349393844604 0.23654553294181824
0.8001478910446167 0.9736328125 0.24105465412139893
1 0.97954475879669189 0.26004743576049805
0 0 0.24161429703235626
0.020033353939652443 0 0.26353934407234192
0.25458410382270813 0 0.27375471591949463
0.53176051378250122 0.0024602403864264488 0.27653264999389648
0.81833606958389282 0.0014214908005669713 0.2828775942325592
0 0.086272716522216797 0.28702613711357117
0.060062810778617859 0.088934943079948425 0.30423513054847717
0.30890753865242004 0.10280226171016693 0.31793171167373657
0.58668249845504761 0.1123255267739296 0.32794862985610962
0.87409055233001709 0.11826282739639282 0.33580824732780457
0 0.35978126525878906 0.32632982730865479
0.10496773570775986 0.38142937421798706 0.35300865769386292
0.36863821744918823 0.39745306968688965 0.369545578956604
0.6549186110496521 0.40712445974349976 0.38227596879005432
0.94096136093139648 0.41202414035797119 0.39713051915168762
0.002953443443402648 0.65912044048309326 0.3909991979598999
0.16723860800266266 0.67983609437942505 0.41407972574234009
0.44044530391693115 0.69444006681442261 0.42980113625526428
0.72854757308959961 0.70473283529281616 0.44104635715484619
0.9914819598197937 0.70997244119644165 0.45350301265716553
0.032939866185188293 0.9529680609703064 0.47794786095619202
0.23970320820808411 0.96642601490020752 0.49506396055221558
0.5206596851348877 0.97113972902297974 0.5118178129196167
0.80236959457397461 0.97349494695663452 0.51448166370391846
1 0.9785006046295166 0.51864391565322876
0 0 0.48385331034660339
0.061333134770393372 0 0.50311720371246338
0.26639428734779358 0 0.51537615060806274
0.53827172517776489 0 0.52173084020614624
0.8232300877571106 0 0.52561277151107788
0 0.088621489703655243 0.53101664781570435
0.065247617661952972 0.089396335184574127 0.54891633987426758
0.30621355772018433 0.1097797155380249 0.56397402286529541
0.5909426212310791 0.12398418039083481 0.57526314258575439
0.87610435485839844 0.11092206090688705 0.57981401681900024
0 0.36389416456222534 0.57956552505493164
0.11424985527992249 0.38368025422096252 0.60052245855331421
0.37529158592224121 0.40153837203979492 0.61658203601837158
0.66341632604598999 0.41843351721763611 0.62785798311233521
0.94615012407302856 0.41929799318313599 0.63714540004730225
0.0055349310860037804 0.66732454299926758 0.64243048429489136
0.17855916917324066 0.68618452548980713 0.66407853364944458
0.44995716214179993 0.70074540376663208 0.67923986911773682
0.7365797758102417 0.71022647619247437 0.68765664100646973
0.99341946840286255 0.71281987428665161 0.69406849145889282
0.038618605583906174 0.96167266368865967 0.71241205930709839
0.24671143293380737 0.97237080335617065 0.73325103521347046
0.52168446779251099 0.97732698917388916 0.74716579914093018
0.80854302644729614 0.97778421640396118 0.75131344795227051
1 0.98080694675445557 0.75328779220581055
0.011392855085432529 0 0.71690702438354492
0.11582011729478836 0 0.73088711500167847
0.3098967969417572 0 0.74176406860351562
0.56497859954833984 0 0.74930739402770996
0.84561151266098022 0 0.75635159015655518
0.0071451971307396889 0.081155054271221161 0.76281839609146118
0.11275743693113327 0.099597141146659851 0.77738094329833984
0.3336089551448822 0.11852934956550598 0.78928059339523315
0.60652345418930054 0.12291651964187622 0.79811418056488037
0.88977473974227905 0.12297680228948593 0.80636203289031982
0.00019369686197023839 0.36526373028755188 0.80855381488800049
0.13690191507339478 0.38526228070259094 0.82590901851654053
0.38932645320892334 0.40677171945571899 0.83922260999679565
0.67169809341430664 0.41913589835166931 0.84814894199371338
0.95156288146972656 0.41896027326583862 0.85692059993743896
0.0005030015017837286 0.6740119457244873 0.86264890432357788
0.18305420875549316 0.69017201662063599 0.8830903172492981
0.45731967687606812 0.70534735918045044 0.89771300554275513
0.74393332004547119 0.71500742435455322 0.90390044450759888
0.99471747875213623 0.71872788667678833 0.90942579507827759
0.043570306152105331 0.96813559532165527 0.93342292308807373
0.25615814328193665 0.97767734527587891 0.95011401176452637
0.52986270189285278 0.9824683666229248 0.96244519948959351
0.81766438484191895 0.9845811128616333 0.96619021892547607
1 0.98734724521636963 0.97094863653182983
