assets/lut/jtsemple lushgreensummer.cube
# Created by: G'MIC (https://gmic.eu)
TITLE "lushgreensummer"
# LUT size
LUT_3D_SIZE 5
# Data domain
DOMAIN_MIN 0.0 0.0 0.0
DOMAIN_MAX 1.0 1.0 1.0
# LUT data points
0 0 0
0.077817432582378387 0 0.0011290606344118714
0.37304297089576721 0 0
0.65923112630844116 0 0
0.90018284320831299 0.00014935662329662591 0
0 0.11720476299524307 0
0.099011361598968506 0.10955426096916199 0.001133593381382525
0.39390438795089722 0.092424102127552032 0.00011571248614927754
0.68602389097213745 0.098878391087055206 0
0.92886656522750854 0.11255735158920288 0
0.00043085135985165834 0.36478883028030396 0
0.12268808484077454 0.36072999238967896 0
0.41716256737709045 0.35012704133987427 0
0.72598397731781006 0.3594357967376709 0
0.97653394937515259 0.38272538781166077 0
0.040139365941286087 0.64547812938690186 0
0.19466544687747955 0.6536552906036377 0.00019172219617757946
0.48732909560203552 0.65856832265853882 3.1235638743964955e-05
0.80763441324234009 0.67002511024475098 0
1 0.68507742881774902 0
0.11988505721092224 0.94287145137786865 0.022014439105987549
0.3138878345489502 0.95210558176040649 0.034709256142377853
0.60145896673202515 0.95508205890655518 0.032013207674026489
0.90552657842636108 0.95467758178710938 0.02044963464140892
1 0.96112948656082153 0.032588373869657516
8.2262828072998673e-05 0 0.061308152973651886
0.077123291790485382 0 0.073163814842700958
0.36681792140007019 0 0.055951856076717377
0.66191309690475464 3.195369936292991e-05 0.044949818402528763
0.89634376764297485 0 0.055196590721607208
0.00031563252559863031 0.11835527420043945 0.063343718647956848
0.095393098890781403 0.10901652276515961 0.064346060156822205
0.38959074020385742 0.090614989399909973 0.059081088751554489
0.68814599514007568 0.087362147867679596 0.060791105031967163
0.92596274614334106 0.081174932420253754 0.067365832626819611
0 0.36026060581207275 0.05051962286233902
0.10067952424287796 0.36002799868583679 0.067457191646099091
0.41648185253143311 0.35912448167800903 0.062338408082723618
0.72873777151107788 0.36264815926551819 0.071325071156024933
0.97677701711654663 0.38296419382095337 0.096019268035888672
0.021928092464804649 0.64193356037139893 0.067654475569725037
0.18242952227592468 0.65503978729248047 0.103604756295681
0.49607935547828674 0.6651032567024231 0.10903891921043396
0.81079626083374023 0.67851465940475464 0.12323934584856033
1 0.69805192947387695 0.15558570623397827
0.088067866861820221 0.94133847951889038 0.18778052926063538
0.30684679746627808 0.95072394609451294 0.20487603545188904
0.6146429181098938 0.95570492744445801 0.21222543716430664
0.90980273485183716 0.95834094285964966 0.21863351762294769
1 0.96543163061141968 0.24336765706539154
0 4.434024594957009e-05 0.32613012194633484
0.073275186121463776 0 0.33147701621055603
0.34986037015914917 0 0.31399139761924744
0.64298760890960693 0 0.30131524801254272
0.88444703817367554 0 0.31524550914764404
0.0008999992860481143 0.120683453977108 0.33035197854042053
0.090740755200386047 0.11152031272649765 0.32853502035140991
0.37536245584487915 0.081826992332935333 0.32084003090858459
0.67661362886428833 0.070772476494312286 0.31787833571434021
0.92336130142211914 0.0848708376288414 0.33984905481338501
0 0.3589215874671936 0.31094425916671753
0.10225047916173935 0.36644196510314941 0.32231771945953369
0.41178971529006958 0.36501654982566833 0.32775053381919861
0.7282986044883728 0.37040558457374573 0.34313783049583435
0.98077303171157837 0.38167685270309448 0.37696611881256104
0.00043563841609284282 0.64767336845397949 0.33942955732345581
0.17244379222393036 0.66601681709289551 0.36338403820991516
0.49581068754196167 0.67493563890457153 0.37948635220527649
0.80801808834075928 0.68628227710723877 0.4056936502456665
1 0.69540441036224365 0.43733391165733337
0.042554952204227448 0.9478946328163147 0.45537662506103516
0.29017466306686401 0.95752584934234619 0.47454074025154114
0.61885696649551392 0.9574781060218811 0.48677420616149902
0.90723317861557007 0.95686465501785278 0.49960297346115112
1 0.96304792165756226 0.5202135443687439
0 0 0.61809784173965454
0.065030068159103394 0 0.62682193517684937
0.33083850145339966 0 0.61450237035751343
0.63489401340484619 0 0.60964000225067139
0.86929291486740112 0 0.61499464511871338
0 0.11057578027248383 0.62313354015350342
0.067028909921646118 0.10211168229579926 0.63255572319030762
0.36455652117729187 0.091036580502986908 0.62546819448471069
0.66690599918365479 0.078544929623603821 0.62505704164505005
0.90699023008346558 0.082511767745018005 0.64543229341506958
0 0.35767894983291626 0.61137759685516357
0.087580963969230652 0.3698304295539856 0.63078004121780396
0.40980875492095947 0.36959955096244812 0.64217746257781982
0.72127777338027954 0.37164580821990967 0.65845972299575806
0.97853368520736694 0.39024102687835693 0.68750667572021484
0 0.65159159898757935 0.6454852819442749
0.15840525925159454 0.6707770824432373 0.67478948831558228
0.48932978510856628 0.67995893955230713 0.69133144617080688
0.79933339357376099 0.68889755010604858 0.71091324090957642
0.99999517202377319 0.69616979360580444 0.73995119333267212
0.038839690387248993 0.95209401845932007 0.74980729818344116
0.27469310164451599 0.9618755578994751 0.78001135587692261
0.60307127237319946 0.95970451831817627 0.78984057903289795
0.90156394243240356 0.95724093914031982 0.80464774370193481
1 0.96303063631057739 0.81518375873565674
0 0 0.8948172926902771
0.064367316663265228 0.0014920104295015335 0.90073674917221069
0.31405830383300781 0 0.88717323541641235
0.61596691608428955 0 0.88709753751754761
0.86516803503036499 6.0676124121528119e-05 0.89942270517349243
0.00061201205244287848 0.10879898071289062 0.89439976215362549
0.074181713163852692 0.10754925757646561 0.90057218074798584
0.35257884860038757 0.0801873579621315 0.89080691337585449
0.65841245651245117 0.090598985552787781 0.89892828464508057
0.90980607271194458 0.12733384966850281 0.9233696460723877
0 0.36331528425216675 0.87990796566009521
0.079275928437709808 0.37149256467819214 0.89520770311355591
0.40295600891113281 0.3689732551574707 0.91201949119567871
0.7194705605506897 0.37992972135543823 0.92879879474639893
0.97811579704284668 0.40954220294952393 0.95628243684768677
0.0071024876087903976 0.66134756803512573 0.90632349252700806
0.16877113282680511 0.68106448650360107 0.93553811311721802
0.49108627438545227 0.68669337034225464 0.95412153005599976
0.80143213272094727 0.69438087940216064 0.96004003286361694
0.99986857175827026 0.70725148916244507 0.985756516456604
0.085356391966342926 0.95915979146957397 0.99196934700012207
0.29788890480995178 0.96508646011352539 0.9994429349899292
0.61046737432479858 0.96085673570632935 0.99982118606567383
0.89983642101287842 0.95512765645980835 0.99812495708465576
1 0.96675556898117065 1
