assets/lut/jtsemple nostalgiahoney.cube
# Created by: G'MIC (https://gmic.eu)
TITLE "nostalgiahoney"
# LUT size
LUT_3D_SIZE 13
# Data domain
DOMAIN_MIN 0.0 0.0 0.0
DOMAIN_MAX 1.0 1.0 1.0
# LUT data points
0 0 0
0 0 0
0.00061693380121141672 0.0010797239374369383 0
0.051611866801977158 0.0031547695398330688 0.00044320797314867377
0.15735732018947601 0.00038953294279053807 3.9672850107308477e-05
0.26379406452178955 0 0
0.36877891421318054 0 0
0.47298529744148254 0 0
0.5757642388343811 0 0
0.67727124691009521 0 0
0.77723652124404907 0.0013283523730933666 0
0.87574493885040283 0.0056681465357542038 0
0.96905785799026489 0.0084202932193875313 0
0 0 0
0 0 0
0.0058139278553426266 3.1115963793126866e-05 0
0.074592649936676025 2.1975647541694343e-05 0.00027226467500440776
0.18127785623073578 0 7.7789906072212034e-07
0.28977206349372864 0 0
0.39965304732322693 0.00029109881143085659 0
0.50737321376800537 0.00021589690004475415 9.8733344202628359e-06
0.61221897602081299 0.00033388324663974345 9.2809343186672777e-05
0.71549421548843384 0.006426583044230938 0
0.81574499607086182 0.024370379745960236 0
0.91319191455841064 0.039536822587251663 0
0.99090957641601562 0.049309257417917252 0
0.00065596337663009763 0.013072054833173752 0
0 0.014083817601203918 0
0.01230957917869091 0.016382031142711639 0
0.098523281514644623 0.015211965888738632 0
0.20605266094207764 0.016750261187553406 0
0.31766143441200256 0.025959508493542671 0
0.43223434686660767 0.039297740906476974 0
0.54266846179962158 0.040589604526758194 3.6800607631448656e-05
0.64813786745071411 0.042280398309230804 0.00065941904904320836
0.75174343585968018 0.059202127158641815 0
0.85125863552093506 0.078929498791694641 2.6927275030175224e-05
0.94627809524536133 0.094208888709545135 0.00048720414633862674
0.99931925535202026 0.10705307871103287 0.0017596675315871835
0.00017074884090106934 0.10378278791904449 0
0.00065202900441363454 0.11185672134160995 3.8775277062086388e-05
0.02273121289908886 0.12088239938020706 0.00019073486328125
0.1154976487159729 0.12720425426959991 0.0008269815007224679
0.23193995654582977 0.1301354318857193 0.0010352639947086573
0.34843742847442627 0.13467793166637421 0.00024719239445403218
0.46226829290390015 0.13862526416778564 0
0.57102370262145996 0.13895995914936066 0
0.67510676383972168 0.14064164459705353 7.880715565988794e-05
0.77773904800415039 0.15051472187042236 0.0003509521484375
0.87636369466781616 0.16180640459060669 0.0015536140417680144
0.96893393993377686 0.17280052602291107 0.0041735931299626827
1 0.18382871150970459 0.0074679357931017876
0.00089812930673360825 0.22134803235530853 0.00024826946901157498
0.012427879497408867 0.23234039545059204 0.0013888789108023047
0.052519809454679489 0.24284517765045166 0.0028731552883982658
0.13844849169254303 0.25160762667655945 0.0044828527607023716
0.25062134861946106 0.25587889552116394 0.003770102746784687
0.36773213744163513 0.25560241937637329 0.0018047258490696549
0.4801599383354187 0.25223970413208008 0.00079525215551257133
0.58624815940856934 0.2494032084941864 0.00076509366044774652
0.68804931640625 0.2501499354839325 0.0015955008566379547
0.78999298810958862 0.2549993097782135 0.0031295178923755884
0.88995391130447388 0.26117664575576782 0.0059884614311158657
0.97969591617584229 0.26772579550743103 0.010234743356704712
1 0.27419540286064148 0.014461981132626534
0.0041586332954466343 0.33860740065574646 0.00085072236834093928
0.028905022889375687 0.34795495867729187 0.0023132923524826765
0.077186942100524902 0.3554835319519043 0.0044509735889732838
0.15741397440433502 0.36078399419784546 0.0054680919274687767
0.2620692253112793 0.36316439509391785 0.0046733333729207516
0.37634077668190002 0.3618827760219574 0.0032885384280234575
0.48834776878356934 0.35832706093788147 0.0021103203762322664
0.59372836351394653 0.35640203952789307 0.0026391721330583096
0.6949310302734375 0.35735124349594116 0.0046882927417755127
0.79613626003265381 0.3602459728717804 0.0079003879800438881
0.89597660303115845 0.36414945125579834 0.012097676284611225
0.98357188701629639 0.36757606267929077 0.016709301620721817
1 0.36905869841575623 0.020389078184962273
0.0088298572227358818 0.45155981183052063 0.0006245332770049572
0.041597194969654083 0.45774489641189575 0.0022670072503387928
0.093387007713317871 0.46109846234321594 0.004581705667078495
0.17000897228717804 0.4625248908996582 0.00543238315731287
0.26964986324310303 0.462668776512146 0.0047039557248353958
0.38115993142127991 0.46053743362426758 0.0030603297054767609
0.49248117208480835 0.45758005976676941 0.0022180892992764711
0.59775310754776001 0.45674794912338257 0.0036098107229918242
0.69863808155059814 0.4583095908164978 0.0071167591959238052
0.79852545261383057 0.46051734685897827 0.012570474296808243
0.89688688516616821 0.46315181255340576 0.017618546262383461
0.98380213975906372 0.46411031484603882 0.021260520443320274
1 0.46294015645980835 0.023219238966703415
0.01268635131418705 0.55803632736206055 0.0007381663890555501
0.050779692828655243 0.56177979707717896 0.0029372421558946371
0.10478373616933823 0.56253206729888916 0.0060109905898571014
0.17946645617485046 0.56145668029785156 0.0072799683548510075
0.27525120973587036 0.55948412418365479 0.0052265990525484085
0.38424140214920044 0.55632805824279785 0.0021966523490846157
0.49459841847419739 0.55319720506668091 0.0011943144490942359
0.59882634878158569 0.55213326215744019 0.002905617468059063
0.69868499040603638 0.55279195308685303 0.0080113429576158524
0.79634445905685425 0.55393499135971069 0.015570756047964096
0.89290255308151245 0.55457597970962524 0.021208325400948524
0.98067116737365723 0.55365663766860962 0.022855183109641075
1 0.55068939924240112 0.022727817296981812
0.015269140712916851 0.65566235780715942 0.0028296825475990772
0.057431809604167938 0.65883058309555054 0.0059386906214058399
0.11272893846035004 0.65901821851730347 0.0099625382572412491
0.18567146360874176 0.65721607208251953 0.011558113619685173
0.27764946222305298 0.65384125709533691 0.008129374124109745
0.38464859127998352 0.64910989999771118 0.0023500330280512571
0.49410548806190491 0.64462602138519287 0.00037123737274669111
0.59644490480422974 0.64212709665298462 0.0019167582504451275
0.69463628530502319 0.64120829105377197 0.0073037240654230118
0.7906804084777832 0.64077818393707275 0.015693828463554382
0.88537633419036865 0.63948017358779907 0.020113881677389145
0.97455072402954102 0.63682115077972412 0.019430272281169891
1 0.6330878734588623 0.01798960380256176
0.018035558983683586 0.74611818790435791 0.0078183338046073914
0.063179761171340942 0.74894309043884277 0.011497542262077332
0.11953024566173553 0.7491602897644043 0.016269369050860405
0.19005769491195679 0.74730825424194336 0.018906597048044205
0.27782633900642395 0.74339175224304199 0.014426317065954208
0.38137519359588623 0.73711544275283813 0.0051550772041082382
0.48817911744117737 0.73100429773330688 0.0012622160138562322
0.5900910496711731 0.72655761241912842 0.0016788258217275143
0.68769222497940063 0.7236335277557373 0.0051236920990049839
0.78278708457946777 0.72167074680328369 0.010192063637077808
0.87639927864074707 0.71849155426025391 0.012744829058647156
0.96697312593460083 0.71503102779388428 0.011735743843019009
1 0.71100854873657227 0.010301986709237099
0.022280465811491013 0.83143907785415649 0.01453501358628273
0.070419639348983765 0.83355528116226196 0.017894251272082329
0.12777113914489746 0.83326560258865356 0.021773364394903183
0.19736634194850922 0.83078896999359131 0.023402448743581772
0.28172600269317627 0.82587301731109619 0.018057625740766525
0.37941598892211914 0.81872987747192383 0.0082455649971961975
0.4818854033946991 0.81150031089782715 0.0027675405144691467
0.58229851722717285 0.80545675754547119 0.0015729118604212999
0.67960441112518311 0.80115658044815063 0.0024942285381257534
0.77438783645629883 0.79762727022171021 0.0039425571449100971
0.86725366115570068 0.79376840591430664 0.004583949688822031
0.95802897214889526 0.78940606117248535 0.0039351671002805233
1 0.78550463914871216 0.003435980062931776
0.028484195470809937 0.91260457038879395 0.021038144826889038
0.079144872725009918 0.91391181945800781 0.022541569545865059
0.13851161301136017 0.91201305389404297 0.023393353447318077
0.20844508707523346 0.90866070985794067 0.02245057001709938
0.28998956084251404 0.90242165327072144 0.016400177031755447
0.3818935751914978 0.89477843046188354 0.0082347048446536064
0.47899678349494934 0.88706529140472412 0.0029775432776659727
0.57641434669494629 0.88053232431411743 0.0012424244778230786
0.67222082614898682 0.87517076730728149 0.00085951859364286065
0.76642048358917236 0.87057805061340332 0.0006634880555793643
0.85868316888809204 0.86623978614807129 0.00048612707178108394
0.94902956485748291 0.8619539737701416 0.00037213493487797678
0.999927818775177 0.85813164710998535 0.00012637868348974735
0.03647860512137413 0.98541724681854248 0.025519756600260735
0.089677505195140839 0.98535788059234619 0.025090355426073074
0.15081614255905151 0.98378485441207886 0.023321263492107391
0.22052128612995148 0.98055475950241089 0.019988249987363815
0.29969990253448486 0.97513866424560547 0.013382197357714176
0.38698479533195496 0.96802014112472534 0.0065520941279828548
0.47929319739341736 0.96007305383682251 0.0021665983367711306
0.57296133041381836 0.95315331220626831 0.00043622186058200896
0.66689664125442505 0.94746309518814087 0
0.75964146852493286 0.94255322217941284 0
0.85104191303253174 0.93787497282028198 0
0.94080591201782227 0.93368542194366455 0
0.99866729974746704 0.93027520179748535 0
0 0 0
0 0.00021897858823649585 0
0.0021545558702200651 0.0047192294150590897 2.1392223061411642e-05
0.059209384024143219 0.0056393491104245186 0.00034227556898258626
0.16050954163074493 0.0011570500209927559 0.00036891861236654222
0.26686754822731018 0 1.0696111530705821e-05
0.37382739782333374 0 0
0.47988054156303406 0 0.00046096503501757979
0.5834430456161499 0 0.0016013351269066334
0.68467247486114502 0 0.00074434466660022736
0.78390264511108398 0.0022501028142869473 0.00023531446640845388
0.88346463441848755 0.003871917724609375 0.0020589642226696014
0.97550868988037109 0.0036351671442389488 0.0084911119192838669
0.00010696111712604761 0 0.00082639808533713222
0 0 0.00075580371776595712
0.0072790109552443027 3.879023643094115e-05 0.00040497124427929521
0.079036995768547058 3.0756931664654985e-05 0.00036860446562059224
0.18366515636444092 4.936667210131418e-06 0.00044084436376579106
0.29242351651191711 4.2619893065420911e-05 0.00079891725908964872
0.40542390942573547 0.0019075132440775633 0.0009147943346761167
0.51604223251342773 0.0016206329455599189 0.0053785587660968304
0.62260782718658447 0.00094092875951901078 0.012128926813602448
0.72552645206451416 0.0049053416587412357 0.010629496537148952
0.82549077272415161 0.020514573901891708 0.0088531794026494026
0.92328494787216187 0.030841648578643799 0.014688588678836823
0.99480909109115601 0.03774610161781311 0.025427499786019325
0.0018813489004969597 0.015078839845955372 0.0033009697217494249
0 0.015921603888273239 0.002955014118924737
0.013307339511811733 0.019458547234535217 0.0034497729502618313
0.10227248072624207 0.021182728931307793 0.0044719469733536243
0.20979748666286469 0.022257741540670395 0.0077465130016207695
0.32066076993942261 0.025467189028859138 0.010616048239171505
0.43872058391571045 0.042056422680616379 0.0097052035853266716
0.55278533697128296 0.047756794840097427 0.01377315167337656
0.65991175174713135 0.046942617744207382 0.022157063707709312
0.76356536149978638 0.055960036814212799 0.023170590400695801
0.86299902200698853 0.070904001593589783 0.026377061381936073
0.95782488584518433 0.083206817507743835 0.034959845244884491
0.9999382495880127 0.095925457775592804 0.045800767838954926
0.0004008124815300107 0.10753381997346878 0.0093801608309149742
0.0003807367174886167 0.11530203372240067 0.010452943854033947
0.024378160014748573 0.12701195478439331 0.013968389481306076
0.12108689546585083 0.13428749144077301 0.020653862506151199
0.23744909465312958 0.1343560665845871 0.026153460144996643
0.35391455888748169 0.13508342206478119 0.026103375479578972
0.46999239921569824 0.14051191508769989 0.022072123363614082
0.5807909369468689 0.14414557814598083 0.021015256643295288
0.68495279550552368 0.14471319317817688 0.026472488418221474
0.78806275129318237 0.15026471018791199 0.030925242230296135
0.88721418380737305 0.1578267514705658 0.040342532098293304
0.97740501165390015 0.16628231108188629 0.051747310906648636
1 0.17681540548801422 0.06181417778134346
0.00049163220683112741 0.22596238553524017 0.022952914237976074
0.011226938106119633 0.23693393170833588 0.027494408190250397
0.054330550134181976 0.24800409376621246 0.033498592674732208
0.14362490177154541 0.25616699457168579 0.039460618048906326
0.25649869441986084 0.25947791337966919 0.041665889322757721
0.37453100085258484 0.25846636295318604 0.038787078112363815
0.48825740814208984 0.255583256483078 0.034552719444036484
0.59397196769714355 0.25401109457015991 0.033600706607103348
0.69416952133178711 0.25539574027061462 0.037906453013420105
0.7967979907989502 0.25812339782714844 0.044007603079080582
0.89795124530792236 0.2621399462223053 0.053593907505273819
0.9847293496131897 0.26686897873878479 0.064225204288959503
1 0.27246546745300293 0.073254846036434174
0.0035612517967820168 0.34389534592628479 0.033480115234851837
0.027724232524633408 0.35296773910522461 0.038663271814584732
0.077280484139919281 0.35970702767372131 0.044304583221673965
0.15957048535346985 0.36402973532676697 0.047887347638607025
0.26638010144233704 0.36694550514221191 0.048211414366960526
0.38285267353057861 0.36515364050865173 0.04569142684340477
0.49597179889678955 0.36165225505828857 0.043181788176298141
0.60025215148925781 0.36076623201370239 0.043934527784585953
0.69950312376022339 0.36272552609443665 0.04866853728890419
0.80079776048660278 0.36507922410964966 0.055417709052562714
0.9013553261756897 0.3674531877040863 0.06392853707075119
0.98674917221069336 0.36951491236686707 0.072673186659812927
1 0.37104684114456177 0.079951360821723938
0.0077894320711493492 0.45661789178848267 0.037288185209035873
0.039599757641553879 0.46243375539779663 0.043517798185348511
0.091768942773342133 0.46465054154396057 0.048862040042877197
0.16915497183799744 0.4647209644317627 0.050724733620882034
0.27158728241920471 0.4647098183631897 0.049903076142072678
0.38600078225135803 0.46264281868934631 0.046790853142738342
0.4987567663192749 0.46070873737335205 0.04575817659497261
0.60319787263870239 0.46071514487266541 0.048038303852081299
0.70323675870895386 0.46278446912765503 0.054293166846036911
0.80242300033569336 0.46496239304542542 0.062040038406848907
0.90113669633865356 0.46648412942886353 0.069510243833065033
0.98585695028305054 0.46669718623161316 0.076394684612751007
1 0.46466374397277832 0.082147352397441864
0.011177990585565567 0.56246650218963623 0.040616892278194427
0.048447821289300919 0.56575286388397217 0.047749537974596024
0.10280193388462067 0.56565409898757935 0.053599055856466293
0.17894065380096436 0.56417393684387207 0.055200375616550446
0.27712112665176392 0.56138062477111816 0.051728341728448868
0.38792848587036133 0.55833131074905396 0.045257553458213806
0.49910879135131836 0.55580109357833862 0.042077053338289261
0.60294133424758911 0.55534034967422485 0.04675355926156044
0.70206338167190552 0.55628407001495361 0.055632106959819794
0.79994010925292969 0.55746620893478394 0.064462818205356598
0.89609980583190918 0.55737340450286865 0.070986442267894745
0.98226785659790039 0.55589097738265991 0.075989082455635071
1 0.55262309312820435 0.079917535185813904
0.013539482839405537 0.65968811511993408 0.049750249832868576
0.055434655398130417 0.66236191987991333 0.055681042373180389
0.11183249950408936 0.66184389591217041 0.061402805149555206
0.18701185286045074 0.65961199998855591 0.062651991844177246
0.28116282820701599 0.65588265657424927 0.056814633309841156
0.38851583003997803 0.6512179970741272 0.045570045709609985
0.49734476208686829 0.64710062742233276 0.038639608770608902
0.59954226016998291 0.64483249187469482 0.043788731098175049
0.69778579473495483 0.64366549253463745 0.053779825568199158
0.79372197389602661 0.64301019906997681 0.062860168516635895
0.88803476095199585 0.64127606153488159 0.068393364548683167
0.9762236475944519 0.63843339681625366 0.071131028234958649
1 0.63449388742446899 0.073192447423934937
0.016177263110876083 0.74979859590530396 0.062098260968923569
0.061896514147520065 0.75232648849487305 0.066484056413173676
0.11977808177471161 0.75173801183700562 0.070724055171012878
0.19325016438961029 0.749126136302948 0.071503520011901855
0.28326082229614258 0.74449467658996582 0.064842939376831055
0.38628679513931274 0.73840886354446411 0.051606211811304092
0.4920259416103363 0.73255592584609985 0.042010318487882614
0.59294325113296509 0.72803837060928345 0.04311707615852356
0.68997764587402344 0.72539258003234863 0.049672339111566544
0.78528487682342529 0.72200459241867065 0.056438907980918884
0.87841355800628662 0.7194632887840271 0.060126524418592453
0.96797764301300049 0.71570885181427002 0.061300627887248993
1 0.71161174774169922 0.062004327774047852
0.020805269479751587 0.83438098430633545 0.073787853121757507
0.069687157869338989 0.83640170097351074 0.07630215585231781
0.12876814603805542 0.83515578508377075 0.078677460551261902
0.20083595812320709 0.83182936906814575 0.077590808272361755
0.28694841265678406 0.82625776529312134 0.070131517946720123
0.38414722681045532 0.81894421577453613 0.057494685053825378
0.48556694388389587 0.81149256229400635 0.046356845647096634
0.58501732349395752 0.80545485019683838 0.042279545217752457
0.68174904584884644 0.80109220743179321 0.043994184583425522
0.77604883909225464 0.79725879430770874 0.0464797243475914
0.86837708950042725 0.79332035779953003 0.047536272555589676
0.95857995748519897 0.7892148494720459 0.047301482409238815
1 0.78511309623718262 0.04714139923453331
0.027240917086601257 0.91519200801849365 0.082871243357658386
0.078690186142921448 0.91544115543365479 0.083677597343921661
0.13921289145946503 0.91361302137374878 0.082823768258094788
0.21057349443435669 0.90889966487884521 0.07926342636346817
0.29341080784797668 0.90183019638061523 0.070503264665603638
0.38535216450691223 0.89351731538772583 0.058089222759008408
0.48156207799911499 0.88536804914474487 0.04653766006231308
0.57857656478881836 0.87878155708312988 0.039860609918832779
0.67400252819061279 0.87359875440597534 0.036925852298736572
0.76742088794708252 0.86903852224349976 0.035468891263008118
0.85928601026535034 0.86464482545852661 0.033804457634687424
0.94917947053909302 0.86029702425003052 0.031802009791135788
0.99987185001373291 0.85645580291748047 0.031173929572105408
0.035423576831817627 0.98627448081970215 0.089594431221485138
0.089198708534240723 0.9862210750579834 0.087792232632637024
0.15087467432022095 0.98401260375976562 0.084722302854061127
0.2216607928276062 0.98004674911499023 0.078431911766529083
0.30160456895828247 0.97383314371109009 0.068268477916717529
0.38908356428146362 0.96536040306091309 0.055780209600925446
0.48099580407142639 0.95678126811981201 0.043990671634674072
0.57464057207107544 0.95001721382141113 0.035729054361581802
0.66780799627304077 0.94463294744491577 0.030473044142127037
0.76008176803588867 0.93977516889572144 0.026340514421463013
0.85115116834640503 0.93520039319992065 0.022389879450201988
0.94064080715179443 0.93093597888946533 0.019389104098081589
0.99864161014556885 0.9275209903717041 0.018687499687075615
0.00050680123968049884 0.00095739925745874643 0.019004521891474724
0 0.0020744623616337776 0.02602730505168438
0.0031658096704632044 0.0068477406166493893 0.029154116287827492
0.062740921974182129 0.0058826971799135208 0.028972834348678589
0.16231174767017365 0.0023506912402808666 0.02603524923324585
0.2686668336391449 0 0.023010792210698128
0.37720319628715515 0 0.023200554773211479
0.4845464825630188 0 0.032040584832429886
0.58944022655487061 0 0.039218813180923462
0.69137656688690186 0 0.037666782736778259
0.79134976863861084 0.0001439861225662753 0.036433111876249313
0.89146465063095093 0.00020467721333261579 0.050846114754676819
0.98074120283126831 0.00024701288202777505 0.069788582623004913
0.00067171582486480474 0 0.03881339356303215
0 0 0.040755521506071091
0.0073355878703296185 9.3647075118497014e-05 0.038964845240116119
0.078718401491641998 2.9919194275862537e-05 0.036980811506509781
0.18519340455532074 6.731818757543806e-06 0.035861626267433167
0.29551964998245239 1.7278334780712612e-05 0.037919662892818451
0.40915745496749878 0.0012806911254301667 0.039348304271697998
0.52078127861022949 0.0010133481118828058 0.051464620977640152
0.62828254699707031 0.00012210023123770952 0.064273759722709656
0.73230057954788208 0.0006240695365704596 0.068927764892578125
0.83275651931762695 0.0079591190442442894 0.070165984332561493
0.93139272928237915 0.015818892046809196 0.082292042672634125
0.99704372882843018 0.024402962997555733 0.09689640998840332
0.0009048910578712821 0.01363875437527895 0.052496246993541718
0 0.016302235424518585 0.055856399238109589
0.017762517556548119 0.019849305972456932 0.060240771621465683
0.10369879007339478 0.024651216343045235 0.063417144119739532
0.21343967318534851 0.028365833684802055 0.06656944751739502
0.32563385367393494 0.026106741279363632 0.071552395820617676
0.44222128391265869 0.038047295063734055 0.069351077079772949
0.55595844984054565 0.043647885322570801 0.073073476552963257
0.66395556926727295 0.039851125329732895 0.083454355597496033
0.76858973503112793 0.04249885305762291 0.091654561460018158
0.86903691291809082 0.058607302606105804 0.097158573567867279
0.96425038576126099 0.073060818016529083 0.10720930248498917
1 0.087526582181453705 0.11834879964590073
7.0594338467344642e-05 0.10761590301990509 0.067427948117256165
0.0011236602440476418 0.11670319736003876 0.07207190990447998
0.030392305925488472 0.12778319418430328 0.080664582550525665
0.12562930583953857 0.1362462192773819 0.09030228853225708
0.2415219247341156 0.13769285380840302 0.095484666526317596
0.35740247368812561 0.13395342230796814 0.09649696946144104
0.47293594479560852 0.13622951507568359 0.091643944382667542
0.58335262537002563 0.14011359214782715 0.089747831225395203
0.6884380578994751 0.14035981893539429 0.095221593976020813
0.79152494668960571 0.14381462335586548 0.10282271355390549
0.89189743995666504 0.1528862863779068 0.11260100454092026
0.98114156723022461 0.16357962787151337 0.12384194880723953
1 0.17458370327949524 0.13370966911315918
0.00075679103611037135 0.22952888906002045 0.086419485509395599
0.013290345668792725 0.23990961909294128 0.092147976160049438
0.058356698602437973 0.24999922513961792 0.10029695928096771
0.14809146523475647 0.25774183869361877 0.10797738283872604
0.26036199927330017 0.26183736324310303 0.11173116415739059
0.37821659445762634 0.25873786211013794 0.11061262339353561
0.49222984910011292 0.25440040230751038 0.10598297417163849
0.59826982021331787 0.2541860044002533 0.10361378639936447
0.69929146766662598 0.25495725870132446 0.10661820322275162
0.80110025405883789 0.25847730040550232 0.11337685585021973
0.9017338752746582 0.26354771852493286 0.12340910732746124
0.98680692911148071 0.26939624547958374 0.13456983864307404
1 0.27427151799201965 0.14370284974575043
0.0034848081413656473 0.34717434644699097 0.10229701548814774
0.027994222939014435 0.35595226287841797 0.1070062518119812
0.079430796205997467 0.36227977275848389 0.11190398037433624
0.16287453472614288 0.36648616194725037 0.11582347005605698
0.26940351724624634 0.36876234412193298 0.11769852042198181
0.38657653331756592 0.36631691455841064 0.116300068795681
0.49997377395629883 0.36254754662513733 0.11368370801210403
0.60453641414642334 0.36253279447555542 0.11293276399374008
0.70401948690414429 0.36523705720901489 0.11551786214113235
0.80441868305206299 0.3679865300655365 0.12123963236808777
0.90475261211395264 0.37094232439994812 0.12977129220962524
0.9879266619682312 0.37320762872695923 0.13968807458877563
