assets/lut/jtsemple winterlighthouse.cube
# Created by: G'MIC (https://gmic.eu)
TITLE "winterlighthouse"
# LUT size
LUT_3D_SIZE 7
# Data domain
DOMAIN_MIN 0.0 0.0 0.0
DOMAIN_MAX 1.0 1.0 1.0
# LUT data points
0 2.5850184101727791e-05 0.00098535872530192137
0.052309554070234299 0 0.0074071846902370453
0.22467300295829773 0 0.014720647595822811
0.43065688014030457 0 0.013160182163119316
0.63606321811676025 0.0016960742650553584 0.011389878578484058
0.79848116636276245 7.7012009569443762e-05 0.015546431764960289
0.91501510143280029 0 0.02744700200855732
4.0061800973489881e-05 0.063794426620006561 0.0016106698894873261
0.068188130855560303 0.061163134872913361 0.011194596067070961
0.23720934987068176 0.04883759468793869 0.0077417711727321148
0.44385731220245361 0.040208645164966583 0.011250200681388378
0.65088915824890137 0.047609440982341766 0.016871778294444084
0.82190340757369995 0.045521918684244156 0.031147945672273636
0.94350987672805786 0.044500432908535004 0.050936620682477951
0 0.20628443360328674 0.00016030704136937857
0.071494370698928833 0.2077062577009201 0.0069388295523822308
0.2439168244600296 0.19962956011295319 0.0061151240952312946
0.46160942316055298 0.18921889364719391 0.007259757723659277
0.6774979829788208 0.1897188127040863 0.017355181276798248
0.8580968976020813 0.20687192678451538 0.045757293701171875
0.97291606664657593 0.23722191154956818 0.078056484460830688
0 0.38108602166175842 0
0.084396690130233765 0.39608857035636902 0.0024796430952847004
0.26687195897102356 0.40169349312782288 0.0094247106462717056
0.50579655170440674 0.40515583753585815 0.011498649604618549
0.73676097393035889 0.42919734120368958 0.029150061309337616
0.92727124691009521 0.47549521923065186 0.06938876211643219
0.99769628047943115 0.52300864458084106 0.11160711944103241
0.010189998894929886 0.61127811670303345 0.0023041819222271442
0.15345628559589386 0.65274745225906372 0.0094865532591938972
0.37179258465766907 0.67524516582489014 0.031534727662801743
0.61930394172668457 0.69090777635574341 0.048416256904602051
0.83215874433517456 0.72298264503479004 0.070314325392246246
0.98813879489898682 0.7556685209274292 0.10772068053483963
1 0.78177988529205322 0.14264501631259918
0.096182815730571747 0.8981090784072876 0.018736701458692551
0.26552096009254456 0.92967569828033447 0.033650118857622147
0.49774348735809326 0.93605530261993408 0.065036222338676453
0.72522342205047607 0.92652499675750732 0.085083052515983582
0.89085501432418823 0.91245049238204956 0.093021154403686523
0.99665337800979614 0.91443544626235962 0.11098797619342804
1 0.91001236438751221 0.11795981973409653
0.17942067980766296 1 0.048407595604658127
0.34927934408187866 1 0.061234835535287857
0.54792177677154541 1 0.07403082400560379
0.72931420803070068 1 0.072096943855285645
0.86359304189682007 0.99410438537597656 0.058782882988452911
0.9604305624961853 0.98340219259262085 0.053790401667356491
0.99854040145874023 0.9716002345085144 0.051037613302469254
0 0.00016623103874735534 0.091948851943016052
0.034232389181852341 0.00014166739128995687 0.10919877886772156
0.20778298377990723 0 0.11461225152015686
0.41597843170166016 0 0.11512359976768494
0.6212577223777771 0 0.11161881685256958
0.78681105375289917 0 0.11950788646936417
0.90333294868469238 0 0.13902540504932404
0 0.066209502518177032 0.086778931319713593
0.054108384996652603 0.064095184206962585 0.10109777748584747
0.2265997976064682 0.050710804760456085 0.10187962651252747
0.43480968475341797 0.026443466544151306 0.110107421875
0.64006632566452026 0.030900513753294945 0.11763764917850494
0.8104138970375061 0.026489198207855225 0.1345968097448349
0.93084299564361572 0.025139946490526199 0.15752331912517548
0 0.21133174002170563 0.066026471555233002
0.064714051783084869 0.21304427087306976 0.084262058138847351
0.23963595926761627 0.20993764698505402 0.093065179884433746
0.46204182505607605 0.1929938942193985 0.10514643043279648
0.67036527395248413 0.18357072770595551 0.11827715486288071
0.85128355026245117 0.19478817284107208 0.15187270939350128
0.97593158483505249 0.23093672096729279 0.19034472107887268
0.00012655819591600448 0.39212432503700256 0.040839429944753647
0.079696550965309143 0.40917912125587463 0.065209679305553436
0.26991668343544006 0.42218422889709473 0.089173048734664917
0.51040452718734741 0.42524349689483643 0.10922866314649582
0.7319064736366272 0.44157180190086365 0.14002689719200134
0.91966056823730469 0.48427507281303406 0.19137084484100342
0.99802178144454956 0.53670883178710938 0.24315138161182404
0.010584723204374313 0.63000726699829102 0.041002761572599411
0.14747786521911621 0.66953545808792114 0.090326912701129913
0.36899369955062866 0.69698292016983032 0.13026410341262817
0.61791056394577026 0.71235185861587524 0.16161668300628662
0.82376730442047119 0.73548370599746704 0.20359539985656738
0.98263370990753174 0.7711976170539856 0.2452055960893631
0.99998831748962402 0.78984928131103516 0.28057363629341125
0.094460234045982361 0.91680586338043213 0.13336895406246185
0.25976353883743286 0.94183361530303955 0.1697220653295517
0.48581609129905701 0.94677352905273438 0.20361782610416412
0.70638495683670044 0.93419158458709717 0.22041499614715576
0.87466615438461304 0.92010867595672607 0.23109981417655945
0.98726767301559448 0.91622734069824219 0.24236942827701569
1 0.90823137760162354 0.24773818254470825
0.17187827825546265 1 0.21248480677604675
0.33872509002685547 1 0.22552752494812012
0.53387928009033203 1 0.23042729496955872
0.71140950918197632 1 0.21525153517723083
0.848155677318573 0.99734282493591309 0.18751779198646545
0.95491838455200195 0.98230725526809692 0.16953958570957184
0.99989962577819824 0.96962493658065796 0.16737399995326996
3.0338062060764059e-05 0.0051303338259458542 0.22887970507144928
0.037210278213024139 0.0022336323745548725 0.24864941835403442
0.18951261043548584 0 0.25259602069854736
0.39424240589141846 0 0.25067198276519775
0.59895801544189453 0 0.2466600090265274
0.76943314075469971 0 0.25737369060516357
0.88795655965805054 0 0.2820931077003479
0 0.079204604029655457 0.22618503868579865
0.036234162747859955 0.075289629399776459 0.23747418820858002
0.20416934788227081 0.05536874383687973 0.24077115952968597
0.4172312319278717 0.038931500166654587 0.24709168076515198
0.62233585119247437 0.034696303308010101 0.25479179620742798
0.79479461908340454 0.030484247952699661 0.27282324433326721
0.91770631074905396 0.042330183088779449 0.30059850215911865
0 0.21790915727615356 0.20142266154289246
0.039961736649274826 0.21965718269348145 0.21702112257480621
0.22252781689167023 0.21904510259628296 0.23246774077415466
0.44718039035797119 0.20329156517982483 0.24603386223316193
0.65693718194961548 0.19382473826408386 0.26361736655235291
0.84530895948410034 0.20847609639167786 0.30053809285163879
0.97573864459991455 0.24992172420024872 0.34364870190620422
0.0027772642206400633 0.40427210927009583 0.16865068674087524
0.066177308559417725 0.42133969068527222 0.19937942922115326
0.25347256660461426 0.43510600924491882 0.22769960761070251
0.49917808175086975 0.44701513648033142 0.26056879758834839
0.72193378210067749 0.46451690793037415 0.30640444159507751
0.9188535213470459 0.50508278608322144 0.36695978045463562
0.99993103742599487 0.5502130389213562 0.41725686192512512
0.0224443469196558 0.65277165174484253 0.19601067900657654
0.13725191354751587 0.69023013114929199 0.25199738144874573
0.35150063037872314 0.71263891458511353 0.29280409216880798
0.6033589243888855 0.73120784759521484 0.33790403604507446
0.80890965461730957 0.75282222032546997 0.39228555560112
0.96725594997406006 0.77938318252563477 0.43957459926605225
1 0.79732304811477661 0.46646913886070251
0.08312486857175827 0.93351155519485474 0.32352295517921448
0.24466586112976074 0.95410031080245972 0.36670726537704468
0.47060444951057434 0.95149433612823486 0.39536720514297485
0.68315219879150391 0.93720495700836182 0.40457543730735779
0.85127162933349609 0.92342394590377808 0.41406357288360596
0.97793424129486084 0.91251581907272339 0.4204413890838623
1 0.90628176927566528 0.41714650392532349
0.1433187872171402 1 0.40536400675773621
0.31062969565391541 1 0.41555559635162354
0.50602775812149048 1 0.40990081429481506
0.67945641279220581 1 0.3824012279510498
0.81641280651092529 0.99845051765441895 0.34229135513305664
0.93919891119003296 0.98004072904586792 0.31326568126678467
0.9998934268951416 0.96326315402984619 0.30747166275978088
0 0 0.40559947490692139
0.031736798584461212 0 0.42411711812019348
0.16452743113040924 0.00092915556160733104 0.42942366003990173
0.36670556664466858 0.0013663647696375847 0.42558580636978149
0.57360875606536865 8.6167283370741643e-06 0.42468017339706421
0.74151718616485596 0 0.43751722574234009
0.86167651414871216 0.0044417884200811386 0.46264377236366272
0.00037066888762637973 0.076005034148693085 0.40488705039024353
0.029807176440954208 0.074794039130210876 0.41651427745819092
0.17689211666584015 0.063763938844203949 0.41790473461151123
0.39175483584403992 0.057242568582296371 0.4272598922252655
0.60089921951293945 0.038003541529178619 0.44015783071517944
0.77402102947235107 0.029643429443240166 0.45939868688583374
0.90361863374710083 0.06544514000415802 0.48401108384132385
0 0.2214350700378418 0.38712239265441895
0.028901776298880577 0.22527089715003967 0.40536195039749146
0.19799761474132538 0.2231391966342926 0.41667953133583069
0.42613115906715393 0.21719227731227875 0.43578287959098816
0.64095038175582886 0.20737217366695404 0.46006360650062561
0.82639020681381226 0.22330683469772339 0.49471363425254822
0.95797264575958252 0.2728925347328186 0.53369224071502686
0 0.408824622631073 0.35514473915100098
0.037283461540937424 0.43413656949996948 0.39925247430801392
0.23851856589317322 0.44972220063209534 0.42843228578567505
0.48103901743888855 0.45300239324569702 0.46139547228813171
0.70672905445098877 0.48051521182060242 0.50611984729766846
0.89275211095809937 0.52544999122619629 0.56094193458557129
0.99351209402084351 0.57445311546325684 0.6060907244682312
0.013284421525895596 0.6641228199005127 0.39202436804771423
0.11984389275312424 0.71248549222946167 0.45717296004295349
0.34259611368179321 0.73645627498626709 0.49889034032821655
0.58984458446502686 0.75001269578933716 0.53894710540771484
0.79679709672927856 0.76825970411300659 0.57859385013580322
0.94728797674179077 0.78647136688232422 0.61572611331939697
1 0.80263084173202515 0.63665175437927246
0.063237898051738739 0.94706147909164429 0.52446931600570679
0.22282108664512634 0.96131420135498047 0.56001263856887817
0.44791501760482788 0.95232462882995605 0.57824444770812988
0.65774065256118774 0.93844997882843018 0.58662354946136475
0.8261183500289917 0.92607951164245605 0.59270882606506348
0.9522472620010376 0.91238909959793091 0.58956408500671387
0.99997001886367798 0.90112805366516113 0.58300566673278809
0.10618282854557037 1 0.58513623476028442
0.2685907781124115 1 0.58357125520706177
0.46102437376976013 1 0.56414961814880371
0.63886189460754395 0.99996554851531982 0.54132860898971558
0.78117042779922485 0.99533545970916748 0.51053345203399658
0.90600115060806274 0.97428363561630249 0.48662537336349487
0.98419284820556641 0.9562411904335022 0.47681123018264771
0 0 0.58229529857635498
0.012186252512037754 0 0.59852707386016846
0.13364638388156891 0.00082841760013252497 0.60337346792221069
0.33973973989486694 0.0049199420027434826 0.60209250450134277
0.55464059114456177 0.0035150416661053896 0.60214811563491821
0.71672272682189941 0 0.61372548341751099
0.83295756578445435 0 0.6328204870223999
0 0.083032436668872833 0.58423906564712524
0.014441845007240772 0.077088929712772369 0.59640496969223022
0.14423356950283051 0.075904503464698792 0.59855568408966064
0.36461383104324341 0.071146197617053986 0.60878157615661621
0.5820842981338501 0.053130459040403366 0.6213982105255127
0.75333601236343384 0.039313267916440964 0.64042282104492188
0.88070535659790039 0.061408113688230515 0.66310340166091919
7.9540179285686463e-05 0.22930502891540527 0.56771963834762573
0.017289195209741592 0.23488731682300568 0.58620262145996094
0.16925890743732452 0.23501297831535339 0.59384733438491821
0.40523022413253784 0.22985568642616272 0.61695319414138794
0.62653458118438721 0.2227168083190918 0.64101678133010864
0.80723726749420166 0.23857453465461731 0.67841941118240356
0.94173139333724976 0.28734329342842102 0.71964508295059204
0 0.41967150568962097 0.5483090877532959
0.019667906686663628 0.44690039753913879 0.57982516288757324
0.21832318603992462 0.46673208475112915 0.60372734069824219
0.47181394696235657 0.47996991872787476 0.64126253128051758
0.69808059930801392 0.50164860486984253 0.68083560466766357
0.87212109565734863 0.5426146388053894 0.73510253429412842
0.98518556356430054 0.59601444005966187 0.78501075506210327
0.0068134833127260208 0.69195932149887085 0.58821010589599609
0.10162108391523361 0.72899925708770752 0.63142704963684082
0.33327466249465942 0.75639110803604126 0.67221790552139282
0.57990843057632446 0.76573246717453003 0.70746028423309326
0.78106868267059326 0.77926599979400635 0.74018323421478271
0.92596769332885742 0.79363656044006348 0.7715265154838562
0.99990808963775635 0.80913561582565308 0.79182291030883789
0.041465938091278076 0.96507686376571655 0.68931704759597778
0.2031559944152832 0.96667170524597168 0.71068871021270752
0.43429109454154968 0.96785223484039307 0.73089200258255005
0.64036953449249268 0.94584882259368896 0.73872113227844238
0.80119317770004272 0.93004882335662842 0.7409898042678833
0.92406398057937622 0.91405922174453735 0.73657500743865967
0.99799180030822754 0.90050339698791504 0.73013406991958618
0.073140807449817657 1 0.72905582189559937
0.23066513240337372 1 0.71897846460342407
0.42162597179412842 0.99987649917602539 0.69528645277023315
0.60638529062271118 0.99936777353286743 0.68158638477325439
0.75434654951095581 0.99144858121871948 0.66169887781143188
0.8741338849067688 0.97120612859725952 0.64437013864517212
0.95940828323364258 0.95388901233673096 0.63486921787261963
0 0 0.73985010385513306
0.0034630720037966967 0 0.7545161247253418
0.11646801978349686 0 0.75980430841445923
0.3187192976474762 0.00069918163353577256 0.76488101482391357
0.53030896186828613 0.0018789403839036822 0.76966506242752075
0.69261831045150757 0 0.77990889549255371
0.81252741813659668 0 0.79286432266235352
0 0.082345090806484222 0.73622763156890869
0.0046132104471325874 0.077461898326873779 0.75117260217666626
0.12487956136465073 0.073556505143642426 0.75952988862991333
0.34475800395011902 0.072825849056243896 0.77387619018554688
0.56262385845184326 0.064217664301395416 0.79000604152679443
0.7345770001411438 0.052919723093509674 0.81262558698654175
0.86215251684188843 0.064953073859214783 0.83473116159439087
0.00036094515235163271 0.23586843907833099 0.71920621395111084
0.0071391984820365906 0.24282659590244293 0.73903453350067139
0.14650645852088928 0.24052907526493073 0.75518935918807983
0.38898852467536926 0.23637154698371887 0.77977269887924194
0.61462688446044922 0.23536831140518188 0.80689632892608643
0.796134352684021 0.25566494464874268 0.84783291816711426
0.93102437257766724 0.30278563499450684 0.88794386386871338
0.001569022424519062 0.44296726584434509 0.70610475540161133
0.013135902583599091 0.4628848135471344 0.73353785276412964
0.19749166071414948 0.47774463891983032 0.7647697925567627
0.46130737662315369 0.49330881237983704 0.79902070760726929
0.69402295351028442 0.51873880624771118 0.83529609441757202
0.86888980865478516 0.55984330177307129 0.88757073879241943
0.98883211612701416 0.61353224515914917 0.93234986066818237
0.005735449492931366 0.71019047498703003 0.73687124252319336
0.091540798544883728 0.74257159233093262 0.77881062030792236
0.32769548892974854 0.76914411783218384 0.8231087327003479
0.57934343814849854 0.78158968687057495 0.85311233997344971
0.77150869369506836 0.78852832317352295 0.87859368324279785
0.91340678930282593 0.8002435564994812 0.91367596387863159
0.99972784519195557 0.81569534540176392 0.92626494169235229
0.034369733184576035 0.96838700771331787 0.82486391067504883
0.19157584011554718 0.9728577733039856 0.84660875797271729
0.42059305310249329 0.96827894449234009 0.8652043342590332
0.62679409980773926 0.95158904790878296 0.86984288692474365
0.78042352199554443 0.9318845272064209 0.86892497539520264
0.89797323942184448 0.91442418098449707 0.86991298198699951
0.98700451850891113 0.90163415670394897 0.86392045021057129
0.055614575743675232 1 0.8564610481262207
0.20676016807556152 1 0.84723538160324097
0.3916010856628418 1 0.82681161165237427
0.57755333185195923 1 0.81087082624435425
0.72832292318344116 0.99098879098892212 0.79444092512130737
0.84651821851730347 0.96901452541351318 0.78214794397354126
0.93568390607833862 0.95064592361450195 0.77742618322372437
0 0 0.88856148719787598
0.0064985388889908791 0 0.90586119890213013
0.12304620444774628 0 0.91433250904083252
0.30549329519271851 0.00056367763318121433 0.9220396876335144
0.50032156705856323 0.0014834385365247726 0.93143272399902344
0.66639596223831177 0.0022339166607707739 0.94258952140808105
0.79832965135574341 0.011263947933912277 0.95209807157516479
0 0.086493454873561859 0.88220846652984619
0.0091465665027499199 0.087429657578468323 0.90126907825469971
0.12995180487632751 0.086162462830543518 0.9149482250213623
0.3303772509098053 0.084962405264377594 0.93081319332122803
0.54020130634307861 0.082122668623924255 0.95080327987670898
0.71602821350097656 0.084878690540790558 0.97324961423873901
0.85178607702255249 0.10727574676275253 0.98747670650482178
0 0.2404000461101532 0.86650353670120239
0.015501269139349461 0.25311380624771118 0.88961529731750488
0.14734232425689697 0.25605881214141846 0.91128826141357422
0.37210568785667419 0.25533542037010193 0.93557381629943848
0.59949278831481934 0.25765818357467651 0.96576559543609619
0.78307008743286133 0.28226733207702637 0.98943275213241577
0.9182732105255127 0.32549607753753662 0.99892216920852661
0 0.45389807224273682 0.85850328207015991
0.028401019051671028 0.48024135828018188 0.889029860496521
0.20510411262512207 0.50191044807434082 0.9245607852935791
0.45321884751319885 0.51602864265441895 0.9515998363494873
0.68617981672286987 0.54221153259277344 0.97622668743133545
0.86006319522857666 0.58316218852996826 0.99268209934234619
0.97908878326416016 0.62208211421966553 0.99821203947067261
0.0018743178807199001 0.73426085710525513 0.8936118483543396
0.10411932319402695 0.76492303609848022 0.93210083246231079
0.32952725887298584 0.7898373007774353 0.97209763526916504
0.56649941205978394 0.79176026582717896 0.98716789484024048
0.7619783878326416 0.80378717184066772 0.99280977249145508
0.9006807804107666 0.80870813131332397 0.99961584806442261
0.99483376741409302 0.81957972049713135 0.99807310104370117
0.024985279887914658 0.98499375581741333 0.97297757863998413
0.1919405609369278 0.98675966262817383 0.98460417985916138
0.40186989307403564 0.9760248064994812 0.99072384834289551
0.59891188144683838 0.95204758644104004 0.99096536636352539
0.75715309381484985 0.92731082439422607 0.99008166790008545
0.87475252151489258 0.90907043218612671 0.98874402046203613
0.96606367826461792 0.89997565746307373 0.97764337062835693
0.048564732074737549 0.99986851215362549 0.98136621713638306
0.19701127707958221 1 0.97751450538635254
0.36999505758285522 1 0.95958220958709717
0.54540753364562988 0.99992763996124268 0.94287824630737305
0.69685244560241699 0.98783892393112183 0.9283410906791687
0.81807440519332886 0.96599555015563965 0.91843336820602417
0.90974050760269165 0.94847697019577026 0.91543322801589966
