assets/lut/jtsemple mysticpurplesunset.cube
# Created by: G'MIC (https://gmic.eu)
TITLE "mysticpurplesunset"
# LUT size
LUT_3D_SIZE 5
# Data domain
DOMAIN_MIN 0.0 0.0 0.0
DOMAIN_MAX 1.0 1.0 1.0
# LUT data points
5.6008731917245314e-05 0.00049959070747718215 5.3854550060350448e-05
0.17740681767463684 0.00049959070747718215 0.0036651161499321461
0.47097823023796082 0.0036505307070910931 0.0014759137993678451
0.76711416244506836 0.0046524195931851864 0.00057103775907307863
0.99963825941085815 0.03526083379983902 0
0.0024482428561896086 0.20481663942337036 0.0043002557940781116
0.2125047892332077 0.21064133942127228 0.0059345019981265068
0.50580978393554688 0.21384496986865997 0.0046004499308764935
0.80762839317321777 0.21042758226394653 0.0046852109953761101
1 0.22901734709739685 0.02080974169075489
0.01075636874884367 0.48279526829719543 0.017960058525204659
0.26336082816123962 0.49624592065811157 0.031549535691738129
0.57416069507598877 0.5078778862953186 0.04021332785487175
0.89150941371917725 0.51311737298965454 0.03109506331384182
1 0.52546143531799316 0.065027631819248199
0.050732363015413284 0.79694628715515137 0.072778917849063873
0.35481327772140503 0.81485837697982788 0.10154109448194504
0.67836481332778931 0.82790613174438477 0.11222978681325912
0.97681021690368652 0.83602017164230347 0.12100828438997269
1 0.84016060829162598 0.13607200980186462
0.16299498081207275 1 0.17624491453170776
0.4640292227268219 1 0.19466154277324677
0.77700233459472656 1 0.204393669962883
0.9986986517906189 1 0.21356549859046936
1 1 0.22263532876968384
0.0002814797917380929 4.1468003473710269e-05 0.18484269082546234
0.18832927942276001 0.0023539674002677202 0.1947820782661438
0.47329401969909668 0.0025376563426107168 0.18994437158107758
0.76640206575393677 0.0026394862215965986 0.18716199696063995
0.99985063076019287 0.0075445887632668018 0.18677927553653717
0.0020677754655480385 0.20755301415920258 0.21639375388622284
0.20484869182109833 0.20828014612197876 0.22633031010627747
0.50990486145019531 0.20697513222694397 0.22372938692569733
0.8173520565032959 0.2061743289232254 0.22031137347221375
1 0.21896249055862427 0.2375389039516449
0.011511051096022129 0.48354342579841614 0.25034457445144653
0.26607713103294373 0.49994039535522461 0.26816204190254211
0.57450449466705322 0.51051777601242065 0.28581330180168152
0.88840651512145996 0.52027171850204468 0.29223135113716125
1 0.53178936243057251 0.30671530961990356
0.060841068625450134 0.80127561092376709 0.33642572164535522
0.36430791020393372 0.82519859075546265 0.36342278122901917
0.68128806352615356 0.83968532085418701 0.37569108605384827
0.98608565330505371 0.83804225921630859 0.38648417592048645
0.99752235412597656 0.8467896580696106 0.39930611848831177
0.17452652752399445 1 0.45297637581825256
0.47900211811065674 1 0.46964997053146362
0.79417484998703003 0.999900221824646 0.46948692202568054
0.99996447563171387 1 0.48511597514152527
1 1 0.49996656179428101
0.010207291692495346 0 0.45644566416740417
0.1952815055847168 0.0024670320563018322 0.46405982971191406
0.47561275959014893 0.0079146437346935272 0.45739895105361938
0.76570171117782593 0.0016140807420015335 0.45593529939651489
0.99955195188522339 0.0042051728814840317 0.4640202522277832
0.013331768102943897 0.20252843201160431 0.47897714376449585
0.212373286485672 0.21380184590816498 0.49211886525154114
0.51226794719696045 0.21918487548828125 0.49545058608055115
0.81778645515441895 0.21062482893466949 0.4928877055644989
1 0.22905609011650085 0.50834053754806519
0.013852093368768692 0.4889889657497406 0.52780461311340332
0.27622401714324951 0.50494664907455444 0.54451268911361694
0.58254164457321167 0.5166364312171936 0.56383335590362549
0.90287500619888306 0.52609670162200928 0.57306331396102905
1 0.54055523872375488 0.59493780136108398
0.073280364274978638 0.82143449783325195 0.625751793384552
0.37541401386260986 0.82682514190673828 0.65013808012008667
0.68771672248840332 0.84010607004165649 0.66470962762832642
0.98409438133239746 0.84105366468429565 0.68004018068313599
1 0.85560721158981323 0.70165222883224487
0.18025349080562592 1 0.76669526100158691
0.4869326651096344 1 0.77465331554412842
0.81079757213592529 0.99830013513565063 0.78146600723266602
0.99988436698913574 1 0.79541707038879395
1 1 0.80646038055419922
0.0004198859678581357 0 0.75263684988021851
0.18373468518257141 0.001337208435870707 0.76282960176467896
0.47068929672241211 0.0012298583751544356 0.75438112020492554
0.77084594964981079 0 0.75935769081115723
0.99985063076019287 0 0.77069604396820068
0.0075807161629199982 0.20627675950527191 0.787433922290802
0.21383537352085114 0.21876446902751923 0.7987791895866394
0.51958680152893066 0.22234517335891724 0.80211585760116577
0.82877326011657715 0.21612973511219025 0.81100702285766602
1 0.23368136584758759 0.81435412168502808
0.013082945719361305 0.49575704336166382 0.84762728214263916
0.28305375576019287 0.51473653316497803 0.87165790796279907
0.59401172399520874 0.52149045467376709 0.87389808893203735
0.90418738126754761 0.53119605779647827 0.90645956993103027
1 0.54921036958694458 0.89798593521118164
0.080150112509727478 0.81626349687576294 0.9473412036895752
0.3826022744178772 0.83962529897689819 0.97731316089630127
0.70203316211700439 0.84160804748535156 0.9791330099105835
0.98984301090240479 0.8516661524772644 0.9824708104133606
1 0.85775327682495117 0.9905468225479126
0.18845455348491669 1 0.99899989366531372
0.495918869972229 1 1
0.80951684713363647 0.9985882043838501 1
0.99976193904876709 0.99812799692153931 0.99966204166412354
0.99917274713516235 1 1
0 0 0.99882364273071289
0.17242680490016937 0 0.99994868040084839
0.4638637900352478 0 0.99529552459716797
0.76406115293502808 0 0.98658078908920288
0.99876278638839722 0 0.97972828149795532
0.0036606732755899429 0.20928879082202911 1
0.22614996135234833 0.22076965868473053 1
0.5294070839881897 0.22584180533885956 1
0.83998042345046997 0.22571629285812378 0.99999839067459106
1 0.2394525408744812 0.99659901857376099
0.042373836040496826 0.50460577011108398 1
0.3033747673034668 0.52161270380020142 1
0.60971438884735107 0.52966398000717163 1
0.90167546272277832 0.54119694232940674 1
1 0.55861681699752808 1
0.099326282739639282 0.83107060194015503 1
0.39511233568191528 0.84803903102874756 0.99990594387054443
0.71004378795623779 0.84766548871994019 0.99998193979263306
0.98125404119491577 0.86115455627441406 1
1 0.86918389797210693 1
0.19203171133995056 1 1
0.50405591726303101 1 1
0.82456910610198975 1 1
1 1 1
1 1 1
