assets/lut/jtsemple magentacoffee.cube
# Created by: G'MIC (https://gmic.eu)
TITLE "magentacoffee"
# LUT size
LUT_3D_SIZE 7
# Data domain
DOMAIN_MIN 0.0 0.0 0.0
DOMAIN_MAX 1.0 1.0 1.0
# LUT data points
0 0.0066661462187767029 0.0016374476253986359
0.066706806421279907 0.0028833576943725348 0.0010192721383646131
0.22738923132419586 0.00083420699229463935 0
0.3999326229095459 0.0018245322862640023 0
0.56464904546737671 0.0028134214226156473 0
0.70856201648712158 0.0022671569604426622 0
0.83916306495666504 0.0053089214488863945 0
0 0.098049178719520569 0
0.046911861747503281 0.091457903385162354 0
0.20503683388233185 0.082700945436954498 0
0.3866828978061676 0.068319700658321381 0
0.55810821056365967 0.06728527694940567 0
0.70845013856887817 0.066107116639614105 0
0.84154808521270752 0.074253842234611511 0
0 0.22037923336029053 0
0.025658655911684036 0.21414276957511902 0.0022324805613607168
0.17899967730045319 0.20757183432579041 0.00030732995946891606
0.36715236306190491 0.19436685740947723 0
0.54962641000747681 0.19028683006763458 0
0.71016234159469604 0.18972654640674591 0
0.84816384315490723 0.19769202172756195 0
0 0.36949560046195984 0
0.027202770113945007 0.36893555521965027 0
0.16457679867744446 0.36872044205665588 0
0.35300138592720032 0.36471894383430481 0
0.54581606388092041 0.36681604385375977 0
0.71478933095932007 0.37472611665725708 0
0.85706901550292969 0.39017575979232788 0
0 0.55214142799377441 0
0.034483801573514938 0.56036829948425293 0
0.16277295351028442 0.56737148761749268 0
0.35603177547454834 0.56957918405532837 0
0.55682718753814697 0.57586765289306641 0
0.72659409046173096 0.59121936559677124 0
0.86719483137130737 0.6130412220954895 0
3.6980123695684597e-05 0.75624006986618042 0
0.043070923537015915 0.77181321382522583 0.00056524836691096425
0.1711389422416687 0.78439968824386597 0.002576431492343545
0.37920096516609192 0.78675830364227295 0.00013697007670998573
0.58846038579940796 0.7910841703414917 0
0.75292402505874634 0.8089866042137146 0
0.88592195510864258 0.83539998531341553 0.00032908123102970421
0.0077980039641261101 0.96498173475265503 0.014643276110291481
0.07634289562702179 0.97731971740722656 0.031302209943532944
0.21182854473590851 0.98425686359405518 0.040526863187551498
0.41938608884811401 0.98421669006347656 0.028371982276439667
0.63008618354797363 0.98426491022109985 0.018755953758955002
0.78885030746459961 0.99282199144363403 0.016915548592805862
0.91918939352035522 0.99939072132110596 0.024413658306002617
0 0.0031085892114788294 0.092529699206352234
0.064030982553958893 0.0024833229836076498 0.083415284752845764
0.22888626158237457 0.00062133191386237741 0.056513123214244843
0.4105498194694519 0.0011588152265176177 0.035959355533123016
0.58110231161117554 0.0052891001105308533 0.014809582382440567
0.71846884489059448 0.0022671569604426622 0.0050905114039778709
0.84092307090759277 0.0060327565297484398 0.0045981761068105698
0 0.091285973787307739 0.076863966882228851
0.048976000398397446 0.085771612823009491 0.068003349006175995
0.20883527398109436 0.074548117816448212 0.048686683177947998
0.39424505829811096 0.061006613075733185 0.036876246333122253
0.57141745090484619 0.059399593621492386 0.014222702011466026
0.71795511245727539 0.056597691029310226 0.0059430589899420738
0.84280920028686523 0.06462414562702179 0.01166458148509264
0 0.21403798460960388 0.068183764815330505
0.038147557526826859 0.21330922842025757 0.070746853947639465
0.18643650412559509 0.20708546042442322 0.056512299925088882
0.37586832046508789 0.19159890711307526 0.036097999662160873
0.56363695859909058 0.18406504392623901 0.013443920761346817
0.72268104553222656 0.18440110981464386 0.010394541546702385
0.85313612222671509 0.19578176736831665 0.018698135390877724
1.077091019396903e-05 0.35933387279510498 0.046832963824272156
0.037856113165616989 0.36680075526237488 0.05787932500243187
0.17164239287376404 0.36989542841911316 0.051617041230201721
0.36379298567771912 0.36586707830429077 0.029660213738679886
0.56130111217498779 0.36767828464508057 0.02262948639690876
0.73090797662734985 0.37950965762138367 0.032829046249389648
0.86640530824661255 0.39644443988800049 0.036249931901693344
9.3347889560391195e-06 0.54221516847610474 0.031221067532896996
0.038579873740673065 0.55798107385635376 0.048639304935932159
0.17034386098384857 0.57069718837738037 0.053501516580581665
0.3698735237121582 0.57575094699859619 0.039018265902996063
0.57316833734512329 0.58387035131454468 0.039854969829320908
0.74070966243743896 0.60050046443939209 0.053345009684562683
0.87521624565124512 0.62169736623764038 0.066992335021495819
0.0037016775459051132 0.74969005584716797 0.053604364395141602
0.050598025321960449 0.77090692520141602 0.077691048383712769
0.18771655857563019 0.78884923458099365 0.089690536260604858
0.39759543538093567 0.79863530397415161 0.078823909163475037
0.6037057638168335 0.80479031801223755 0.075671330094337463
0.76273226737976074 0.82011181116104126 0.085421361029148102
0.89023327827453613 0.8446611762046814 0.097678117454051971
0.014479932375252247 0.96183252334594727 0.12518876791000366
0.086145617067813873 0.9773600697517395 0.14202548563480377
0.22930207848548889 0.98667913675308228 0.15140464901924133
0.43405410647392273 0.98985844850540161 0.14329718053340912
0.6360742449760437 0.99107193946838379 0.13754071295261383
0.79365777969360352 0.99612945318222046 0.14103901386260986
0.92186182737350464 1 0.15096312761306763
0 0.0071768220514059067 0.26394098997116089
0.064276464283466339 0.0077353832311928272 0.25544947385787964
0.22329430282115936 0.0012474509421736002 0.23209576308727264
0.40800207853317261 0 0.1953742504119873
0.58042854070663452 1.5079273907758761e-05 0.16000178456306458
0.71852278709411621 6.1035157159494702e-06 0.13905054330825806
0.83954596519470215 0.0072325463406741619 0.13484375178813934
0 0.087523125112056732 0.25193852186203003
0.046944368630647659 0.085340745747089386 0.24324598908424377
0.20152541995048523 0.071604862809181213 0.22099290788173676
0.38945329189300537 0.054140713065862656 0.18854942917823792
0.57129836082458496 0.040149103850126266 0.15864855051040649
0.71916311979293823 0.041319258511066437 0.14162580668926239
0.84286177158355713 0.060731939971446991 0.143811896443367
0 0.20764116942882538 0.23014764487743378
0.041470799595117569 0.2097441703081131 0.22621545195579529
0.18558768928050995 0.20350350439548492 0.21059155464172363
0.37503084540367126 0.18747884035110474 0.18391723930835724
0.56560659408569336 0.1722802072763443 0.16231177747249603
0.7262842059135437 0.17345178127288818 0.1552358865737915
0.85607469081878662 0.19230447709560394 0.16184037923812866
0.0011049307649955153 0.35550534725189209 0.20188835263252258
0.042068976908922195 0.36590829491615295 0.20672011375427246
0.17616806924343109 0.37076961994171143 0.20289278030395508
0.36988189816474915 0.36679059267044067 0.18769879639148712
0.56885385513305664 0.36521610617637634 0.18068498373031616
0.73810094594955444 0.3747904896736145 0.18697953224182129
0.87181675434112549 0.39483135938644409 0.19483916461467743
0 0.54017788171768188 0.18939381837844849
0.028287595137953758 0.55949950218200684 0.20056895911693573
0.17467309534549713 0.57471162080764771 0.21022307872772217
0.38022896647453308 0.58133143186569214 0.20721240341663361
0.5831446647644043 0.58643770217895508 0.20970281958580017
0.75018256902694702 0.60052263736724854 0.22294674813747406
0.88282054662704468 0.62175780534744263 0.23599942028522491
1.5438305126735941e-05 0.75002431869506836 0.21944192051887512
0.042029421776533127 0.77327662706375122 0.23506252467632294
0.19783324003219604 0.79322725534439087 0.25027310848236084
0.40946835279464722 0.8028634786605835 0.25128892064094543
0.61086559295654297 0.80513417720794678 0.25388440489768982
0.77056574821472168 0.81800496578216553 0.26533827185630798
0.89900797605514526 0.84069406986236572 0.27843531966209412
0.01138203963637352 0.9627387523651123 0.29132354259490967
0.090180039405822754 0.97800439596176147 0.30431327223777771
0.24239915609359741 0.98771297931671143 0.3134753406047821
0.44454756379127502 0.99019604921340942 0.31251582503318787
0.64053505659103394 0.99016350507736206 0.31199023127555847
0.79801952838897705 0.99447327852249146 0.31731477379798889
0.92648643255233765 0.9995998740196228 0.32525131106376648
0.0056610256433486938 0.0012642504880204797 0.46393081545829773
0.079063311219215393 0.0062241796404123306 0.45491555333137512
0.22418120503425598 0.0080895069986581802 0.433439701795578
0.40131744742393494 0.00024575626594014466 0.39209440350532532
0.57269477844238281 0 0.35749205946922302
0.71466094255447388 0 0.34067654609680176
0.83698225021362305 0.0077719446271657944 0.34012320637702942
2.5491153792245314e-05 0.077909313142299652 0.45298883318901062
0.051108986139297485 0.081983081996440887 0.44268012046813965
0.19502687454223633 0.074429921805858612 0.42003625631332397
0.38201400637626648 0.05240243673324585 0.38696107268333435
0.56596255302429199 0.025113513693213463 0.36092737317085266
0.71877527236938477 0.033258207142353058 0.34853482246398926
0.84674739837646484 0.065718032419681549 0.34937599301338196
6.9292851549107581e-05 0.1999211311340332 0.42829179763793945
0.042080268263816833 0.20227472484111786 0.4214475154876709
0.18143236637115479 0.19481499493122101 0.40679368376731873
0.37086498737335205 0.17948678135871887 0.38307857513427734
0.56341946125030518 0.16357269883155823 0.36686736345291138
0.72802150249481201 0.16816729307174683 0.36427369713783264
0.86205440759658813 0.19424609839916229 0.37074095010757446
0.0012642205692827702 0.35171023011207581 0.40275603532791138
0.045284181833267212 0.36125260591506958 0.40378671884536743
0.17932835221290588 0.36514347791671753 0.40091931819915771
0.37237977981567383 0.36295613646507263 0.39067685604095459
0.57096725702285767 0.36141273379325867 0.38533046841621399
0.74113041162490845 0.37077686190605164 0.39196953177452087
0.87640136480331421 0.39416101574897766 0.40129342675209045
0 0.53904432058334351 0.39568093419075012
0.037109509110450745 0.55816590785980225 0.40356966853141785
0.18387597799301147 0.57312703132629395 0.41283753514289856
0.38745805621147156 0.57996219396591187 0.4141775369644165
0.58788228034973145 0.58498919010162354 0.41653215885162354
0.75424408912658691 0.59926414489746094 0.42896002531051636
0.88656169176101685 0.62247920036315918 0.44188082218170166
2.1541820842685411e-06 0.75177109241485596 0.42751163244247437
0.050245262682437897 0.77387517690658569 0.43967753648757935
0.20865881443023682 0.79228371381759644 0.45263803005218506
0.41878160834312439 0.79952377080917358 0.45675331354141235
0.61673980951309204 0.79885470867156982 0.4599863588809967
0.7750740647315979 0.8132975697517395 0.47163036465644836
0.90140306949615479 0.8395652174949646 0.48395785689353943
0.0097358403727412224 0.96452206373214722 0.49180939793586731
0.09434962272644043 0.97854256629943848 0.5016438364982605
0.25104206800460815 0.98652714490890503 0.50836145877838135
0.45329388976097107 0.98733657598495483 0.50731754302978516
0.64754879474639893 0.98404169082641602 0.5078272819519043
0.80305206775665283 0.99027889966964722 0.51176482439041138
0.9290040135383606 0.99836695194244385 0.51578611135482788
0.015553821809589863 0 0.63868510723114014
0.087920352816581726 0.00019208122103009373 0.62966024875640869
0.22390823066234589 0.0019172070315107703 0.6076776385307312
0.39958652853965759 0.0014434366021305323 0.57455170154571533
0.57214659452438354 5.2418428822420537e-05 0.54677784442901611
0.71685314178466797 0 0.53363537788391113
0.84190738201141357 0.0030492744408547878 0.53049725294113159
0.00018050249491352588 0.064392611384391785 0.62965422868728638
0.051040530204772949 0.067612908780574799 0.62023478746414185
0.19142408668994904 0.065969206392765045 0.60013210773468018
0.37822026014328003 0.056878108531236649 0.57380998134613037
0.56428426504135132 0.043511051684617996 0.55379515886306763
0.72111332416534424 0.044576667249202728 0.54676038026809692
0.85220509767532349 0.065238818526268005 0.54705065488815308
0 0.19061613082885742 0.60761463642120361
0.037926975637674332 0.19202597439289093 0.60227280855178833
0.17848649621009827 0.18629589676856995 0.59035724401473999
0.36957493424415588 0.17738781869411469 0.57366031408309937
0.56433016061782837 0.16930501163005829 0.56295347213745117
0.73192715644836426 0.17366202175617218 0.56481659412384033
0.86899751424789429 0.19613415002822876 0.57299518585205078
0.0018316381610929966 0.34597137570381165 0.591838538646698
0.050098791718482971 0.35501566529273987 0.59268176555633545
0.18341757357120514 0.35899433493614197 0.59079653024673462
0.37599277496337891 0.35970962047576904 0.58464759588241577
0.57462966442108154 0.36252903938293457 0.58071064949035645
0.74555414915084839 0.37429845333099365 0.58828788995742798
0.88323318958282471 0.39755699038505554 0.59807151556015015
0.003501832252368331 0.53764325380325317 0.59030729532241821
0.055970240384340286 0.55526798963546753 0.5997501015663147
0.19572097063064575 0.56871038675308228 0.6079750657081604
0.39544737339019775 0.57573950290679932 0.60938024520874023
0.59375888109207153 0.58618569374084473 0.60789674520492554
0.75970840454101562 0.60326141119003296 0.61947077512741089
0.8928723931312561 0.62684440612792969 0.63220298290252686
0.0043055363930761814 0.75299274921417236 0.61884570121765137
0.068969041109085083 0.77313840389251709 0.63493192195892334
0.22004413604736328 0.78760087490081787 0.64504063129425049
0.42711931467056274 0.79233986139297485 0.64457684755325317
0.62478011846542358 0.7965397834777832 0.64423352479934692
0.78096753358840942 0.81421279907226562 0.65430366992950439
0.90602970123291016 0.83930879831314087 0.66643965244293213
0.016147419810295105 0.96565485000610352 0.67306292057037354
0.10145431011915207 0.97831112146377563 0.68907952308654785
0.25743067264556885 0.98399823904037476 0.69433307647705078
0.46250557899475098 0.98245877027511597 0.68648314476013184
0.65694135427474976 0.98010241985321045 0.68141502141952515
0.80770570039749146 0.98815619945526123 0.68349552154541016
0.93135648965835571 0.9969978928565979 0.68713194131851196
0.019649865105748177 0 0.77686500549316406
0.096953809261322021 0 0.7695012092590332
0.23095506429672241 0 0.75076675415039062
0.40630784630775452 0.0025428023654967546 0.7265326976776123
0.58072632551193237 0.006415258627384901 0.70543545484542847
0.72380274534225464 0.00011488970631035045 0.69227045774459839
0.84988349676132202 0 0.68514972925186157
0.0015063267201185226 0.056408975273370743 0.76904857158660889
0.062780536711215973 0.052073191851377487 0.7623286247253418
0.19868938624858856 0.054171737283468246 0.74627983570098877
0.38357487320899963 0.060374703258275986 0.72710210084915161
0.56972032785415649 0.059676285833120346 0.7122873067855835
0.72600781917572021 0.051270190626382828 0.70467489957809448
0.85633212327957153 0.055886857211589813 0.70121598243713379
0.00039535222458653152 0.18374384939670563 0.75534290075302124
0.053667165338993073 0.18178430199623108 0.75041294097900391
0.18735100328922272 0.17895473539829254 0.74039292335510254
0.375774085521698 0.17829030752182007 0.72910034656524658
0.57222247123718262 0.17724123597145081 0.72238779067993164
0.74032509326934814 0.17878642678260803 0.72272783517837524
0.87463825941085815 0.19490714371204376 0.7261582612991333
0.0053590214811265469 0.34270578622817993 0.74646031856536865
0.057039566338062286 0.3521607518196106 0.7457776665687561
0.19054341316223145 0.35726061463356018 0.74476915597915649
0.38473951816558838 0.360708087682724 0.74159032106399536
0.58612227439880371 0.36703088879585266 0.73992180824279785
0.75805819034576416 0.38048809766769409 0.74673032760620117
0.89425837993621826 0.40405920147895813 0.75561070442199707
0.0025433260016143322 0.53844809532165527 0.74653178453445435
0.053936213254928589 0.55864232778549194 0.75485819578170776
0.20067746937274933 0.5719912052154541 0.7621074914932251
0.40689021348953247 0.57948482036590576 0.76357454061508179
0.60697680711746216 0.59094178676605225 0.76290714740753174
0.77273094654083252 0.6115487813949585 0.77235174179077148
0.90590471029281616 0.63591146469116211 0.78494173288345337
0.0029383490327745676 0.75488656759262085 0.77337169647216797
0.06710689514875412 0.77705389261245728 0.78721219301223755
0.22639007866382599 0.79154509305953979 0.79457515478134155
0.43943572044372559 0.79631167650222778 0.79256176948547363
0.63632869720458984 0.80228143930435181 0.78966867923736572
0.79069089889526367 0.82050371170043945 0.79610508680343628
0.91514188051223755 0.84101974964141846 0.8085823655128479
0.018560146912932396 0.96575522422790527 0.82054370641708374
0.10691974312067032 0.97895389795303345 0.8354262113571167
0.26655378937721252 0.98435032367706299 0.83890324831008911
0.47209984064102173 0.98327010869979858 0.82983303070068359
0.66488653421401978 0.98129832744598389 0.82159298658370972
0.81159281730651855 0.98778527975082397 0.82027637958526611
0.93399548530578613 0.99454641342163086 0.8249860405921936
0.035880640149116516 0 0.89873552322387695
0.12190635502338409 0 0.89135259389877319
0.25206112861633301 0 0.87641394138336182
0.41703507304191589 0.00024288402346428484 0.85836124420166016
0.58402085304260254 0.0015148536767810583 0.84198474884033203
0.72813624143600464 0 0.82932090759277344
0.85696989297866821 0 0.82181167602539062
0.015104061923921108 0.059276118874549866 0.88972824811935425
0.092874415218830109 0.05254446342587471 0.88346689939498901
0.22314295172691345 0.052144579589366913 0.8705635666847229
0.39645960927009583 0.059584956616163254 0.85655444860458374
0.57603174448013306 0.062083493918180466 0.84548556804656982
0.73008519411087036 0.050445467233657837 0.83659589290618896
0.85942524671554565 0.046540893614292145 0.83109235763549805
0.0094936145469546318 0.18839117884635925 0.87848913669586182
0.079279892146587372 0.18402114510536194 0.87418019771575928
0.20895390212535858 0.17972475290298462 0.8655393123626709
0.3896271288394928 0.18097200989723206 0.85772216320037842
0.58266532421112061 0.18428711593151093 0.85383749008178711
0.74949413537979126 0.1829536110162735 0.85227072238922119
0.88027703762054443 0.19459728896617889 0.85377407073974609
0.010231452062726021 0.34794700145721436 0.87139970064163208
0.069233313202857971 0.35752964019775391 0.87098270654678345
0.20522421598434448 0.36362370848655701 0.86990511417388916
0.39808845520019531 0.36806964874267578 0.86845743656158447
0.59861302375793457 0.3745056688785553 0.86937934160232544
0.77128618955612183 0.38727304339408875 0.87582647800445557
0.90517807006835938 0.41148322820663452 0.88550198078155518
0.00078513950575143099 0.54276639223098755 0.87634623050689697
0.046815264970064163 0.56696182489395142 0.88052624464035034
0.20793095231056213 0.58160537481307983 0.88435822725296021
0.41951951384544373 0.58944445848464966 0.88600993156433105
0.61811119318008423 0.59886264801025391 0.88784366846084595
0.78407555818557739 0.61958169937133789 0.89720058441162109
0.91872519254684448 0.64577764272689819 0.91198313236236572
0.00023576324747409672 0.75833761692047119 0.90574848651885986
0.059831537306308746 0.78344511985778809 0.91080212593078613
0.23459765315055847 0.79974806308746338 0.91474443674087524
0.4518829882144928 0.80679047107696533 0.91090071201324463
0.64221668243408203 0.81127697229385376 0.90897107124328613
0.79788053035736084 0.82708704471588135 0.91199833154678345
0.92463451623916626 0.843830406665802 0.92470681667327881
0.02085927315056324 0.96629375219345093 0.95016926527023315
0.1152990311384201 0.97980326414108276 0.95611321926116943
0.27827027440071106 0.98668855428695679 0.95592027902603149
0.47746777534484863 0.98783797025680542 0.94853651523590088
0.66182255744934082 0.98662513494491577 0.94051653146743774
0.81182432174682617 0.9884297251701355 0.93714064359664917
0.93776315450668335 0.98987942934036255 0.94172245264053345
