assets/lut/jtsemple frostedbeachpicnic.cube
# Created by: G'MIC (https://gmic.eu)
TITLE "frostedbeachpicnic"
# LUT size
LUT_3D_SIZE 13
# Data domain
DOMAIN_MIN 0.0 0.0 0.0
DOMAIN_MAX 1.0 1.0 1.0
# LUT data points
0.0014878965448588133 0 0.0049819648265838623
0.034769080579280853 5.6008731917245314e-05 0.0053757461719214916
0.10694222897291183 0 0.0078622708097100258
0.19063933193683624 0 0.009222845546901226
0.28405475616455078 0 0.0076815136708319187
0.38534277677536011 0 0.0038180931005626917
0.48905107378959656 0.00094327738042920828 0.0013637018855661154
0.58985978364944458 0.0044818953610956669 0.00050318101420998573
0.6813850998878479 0.0018125945935025811 0.00042509191553108394
0.76508975028991699 0 0.00042509191553108394
0.84397345781326294 0 0.00077909580431878567
0.91445684432983398 2.3336972390097799e-06 0.0023377661127597094
0.97101521492004395 0.0021921196021139622 0.0067116082645952702
0.0042900536209344864 0.019139070063829422 0.016401821747422218
0.044085439294576645 0.019274812191724777 0.017667043954133987
0.1208057627081871 0.021599086001515388 0.018540594726800919
0.20545993745326996 0.021479662507772446 0.019477993249893188
0.30056774616241455 0.019842289388179779 0.017857510596513748
0.4034028947353363 0.023682987317442894 0.012061025947332382
0.50730353593826294 0.031038470566272736 0.0077831940725445747
0.60766303539276123 0.036418795585632324 0.0062557742930948734
0.70149701833724976 0.029869843274354935 0.0067036799155175686
0.79030013084411621 0.01870218850672245 0.00876592006534338
0.87543296813964844 0.020149828866124153 0.012729136273264885
0.94806063175201416 0.034430932253599167 0.020330362021923065
0.99423658847808838 0.06077970564365387 0.032776013016700745
0.0045445458963513374 0.090824812650680542 0.019425470381975174
0.053400091826915741 0.091021232306957245 0.022327004000544548
0.13255380094051361 0.095505975186824799 0.02376881055533886
0.22205302119255066 0.096755579113960266 0.02497049979865551
0.32067260146141052 0.094188213348388672 0.024367313832044601
0.42452362179756165 0.095018990337848663 0.020564792677760124
0.52805101871490479 0.097323067486286163 0.01771443709731102
0.62853515148162842 0.099355272948741913 0.018384058028459549
0.72501552104949951 0.096441783010959625 0.022953527048230171
0.8185005784034729 0.094529978930950165 0.030815873295068741
0.90783786773681641 0.10525401681661606 0.041091274470090866
0.97825807332992554 0.12925048172473907 0.054397717118263245
0.99996769428253174 0.16358081996440887 0.070590347051620483
0.0058461655862629414 0.17956751585006714 0.019767805933952332
0.063073478639125824 0.18156872689723969 0.023973561823368073
0.14610597491264343 0.18494910001754761 0.028320686891674995
0.24062874913215637 0.18806126713752747 0.030638810247182846
0.3431473970413208 0.18961656093597412 0.031255446374416351
0.44926285743713379 0.19094003736972809 0.030634397640824318
0.55408531427383423 0.19210454821586609 0.03180960938334465
0.65539354085922241 0.19548928737640381 0.036557350307703018
0.75380492210388184 0.20169815421104431 0.045349568128585815
0.84974592924118042 0.21236436069011688 0.057495355606079102
0.93766754865646362 0.23029962182044983 0.073193959891796112
0.99433028697967529 0.25775787234306335 0.091877743601799011
1 0.29374173283576965 0.11201757937669754
0.0066332500427961349 0.27859973907470703 0.018788430839776993
0.069691769778728485 0.28281477093696594 0.024616241455078125
0.15856489539146423 0.28937050700187683 0.032253295183181763
0.26003909111022949 0.29682180285453796 0.038246635347604752
0.36954489350318909 0.30354636907577515 0.042217899113893509
0.48077806830406189 0.30874907970428467 0.045976303517818451
0.58838427066802979 0.31305593252182007 0.051672004163265228
0.6905524730682373 0.32039549946784973 0.060976423323154449
0.78887361288070679 0.33672693371772766 0.073951840400695801
0.8832659125328064 0.35923096537590027 0.08973153680562973
0.96430730819702148 0.38419151306152344 0.11003874242305756
0.99929642677307129 0.41434219479560852 0.13319379091262817
1 0.44712996482849121 0.15812668204307556
0.0089822355657815933 0.39009344577789307 0.023216547444462776
0.079239681363105774 0.39786699414253235 0.032128863036632538
0.17581292986869812 0.4098561704158783 0.04410983994603157
0.28757515549659729 0.42400634288787842 0.054947316646575928
0.40617233514785767 0.4368681013584137 0.063780598342418671
0.52422219514846802 0.44778382778167725 0.072393558919429779
0.63531410694122314 0.45826601982116699 0.082829415798187256
0.73857498168945312 0.47137895226478577 0.097201265394687653
0.83716630935668945 0.49415445327758789 0.11506707966327667
0.92822009325027466 0.52290892601013184 0.13572931289672852
0.99056458473205566 0.55238813161849976 0.15889795124530792
1 0.58310788869857788 0.18515141308307648
1 0.60978931188583374 0.21295331418514252
0.021063756197690964 0.51662391424179077 0.042640745639801025
0.10259736329317093 0.52962112426757812 0.056611873209476471
0.20817458629608154 0.54781883955001831 0.074150756001472473
0.33112317323684692 0.56820821762084961 0.089878946542739868
0.4593845009803772 0.58675771951675415 0.10290572047233582
0.58282750844955444 0.60277020931243896 0.11557172983884811
0.69637489318847656 0.62073427438735962 0.13055424392223358
0.79916876554489136 0.64058661460876465 0.15007686614990234
0.89248168468475342 0.66362786293029785 0.173617884516716
0.96844244003295898 0.69082558155059814 0.19873487949371338
0.99960017204284668 0.71984219551086426 0.22420156002044678
1 0.74717843532562256 0.25079071521759033
1 0.76646411418914795 0.27890941500663757
0.060294535011053085 0.66368663311004639 0.087468869984149933
0.15264758467674255 0.68174153566360474 0.10711821168661118
0.26729258894920349 0.70340043306350708 0.12871229648590088
0.39925661683082581 0.72586965560913086 0.14795294404029846
0.53081542253494263 0.74268007278442383 0.16385065019130707
0.65519028902053833 0.76012110710144043 0.17927947640419006
0.76694339513778687 0.78393459320068359 0.19859148561954498
0.86539369821548462 0.80728280544281006 0.22277289628982544
0.94698280096054077 0.82333475351333618 0.24958865344524384
0.99357759952545166 0.84341537952423096 0.27671515941619873
1 0.86765700578689575 0.30249932408332825
1 0.88946437835693359 0.32786974310874939
0.99973595142364502 0.90333855152130127 0.35317578911781311
0.13041040301322937 0.82573914527893066 0.1637471616268158
0.23644760251045227 0.84472429752349854 0.18331542611122131
0.35975557565689087 0.86415952444076538 0.20592120289802551
0.48996564745903015 0.87625396251678467 0.22590115666389465
0.61589562892913818 0.88204818964004517 0.24311608076095581
0.73353755474090576 0.89499646425247192 0.26096430420875549
0.8382105827331543 0.92106443643569946 0.28294503688812256
0.92492163181304932 0.94636404514312744 0.3090461790561676
0.98547220230102539 0.95364826917648315 0.33623969554901123
0.99994397163391113 0.96256965398788452 0.3625694215297699
1 0.97575652599334717 0.38732868432998657
0.99990302324295044 0.98657774925231934 0.41065883636474609
0.9965369701385498 0.99184292554855347 0.43301239609718323
0.21888692677021027 0.9592127799987793 0.25453707575798035
0.33679211139678955 0.97180187702178955 0.27287858724594116
0.46426406502723694 0.98177415132522583 0.29432570934295654
0.58734411001205444 0.98144441843032837 0.31355366110801697
0.70151776075363159 0.97451025247573853 0.3305305540561676
0.80823618173599243 0.97581666707992554 0.34937587380409241
0.90352457761764526 0.99074453115463257 0.37259456515312195
0.97389912605285645 0.99965435266494751 0.39874500036239624
0.99929326772689819 1 0.42500156164169312
1 1 0.4501953125
1 1 0.47410249710083008
0.99952644109725952 1 0.49652591347694397
0.99450492858886719 1 0.51759016513824463
0.31335186958312988 1 0.34389981627464294
0.43493786454200745 1 0.36237698793411255
0.5590941309928894 1 0.38211178779602051
0.67370355129241943 1 0.40032151341438293
0.77557104825973511 0.9998774528503418 0.41735038161277771
0.86886590719223022 0.99886763095855713 0.4360802173614502
0.95412832498550415 0.99899262189865112 0.45975971221923828
0.99818235635757446 0.99995410442352295 0.48565319180488586
1 1 0.5111544132232666
1 1 0.53571468591690063
1 1 0.55931824445724487
0.9998319149017334 1 0.58153665065765381
0.99523979425430298 1 0.60099190473556519
0.40182635188102722 1 0.42707943916320801
0.52293705940246582 1 0.4451771080493927
0.64125031232833862 1 0.46413221955299377
0.74623697996139526 1 0.48253324627876282
0.83483999967575073 0.99987703561782837 0.50016748905181885
0.91184836626052856 0.99722665548324585 0.51956760883331299
0.97888416051864624 0.99516135454177856 0.54311823844909668
1 0.99926793575286865 0.56806349754333496
1 1 0.59251964092254639
1 1 0.61612468957901001
1 1 0.63937562704086304
0.999988853931427 1 0.66125446557998657
0.99650746583938599 1 0.67953628301620483
0.47730004787445068 1 0.50121533870697021
0.59547442197799683 1 0.52043044567108154
0.70799952745437622 0.99950891733169556 0.53930675983428955
0.80276006460189819 0.99533647298812866 0.55809825658798218
0.87862890958786011 0.99187099933624268 0.57706594467163086
0.94060599803924561 0.9891924262046814 0.59767377376556396
0.98800480365753174 0.99006342887878418 0.62039738893508911
1 0.99557691812515259 0.6435655951499939
1 0.99966126680374146 0.6660846471786499
1 1 0.68843358755111694
1 1 0.71063101291656494
1 0.99996209144592285 0.73144835233688354
0.99827980995178223 0.99915051460266113 0.74817264080047607
0.0021159900352358818 2.8004365958622657e-05 0.041811428964138031
0.036933720111846924 0.00015869140042923391 0.044308979064226151
0.10794710367918015 0 0.049859184771776199
0.19307199120521545 0 0.05208200216293335
0.28779256343841553 0 0.048671573400497437
0.38891348242759705 0 0.041670314967632294
0.49254831671714783 0.0003406449977774173 0.034526914358139038
0.59341633319854736 0.0046635349281132221 0.029745751991868019
0.6847342848777771 0.0027007157914340496 0.027028266340494156
0.76708060503005981 0 0.026830874383449554
0.84551346302032471 0 0.030429555103182793
0.91740584373474121 1.9746669295273023e-06 0.039514534175395966
0.97560578584671021 0.0025732601061463356 0.053717654198408127
0.0042657442390918732 0.022148117423057556 0.057674005627632141
0.047019284218549728 0.023100579157471657 0.062008757144212723
0.12234319001436234 0.023746490478515625 0.06650841236114502
0.20918793976306915 0.024303331971168518 0.06713847815990448
0.30600371956825256 0.022865967825055122 0.063845224678516388
0.40840902924537659 0.022009994834661484 0.057189133018255234
0.51184737682342529 0.025572190061211586 0.051505967974662781
0.61224269866943359 0.034368120133876801 0.049143217504024506
0.70683747529983521 0.032232515513896942 0.049573395401239395
0.79466885328292847 0.021401245146989822 0.052458174526691437
0.87836629152297974 0.019989596679806709 0.058910146355628967
0.95148181915283203 0.033361099660396576 0.070819705724716187
0.99610412120819092 0.061132319271564484 0.088206708431243896
0.0046456428244709969 0.094839133322238922 0.070020519196987152
0.055261380970478058 0.094663403928279877 0.073690347373485565
0.13477727770805359 0.096524134278297424 0.077431187033653259
0.22612856328487396 0.097405329346656799 0.07793755829334259
0.3265586793422699 0.097000822424888611 0.07519037276506424
0.43095317482948303 0.095195367932319641 0.070389434695243835
0.53404712677001953 0.095171920955181122 0.067609913647174835
0.6351434588432312 0.099518686532974243 0.069080173969268799
0.73264575004577637 0.10139492154121399 0.073819778859615326
0.82590937614440918 0.10032766312360764 0.08134479820728302
0.91224068403244019 0.10776089131832123 0.091645754873752594
0.98043966293334961 0.1303260326385498 0.10709299147129059
0.99999499320983887 0.16519291698932648 0.12729582190513611
0.0068609048612415791 0.18198148906230927 0.075581327080726624
0.065834790468215942 0.18371005356311798 0.080253049731254578
0.14909902215003967 0.18571355938911438 0.085517123341560364
0.24379426240921021 0.18790604174137115 0.087308414280414581
0.34785917401313782 0.19071026146411896 0.086046226322650909
0.45526966452598572 0.19236534833908081 0.084374234080314636
0.56042355298995972 0.19403167068958282 0.085226021707057953
0.6632390022277832 0.20017437636852264 0.091111861169338226
0.76381403207778931 0.20963332056999207 0.1007569283246994
0.85972476005554199 0.21926583349704742 0.11273875832557678
0.94244158267974854 0.2349189966917038 0.12785238027572632
0.99404489994049072 0.26210519671440125 0.14740219712257385
1 0.29826334118843079 0.17117592692375183
0.0073119816370308399 0.28052639961242676 0.076186284422874451
0.071933403611183167 0.28438079357147217 0.082529358565807343
0.16062396764755249 0.28976786136627197 0.090131200850009918
0.26220843195915222 0.29632481932640076 0.096056185662746429
0.37281104922294617 0.30342185497283936 0.09944421797990799
0.48513153195381165 0.3098568320274353 0.10274055600166321
0.59383422136306763 0.31681171059608459 0.10844285041093826
0.69833469390869141 0.32875669002532959 0.1186978667974472
0.80011892318725586 0.34681189060211182 0.13327863812446594
0.89622765779495239 0.36660701036453247 0.14992143213748932
0.96986418962478638 0.38946953415870667 0.17001637816429138
0.99910426139831543 0.42011183500289917 0.19414633512496948
1 0.45362260937690735 0.22124709188938141
0.0097536575049161911 0.39296033978462219 0.083070941269397736
0.081630393862724304 0.40068429708480835 0.091330461204051971
0.17786458134651184 0.41144511103630066 0.10267091542482376
0.28877758979797363 0.42409542202949524 0.11355234682559967
0.40834105014801025 0.43693536520004272 0.12316364794969559
0.52725613117218018 0.44910538196563721 0.13212601840496063
0.63901656866073608 0.46261924505233765 0.14324428141117096
0.74337810277938843 0.48073169589042664 0.15852060914039612
0.84337854385375977 0.50562268495559692 0.1784614771604538
0.93581205606460571 0.53180372714996338 0.20064756274223328
0.99245405197143555 0.55923634767532349 0.22411215305328369
0.99998176097869873 0.59019464254379272 0.25132405757904053
0.99965286254882812 0.61669468879699707 0.28115588426589966
0.022774491459131241 0.52134490013122559 0.10575485229492188
0.1069241389632225 0.53486627340316772 0.11857591569423676
0.21182683110237122 0.55192434787750244 0.13509781658649445
0.33296561241149902 0.57055318355560303 0.15116564929485321
0.4614931046962738 0.58833545446395874 0.16619765758514404
0.5857359766960144 0.60521113872528076 0.18013575673103333
0.69889867305755615 0.62473142147064209 0.19641236960887909
0.79990977048873901 0.64737492799758911 0.21666006743907928
0.89241957664489746 0.67329651117324829 0.24214327335357666
0.96813321113586426 0.70124822854995728 0.27016380429267883
0.99907243251800537 0.72894293069839478 0.29609805345535278
0.99969214200973511 0.7529410719871521 0.32408884167671204
0.99821943044662476 0.77006387710571289 0.35336855053901672
0.063496261835098267 0.66859978437423706 0.15547861158847809
0.15929017961025238 0.68806642293930054 0.17351445555686951
0.27381953597068787 0.70904827117919922 0.19474853575229645
0.40269383788108826 0.72925490140914917 0.21500280499458313
0.53454041481018066 0.74694132804870605 0.2332686185836792
0.658943772315979 0.76494860649108887 0.25070598721504211
0.7698783278465271 0.78870093822479248 0.27154958248138428
0.86663329601287842 0.81108576059341431 0.2964484691619873
0.94920861721038818 0.82809638977050781 0.32533875107765198
0.99433815479278564 0.85188931226730347 0.35544517636299133
1 0.87483406066894531 0.38151592016220093
0.99971562623977661 0.88969504833221436 0.40803137421607971
0.99606311321258545 0.90033435821533203 0.43357059359550476
0.13485141098499298 0.82649475336074829 0.23586356639862061
0.24200835824012756 0.84616291522979736 0.25507095456123352
0.36431145668029785 0.86473715305328369 0.27824684977531433
0.49390408396720886 0.87811493873596191 0.30016869306564331
0.62086492776870728 0.88801044225692749 0.32017350196838379
0.73831385374069214 0.90337765216827393 0.34040725231170654
0.84187465906143188 0.92759251594543457 0.36418929696083069
0.92835056781768799 0.94715720415115356 0.39071181416511536
0.98795992136001587 0.95617663860321045 0.418373703956604
1 0.96969646215438843 0.4446355402469635
0.99976497888565063 0.98082864284515381 0.46880245208740234
0.99722534418106079 0.9860987663269043 0.49270981550216675
0.99155694246292114 0.9886852502822876 0.51519638299942017
0.22441072762012482 0.95602065324783325 0.33071014285087585
0.34108942747116089 0.96990615129470825 0.34969818592071533
0.46664637327194214 0.97834372520446777 0.37185382843017578
0.59108465909957886 0.98040539026260376 0.39322468638420105
0.70785307884216309 0.97953873872756958 0.41303819417953491
0.81495797634124756 0.98432666063308716 0.43428751826286316
0.90742009878158569 0.99530029296875 0.45854449272155762
0.97567647695541382 0.99969625473022461 0.48377785086631775
0.99949043989181519 1 0.50862699747085571
1 1 0.53191405534744263
0.99972206354141235 1 0.55444568395614624
0.9954114556312561 1 0.57653915882110596
0.98918414115905762 1 0.59710866212844849
0.31946954131126404 1 0.42381119728088379
0.44044488668441772 1 0.44292157888412476
0.56378579139709473 1 0.46310406923294067
0.67993664741516113 1 0.48320072889328003
0.78449958562850952 1 0.50194209814071655
0.87873399257659912 1 0.52248144149780273
0.9591071605682373 1 0.545806884765625
0.99836105108261108 1 0.56999814510345459
1 1 0.59286832809448242
1 1 0.61522966623306274
0.99999672174453735 1 0.6367989182472229
0.99720662832260132 1 0.65709406137466431
0.98995453119277954 1 0.67603343725204468
0.40926459431648254 1 0.50832992792129517
0.53029835224151611 1 0.52704662084579468
0.64867901802062988 1 0.54628098011016846
0.75509184598922729 1 0.56511014699935913
0.84587943553924561 0.99999988079071045 0.58397793769836426
0.92330086231231689 0.99979978799819946 0.60415232181549072
0.98404008150100708 0.99967223405838013 0.62685847282409668
1 0.99999988079071045 0.64950484037399292
1 1 0.67101961374282837
1 1 0.69163012504577637
1 1 0.71263295412063599
0.99890232086181641 1 0.73272895812988281
0.99218118190765381 1 0.74969226121902466
0.48665615916252136 1 0.58218348026275635
0.60486221313476562 1 0.60126417875289917
0.71685117483139038 0.99997276067733765 0.61993789672851562
0.81347000598907471 0.99899375438690186 0.63839739561080933
0.89128506183624268 0.99651259183883667 0.65743225812911987
0.95070379972457886 0.99438905715942383 0.67848879098892212
0.99101132154464722 0.99645602703094482 0.700508713722229
1 0.99932569265365601 0.72139692306518555
1 1 0.74074745178222656
1 1 0.7601090669631958
1 1 0.77968716621398926
0.99978506565093994 1 0.79825150966644287
0.9951176643371582 1 0.81313729286193848
0.001705229515209794 0 0.096728228032588959
0.039723742753267288 0 0.1002323105931282
0.11145897954702377 0 0.10354847460985184
0.19720862805843353 0 0.1028641015291214
0.29140836000442505 0 0.098845809698104858
0.39118734002113342 0 0.092606984078884125
0.49227669835090637 0 0.087036386132240295
0.59088313579559326 0.00034921683254651725 0.083552852272987366
0.68115204572677612 0.00029682833701372147 0.08064001053571701
0.76323306560516357 0 0.08080686628818512
0.8422437310218811 0 0.085700228810310364
0.91673344373703003 7.3421702836640179e-05 0.098078921437263489
0.97713887691497803 0.0042594759725034237 0.11562703549861908
0.0059984843246638775 0.023906499147415161 0.11275477707386017
0.053869329392910004 0.023453043773770332 0.11732243746519089
0.12733912467956543 0.02413279190659523 0.12007929384708405
0.21391396224498749 0.027102945372462273 0.11883191764354706
0.31102663278579712 0.026911476626992226 0.11488489061594009
0.41235366463661194 0.021716069430112839 0.10926980525255203
0.51394098997116089 0.01915271207690239 0.10484305024147034
0.61366647481918335 0.027278166264295578 0.1036849245429039
0.70730966329574585 0.028789220377802849 0.10476692020893097
0.79396349191665649 0.021176761016249657 0.10731524229049683
0.8763047456741333 0.020956719294190407 0.11465524137020111
0.95163452625274658 0.036615949124097824 0.12966755032539368
0.99672418832778931 0.066269069910049438 0.15067958831787109
0.0074186883866786957 0.098359093070030212 0.12668512761592865
0.063061580061912537 0.098658919334411621 0.13070806860923767
0.13907063007354736 0.10077091306447983 0.13287077844142914
0.23009583353996277 0.1006450429558754 0.13314718008041382
0.33152452111244202 0.10005452483892441 0.13031753897666931
0.43610256910324097 0.096796192228794098 0.12627765536308289
0.5389554500579834 0.094596326351165771 0.1244887113571167
0.64028775691986084 0.10006523877382278 0.12741491198539734
0.73820430040359497 0.10512398928403854 0.13294258713722229
0.83025407791137695 0.10576868802309036 0.1403178870677948
0.91411060094833374 0.112789586186409 0.15150675177574158
0.98139208555221558 0.13539595901966095 0.16857153177261353
1 0.17076419293880463 0.19207203388214111
0.0093992939218878746 0.18477159738540649 0.13561427593231201
0.071709789335727692 0.1872718334197998 0.14025099575519562
0.15298524498939514 0.18989336490631104 0.14458371698856354
0.247468501329422 0.19118739664554596 0.14703123271465302
0.35273477435112 0.19314789772033691 0.14604140818119049
0.46084693074226379 0.19484376907348633 0.14475908875465393
0.56704020500183105 0.19714193046092987 0.14700303971767426
0.67123758792877197 0.20594646036624908 0.1541944146156311
0.77331840991973877 0.21846549212932587 0.16562269628047943
0.86794352531433105 0.22809672355651855 0.17846614122390747
0.94606167078018188 0.24245007336139679 0.19398711621761322
0.99411654472351074 0.26933613419532776 0.21469005942344666
1 0.30571907758712769 0.24063462018966675
0.0097009548917412758 0.285258948802948 0.14120469987392426
0.07769649475812912 0.28948351740837097 0.14684285223484039
0.16580499708652496 0.29428854584693909 0.15391416847705841
0.26675978302955627 0.29987329244613647 0.16015787422657013
0.37767130136489868 0.30641293525695801 0.16425850987434387
0.49088919162750244 0.31311342120170593 0.16803348064422607
0.60087615251541138 0.32181313633918762 0.1748017817735672
0.70745307207107544 0.33671227097511292 0.18670265376567841
0.81152999401092529 0.35645517706871033 0.20366714894771576
0.90657830238342285 0.37499701976776123 0.22212359309196472
0.97381037473678589 0.39691856503486633 0.2429191917181015
0.99906522035598755 0.42734953761100769 0.26767697930335999
1 0.4613264799118042 0.29597127437591553
0.013426029123365879 0.40191102027893066 0.15384878218173981
0.089031293988227844 0.40929871797561646 0.1605985164642334
0.18459457159042358 0.41810792684555054 0.17064952850341797
0.29436933994293213 0.42879059910774231 0.18174001574516296
0.41374543309211731 0.4410548210144043 0.19295002520084381
0.53321462869644165 0.45346289873123169 0.20332431793212891
0.6458430290222168 0.46824657917022705 0.21525946259498596
0.75196200609207153 0.48892927169799805 0.23198828101158142
0.85389703512191772 0.51463335752487183 0.25423434376716614
0.94432610273361206 0.53879588842391968 0.27864217758178711
0.99475544691085815 0.56420218944549561 0.30338659882545471
0.99983400106430054 0.59472084045410156 0.33085295557975769
0.99784165620803833 0.62227976322174072 0.36071181297302246
0.029387425631284714 0.53518056869506836 0.18458926677703857
0.11684545129537582 0.546855628490448 0.19403742253780365
0.22058434784412384 0.56016260385513306 0.20774941146373749
0.33964696526527405 0.57610821723937988 0.22375950217247009
0.46776458621025085 0.59425884485244751 0.24197129905223846
0.5918850302696228 0.61164063215255737 0.25840920209884644
0.70492196083068848 0.63133472204208374 0.27577713131904602
0.80695021152496338 0.65499556064605713 0.29721099138259888
0.90216994285583496 0.68108892440795898 0.32494422793388367
0.97589570283889771 0.70684951543807983 0.35500350594520569
0.99966734647750854 0.73127412796020508 0.38088563084602356
0.99861377477645874 0.753581702709198 0.40799599885940552
0.9936683177947998 0.77168959379196167 0.43643462657928467
0.073240242898464203 0.68356359004974365 0.24155105650424957
0.17084255814552307 0.69943404197692871 0.25536626577377319
