assets/lut/jtsemple justpeachy.cube
# Created by: G'MIC (https://gmic.eu)
TITLE "justpeachy"
# LUT size
LUT_3D_SIZE 7
# Data domain
DOMAIN_MIN 0.0 0.0 0.0
DOMAIN_MAX 1.0 1.0 1.0
# LUT data points
0 0 0
0.037340573966503143 0 0
0.1977890282869339 0 0
0.38048318028450012 0 0
0.56398892402648926 0 0
0.74730628728866577 0 0
0.93340247869491577 0 0
4.0061800973489881e-05 0.038085069507360458 0
0.035503759980201721 0.032289497554302216 0.00058536900905892253
0.19762028753757477 0.033534571528434753 0
0.38133364915847778 0.017418162897229195 0.0009675867622718215
0.56843012571334839 0.012035280466079712 0
0.75354564189910889 0.01943899504840374 0
0.937835693359375 0.030629925429821014 0.00010229372855974361
0 0.17982068657875061 0
0.028977591544389725 0.17750895023345947 0
0.18374799191951752 0.17113372683525085 0
0.3738437294960022 0.15672881901264191 0.00016299977141898125
0.5691220760345459 0.13772584497928619 0
0.76072388887405396 0.13348358869552612 0
0.94669860601425171 0.13637343049049377 0.0015493804821744561
0 0.32948040962219238 0.0035683875903487206
0.037681981921195984 0.32943245768547058 0.0018624997464939952
0.17805340886116028 0.33064833283424377 0
0.36630183458328247 0.32225459814071655 0
0.56767177581787109 0.30963557958602905 0
0.76593899726867676 0.30472114682197571 0
0.95829355716705322 0.30957823991775513 0
0 0.49857914447784424 0.00058451632503420115
0.031322270631790161 0.50048041343688965 0
0.17401546239852905 0.50492924451828003 0
0.36410066485404968 0.50195980072021484 0
0.56942129135131836 0.49704062938690186 0
0.77216541767120361 0.49897059798240662 0
0.96782863140106201 0.50633835792541504 0
0 0.68549889326095581 0
0.030344659462571144 0.68912392854690552 0
0.18053659796714783 0.69387257099151611 7.2254857514053583e-05
0.37456360459327698 0.69387257099151611 6.498448783531785e-05
0.58338660001754761 0.69119560718536377 0
0.78901118040084839 0.69434630870819092 0
0.98092371225357056 0.70226532220840454 0
0 0.87549614906311035 0.0081535335630178452
0.05937919020652771 0.88050192594528198 0.0033908619079738855
0.21401709318161011 0.88520735502243042 0.01610126905143261
0.40616163611412048 0.88471251726150513 0.016165250912308693
0.61354833841323853 0.88296568393707275 0.0027779224328696728
0.81982719898223877 0.88408046960830688 5.3675033996114507e-05
0.99573427438735962 0.89169657230377197 0.0001516903139417991
0 0 0.043422158807516098
0.04598318412899971 0 0.039601702243089676
0.20663060247898102 0 0.038864001631736755
0.38432133197784424 0 0.023470919579267502
0.56679803133010864 0 0.019389044493436813
0.74966651201248169 0 0.013154108077287674
0.932975172996521 0.00020964379655197263 0.016374610364437103
0 0.036215793341398239 0.046712357550859451
0.029216138646006584 0.030964016914367676 0.039810121059417725
0.20034247636795044 0.029970280826091766 0.032266922295093536
0.38224998116493225 0.023537654429674149 0.037299152463674545
0.57143652439117432 0.023753700777888298 0.027251195162534714
0.75823307037353516 0.028588090091943741 0.016440102830529213
0.94012349843978882 0.034906245768070221 0.02930133230984211
0 0.1831396222114563 0.047086425125598907
0.034668266773223877 0.17894920706748962 0.043967872858047485
0.18708622455596924 0.17204432189464569 0.034321311861276627
0.37671849131584167 0.15423488616943359 0.035161439329385757
0.57568979263305664 0.14261884987354279 0.021353568881750107
0.77000755071640015 0.14035975933074951 0.0079622901976108551
0.95260107517242432 0.14030690491199493 0.031360328197479248
0 0.33490845561027527 0.055750634521245956
0.035374198108911514 0.33517920970916748 0.04841429740190506
0.17563657462596893 0.33378532528877258 0.037500567734241486
0.36889490485191345 0.32322633266448975 0.024095034226775169
0.57480448484420776 0.31291306018829346 0.013261607848107815
0.77531760931015015 0.31136056780815125 0.0089714350178837776
0.9649842381477356 0.31456637382507324 0.022162986919283867
0 0.50428497791290283 0.048914201557636261
0.019103031605482101 0.50741064548492432 0.036004085093736649
0.16526664793491364 0.50977003574371338 0.030890924856066704
0.36484250426292419 0.50532549619674683 0.017979340627789497
0.57533317804336548 0.50258803367614746 0.013855863362550735
0.77944308519363403 0.50566798448562622 0.012403181754052639
0.97235441207885742 0.51228266954421997 0.017964381724596024
0 0.68853843212127686 0.043327003717422485
0.014898636378347874 0.69425457715988159 0.022419603541493416
0.17305625975131989 0.69780606031417847 0.040151409804821014
0.37674883008003235 0.69778650999069214 0.045731488615274429
0.58975458145141602 0.69698017835617065 0.037480730563402176
0.79690515995025635 0.69919049739837646 0.02630220353603363
0.98403644561767578 0.70645725727081299 0.027596162632107735
0 0.87865984439849854 0.074060581624507904
0.048521947115659714 0.88343507051467896 0.060498032718896866
0.21277008950710297 0.88703930377960205 0.078928656876087189
0.41172939538955688 0.88684958219528198 0.087108880281448364
0.62263375520706177 0.88380742073059082 0.075521074235439301
0.83119660615921021 0.88362205028533936 0.061726350337266922
0.99748837947845459 0.89038503170013428 0.066322371363639832
0 0 0.19229975342750549
0.033783048391342163 0 0.19227378070354462
0.19804094731807709 0 0.1786685585975647
0.37816041707992554 0 0.15477615594863892
0.5646049976348877 0 0.13770945370197296
0.75070595741271973 0.00021511901286430657 0.12611237168312073
0.93463408946990967 0.0041214139200747013 0.12361438572406769
0 0.047106783837080002 0.19300132989883423
0.03172924742102623 0.040702491998672485 0.18998795747756958
0.19496352970600128 0.027388539165258408 0.176834836602211
0.3784174919128418 0.020451445132493973 0.1602461040019989
0.57087606191635132 0.026452023535966873 0.1411692351102829
0.75833487510681152 0.029404075816273689 0.12852253019809723
0.93945449590682983 0.029613884165883064 0.13364590704441071
0 0.17900732159614563 0.18148772418498993
0.03556409478187561 0.17473842203617096 0.17784994840621948
0.18653380870819092 0.16817708313465118 0.16948235034942627
0.37710112333297729 0.15304964780807495 0.15741714835166931
0.57786911725997925 0.14266869425773621 0.14204178750514984
0.77048468589782715 0.13550260663032532 0.13005825877189636
0.9524882435798645 0.13045108318328857 0.14040897786617279
0 0.33528557419776917 0.17184560000896454
0.035814862698316574 0.33426138758659363 0.16746853291988373
0.17455340921878815 0.33333420753479004 0.1613895446062088
0.3712465763092041 0.32487791776657104 0.15164744853973389
0.57846510410308838 0.31455522775650024 0.14515155553817749
0.77926278114318848 0.3115324079990387 0.1397269070148468
0.96724885702133179 0.31104525923728943 0.1448550820350647
0 0.507476806640625 0.16294793784618378
0.017006533220410347 0.51040017604827881 0.15675553679466248
0.1627860814332962 0.51300531625747681 0.15490283071994781
0.36580845713615417 0.51114320755004883 0.14968106150627136
0.57724863290786743 0.50835102796554565 0.15018963813781738
0.78368699550628662 0.50872069597244263 0.1487489640712738
0.97639364004135132 0.51206040382385254 0.15177258849143982
0 0.69087272882461548 0.16480964422225952
0.022424913942813873 0.69696885347366333 0.15586225688457489
0.17938026785850525 0.70166218280792236 0.16528759896755219
0.38178548216819763 0.7021065354347229 0.17082515358924866
0.59237295389175415 0.70252734422683716 0.17057038843631744
0.80149179697036743 0.70177680253982544 0.16403613984584808
0.98773014545440674 0.70524787902832031 0.167547807097435
0 0.8791733980178833 0.19742549955844879
0.059851374477148056 0.88492226600646973 0.19049277901649475
0.22651611268520355 0.88909685611724854 0.20419512689113617
0.42049914598464966 0.88908678293228149 0.20888331532478333
0.62757223844528198 0.88551348447799683 0.20207042992115021
0.83544391393661499 0.88282859325408936 0.19473038613796234
0.99838435649871826 0.88760608434677124 0.20099538564682007
0 0 0.3557550311088562
0.038979623466730118 0 0.35217916965484619
0.19001108407974243 0 0.33824345469474792
0.37089821696281433 0 0.31843793392181396
0.56043314933776855 0 0.30267447233200073
0.75168865919113159 6.5552951127756387e-05 0.2948814332485199
0.93796455860137939 0.0016008114907890558 0.29048904776573181
0 0.05166301503777504 0.35508686304092407
0.0333416648209095 0.037427462637424469 0.35128325223922729
0.18687616288661957 0.021421663463115692 0.33991223573684692
0.37291619181632996 0.02035115472972393 0.32301905751228333
0.56712359189987183 0.020908834412693977 0.30693802237510681
0.75733226537704468 0.023721000179648399 0.29630786180496216
0.9415898323059082 0.028094647452235222 0.29365557432174683
0 0.17817816138267517 0.34218066930770874
0.025780443102121353 0.17153143882751465 0.33832502365112305
0.17689710855484009 0.16031722724437714 0.33468088507652283
0.37534666061401367 0.15124017000198364 0.3235192596912384
0.57812696695327759 0.14018531143665314 0.31125891208648682
0.77207022905349731 0.13308018445968628 0.3027457594871521
0.95536702871322632 0.131977379322052 0.30162608623504639
0 0.33440473675727844 0.32721197605133057
0.033925000578165054 0.33206391334533691 0.32809346914291382
0.17221030592918396 0.33050850033760071 0.3276425302028656
0.37271276116371155 0.32550615072250366 0.32163506746292114
0.58129274845123291 0.31696933507919312 0.31653481721878052
0.78419965505599976 0.31563377380371094 0.31347137689590454
0.97041445970535278 0.31435316801071167 0.31194984912872314
0 0.50792104005813599 0.3188425600528717
0.028565065935254097 0.51097136735916138 0.32272601127624512
0.16836307942867279 0.51544773578643799 0.3233279287815094
0.36845088005065918 0.51336997747421265 0.32021895051002502
0.57706689834594727 0.51156878471374512 0.31828209757804871
0.78588378429412842 0.51350098848342896 0.32110297679901123
0.9783896803855896 0.51684451103210449 0.32425123453140259
0 0.69224947690963745 0.32686564326286316
0.03933989629149437 0.69808024168014526 0.32984772324562073
0.18663482367992401 0.70478814840316772 0.33416026830673218
0.3837120532989502 0.7056509256362915 0.33459070324897766
0.59149289131164551 0.70428836345672607 0.33423522114753723
0.79995852708816528 0.70407366752624512 0.33596464991569519
0.98823219537734985 0.7074657678604126 0.34165060520172119
0 0.87964779138565063 0.35957306623458862
0.067980960011482239 0.88581466674804688 0.36035460233688354
0.22446705400943756 0.89091426134109497 0.36587539315223694
0.41683396697044373 0.89146894216537476 0.36608988046646118
0.62201249599456787 0.88739931583404541 0.36270049214363098
0.82838660478591919 0.88302648067474365 0.36234140396118164
0.99766772985458374 0.88541799783706665 0.36911794543266296
0 0 0.52291327714920044
0.038437414914369583 0 0.51831543445587158
0.18057920038700104 0 0.50578689575195312
0.36253777146339417 0 0.49070554971694946
0.5556715726852417 0 0.47852015495300293
0.74877136945724487 0 0.47040584683418274
0.93786764144897461 0 0.46394822001457214
0 0.044677704572677612 0.52637124061584473
0.024130338802933693 0.033675864338874817 0.52450692653656006
0.16892628371715546 0.0277531947940588 0.51137179136276245
0.36108231544494629 0.023355655372142792 0.49674955010414124
0.55856162309646606 0.009740777313709259 0.48464217782020569
0.75301533937454224 0.010744176805019379 0.47450608015060425
0.94288641214370728 0.023840915411710739 0.46704345941543579
0 0.17305576801300049 0.51547890901565552
0.022010952234268188 0.16820764541625977 0.5141327977180481
0.16493038833141327 0.16089875996112823 0.50899463891983032
0.36922600865364075 0.15303914248943329 0.49829748272895813
0.57390844821929932 0.13448067009449005 0.48921555280685425
0.77013200521469116 0.1287047415971756 0.48116090893745422
0.957225501537323 0.13634693622589111 0.47506725788116455
0.00024979535373859107 0.3306581974029541 0.49849942326545715
0.034199867397546768 0.33037689328193665 0.50383585691452026
0.16822445392608643 0.32962024211883545 0.50578433275222778
0.37180840969085693 0.32541939616203308 0.50108319520950317
0.5821186900138855 0.31787809729576111 0.49442893266677856
0.78592580556869507 0.31786426901817322 0.49133425951004028
0.97187560796737671 0.31896832585334778 0.48816671967506409
0.0044182273559272289 0.50607818365097046 0.48950815200805664
0.039187189191579819 0.50924831628799438 0.50067597627639771
0.17310358583927155 0.51573401689529419 0.50400817394256592
0.37257817387580872 0.51314288377761841 0.50464606285095215
0.58019566535949707 0.51262348890304565 0.49847200512886047
0.78943473100662231 0.51777040958404541 0.50228697061538696
0.97997009754180908 0.52314001321792603 0.50474715232849121
0 0.69191259145736694 0.50183898210525513
0.045439507812261581 0.69815534353256226 0.51163738965988159
0.18698218464851379 0.70672601461410522 0.51364719867706299
0.38389641046524048 0.70891153812408447 0.51310747861862183
0.5928957462310791 0.70564693212509155 0.51368457078933716
0.8020470142364502 0.70684266090393066 0.51817834377288818
0.98882448673248291 0.71123999357223511 0.52275770902633667
0 0.88030546903610229 0.53665727376937866
0.059372831135988235 0.88642376661300659 0.54229652881622314
0.21137323975563049 0.8924480676651001 0.54119175672531128
0.40711280703544617 0.89342939853668213 0.53741723299026489
0.61639600992202759 0.8894050121307373 0.53588026762008667
0.82485228776931763 0.88371574878692627 0.53928619623184204
0.99737834930419922 0.88486075401306152 0.54572361707687378
0 0 0.68463039398193359
0.037044599652290344 0 0.67942404747009277
0.17684780061244965 0 0.67000645399093628
0.3606434166431427 0 0.65972757339477539
0.55439215898513794 0 0.64978879690170288
0.74634826183319092 0 0.64014279842376709
0.93822073936462402 0 0.63319671154022217
0 0.037537220865488052 0.68902122974395752
0.01834920234978199 0.029576141387224197 0.6872984766960144
0.15905207395553589 0.03461640328168869 0.67732536792755127
0.35168173909187317 0.037313994020223618 0.66631448268890381
0.55216395854949951 0.019049013033509254 0.65621817111968994
0.74871909618377686 0.0094535080716013908 0.645344078540802
0.94168460369110107 0.01583435945212841 0.636790931224823
0 0.16845749318599701 0.68152332305908203
0.021208953112363815 0.16605529189109802 0.68466269969940186
0.15808691084384918 0.1632748544216156 0.67942452430725098
0.35728731751441956 0.15679402649402618 0.67065811157226562
0.56539016962051392 0.13886928558349609 0.66169053316116333
0.76385688781738281 0.12763118743896484 0.65226906538009644
0.95382857322692871 0.1320594847202301 0.64490044116973877
7.3601215262897313e-05 0.32612940669059753 0.66793298721313477
0.036132887005805969 0.32670703530311584 0.67592388391494751
0.1652701199054718 0.32745099067687988 0.67952698469161987
0.36556443572044373 0.32511264085769653 0.6771361231803894
0.57988929748535156 0.31959739327430725 0.67051428556442261
0.78235840797424316 0.31624346971511841 0.66375613212585449
0.96985560655593872 0.31815540790557861 0.65898686647415161
0.00036223168717697263 0.50228172540664673 0.66090923547744751
0.035435382276773453 0.50579386949539185 0.67346549034118652
0.16786211729049683 0.51222741603851318 0.68149906396865845
0.37104910612106323 0.51299488544464111 0.68451035022735596
0.58719784021377563 0.515980064868927 0.68227922916412354
0.79460304975509644 0.51874262094497681 0.67889231443405151
0.98150813579559326 0.52273368835449219 0.67606848478317261
0 0.69130420684814453 0.67417091131210327
0.033625420182943344 0.69763123989105225 0.68469053506851196
0.17778173089027405 0.70515990257263184 0.68999159336090088
0.38067194819450378 0.70955884456634521 0.69076240062713623
0.59829121828079224 0.71039491891860962 0.69122684001922607
0.80936229228973389 0.7078431248664856 0.69120419025421143
0.99142175912857056 0.71101558208465576 0.69284677505493164
0 0.88294041156768799 0.70987236499786377
0.04479198157787323 0.88731038570404053 0.71805047988891602
0.20010536909103394 0.89325821399688721 0.71368896961212158
0.40073883533477783 0.89610743522644043 0.70865011215209961
0.6161799430847168 0.89277952909469604 0.70585823059082031
0.82865458726882935 0.88706153631210327 0.70709335803985596
0.99826729297637939 0.88916218280792236 0.71328717470169067
0 0 0.84076535701751709
0.049037348479032516 0 0.83433222770690918
0.18765899538993835 0 0.82813435792922974
0.3682197630405426 0.0027701733633875847 0.82250648736953735
0.56036925315856934 0.0029429567512124777 0.81492573022842407
0.75135272741317749 0 0.80658435821533203
0.94454532861709595 0 0.80175197124481201
0 0.037064854055643082 0.84147673845291138
0.02895723283290863 0.025816226378083229 0.83771240711212158
0.16763187944889069 0.040746442973613739 0.83322328329086304
0.35448744893074036 0.056633010506629944 0.82747334241867065
0.55383110046386719 0.049002658575773239 0.8194318413734436
0.74910765886306763 0.028576016426086426 0.8101884126663208
0.9427257776260376 0.02192993089556694 0.8035428524017334
0 0.16940829157829285 0.83816379308700562
0.033805981278419495 0.16492806375026703 0.83970588445663452
0.1669800877571106 0.16772919893264771 0.83755803108215332
0.35583585500717163 0.16926144063472748 0.8324621319770813
0.56142103672027588 0.15959881246089935 0.82506775856018066
0.76062756776809692 0.14308188855648041 0.81647676229476929
0.95221328735351562 0.13612303137779236 0.81063967943191528
0.0014534894144162536 0.326739102602005 0.82933896780014038
0.050173245370388031 0.32722049951553345 0.83459585905075073
0.17559020221233368 0.3300815224647522 0.83970588445663452
0.36480915546417236 0.33122080564498901 0.83870035409927368
0.5761101245880127 0.32865908741950989 0.8334844708442688
0.77862042188644409 0.32354709506034851 0.82741975784301758
0.96861129999160767 0.3242853581905365 0.8243439793586731
0.0027162740007042885 0.50321948528289795 0.82364702224731445
0.049135304987430573 0.5083802342414856 0.83030402660369873
0.17920801043510437 0.51304364204406738 0.84075677394866943
0.37270963191986084 0.51682275533676147 0.84495097398757935
0.58717483282089233 0.52039819955825806 0.84344661235809326
0.79461514949798584 0.52057147026062012 0.84031802415847778
0.9825969934463501 0.52670812606811523 0.84004789590835571
0 0.69573915004730225 0.83504194021224976
0.038720373064279556 0.70144474506378174 0.84022188186645508
0.1851789653301239 0.70558059215545654 0.8504709005355835
0.38385835289955139 0.70956957340240479 0.85373860597610474
0.60131758451461792 0.71121954917907715 0.85250890254974365
0.81393516063690186 0.70805180072784424 0.85082763433456421
0.99375069141387939 0.71290856599807739 0.85576748847961426
0 0.88802045583724976 0.87072491645812988
0.05656789243221283 0.89103883504867554 0.87252646684646606
0.20855976641178131 0.89471793174743652 0.87416321039199829
0.40566226840019226 0.89698415994644165 0.87226229906082153
0.62093508243560791 0.89473497867584229 0.8689882755279541
0.83490031957626343 0.8906172513961792 0.86904972791671753
0.99948620796203613 0.89528894424438477 0.87741869688034058
