assets/lut/jtsemple crushin.cube
# Created by: G'MIC (https://gmic.eu)
TITLE "crushin"
# LUT size
LUT_3D_SIZE 5
# Data domain
DOMAIN_MIN 0.0 0.0 0.0
DOMAIN_MAX 1.0 1.0 1.0
# LUT data points
0 0 0
0.13564147055149078 0 0.0024315179325640202
0.44675961136817932 0 0
0.7464720606803894 0 0
0.98105889558792114 0 0
0 0.11487296968698502 0
0.14123533666133881 0.12117249518632889 0.0011588750639930367
0.4689374566078186 0.10636400431394577 0
0.80478030443191528 0.096516810357570648 0
1 0.15043401718139648 0.00012673770834226161
0 0.42422223091125488 0
0.12493598461151123 0.44263568520545959 0
0.47775506973266602 0.45502480864524841 0
0.83418810367584229 0.4726378321647644 0
1 0.50507646799087524 0
0 0.78946185111999512 0
0.1378251314163208 0.82281410694122314 0
0.48882085084915161 0.82570552825927734 0
0.82330960035324097 0.82534885406494141 0
0.99970179796218872 0.83864027261734009 0.00058070162776857615
0.021417984738945961 1 0.0023233899846673012
0.20909090340137482 1 0.020573200657963753
0.51498675346374512 1 0.0034192402381449938
0.8127860426902771 1 0
0.99569475650787354 1 0.0022413216065615416
7.0010914896556642e-06 0 0.086532250046730042
0.13180550932884216 0.0014113032957538962 0.091123290359973907
0.4563325047492981 0 0.062830261886119843
0.76389819383621216 0 0.048827286809682846
0.98960971832275391 0.00072208477649837732 0.050597440451383591
0.0014379463391378522 0.12044854462146759 0.095362871885299683
0.13740704953670502 0.11834272742271423 0.096122145652770996
0.47882682085037231 0.10761953890323639 0.082994751632213593
0.81561112403869629 0.099770262837409973 0.085149355232715607
1 0.15147416293621063 0.12330736964941025
9.6938192655215971e-06 0.42758303880691528 0.059872690588235855
0.13245366513729095 0.45403328537940979 0.089801520109176636
0.48723962903022766 0.46860793232917786 0.10125168412923813
0.84269732236862183 0.4843255877494812 0.11156055331230164
1 0.51290327310562134 0.14296534657478333
4.8469096327607986e-06 0.79776465892791748 0.08537738025188446
0.14371494948863983 0.83290785551071167 0.097492635250091553
0.4934142529964447 0.84081971645355225 0.10172007232904434
0.82863724231719971 0.83607685565948486 0.10453860461711884
1 0.84576880931854248 0.1234290599822998
0.038390994071960449 1 0.15532387793064117
0.21454997360706329 1 0.16653478145599365
0.5238221287727356 1 0.14796896278858185
0.83534783124923706 1 0.11455675214529037
1 0.999683678150177 0.1126137375831604
0.00032816868042573333 0 0.46300667524337769
0.12721219658851624 0 0.43368533253669739
0.43802791833877563 0 0.40336549282073975
0.74548977613449097 0 0.39370739459991455
0.98286068439483643 0 0.40031206607818604
0 0.096775248646736145 0.45737892389297485
0.12783198058605194 0.10635824501514435 0.45886686444282532
0.47031152248382568 0.099663227796554565 0.45643427968025208
0.81725609302520752 0.092621207237243652 0.46025183796882629
1 0.13162916898727417 0.48060470819473267
0 0.42942517995834351 0.43448469042778015
0.13332951068878174 0.45758333802223206 0.46221649646759033
0.49224936962127686 0.47248044610023499 0.48035070300102234
0.84992605447769165 0.48284706473350525 0.49278703331947327
0.99941116571426392 0.51295453310012817 0.51889604330062866
0.0053061991930007935 0.80151122808456421 0.4445551335811615
0.15308600664138794 0.83657550811767578 0.47421136498451233
0.48960396647453308 0.83906668424606323 0.47430068254470825
0.82842576503753662 0.83696573972702026 0.47546747326850891
1 0.84244745969772339 0.4817623496055603
0.036869421601295471 1 0.4877220094203949
0.20619651675224304 1 0.51040434837341309
0.51407867670059204 1 0.48947224020957947
0.82127171754837036 1 0.46974039077758789
1 0.99764835834503174 0.46154126524925232
5.1341336074983701e-05 0 0.77919101715087891
0.11954064667224884 0 0.76098179817199707
0.43478170037269592 0 0.74330383539199829
0.73819661140441895 0 0.72611492872238159
0.97657126188278198 0.0032837961334735155 0.72411376237869263
0 0.10565776377916336 0.782695472240448
0.11490632593631744 0.11176878958940506 0.78676211833953857
0.46525496244430542 0.12092296779155731 0.79223799705505371
0.81748437881469727 0.092971354722976685 0.79353636503219604
1 0.16118462383747101 0.80789095163345337
0 0.43447497487068176 0.7711455225944519
0.13340297341346741 0.45974966883659363 0.79461395740509033
0.4951731264591217 0.47784662246704102 0.81528156995773315
0.84932345151901245 0.48756867647171021 0.8273501992225647
1 0.51791489124298096 0.83194977045059204
0.00073127000359818339 0.81176400184631348 0.78241860866546631
0.14799684286117554 0.83867532014846802 0.80660521984100342
0.48838233947753906 0.84010154008865356 0.80428898334503174
0.8200308084487915 0.82858508825302124 0.79691570997238159
0.99897319078445435 0.83550393581390381 0.80023342370986938
0.024352878332138062 1 0.82096534967422485
0.19284588098526001 1 0.83730888366699219
0.50104796886444092 1 0.81516087055206299
0.81298637390136719 1 0.78954273462295532
0.99693602323532104 1 0.78590154647827148
0.0090976934880018234 0 0.98914355039596558
0.13404756784439087 0 0.98777371644973755
0.43737763166427612 0.001146413735114038 0.98679304122924805
0.74239587783813477 0.00082457298412919044 0.98043328523635864
0.98364347219467163 0.0156213054433465 0.97549402713775635
0.0012051600497215986 0.11378489434719086 0.99144494533538818
0.13057805597782135 0.1242109090089798 0.99087011814117432
0.46349948644638062 0.15069778263568878 0.9975665807723999
0.80693382024765015 0.14971530437469482 0.99948984384536743
1 0.20346634089946747 0.99998599290847778
0.00011901855759788305 0.45811858773231506 0.99292033910751343
0.15268024802207947 0.47496712207794189 0.99696862697601318
0.50159585475921631 0.48780164122581482 1
0.84735375642776489 0.49705681204795837 1
1 0.52433812618255615 1
0.0037279615644365549 0.8284066915512085 0.99753069877624512
0.15934708714485168 0.85023653507232666 1
0.49588096141815186 0.84250301122665405 1
0.82566326856613159 0.82285130023956299 0.99974149465560913
1 0.82879209518432617 0.99701005220413208
0.017958875745534897 1 1
0.18581020832061768 1 1
0.49654683470726013 1 0.99964386224746704
0.80573499202728271 1 0.99345982074737549
0.99879777431488037 1 0.99394494295120239
