assets/lut/jtsemple winterlighthouse.cube
# Created by: G'MIC (https://gmic.eu)
TITLE "winterlighthouse"
# LUT size
LUT_3D_SIZE 13
# Data domain
DOMAIN_MIN 0.0 0.0 0.0
DOMAIN_MAX 1.0 1.0 1.0
# LUT data points
0 2.5850184101727791e-05 0.00098535872530192137
0.0058660469949245453 8.6167281551752239e-05 0.0031295777298510075
0.052309554070234299 0 0.0074071846902370453
0.13168436288833618 0 0.012080023996531963
0.22467300295829773 0 0.014720647595822811
0.32550936937332153 0 0.014303693547844887
0.43065688014030457 0 0.013160182163119316
0.5359032154083252 1.1668485967675224e-05 0.011757240630686283
0.63606321811676025 0.0016960742650553584 0.011389878578484058
0.72437167167663574 0.0023600859567523003 0.012585554271936417
0.79848116636276245 7.7012009569443762e-05 0.015546431764960289
0.86156028509140015 0 0.020403962582349777
0.91501510143280029 0 0.02744700200855732
0.00024309345462825149 0.01194655429571867 0.004184049554169178
0.0093876104801893234 0.011808896437287331 0.0080865146592259407
0.060322795063257217 0.008053080178797245 0.011621512472629547
0.14126986265182495 0.0055996463634073734 0.012968624010682106
0.23226037621498108 0.003279577475041151 0.014021615497767925
0.33230561017990112 0.0023324256762862206 0.013452507555484772
0.43758246302604675 0.0031154109165072441 0.013109439052641392
0.54322880506515503 0.0073593291454017162 0.013341821730136871
0.64348822832107544 0.015081233344972134 0.014423415064811707
0.73328572511672974 0.016335086897015572 0.017470819875597954
0.81007450819015503 0.0097392210736870766 0.022606778889894485
0.874744713306427 0.0041361339390277863 0.029606448486447334
0.92896836996078491 0.0036796270869672298 0.03814208135008812
4.0061800973489881e-05 0.063794426620006561 0.0016106698894873261
0.010918127372860909 0.065876409411430359 0.0079115023836493492
0.068188130855560303 0.061163134872913361 0.011194596067070961
0.14864292740821838 0.055663719773292542 0.0091216890141367912
0.23720934987068176 0.04883759468793869 0.0077417711727321148
0.33758437633514404 0.042494859546422958 0.0094171557575464249
0.44385731220245361 0.040208645164966583 0.011250200681388378
0.54997485876083374 0.04316508024930954 0.013288998976349831
0.65088915824890137 0.047609440982341766 0.016871778294444084
0.74227476119995117 0.04902198538184166 0.022986961528658867
0.82190340757369995 0.045521918684244156 0.031147945672273636
0.88883328437805176 0.041579540818929672 0.040485501289367676
0.94350987672805786 0.044500432908535004 0.050936620682477951
0 0.13302706182003021 0.00042204014607705176
0.012458113022148609 0.1361948698759079 0.0048604477196931839
0.070243313908576965 0.13195036351680756 0.0092420242726802826
0.15015940368175507 0.12591749429702759 0.0076049207709729671
0.24017564952373505 0.11957088112831116 0.0048694238066673279
0.34282991290092468 0.11130768805742264 0.0066174822859466076
0.45119345188140869 0.10514690726995468 0.0087984874844551086
0.55877161026000977 0.10357946902513504 0.011883125640451908
0.66134172677993774 0.10556839406490326 0.017693942412734032
0.75521576404571533 0.10839726775884628 0.027271704748272896
0.83714187145233154 0.11062262952327728 0.038862042129039764
0.90533959865570068 0.11325743794441223 0.051388341933488846
0.95843744277954102 0.12300006300210953 0.06431097537279129
0 0.20628443360328674 0.00016030704136937857
0.014402411878108978 0.20922742784023285 0.002630824688822031
0.071494370698928833 0.2077062577009201 0.0069388295523822308
0.15034478902816772 0.20383279025554657 0.0080752205103635788
0.2439168244600296 0.19962956011295319 0.0061151240952312946
0.35011214017868042 0.19438798725605011 0.0066819884814321995
0.46160942316055298 0.18921889364719391 0.007259757723659277
0.57192093133926392 0.18667624890804291 0.010285246185958385
0.6774979829788208 0.1897188127040863 0.017355181276798248
0.77460604906082153 0.19715031981468201 0.030263997614383698
0.8580968976020813 0.20687192678451538 0.045757293701171875
0.92453628778457642 0.21967484056949615 0.062157858163118362
0.97291606664657593 0.23722191154956818 0.078056484460830688
0 0.2878793478012085 0
0.015980320051312447 0.29223927855491638 0.00094619451556354761
0.074073866009712219 0.29409673810005188 0.0039480472914874554
0.15293863415718079 0.29364204406738281 0.0062825069762766361
0.25020042061805725 0.29252976179122925 0.007014046423137188
0.36159542202949524 0.29100292921066284 0.0069314395077526569
0.47718733549118042 0.28851896524429321 0.0072787716053426266
0.59139448404312134 0.28852230310440063 0.01049067173153162
0.70169746875762939 0.29803675413131714 0.019870594143867493
0.80311012268066406 0.31345999240875244 0.036377552896738052
0.88777774572372437 0.33127579092979431 0.055418409407138824
0.94859504699707031 0.35254833102226257 0.075162909924983978
0.98698019981384277 0.37529864907264709 0.093673855066299438
0 0.38108602166175842 0
0.021511675789952278 0.38918641209602356 0.00028973747976124287
0.084396690130233765 0.39608857035636902 0.0024796430952847004
0.1656142920255661 0.39959532022476196 0.0064128055237233639
0.26687195897102356 0.40169349312782288 0.0094247106462717056
0.38498032093048096 0.40422403812408447 0.010684458538889885
0.50579655170440674 0.40515583753585815 0.011498649604618549
0.62218654155731201 0.41012609004974365 0.016135586425662041
0.73676097393035889 0.42919734120368958 0.029150061309337616
0.8420943021774292 0.45287775993347168 0.048305481672286987
0.92727124691009521 0.47549521923065186 0.06938876211643219
0.9780353307723999 0.49997720122337341 0.091616854071617126
0.99769628047943115 0.52300864458084106 0.11160711944103241
0.00076003727735951543 0.48824432492256165 0
0.038263343274593353 0.50280642509460449 0.00056779151782393456
0.11015748977661133 0.51634752750396729 0.0038474886678159237
0.19930554926395416 0.52506917715072632 0.010106778703629971
0.30739244818687439 0.5311775803565979 0.017160601913928986
0.43121710419654846 0.53782516717910767 0.021914748474955559
0.55447632074356079 0.54372274875640869 0.025772662833333015
0.67063313722610474 0.55532526969909668 0.032944384962320328
0.78271543979644775 0.57862222194671631 0.047815732657909393
0.88548094034194946 0.60333752632141113 0.067690260708332062
0.96640694141387939 0.62376624345779419 0.088274665176868439
0.99843412637710571 0.64579743146896362 0.11067289113998413
1 0.6642952561378479 0.13049572706222534
0.010189998894929886 0.61127811670303345 0.0023041819222271442
0.070215068757534027 0.63305920362472534 0.0041343239136040211
0.15345628559589386 0.65274745225906372 0.0094865532591938972
0.25439837574958801 0.66563719511032104 0.019549410790205002
0.37179258465766907 0.67524516582489014 0.031534727662801743
0.49833905696868896 0.68348956108093262 0.04108511283993721
0.61930394172668457 0.69090777635574341 0.048416256904602051
0.72984069585800171 0.70320785045623779 0.056784313172101974
0.83215874433517456 0.72298264503479004 0.070314325392246246
0.9241369366645813 0.74128216505050659 0.088296569883823395
0.98813879489898682 0.7556685209274292 0.10772068053483963
1 0.77079480886459351 0.12709541618824005
1 0.78177988529205322 0.14264501631259918
0.044201210141181946 0.75214260816574097 0.010375737212598324
0.11731591075658798 0.77585923671722412 0.012578492984175682
0.20856152474880219 0.79612469673156738 0.019575724378228188
0.31758856773376465 0.80813366174697876 0.033500835299491882
0.4412042498588562 0.81585788726806641 0.049261398613452911
0.56857603788375854 0.82148343324661255 0.062979422509670258
0.68337821960449219 0.82393544912338257 0.071460947394371033
0.78256696462631226 0.82702726125717163 0.078195922076702118
0.8725777268409729 0.83592903614044189 0.088519886136054993
0.95190316438674927 0.84524303674697876 0.10407453030347824
0.99728673696517944 0.85271269083023071 0.1191706657409668
1 0.85852152109146118 0.13005997240543365
1 0.86060440540313721 0.13787522912025452
0.096182815730571747 0.8981090784072876 0.018736701458692551
0.17241251468658447 0.9161536693572998 0.024393582716584206
0.26552096009254456 0.92967569828033447 0.033650118857622147
0.37569311261177063 0.93506354093551636 0.048913229256868362
0.49774348735809326 0.93605530261993408 0.065036222338676453
0.62001121044158936 0.93436145782470703 0.07872462272644043
0.72522342205047607 0.92652499675750732 0.085083052515983582
0.81276518106460571 0.91677230596542358 0.087799236178398132
0.89085501432418823 0.91245049238204956 0.093021154403686523
0.95773047208786011 0.9130670428276062 0.10216611623764038
0.99665337800979614 0.91443544626235962 0.11098797619342804
1 0.91383332014083862 0.11538437753915787
1 0.91001236438751221 0.11795981973409653
0.14443013072013855 0.9950069785118103 0.032716188579797745
0.22305566072463989 0.99800443649291992 0.040103193372488022
0.31462222337722778 0.99936932325363159 0.049707598984241486
0.41992536187171936 0.99951440095901489 0.061761938035488129
0.53245949745178223 0.99887955188751221 0.073824472725391388
0.6417120099067688 0.99719858169555664 0.081997215747833252
0.73689931631088257 0.99090015888214111 0.084090530872344971
0.81565910577774048 0.97606915235519409 0.082137838006019592
0.88447141647338867 0.96162593364715576 0.081352159380912781
0.94304013252258301 0.95602184534072876 0.083418704569339752
0.98286670446395874 0.95310354232788086 0.086229003965854645
0.99853730201721191 0.94937717914581299 0.087425902485847473
1 0.94380414485931396 0.087499998509883881
0.17942067980766296 1 0.048407595604658127
0.25989115238189697 1 0.054370325058698654
0.34927934408187866 1 0.061234835535287857
0.4467618465423584 1 0.068494461476802826
0.54792177677154541 1 0.07403082400560379
0.64443093538284302 1 0.075537092983722687
0.72931420803070068 1 0.072096943855285645
0.80092740058898926 0.99963438510894775 0.065087243914604187
0.86359304189682007 0.99410438537597656 0.058782882988452911
0.9189218282699585 0.98807662725448608 0.055270548909902573
0.9604305624961853 0.98340219259262085 0.053790401667356491
0.98596268892288208 0.97767376899719238 0.052365679293870926
0.99854040145874023 0.9716002345085144 0.051037613302469254
0 0.00017951516201719642 0.032480742782354355
0.0012776692165061831 0.00016353830869775265 0.041217654943466187
0.041024494916200638 0 0.050328541547060013
0.12173490226268768 0 0.056607864797115326
0.21629586815834045 0 0.059554155915975571
0.31799685955047607 0 0.060397714376449585
0.42413952946662903 0 0.05954202264547348
0.53007251024246216 0 0.058819159865379333
0.63032466173171997 4.8364378017140552e-05 0.058387428522109985
0.71911841630935669 9.4574570539407432e-05 0.060323469340801239
0.79433786869049072 0 0.064811170101165771
0.85733813047409058 0 0.071929082274436951
0.9108879566192627 0 0.081179015338420868
0.00022461835760623217 0.015500551089644432 0.035677023231983185
0.0046170102432370186 0.013297825120389462 0.045380745083093643
0.052592948079109192 0.010139405727386475 0.052082240581512451
0.13472442328929901 0.0070982691831886768 0.054427668452262878
0.22604204714298248 0.0038843939546495676 0.055237025022506714
0.32629749178886414 0.0013199301902204752 0.05701591819524765
0.43221849203109741 0.00058622175129130483 0.058807313442230225
0.53811222314834595 0.001834869384765625 0.059551943093538284
0.63859730958938599 0.0061181909404695034 0.061606492847204208
0.72849732637405396 0.0071810255758464336 0.065940931439399719
0.80546450614929199 0.0024615717120468616 0.07226669043302536
0.87009125947952271 0.00025374468532390893 0.080168001353740692
0.92382365465164185 0.00023728913220111281 0.090380467474460602
5.0952388846781105e-05 0.066768139600753784 0.029086513444781303
0.0084067396819591522 0.066773116588592529 0.040395967662334442
0.061115894466638565 0.062169559299945831 0.047313466668128967
0.14102810621261597 0.05778135359287262 0.046174023300409317
0.23164293169975281 0.050480321049690247 0.045825209468603134
0.33302587270736694 0.039187204092741013 0.050590425729751587
0.43988576531410217 0.031434990465641022 0.055475510656833649
0.54607343673706055 0.032041855156421661 0.059415299445390701
0.64666551351547241 0.036623787134885788 0.064643114805221558
0.73779845237731934 0.037324104458093643 0.072572804987430573
0.81743693351745605 0.032695919275283813 0.081275567412376404
0.88448971509933472 0.026946168392896652 0.090880662202835083
0.93923956155776978 0.029933810234069824 0.10276692360639572
0 0.13573570549488068 0.023470979183912277
0.011525816284120083 0.13761766254901886 0.034482050687074661
0.065198518335819244 0.13386945426464081 0.042174633592367172
0.14278028905391693 0.129830002784729 0.040649086236953735
0.23495790362358093 0.12301004678010941 0.039830870926380157
0.34007370471954346 0.11102735996246338 0.045658528804779053
0.44931492209434509 0.10097642987966537 0.05163796991109848
0.55635768175125122 0.096095100045204163 0.057165991514921188
0.65779417753219604 0.095933549106121063 0.065270476043224335
0.75102913379669189 0.096755132079124451 0.076806314289569855
0.83344763517379761 0.097342789173126221 0.089275568723678589
0.90239131450653076 0.099936164915561676 0.10222513228654861
0.95677149295806885 0.11069279164075851 0.11668583005666733
0 0.20938596129417419 0.01943785697221756
0.012988296337425709 0.21126537024974823 0.029289275407791138
0.067256167531013489 0.21117337048053741 0.037225924432277679
0.14513520896434784 0.20940718054771423 0.039232786744832993
0.24093137681484222 0.20569774508476257 0.040669459849596024
0.34998324513435364 0.19910982251167297 0.044743422418832779
0.46261924505233765 0.1915014237165451 0.049007609486579895
0.57128620147705078 0.18464316427707672 0.054534237831830978
0.67466360330581665 0.18389306962490082 0.064336560666561127
0.77039986848831177 0.18826915323734283 0.079092554748058319
0.8545563817024231 0.19641998410224915 0.096105329692363739
0.92291021347045898 0.20994514226913452 0.11406465619802475
0.97366541624069214 0.22958426177501678 0.1318269819021225
0 0.29142460227012634 0.013025426305830479
0.014790388755500317 0.29602935910224915 0.021977009251713753
0.070542082190513611 0.29914006590843201 0.030637778341770172
0.14985845983028412 0.30059650540351868 0.036913525313138962
0.24968212842941284 0.30073535442352295 0.041281081736087799
0.36378440260887146 0.29960331320762634 0.045154750347137451
0.48062655329704285 0.29598376154899597 0.048747926950454712
0.59216326475143433 0.29252579808235168 0.054890859872102737
0.69949495792388916 0.29761245846748352 0.067276701331138611
0.79871886968612671 0.30943268537521362 0.085827983915805817
0.88294410705566406 0.325318843126297 0.10733842849731445
0.9468345046043396 0.34877482056617737 0.12991686165332794
0.98774158954620361 0.37433406710624695 0.15073353052139282
0 0.3857634961605072 0.0073165446519851685
0.020161272957921028 0.39445465803146362 0.015684673562645912
0.081255309283733368 0.40243220329284668 0.026282411068677902
0.16420933604240417 0.40831544995307922 0.035887327045202255
0.26910737156867981 0.41250783205032349 0.043694291263818741
0.38844600319862366 0.4151269793510437 0.049699865281581879
0.50911092758178711 0.41522538661956787 0.054507926106452942
0.62406086921691895 0.4189392626285553 0.063046671450138092
0.73494559526443481 0.43438732624053955 0.079742580652236938
0.83787548542022705 0.45573186874389648 0.10162000358104706
0.92231845855712891 0.47739094495773315 0.12532740831375122
0.97485178709030151 0.50430601835250854 0.15003974735736847
0.99667584896087646 0.52968704700469971 0.17357465624809265
0.00065677118254825473 0.49476730823516846 0.0057288822717964649
0.03642088919878006 0.50949585437774658 0.015804918482899666
0.10680235177278519 0.52392876148223877 0.029192950576543808
0.19802148640155792 0.53506940603256226 0.042578902095556259
0.30983588099479675 0.54332536458969116 0.054246895015239716
0.43424290418624878 0.55007857084274292 0.063496984541416168
0.55708509683609009 0.5546301007270813 0.071764744818210602
0.6716960072517395 0.56446367502212524 0.083640947937965393
0.78036707639694214 0.58636289834976196 0.10304505378007889
0.88103187084197998 0.61214321851730347 0.12607681751251221
0.96231329441070557 0.63299000263214111 0.14823323488235474
0.99721914529800415 0.65513062477111816 0.17169912159442902
0.99996984004974365 0.67367756366729736 0.19427981972694397
0.0091999275609850883 0.62054544687271118 0.013719625771045685
0.06686718761920929 0.64129257202148438 0.026482421904802322
0.14974264800548553 0.66105055809020996 0.043094918131828308
0.25176852941513062 0.67569828033447266 0.059718668460845947
0.37130475044250488 0.68667113780975342 0.075267300009727478
0.49843126535415649 0.69502466917037964 0.08819502592086792
0.61925029754638672 0.70131546258926392 0.099481023848056793
0.72868984937667847 0.71134412288665771 0.11264735460281372
0.82920676469802856 0.72979247570037842 0.13087017834186554
0.91969412565231323 0.74986547231674194 0.151401087641716
0.9858856201171875 0.76469838619232178 0.17046083509922028
1 0.77774256467819214 0.1886504590511322
0.9999813437461853 0.78557693958282471 0.20493029057979584
0.042574040591716766 0.76278012990951538 0.036360453814268112
0.1143268495798111 0.7847902774810791 0.049104295670986176
0.20494362711906433 0.80402511358261108 0.066183246672153473
0.31460261344909668 0.81677955389022827 0.08506505936384201
0.43781840801239014 0.82520103454589844 0.10268396139144897
0.56400579214096069 0.83006608486175537 0.11718863993883133
0.67878180742263794 0.83149534463882446 0.1281418651342392
0.77869373559951782 0.83383917808532715 0.13865399360656738
0.86824220418930054 0.84142649173736572 0.15163242816925049
0.94555950164794922 0.85082656145095825 0.16690367460250854
0.99416112899780273 0.85754895210266113 0.18046373128890991
1 0.86087304353713989 0.19112677872180939
0.99977594614028931 0.86067813634872437 0.19903324544429779
0.095385998487472534 0.90848785638809204 0.069323472678661346
0.17073288559913635 0.92496258020401001 0.080087505280971527
0.2631683349609375 0.93683350086212158 0.09476345032453537
0.37279719114303589 0.94236528873443604 0.1119810938835144
0.49292361736297607 0.94311439990997314 0.12809669971466064
0.61208325624465942 0.93942523002624512 0.14028126001358032
0.71743112802505493 0.93103522062301636 0.14708234369754791
0.80685168504714966 0.92155575752258301 0.15125513076782227
0.88519304990768433 0.91684293746948242 0.15665879845619202
0.9511980414390564 0.91642194986343384 0.16442294418811798
0.99308103322982788 0.91657054424285889 0.17122538387775421
1 0.91396075487136841 0.17525626718997955
1 0.90917074680328369 0.1779618114233017
0.14388076961040497 0.99730449914932251 0.10171830654144287
0.22152972221374512 0.99951648712158203 0.11016461253166199
0.3126474916934967 0.99999964237213135 0.121109738945961
0.41680634021759033 1 0.13338831067085266
0.52773231267929077 0.99979680776596069 0.14389689266681671
0.63521093130111694 0.99811506271362305 0.15030184388160706
0.72973906993865967 0.9922603964805603 0.15021826326847076
0.80922448635101318 0.97874921560287476 0.14684766530990601
0.8785470724105835 0.96409350633621216 0.14419996738433838
0.93809950351715088 0.95744317770004272 0.14398907124996185
0.98021447658538818 0.95365214347839355 0.14484871923923492
0.99838721752166748 0.94887799024581909 0.14559435844421387
1 0.94341033697128296 0.1461552232503891
0.17768210172653198 1 0.12575618922710419
0.25736850500106812 1 0.1319940984249115
0.34612536430358887 1 0.13865286111831665
0.44310063123703003 1 0.14469403028488159
0.54305374622344971 1 0.14779548346996307
0.63847798109054565 1 0.14671619236469269
0.72271519899368286 1 0.1400655061006546
0.79454612731933594 0.99973243474960327 0.12985497713088989
0.85775035619735718 0.9947095513343811 0.11989747732877731
0.91451621055603027 0.98802262544631958 0.11345233023166656
0.95878076553344727 0.98231667280197144 0.10937658697366714
0.98741668462753296 0.97649669647216797 0.10824424773454666
0.99934267997741699 0.97111904621124268 0.10824638605117798
0 0.00016623103874735534 0.091948851943016052
0.0003335541405249387 0.00046066584764048457 0.10173340141773224
0.034232389181852341 0.00014166739128995687 0.10919877886772156
0.1134662851691246 0 0.11280432343482971
0.20778298377990723 0 0.11461225152015686
0.30991223454475403 0 0.11515141278505325
0.41597843170166016 0 0.11512359976768494
0.52144581079483032 0 0.11191687732934952
0.6212577223777771 0 0.11161881685256958
0.7105402946472168 0 0.11386732012033463
0.78681105375289917 0 0.11950788646936417
0.85042649507522583 0 0.12789790332317352
0.90333294868469238 0 0.13902540504932404
0 0.014212708920240402 0.094744168221950531
0.0023241979070007801 0.014577035792171955 0.10245572030544281
0.045601684600114822 0.013633458875119686 0.10760360211133957
0.1267680823802948 0.0095412461087107658 0.10914737731218338
0.21858927607536316 0.0048042298294603825 0.10925628244876862
0.31944862008094788 0.0010630588512867689 0.1107783317565918
0.42529642581939697 0 0.11213263869285583
0.53081619739532471 0.00031262566335499287 0.11248923093080521
0.63079607486724854 0.0027724921237677336 0.11422792077064514
0.72070050239562988 0.0034334668889641762 0.11871306598186493
0.79772788286209106 0.0007380466558970511 0.12555703520774841
0.86168140172958374 0 0.13431330025196075
0.91467016935348511 0 0.14624565839767456
0 0.066209502518177032 0.086778931319713593
0.005396225955337286 0.067351788282394409 0.094913050532341003
0.054108384996652603 0.064095184206962585 0.10109777748584747
0.13466697931289673 0.059071529656648636 0.10179916024208069
0.2265997976064682 0.050710804760456085 0.10187962651252747
0.32831603288650513 0.037511818110942841 0.10541760176420212
0.43480968475341797 0.026443466544151306 0.110107421875
0.54022109508514404 0.026390060782432556 0.1130799800157547
0.64006632566452026 0.030900513753294945 0.11763764917850494
0.73097211122512817 0.031332682818174362 0.12552684545516968
0.8104138970375061 0.026489198207855225 0.1345968097448349
0.87672692537307739 0.021261028945446014 0.14454171061515808
0.93084299564361572 0.025139946490526199 0.15752331912517548
0 0.13655562698841095 0.076118364930152893
0.010091475211083889 0.13692684471607208 0.085927508771419525
0.061357371509075165 0.13378332555294037 0.094006903469562531
0.13919781148433685 0.13059322535991669 0.095177702605724335
0.23256614804267883 0.1237826943397522 0.096091732382774353
0.33781671524047852 0.11104607582092285 0.1014043465256691
0.44654396176338196 0.098876863718032837 0.10680803656578064
0.5522807240486145 0.092653281986713409 0.11142202466726303
0.65247446298599243 0.091488979756832123 0.11889737844467163
0.74535244703292847 0.091759473085403442 0.13035452365875244
0.82809484004974365 0.092438943684101105 0.14330272376537323
0.8982657790184021 0.096482761204242706 0.15675912797451019
0.95312714576721191 0.10929450392723083 0.17256443202495575
0 0.21133174002170563 0.066026471555233002
0.012892494909465313 0.21291026473045349 0.07596307247877121
0.064714051783084869 0.21304427087306976 0.084262058138847351
0.14223179221153259 0.21306660771369934 0.088787764310836792
0.23963595926761627 0.20993764698505402 0.093065179884433746
0.35033339262008667 0.20220641791820526 0.1000557541847229
0.46204182505607605 0.1929938942193985 0.10514643043279648
0.56869995594024658 0.18540871143341064 0.10934130847454071
0.67036527395248413 0.18357072770595551 0.11827715486288071
0.76561820507049561 0.18656790256500244 0.13331717252731323
0.85128355026245117 0.19478817284107208 0.15187270939350128
0.92301523685455322 0.20954972505569458 0.17088085412979126
0.97593158483505249 0.23093672096729279 0.19034472107887268
0 0.29548671841621399 0.053114559501409531
0.015547838062047958 0.299751877784729 0.06299012154340744
0.068186216056346893 0.30353111028671265 0.072749897837638855
0.14754128456115723 0.30687934160232544 0.081008106470108032
0.2498541921377182 0.30796146392822266 0.089506544172763824
0.36537563800811768 0.3063606321811676 0.098607845604419708
0.48150366544723511 0.30189776420593262 0.10448405146598816
0.59119224548339844 0.29814714193344116 0.11035383492708206
0.69590359926223755 0.3016321063041687 0.12313646823167801
