assets/lut/jtsemple lushgreensummer.cube
# Created by: G'MIC (https://gmic.eu)
TITLE "lushgreensummer"
# LUT size
LUT_3D_SIZE 7
# Data domain
DOMAIN_MIN 0.0 0.0 0.0
DOMAIN_MAX 1.0 1.0 1.0
# LUT data points
0 0 0
0.0097435591742396355 0 0.00049688300350680947
0.17334364354610443 0 0.0008697509765625
0.37304297089576721 0 0
0.5678972601890564 0 0
0.7446969747543335 0.00016102510562632233 0
0.90018284320831299 0.00014935662329662591 0
8.2651771663222462e-05 0.043993901461362839 0.00056614592904224992
0.024722125381231308 0.045588340610265732 0.0069571700878441334
0.18327254056930542 0.033030025660991669 0.0032905878033488989
0.3875885009765625 0.023447627201676369 0.00093542359536513686
0.5851472020149231 0.035965729504823685 0
0.76127684116363525 0.048938211053609848 0
0.91570448875427246 0.054058536887168884 0
0 0.19557100534439087 0
0.037764977663755417 0.19411423802375793 0
0.19590732455253601 0.18422430753707886 6.6899316152557731e-05
0.40120083093643188 0.17142096161842346 0
0.60273224115371704 0.1688818633556366 0
0.78584998846054077 0.17810526490211487 0
0.94479411840438843 0.19036878645420074 0
0.00043085135985165834 0.36478883028030396 0
0.059415914118289948 0.36322933435440063 0
0.20691570639610291 0.35700604319572449 0.0010677262907847762
0.41716256737709045 0.35012704133987427 0
0.62833178043365479 0.35412228107452393 0
0.81678885221481323 0.36650630831718445 0
0.97653394937515259 0.38272538781166077 0
0.020221710205078125 0.54848670959472656 0
0.098734758794307709 0.55186933279037476 0
0.24389345943927765 0.5537254810333252 0.00053998164366930723
0.45499345660209656 0.55472373962402344 0
0.67498141527175903 0.56123977899551392 0
0.86393427848815918 0.57344645261764526 0
0.99791353940963745 0.58723527193069458 0
0.063611291348934174 0.7444954514503479 0
0.16264040768146515 0.75080621242523193 0.00069704244378954172
0.31691926717758179 0.7576640248298645 0.0048180073499679565
0.52447259426116943 0.76055377721786499 0.0020917854271829128
0.74433243274688721 0.76659095287322998 8.4192615759093314e-05
0.93148899078369141 0.7722477912902832 2.297794162586797e-05
1 0.77937978506088257 0.00097479729447513819
0.11988505721092224 0.94287145137786865 0.022014439105987549
0.23860523104667664 0.94886219501495361 0.030485654249787331
0.40072619915008545 0.95355391502380371 0.036473575979471207
0.60145896673202515 0.95508205890655518 0.032013207674026489
0.80963468551635742 0.95523512363433838 0.022701114416122437
0.98518222570419312 0.95402795076370239 0.021016618236899376
1 0.96112948656082153 0.032588373869657516
0.00082924036541953683 0 0.0082530006766319275
0.010079851374030113 0 0.011332478374242783
0.17127077281475067 0 0.023940231651067734
0.37053778767585754 0 0.0082094380632042885
0.57022207975387573 0 0.0030973844695836306
0.75103294849395752 0.0014143700245767832 0.0012667786795645952
0.89822405576705933 0 0.0032726810313761234
0.0019122703233733773 0.049681015312671661 0.011061499826610088
0.015969639644026756 0.044640142470598221 0.0084971413016319275
0.18740415573120117 0.040504679083824158 0.012795272283256054
0.38673213124275208 0.029488582164049149 0.014249120838940144
0.58635991811752319 0.033311177045106888 0.009190637618303299
0.76390308141708374 0.035970710217952728 0.0041855457238852978
0.90830552577972412 0.022320153191685677 0.0042588775977492332
0 0.19721025228500366 0.0080964928492903709
0.032045252621173859 0.19171981513500214 0.0084836622700095177
0.19634000957012177 0.18611815571784973 0.0083436407148838043
0.39857226610183716 0.17453168332576752 0.0069956760853528976
0.60293686389923096 0.16595914959907532 0.010437924414873123
0.79120916128158569 0.1685362309217453 0.0080019030719995499
0.94645720720291138 0.17158286273479462 0.0097202826291322708
0 0.36179402470588684 0.0043159485794603825
0.041051901876926422 0.36110836267471313 0.013079175725579262
0.2015509158372879 0.35928970575332642 0.022932717576622963
0.41721343994140625 0.35641771554946899 0.015521075576543808
0.63024801015853882 0.35746067762374878 0.012605195865035057
0.82027947902679443 0.36732527613639832 0.014356635510921478
0.9752967357635498 0.38298845291137695 0.023973217234015465
0.010699986480176449 0.54452663660049438 0.0039579202421009541
0.082300759851932526 0.55074787139892578 0.023785773664712906
0.2411811351776123 0.55570381879806519 0.04031575471162796
0.46051019430160522 0.55951452255249023 0.031613264232873917
0.67950475215911865 0.56665807962417603 0.030385544523596764
0.86506909132003784 0.58059984445571899 0.038885992020368576
0.99629396200180054 0.59860002994537354 0.057442296296358109
0.049033880233764648 0.74156695604324341 0.044363148510456085
0.15093882381916046 0.74992245435714722 0.063651517033576965
0.31697013974189758 0.75798279047012329 0.078661136329174042
0.53145945072174072 0.76382327079772949 0.078100420534610748
0.74879544973373413 0.77115225791931152 0.076903373003005981
0.93245452642440796 0.77973103523254395 0.085088737308979034
1 0.78781795501708984 0.10511501878499985
0.099737398326396942 0.94096904993057251 0.12110956013202667
0.22684770822525024 0.94760549068450928 0.13150219619274139
0.4022311270236969 0.95355391502380371 0.14066693186759949
0.60965234041213989 0.95610463619232178 0.14180931448936462
0.81612306833267212 0.95761787891387939 0.14069321751594543
0.98669052124023438 0.9597628116607666 0.14669160544872284
1 0.96491718292236328 0.16489623486995697
0 0 0.14149463176727295
0.0099191702902317047 0 0.14941847324371338
0.16391348838806152 0 0.14753890037536621
0.36190766096115112 0 0.13058555126190186
0.56186109781265259 0 0.11930100619792938
0.74261277914047241 0 0.12016909569501877
0.89365023374557495 0 0.13300542533397675
0.00092783907894045115 0.050586238503456116 0.14782117307186127
0.015429732389748096 0.048891507089138031 0.1500094085931778
0.17925174534320831 0.039138942956924438 0.14535440504550934
0.37855729460716248 0.021006865426898003 0.13670377433300018
0.58012473583221436 0.021009856835007668 0.1294124573469162
0.7619132399559021 0.025878367945551872 0.13148464262485504
0.91202110052108765 0.021204421296715736 0.14226573705673218
0 0.19460783898830414 0.14240647852420807
0.030819641426205635 0.19049829244613647 0.13949047029018402
0.18986423313617706 0.18432006239891052 0.14504878222942352
0.39279633760452271 0.17135652899742126 0.13491669297218323
0.59899377822875977 0.16301055252552032 0.13500253856182098
0.79068028926849365 0.16716508567333221 0.14542792737483978
0.94703298807144165 0.17136485874652863 0.1599678099155426
0 0.3588966429233551 0.12427409738302231
0.021763550117611885 0.3602130115032196 0.13339954614639282
0.19479337334632874 0.36260458827018738 0.14059886336326599
0.41505557298660278 0.36140087246894836 0.13631734251976013
0.62914270162582397 0.36223927140235901 0.14210447669029236
0.82258123159408569 0.36973714828491211 0.15819233655929565
0.9792596697807312 0.3823401927947998 0.18124726414680481
0.0012889637146145105 0.54449456930160522 0.12238099426031113
0.066431589424610138 0.55269914865493774 0.14461871981620789
0.23834623396396637 0.56045776605606079 0.15842436254024506
0.46259644627571106 0.56594765186309814 0.15914949774742126
0.6805846095085144 0.57279914617538452 0.17109973728656769
0.87048107385635376 0.5848923921585083 0.19172292947769165
0.9988897442817688 0.59954357147216797 0.217643141746521
0.027381971478462219 0.74322283267974854 0.1789262443780899
0.13774564862251282 0.75311273336410522 0.19724962115287781
0.31844830513000488 0.76148313283920288 0.2124924510717392
0.537364661693573 0.76742708683013916 0.21929377317428589
0.748859703540802 0.77403587102890015 0.23019208014011383
0.93206924200057983 0.78247743844985962 0.24655003845691681
1 0.79023611545562744 0.26882186532020569
0.073936715722084045 0.94273078441619873 0.26697641611099243
0.21267041563987732 0.94959765672683716 0.27891239523887634
0.40556204319000244 0.95368289947509766 0.28956270217895508
0.6189379096031189 0.95569890737533569 0.29551288485527039
0.81880933046340942 0.95713263750076294 0.30090153217315674
0.98593950271606445 0.95875322818756104 0.31021356582641602
1 0.96507871150970459 0.32941925525665283
0 4.434024594957009e-05 0.32613012194633484
0.015672586858272552 0 0.33226576447486877
0.1546434760093689 0 0.32776063680648804
0.34986037015914917 0 0.31399139761924744
0.54972594976425171 0 0.30271917581558228
0.7293778657913208 0 0.3035423755645752
0.88444703817367554 0 0.31524550914764404
0 0.061074290424585342 0.33128425478935242
0.028255073353648186 0.05477701872587204 0.33361178636550903
0.16800554096698761 0.033564146608114243 0.32920384407043457
0.36753338575363159 0.016692306846380234 0.31925508379936218
0.56958341598510742 0.010016363114118576 0.31028974056243896
0.75152480602264404 0.013321521691977978 0.31511735916137695
0.90692979097366333 0.019564369693398476 0.32939419150352478
0.00018633673607837409 0.19143159687519073 0.32544586062431335
0.035983454436063766 0.19152648746967316 0.32543447613716125
0.17994929850101471 0.18335987627506256 0.3247990608215332
0.38490134477615356 0.1676134318113327 0.3220410943031311
0.59381639957427979 0.15796726942062378 0.32102638483047485
0.78251099586486816 0.16227957606315613 0.33273184299468994
0.94238096475601196 0.17176307737827301 0.35112616419792175
0 0.3589215874671936 0.31094425916671753
0.033911041915416718 0.36431658267974854 0.31863269209861755
0.19463334977626801 0.36682015657424927 0.32518196105957031
0.41178971529006958 0.36501654982566833 0.32775053381919861
0.6276477575302124 0.36638772487640381 0.33519458770751953
0.82098305225372314 0.37450757622718811 0.35343503952026367
0.98077303171157837 0.38167685270309448 0.37696611881256104
0 0.54830682277679443 0.31841832399368286
0.062158785760402679 0.5590437650680542 0.33344236016273499
0.2375483512878418 0.5685010552406311 0.34588447213172913
0.4609132707118988 0.57310861349105835 0.35406658053398132
0.6785273551940918 0.57970631122589111 0.36819788813591003
0.87072479724884033 0.58980679512023926 0.39000150561332703
0.99948620796203613 0.59658122062683105 0.41381579637527466
0.0051782946102321148 0.74833792448043823 0.37179917097091675
0.12052951753139496 0.76066857576370239 0.38778102397918701
0.31327629089355469 0.76987743377685547 0.40094771981239319
0.53602391481399536 0.77268320322036743 0.41171431541442871
0.74553477764129639 0.77815502882003784 0.42680853605270386
0.92902171611785889 0.78437775373458862 0.44459465146064758
1 0.78853970766067505 0.46337530016899109
0.042554952204227448 0.9478946328163147 0.45537662506103516
0.19144439697265625 0.95510321855545044 0.46925589442253113
0.39916756749153137 0.95813620090484619 0.47909441590309143
0.61885696649551392 0.9574781060218811 0.48677420616149902
0.81713438034057617 0.95723980665206909 0.49528288841247559
0.98381888866424561 0.95717209577560425 0.50443536043167114
1 0.96304792165756226 0.5202135443687439
0 0 0.52101719379425049
0.018555764108896255 0 0.52812486886978149
0.1439654529094696 0 0.5251392126083374
0.337260901927948 0 0.51502853631973267
0.54289406538009644 0 0.50780832767486572
0.72068232297897339 0 0.5076756477355957
0.87355035543441772 0 0.51489681005477905
0 0.054533597081899643 0.52689540386199951
0.021180575713515282 0.045883882790803909 0.53305071592330933
0.15163296461105347 0.032667048275470734 0.52974158525466919
0.35572248697280884 0.023584688082337379 0.52133995294570923
0.56237006187438965 0.015248931013047695 0.51454055309295654
0.74086558818817139 0.013115602545440197 0.51962041854858398
0.89383959770202637 0.015025658532977104 0.5321996808052063
0 0.1869569718837738 0.5225415825843811
0.022636637091636658 0.19078893959522247 0.52878862619400024
0.16577598452568054 0.18447884917259216 0.52949780225753784
0.37983885407447815 0.1720271110534668 0.52811354398727417
0.58984023332595825 0.16009445488452911 0.52844035625457764
0.7747686505317688 0.16153906285762787 0.54012733697891235
0.93470251560211182 0.17188391089439392 0.55731070041656494
0 0.35815638303756714 0.51355189085006714
0.027411216869950294 0.36643880605697632 0.5252043604850769
0.18876197934150696 0.37060979008674622 0.53329300880432129
0.40994223952293396 0.36875462532043457 0.5389522910118103
0.62551957368850708 0.36780425906181335 0.5474097728729248
0.81637638807296753 0.37543296813964844 0.56533157825469971
0.97910571098327637 0.38529148697853088 0.58588826656341553
0 0.55004233121871948 0.52638232707977295
0.05404357984662056 0.56203269958496094 0.54345464706420898
0.23263543844223022 0.57311159372329712 0.55654466152191162
0.4584503173828125 0.5772128701210022 0.56605970859527588
0.67469042539596558 0.5820738673210144 0.5780366063117981
0.86369121074676514 0.59108984470367432 0.59935897588729858
0.99861609935760498 0.59682482481002808 0.62039482593536377
0.0010145000414922833 0.75185787677764893 0.57767015695571899
0.10786484181880951 0.76538437604904175 0.59724283218383789
0.30237892270088196 0.7761034369468689 0.6099400520324707
0.52813553810119629 0.7762337327003479 0.62003529071807861
0.73971068859100342 0.78042697906494141 0.63243073225021362
0.92109948396682739 0.78666824102401733 0.65134155750274658
1 0.78765624761581421 0.66691738367080688
0.031924691051244736 0.95134520530700684 0.65513885021209717
0.17820042371749878 0.95866906642913818 0.67459464073181152
0.38403493165969849 0.96250087022781372 0.68400758504867554
0.6067163348197937 0.9598393440246582 0.69139903783798218
0.81155514717102051 0.95821076631546021 0.70122921466827393
0.98109191656112671 0.95880913734436035 0.7115587592124939
1 0.96279823780059814 0.72015345096588135
0 0 0.71318924427032471
0.01526240911334753 0 0.72211122512817383
0.13019365072250366 0 0.7196386456489563
0.32389310002326965 0 0.70987427234649658
0.53699415922164917 0 0.7069205641746521
0.71463966369628906 0 0.70781779289245605
0.86680716276168823 0 0.71275514364242554
0 0.046071264892816544 0.71862691640853882
0.012882636860013008 0.034639574587345123 0.72904688119888306
0.13860279321670532 0.026712948456406593 0.7265172004699707
0.3460220992565155 0.025583066046237946 0.71540629863739014
0.55716246366500854 0.025388620793819427 0.71146923303604126
0.73494440317153931 0.025970788672566414 0.71908766031265259
0.88692963123321533 0.024920040741562843 0.73057359457015991
0 0.18210558593273163 0.71284836530685425
0.0070742289535701275 0.1863715648651123 0.72481256723403931
0.15330247581005096 0.18017511069774628 0.7271842360496521
0.37649372220039368 0.17392349243164062 0.72588431835174561
0.58651542663574219 0.16336402297019958 0.72676301002502441
0.77053737640380859 0.17001092433929443 0.73938965797424316
0.93140727281570435 0.18409641087055206 0.7557024359703064
0 0.35766568779945374 0.70461416244506836
0.012093772180378437 0.36585846543312073 0.71914547681808472
0.17785143852233887 0.37050005793571472 0.73049730062484741
0.40947932004928589 0.36904290318489075 0.73907613754272461
0.62303167581558228 0.36936292052268982 0.74804115295410156
0.81258594989776611 0.38022828102111816 0.76482188701629639
0.97804486751556396 0.39572200179100037 0.78306698799133301
0 0.55229443311691284 0.71744227409362793
0.044977046549320221 0.56261944770812988 0.7380862832069397
0.2254854291677475 0.5745052695274353 0.75360751152038574
0.45792847871780396 0.57915663719177246 0.76534062623977661
0.67200952768325806 0.58493149280548096 0.77592307329177856
0.85920876264572144 0.59437614679336548 0.79297572374343872
0.99743390083312988 0.60313218832015991 0.81235146522521973
0.0041349073871970177 0.75453430414199829 0.76609641313552856
0.10945666581392288 0.76660966873168945 0.79100388288497925
0.29714542627334595 0.77642261981964111 0.80550092458724976
0.52554452419281006 0.7789490818977356 0.8146367073059082
0.73762112855911255 0.78075248003005981 0.82177269458770752
0.91426193714141846 0.78568977117538452 0.83498799800872803
1 0.7898138165473938 0.85303342342376709
0.050760906189680099 0.95322549343109131 0.84004873037338257
0.18587665259838104 0.95967859029769897 0.86786466836929321
0.38153272867202759 0.96294569969177246 0.87592035531997681
0.60312932729721069 0.95914477109909058 0.88113868236541748
0.80796754360198975 0.95498615503311157 0.88964605331420898
0.97483628988265991 0.95729374885559082 0.89657068252563477
1 0.96379142999649048 0.90359365940093994
0 0 0.8948172926902771
0.02453887090086937 0.0003451927041169256 0.90097355842590332
0.1268017441034317 0.0018302019452676177 0.89784198999404907
0.31405830383300781 0 0.88717323541641235
0.52075576782226562 0 0.88438016176223755
0.70365732908248901 0 0.89072757959365845
0.86516803503036499 6.0676124121528119e-05 0.89942270517349243
0.0016372830141335726 0.05170026421546936 0.89712607860565186
0.029210109263658524 0.051325060427188873 0.90335249900817871
0.1430203765630722 0.044241782277822495 0.8990289568901062
0.33883684873580933 0.019376134499907494 0.88674324750900269
0.54740923643112183 0.018086796626448631 0.88607609272003174
0.73017704486846924 0.042768754065036774 0.89948713779449463
0.89142870903015137 0.062127012759447098 0.91385060548782349
0 0.18381798267364502 0.8888818621635437
0.01786721870303154 0.1858123242855072 0.89568740129470825
0.15519881248474121 0.1800374835729599 0.8978271484375
0.36685541272163391 0.16545738279819489 0.89696627855300903
0.57947534322738647 0.16467778384685516 0.90150731801986694
0.7675061821937561 0.18542373180389404 0.91646790504455566
0.9327118992805481 0.21045491099357605 0.93412387371063232
0 0.36331528425216675 0.87990796566009521
0.013634924776852131 0.36923515796661377 0.88931339979171753
0.17595991492271423 0.37158787250518799 0.9016873836517334
0.40295600891113281 0.3689732551574707 0.91201949119567871
0.62006932497024536 0.37313368916511536 0.92174959182739258
0.81325721740722656 0.38941302895545959 0.93731158971786499
0.97811579704284668 0.40954220294952393 0.95628243684768677
0.00015713561151642352 0.56052982807159424 0.88977479934692383
0.059738714247941971 0.57159954309463501 0.90673702955245972
0.22869940102100372 0.58162099123001099 0.92272812128067017
0.45665934681892395 0.58389699459075928 0.93598181009292603
0.67379158735275269 0.59078866243362427 0.94445157051086426
0.8624117374420166 0.6008906364440918 0.95705217123031616
0.9981045126914978 0.61413836479187012 0.9769091010093689
0.028805168345570564 0.76180744171142578 0.93363046646118164
0.13239821791648865 0.77301973104476929 0.95631664991378784
0.30709934234619141 0.78224557638168335 0.96953850984573364
0.53022080659866333 0.78226810693740845 0.9758872389793396
0.7416490912437439 0.7836906909942627 0.97435170412063599
0.911693274974823 0.7874569296836853 0.97604382038116455
1 0.795368492603302 0.99393755197525024
0.085356391966342926 0.95915979146957397 0.99196934700012207
0.21321231126785278 0.96360665559768677 0.99881446361541748
0.39548143744468689 0.96551620960235596 0.99968457221984863
0.61046737432479858 0.96085673570632935 0.99982118606567383
0.81050574779510498 0.95533877611160278 0.99957793951034546
0.9698030948638916 0.9576384425163269 0.99652397632598877
1 0.96675556898117065 1
