assets/lut/jtsemple crispromance.cube
# Created by: G'MIC (https://gmic.eu)
TITLE "crispromance"
# LUT size
LUT_3D_SIZE 13
# Data domain
DOMAIN_MIN 0.0 0.0 0.0
DOMAIN_MAX 1.0 1.0 1.0
# LUT data points
5.834242983837612e-05 0.00072829303098842502 0.0020497341174632311
0.0074528115801513195 0.0017107495805248618 0.0043529286049306393
0.065191783010959625 0.0022540821228176355 5.7594450481701642e-05
0.15089292824268341 0.0019778232090175152 0
0.24086065590381622 0.0011383056407794356 0
0.33332511782646179 0.00011578728299355134 0
0.42749196290969849 0 0.00011668485967675224
0.52182191610336304 0 0.0022474550642073154
0.61432218551635742 0 0.0044033722952008247
0.70241051912307739 0.0012576981680467725 0.00036562752211466432
0.78408384323120117 0.013321596197783947 0
0.85785090923309326 0.031256493180990219 0
0.9240460991859436 0.049247201532125473 0
0.00060656678397208452 0.03070538118481636 0.0017174365930259228
0.016388418152928352 0.031965352594852448 0.0013097875053063035
0.077932156622409821 0.034746985882520676 1.5917012206045911e-05
0.1621992439031601 0.038506362587213516 0
0.25300052762031555 0.037664689123630524 0
0.34697014093399048 0.033209692686796188 0
0.44231763482093811 0.026823274791240692 0
0.53765362501144409 0.021336035802960396 0.00052458822028711438
0.63083404302597046 0.020837118849158287 0.0030862397979944944
0.72009873390197754 0.033552549779415131 0.00065808766521513462
0.80362915992736816 0.054937474429607391 0
0.87953877449035645 0.076765783131122589 0
0.94639688730239868 0.10056150704622269 0.00015869140042923391
0 0.10503071546554565 0
0.017419105395674706 0.1065957173705101 0
0.084387592971324921 0.10628880560398102 0
0.17040486633777618 0.10683110356330872 0
0.26320734620094299 0.10672727227210999 0
0.35935136675834656 0.10409694164991379 0
0.4566895067691803 0.10135167092084885 0
0.5528184175491333 0.098307698965072632 0
0.64631021022796631 0.098433025181293488 0
0.73757988214492798 0.10456405580043793 0
0.82398557662963867 0.11787892132997513 0.00017053940973710269
0.90192484855651855 0.13813267648220062 0.0011672823457047343
0.96905326843261719 0.16480422019958496 0.0038744907360523939
0 0.19194932281970978 0.00031109977862797678
0.024078205227851868 0.1936756819486618 0.00027232451247982681
0.092503532767295837 0.19307844340801239 0
0.17911271750926971 0.19225311279296875 0
0.27387887239456177 0.19184970855712891 0
0.37243452668190002 0.19129429757595062 0
0.47161942720413208 0.19123747944831848 0
0.56909763813018799 0.19166333973407745 0
0.6645999550819397 0.19269484281539917 6.4625460254319478e-06
0.75869655609130859 0.19621701538562775 0.00036280014319345355
0.84729909896850586 0.2047552615404129 0.0023555979132652283
0.92676568031311035 0.2217193990945816 0.0069047966971993446
0.98826789855957031 0.24726046621799469 0.013911901973187923
0.0001035802488331683 0.28382095694541931 0.0010979147627949715
0.032447472214698792 0.2859991192817688 0.00074983487138524652
0.10259951651096344 0.2873593270778656 0.00026227167109027505
0.18985946476459503 0.28813505172729492 0.00017359116463921964
0.28667464852333069 0.28929471969604492 0.00027142692124471068
0.38752278685569763 0.29093790054321289 0.00041019215132109821
0.48865434527397156 0.29331454634666443 0.00066384708043187857
0.58764356374740601 0.29569631814956665 0.00094801961677148938
0.68605029582977295 0.29840773344039917 0.0015672271838411689
0.78160440921783447 0.30282491445541382 0.0036569035146385431
0.87236738204956055 0.31093445420265198 0.0089715998619794846
0.95222938060760498 0.3253810703754425 0.018266281113028526
0.99824166297912598 0.34763500094413757 0.030337059870362282
0.00086472457041963935 0.38178801536560059 0.0022335276007652283
0.040798142552375793 0.38515570759773254 0.0016334084793925285
0.11494453251361847 0.38842847943305969 0.0015061321901157498
0.20492292940616608 0.39235654473304749 0.0017696605063974857
0.30393677949905396 0.39607346057891846 0.0024876613169908524
0.40698415040969849 0.39978206157684326 0.0033811831381171942
0.50937110185623169 0.40370890498161316 0.0042134900577366352
0.60983967781066895 0.40806525945663452 0.0052994075231254101
0.70815223455429077 0.41358926892280579 0.0073710870929062366
0.80485719442367554 0.42085617780685425 0.011968081817030907
0.89652305841445923 0.43062186241149902 0.021028017625212669
0.97378265857696533 0.44413083791732788 0.034734882414340973
1 0.46319794654846191 0.051317986100912094
0.0024021074641495943 0.48660627007484436 0.0050935032777488232
0.052770517766475677 0.49179598689079285 0.0043918536975979805
0.13316546380519867 0.49764901399612427 0.0049426509067416191
0.22676977515220642 0.50394672155380249 0.0065837637521326542
0.32846081256866455 0.5097888708114624 0.0088530443608760834
0.43296664953231812 0.51521080732345581 0.01112626027315855
0.53655695915222168 0.52045702934265137 0.013088480569422245
0.6372491717338562 0.52691632509231567 0.015114294365048409
0.73455017805099487 0.53499090671539307 0.018922723829746246
0.83046376705169678 0.54516100883483887 0.026769300922751427
0.92078518867492676 0.5569758415222168 0.040308170020580292
0.98833173513412476 0.57034450769424438 0.057241149246692657
1 0.58674836158752441 0.074534878134727478
0.0068989172577857971 0.59706604480743408 0.011688082478940487
0.071313522756099701 0.60460323095321655 0.012350030243396759
0.15902626514434814 0.61293524503707886 0.014791959896683693
0.25694489479064941 0.62094968557357788 0.018980318680405617
0.36106657981872559 0.62820565700531006 0.023682853206992149
0.46714338660240173 0.63443338871002197 0.027689257636666298
0.57168376445770264 0.64075231552124023 0.031047223135828972
0.67292881011962891 0.64889800548553467 0.034705862402915955
0.77022463083267212 0.65959692001342773 0.041102033108472824
0.86492627859115601 0.67081344127655029 0.052375763654708862
0.94974672794342041 0.68211275339126587 0.06795811653137207
0.99740755558013916 0.69508475065231323 0.084781736135482788
1 0.71010667085647583 0.10126063227653503
0.018266715109348297 0.71145617961883545 0.025900179520249367
0.098101690411567688 0.72123700380325317 0.029557950794696808
0.19313512742519379 0.73089408874511719 0.036316186189651489
0.29547569155693054 0.73954242467880249 0.044363569468259811
0.40168967843055725 0.74689096212387085 0.051913019269704819
0.50823616981506348 0.75332373380661011 0.057465467602014542
0.61293703317642212 0.75987184047698975 0.06170196458697319
0.71441835165023804 0.77007579803466797 0.066566988825798035
0.81253361701965332 0.78399527072906494 0.075086243450641632
0.90556937456130981 0.79370009899139404 0.087225668132305145
0.98011273145675659 0.80069726705551147 0.1013309583067894
1 0.81336933374404907 0.1167270764708519
1 0.82766759395599365 0.13123582303524017
0.045504625886678696 0.82771795988082886 0.053672894835472107
0.136577308177948 0.8384590744972229 0.062175855040550232
0.23666924238204956 0.84723085165023804 0.072481162846088409
0.34111696481704712 0.85395437479019165 0.082252129912376404
0.4476417601108551 0.85954546928405762 0.090161554515361786
0.5538182258605957 0.86509215831756592 0.096002928912639618
0.65728759765625 0.87245231866836548 0.10054590553045273
0.7566947340965271 0.88524788618087769 0.10603383183479309
0.85034167766571045 0.90107071399688721 0.11534372717142105
0.93598717451095581 0.9070773720741272 0.12696622312068939
0.99326133728027344 0.91028040647506714 0.13938347995281219
1 0.92091131210327148 0.15177032351493835
1 0.93278217315673828 0.16294601559638977
0.093654975295066833 0.94350737333297729 0.097446173429489136
0.18648266792297363 0.95032703876495361 0.1060689315199852
0.28760093450546265 0.95452064275741577 0.11649977415800095
0.39186546206474304 0.95664030313491821 0.12547053396701813
0.49683544039726257 0.95776355266571045 0.13241094350814819
0.6010587215423584 0.9596869945526123 0.13794691860675812
0.7023165225982666 0.96461999416351318 0.14274796843528748
0.79787701368331909 0.97481817007064819 0.14869873225688934
0.88508546352386475 0.98505479097366333 0.15706983208656311
0.95909595489501953 0.98467081785202026 0.16695579886436462
0.99720460176467896 0.98768270015716553 0.17785143852233887
1 0.99303221702575684 0.18718086183071136
1 0.99688667058944702 0.19449111819267273
0.14764425158500671 1 0.14494699239730835
0.24032744765281677 1 0.15242370963096619
0.3393731415271759 1 0.16095195710659027
0.44162425398826599 1 0.1683690994977951
0.54458320140838623 1 0.17434446513652802
0.64669519662857056 1 0.17926052212715149
0.74581229686737061 1 0.18383857607841492
0.83952271938323975 1 0.18893297016620636
0.9241483211517334 1 0.19480633735656738
0.98704814910888672 1 0.2020934522151947
0.99997860193252563 1 0.21112349629402161
1 1 0.21888601779937744
1 1 0.22402666509151459
0.19570612907409668 1 0.18575835227966309
0.28894084692001343 1 0.19358240067958832
0.38654056191444397 1 0.20072093605995178
0.48674130439758301 1 0.20731362700462341
0.58741956949234009 1 0.21249374747276306
0.68704855442047119 1 0.21696144342422485
0.78346031904220581 1 0.22105160355567932
0.87407088279724121 1 0.22499532997608185
0.95375728607177734 1 0.22902235388755798
0.99835377931594849 1 0.23416925966739655
1 1 0.2408575713634491
1 1 0.24649007618427277
1 1 0.24956449866294861
0.00074639415834099054 0.0018494699615985155 0.019851071760058403
0.007028527557849884 0.0014016394270583987 0.023139804601669312
0.070362135767936707 0.0038812225684523582 0.019469944760203362
0.15881268680095673 0.0036053527146577835 0.019620947539806366
0.24660575389862061 0.0017991010099649429 0.022758843377232552
0.33723229169845581 0.00031469008536078036 0.025646524503827095
0.43051627278327942 0 0.029831217601895332
0.52452760934829712 0 0.035580743104219437
0.61677581071853638 0 0.034742467105388641
0.70566076040267944 0.0020016687922179699 0.019416538998484612
0.78730213642120361 0.015087202191352844 0.0094146132469177246
0.86213135719299316 0.02886645682156086 0.012357884086668491
0.92866659164428711 0.04470374807715416 0.020309388637542725
0.0010688332840800285 0.03244984894990921 0.026335204020142555
0.013604841195046902 0.032352972775697708 0.025783583521842957
0.081198520958423615 0.039530526846647263 0.024334536865353584
0.16772092878818512 0.041384410113096237 0.024413254112005234
0.25742262601852417 0.039778750389814377 0.024347880855202675
0.35043513774871826 0.035118252038955688 0.023561470210552216
0.44548448920249939 0.029412064701318741 0.022950729355216026
0.54003548622131348 0.02470875158905983 0.028892053291201591
0.63250255584716797 0.024857195094227791 0.032314900308847427
0.72177374362945557 0.034409914165735245 0.026908066123723984
0.80566555261611938 0.050317563116550446 0.022190632298588753
0.88193881511688232 0.069351226091384888 0.026890818029642105
0.94998478889465332 0.093691162765026093 0.038519255816936493
0 0.10850144922733307 0.03053862601518631
0.017746046185493469 0.10963154584169388 0.034114956855773926
0.088463664054870605 0.11070872098207474 0.033955324441194534
0.1748378574848175 0.1094152107834816 0.031365428119897842
0.26672548055648804 0.10760028660297394 0.029547447338700294
0.36244082450866699 0.10607448220252991 0.026864144951105118
0.4597933292388916 0.10409670323133469 0.024448873475193977
0.55538654327392578 0.10224182903766632 0.025836195796728134
0.6478390097618103 0.10141076147556305 0.025063697248697281
0.73840528726577759 0.10232680290937424 0.028632847592234612
0.82452213764190674 0.1097269132733345 0.036152977496385574
0.90285575389862061 0.12836803495883942 0.046673238277435303
0.97109949588775635 0.15724563598632812 0.061053212732076645
1.7772001228877343e-05 0.19504691660404205 0.041614621877670288
0.025727784261107445 0.19706201553344727 0.043404433876276016
0.096178703010082245 0.19694963097572327 0.042595971375703812
0.18261696398258209 0.19540435075759888 0.039747141301631927
0.27676931023597717 0.19317309558391571 0.038392249494791031
0.37524643540382385 0.19284270703792572 0.037215646356344223
0.47458004951477051 0.1945650577545166 0.036956608295440674
0.5722886323928833 0.19505326449871063 0.03767642006278038
0.66697901487350464 0.19459636509418488 0.036672044545412064
0.75952517986297607 0.19372150301933289 0.042131640017032623
0.84780937433242798 0.19867168366909027 0.054231051355600357
0.927459716796875 0.21485127508640289 0.06920904666185379
0.98918408155441284 0.24200278520584106 0.085574254393577576
0.00045632754336111248 0.28526556491851807 0.051132801920175552
0.03364073857665062 0.28782349824905396 0.049657288938760757
0.1035308837890625 0.28936329483985901 0.04851982370018959
0.19105306267738342 0.29039883613586426 0.048333305865526199
0.28820082545280457 0.29075884819030762 0.049762770533561707
0.38924553990364075 0.29255545139312744 0.051759816706180573
0.49051082134246826 0.29516056180000305 0.053208295255899429
0.59053951501846313 0.2979428768157959 0.055565014481544495
0.68768608570098877 0.29952484369277954 0.057372387498617172
0.78265678882598877 0.30225899815559387 0.064173407852649689
0.87340575456619263 0.30907317996025085 0.077008835971355438
0.95318251848220825 0.32280105352401733 0.093702934682369232
0.99841451644897461 0.34633907675743103 0.11122883856296539
0.0011241239262744784 0.38230058550834656 0.060614433139562607
0.040857981890439987 0.38568857312202454 0.057820770889520645
0.11353156715631485 0.38932812213897705 0.057142969220876694
0.20416039228439331 0.39333638548851013 0.060224063694477081
0.30384942889213562 0.39718425273895264 0.064994543790817261
0.40748304128646851 0.40086394548416138 0.069051258265972137
0.51026010513305664 0.40492436289787292 0.072571724653244019
0.61074936389923096 0.40965086221694946 0.075822032988071442
0.7084084153175354 0.41532251238822937 0.080350644886493683
0.80495244264602661 0.42252478003501892 0.089067898690700531
0.89774954319000244 0.43237766623497009 0.10262175649404526
0.9759400486946106 0.44576930999755859 0.11961656808853149
1 0.46452254056930542 0.13763712346553802
0.0024466121103614569 0.48699304461479187 0.073781110346317291
0.052276581525802612 0.49230027198791504 0.071827366948127747
0.13131833076477051 0.49852028489112854 0.073768109083175659
0.22527991235256195 0.50511598587036133 0.079134188592433929
0.32781419157981873 0.51144164800643921 0.085765078663825989
0.43297675251960754 0.51655250787734985 0.09162534773349762
0.53705137968063354 0.52168142795562744 0.096330024302005768
0.63759326934814453 0.5282667875289917 0.10063672810792923
0.73401951789855957 0.53724938631057739 0.10669834166765213
0.82880270481109619 0.5491214394569397 0.11700925976037979
0.92068159580230713 0.56173735857009888 0.13142465054988861
0.99024671316146851 0.57434523105621338 0.14809805154800415
1 0.58944904804229736 0.16605591773986816
0.006974194198846817 0.59888672828674316 0.093299627304077148
0.070670381188392639 0.60619676113128662 0.093924656510353088
0.15715554356575012 0.61473095417022705 0.098453670740127563
0.2554568350315094 0.62336963415145874 0.10585474967956543
0.36044502258300781 0.63091069459915161 0.11397573351860046
0.46758154034614563 0.63682764768600464 0.12086522579193115
0.5724824070930481 0.6423155665397644 0.12615214288234711
0.67385411262512207 0.65010809898376465 0.13127829134464264
0.76976627111434937 0.66148841381072998 0.13873952627182007
0.86194360256195068 0.67528814077377319 0.15066489577293396
0.94688534736633301 0.68829232454299927 0.16571667790412903
0.99778616428375244 0.69973462820053101 0.18165150284767151
1 0.71313303709030151 0.19832350313663483
0.019670359790325165 0.71570640802383423 0.12054489552974701
0.098249755799770355 0.7246137261390686 0.12391776591539383
0.1918240487575531 0.73412656784057617 0.13088178634643555
0.29462417960166931 0.74355942010879517 0.14013075828552246
0.40177720785140991 0.7515634298324585 0.14944396913051605
0.50938659906387329 0.75743991136550903 0.15698792040348053
0.61508780717849731 0.76271998882293701 0.16230164468288422
0.71704095602035522 0.77076035737991333 0.16807124018669128
0.81447285413742065 0.78369474411010742 0.17737559974193573
0.90557014942169189 0.79530620574951172 0.18985454738140106
0.97882372140884399 0.80435657501220703 0.20428189635276794
1 0.81649172306060791 0.21911463141441345
1 0.82995235919952393 0.2331266850233078
0.050187055021524429 0.83498400449752808 0.15776324272155762
0.1383129209280014 0.84386777877807617 0.1635320782661438
0.23671205341815948 0.8519476056098938 0.17183418571949005
0.34160682559013367 0.85954576730728149 0.18184091150760651
0.44914358854293823 0.8660847544670105 0.19115310907363892
0.55627596378326416 0.87106615304946899 0.19852584600448608
0.66090500354766846 0.87618756294250488 0.20404727756977081
0.76140481233596802 0.88453370332717896 0.21037687361240387
0.85615003108978271 0.89576703310012817 0.2200477123260498
0.94002878665924072 0.90276682376861572 0.23202104866504669
0.99413186311721802 0.90892612934112549 0.24488499760627747
1 0.92070388793945312 0.25747177004814148
1 0.93326318264007568 0.26837342977523804
0.09732537716627121 0.94985324144363403 0.20401245355606079
0.18869468569755554 0.95588952302932739 0.21037761867046356
0.28843292593955994 0.95940130949020386 0.21833391487598419
0.3930758535861969 0.96230322122573853 0.22725820541381836
0.49934053421020508 0.96455305814743042 0.23550960421562195
0.60470664501190186 0.96613246202468872 0.24226619303226471
0.70716279745101929 0.96863323450088501 0.24811476469039917
0.80433171987533569 0.97304630279541016 0.25456821918487549
0.89300441741943359 0.97751808166503906 0.26319700479507446
0.96529364585876465 0.97841817140579224 0.27346491813659668
0.99902051687240601 0.98379701375961304 0.2840995192527771
1 0.99156099557876587 0.29396942257881165
1 0.99647480249404907 0.3015587329864502
0.149586021900177 1 0.250507652759552
0.24195533990859985 1 0.2571088969707489
0.34116905927658081 1 0.26418185234069824
0.44398918747901917 1 0.27146440744400024
0.54807490110397339 1 0.27822050452232361
0.65114617347717285 1 0.28418830037117004
0.75108426809310913 1 0.28971487283706665
0.84542608261108398 1 0.29562240839004517
0.92909914255142212 1 0.30219131708145142
0.98885172605514526 1 0.31013458967208862
1 1 0.31875550746917725
1 1 0.32594180107116699
1 1 0.3305383026599884
0.19831773638725281 1 0.29017490148544312
0.29163804650306702 1 0.29761281609535217
0.38954848051071167 1 0.30439034104347229
0.49030670523643494 1 0.31055170297622681
0.59189516305923462 1 0.31623801589012146
0.69238358736038208 1 0.32147935032844543
0.78926438093185425 1 0.32622489333152771
0.87989681959152222 1 0.33127102255821228
0.95790082216262817 1 0.3365536630153656
0.99876493215560913 1 0.34218630194664001
1 1 0.34805357456207275
1 1 0.35281109809875488
1 1 0.35485246777534485
0.00011298983736196533 0.00059480854542925954 0.090910986065864563
0.006223761010915041 0.004085929598659277 0.094356104731559753
0.068557366728782654 0.0091543309390544891 0.09800226241350174
0.15709637105464935 0.0065704197622835636 0.099777638912200928
0.24550598859786987 0.0027224670629948378 0.10079670697450638
0.33657807111740112 0.00041360294562764466 0.10157603770494461
0.43038469552993774 0 0.10184980183839798
0.52495008707046509 0 0.10277232527732849
0.61718684434890747 0 0.098408445715904236
0.70599567890167236 0.00022698196698911488 0.087800346314907074
0.78735482692718506 0.0049939621239900589 0.081072278320789337
0.86318886280059814 0.016942432150244713 0.088463984429836273
0.93118852376937866 0.035965908318758011 0.10208762437105179
0.00026117960806004703 0.029351461678743362 0.10807280987501144
0.012476124800741673 0.035302165895700455 0.11015207320451736
0.078204616904258728 0.043317414820194244 0.11395199596881866
0.16544713079929352 0.045565526932477951 0.1120649129152298
0.25579386949539185 0.042173631489276886 0.10964754968881607
0.34978142380714417 0.036433786153793335 0.10675059258937836
0.44581365585327148 0.02997455932199955 0.10489696264266968
0.541209876537323 0.023970196023583412 0.10591140389442444
0.63384950160980225 0.020560245960950851 0.10481348633766174
0.72269827127456665 0.024696724489331245 0.10125144571065903
0.80601966381072998 0.038513511419296265 0.10055166482925415
0.88276129961013794 0.058798503130674362 0.10955865681171417
0.951302170753479 0.086232684552669525 0.12440051138401031
0 0.10571961104869843 0.11793199181556702
0.017704697325825691 0.10953561961650848 0.12304346263408661
0.088641315698623657 0.11169961839914322 0.12641541659832001
0.17450602352619171 0.11160463839769363 0.12361834943294525
0.26578125357627869 0.10936059057712555 0.12107425928115845
0.36236441135406494 0.10742310434579849 0.11749960482120514
0.46093922853469849 0.10531976819038391 0.11557844281196594
0.55742752552032471 0.10204439610242844 0.11569966375827789
0.65073168277740479 0.096857480704784393 0.11303561180830002
0.74017977714538574 0.095195695757865906 0.11367572098970413
0.82483768463134766 0.10149563103914261 0.12030860781669617
0.90278869867324829 0.12110769003629684 0.13262632489204407
0.97121047973632812 0.15219077467918396 0.14889121055603027
0.00054955575615167618 0.19361306726932526 0.12975549697875977
0.02965889684855938 0.19685919582843781 0.1330568939447403
0.099340669810771942 0.19795294106006622 0.13410316407680511
0.18448524177074432 0.19705156981945038 0.13275839388370514
0.27755725383758545 0.19510461390018463 0.13266757130622864
0.37635919451713562 0.19480292499065399 0.13245820999145508
0.47658130526542664 0.1951146125793457 0.13347804546356201
0.57537436485290527 0.19566403329372406 0.13481034338474274
0.66949260234832764 0.19256985187530518 0.13163068890571594
0.7610287070274353 0.19022583961486816 0.13365870714187622
0.84789162874221802 0.19491854310035706 0.14344444870948792
0.92657440900802612 0.21173705160617828 0.15823268890380859
0.98835355043411255 0.2403692752122879 0.17524231970310211
0.0022296682000160217 0.28436195850372314 0.14166547358036041
0.039705447852611542 0.28769472241401672 0.14151549339294434
0.10770172625780106 0.29069852828979492 0.14209602773189545
0.19358216226100922 0.29152041673660278 0.14332830905914307
0.28967112302780151 0.29230323433876038 0.1461634486913681
0.39082720875740051 0.29364034533500671 0.14929203689098358
0.49258887767791748 0.29662972688674927 0.15204864740371704
0.5921018123626709 0.29929149150848389 0.15433649718761444
0.68921345472335815 0.30015674233436584 0.15496291220188141
0.78366750478744507 0.30219224095344543 0.1595795750617981
0.87291765213012695 0.30876931548118591 0.17038321495056152
0.95135623216629028 0.32362100481987 0.186092808842659
0.99797230958938599 0.3474196195602417 0.20330895483493805
0.0028736188542097807 0.38156908750534058 0.1542251855134964
0.046334002166986465 0.38571009039878845 0.1529708206653595
0.1175667867064476 0.390318363904953 0.15388166904449463
0.20618872344493866 0.39483818411827087 0.15794359147548676
0.30562305450439453 0.39868843555450439 0.16358691453933716
0.40892812609672546 0.40241691470146179 0.16899016499519348
0.51232129335403442 0.40663707256317139 0.17362336814403534
0.61304014921188354 0.41140839457511902 0.17722976207733154
0.7111515998840332 0.41698214411735535 0.18127873539924622
0.80672651529312134 0.42431700229644775 0.18860165774822235
0.89731287956237793 0.43422171473503113 0.20034313201904297
0.97386652231216431 0.44798001646995544 0.21578182280063629
1 0.4667009711265564 0.23291334509849548
0.0039446214213967323 0.48669981956481934 0.17081108689308167
0.055566210299730301 0.49263083934783936 0.17022375762462616
0.13387548923492432 0.4997577965259552 0.17305944859981537
0.22685103118419647 0.50716489553451538 0.17931486666202545
0.3291262686252594 0.5133853554725647 0.18716660141944885
0.43463510274887085 0.51865774393081665 0.19432884454727173
0.53913718461990356 0.52357631921768188 0.20034514367580414
0.64030402898788452 0.53022807836532593 0.2055974155664444
0.73755121231079102 0.53980183601379395 0.21195177733898163
0.83105695247650146 0.55194652080535889 0.22140167653560638
0.91998457908630371 0.56424224376678467 0.23381216824054718
0.98885536193847656 0.5764428973197937 0.248448446393013
1 0.5911327600479126 0.26520299911499023
