assets/lut/jtsemple crispromance.cube
# Created by: G'MIC (https://gmic.eu)
TITLE "crispromance"
# LUT size
LUT_3D_SIZE 5
# Data domain
DOMAIN_MIN 0.0 0.0 0.0
DOMAIN_MAX 1.0 1.0 1.0
# LUT data points
5.834242983837612e-05 0.00072829303098842502 0.0020497341174632311
0.15089292824268341 0.0019778232090175152 0
0.42749196290969849 0 0.00011668485967675224
0.70241051912307739 0.0012576981680467725 0.00036562752211466432
0.9240460991859436 0.049247201532125473 0
0 0.19194932281970978 0.00031109977862797678
0.17911271750926971 0.19225311279296875 0
0.47161942720413208 0.19123747944831848 0
0.75869655609130859 0.19621701538562775 0.00036280014319345355
0.98826789855957031 0.24726046621799469 0.013911901973187923
0.0024021074641495943 0.48660627007484436 0.0050935032777488232
0.22676977515220642 0.50394672155380249 0.0065837637521326542
0.53655695915222168 0.52045702934265137 0.013088480569422245
0.83046376705169678 0.54516100883483887 0.026769300922751427
1 0.58674836158752441 0.074534878134727478
0.045504625886678696 0.82771795988082886 0.053672894835472107
0.34111696481704712 0.85395437479019165 0.082252129912376404
0.65728759765625 0.87245231866836548 0.10054590553045273
0.93598717451095581 0.9070773720741272 0.12696622312068939
1 0.93278217315673828 0.16294601559638977
0.19570612907409668 1 0.18575835227966309
0.48674130439758301 1 0.20731362700462341
0.78346031904220581 1 0.22105160355567932
0.99835377931594849 1 0.23416925966739655
1 1 0.24956449866294861
0 0.00088249653344973922 0.19314543902873993
0.14688491821289062 0.0077025918290019035 0.19839480519294739
0.42748028039932251 0 0.19385005533695221
0.70398956537246704 0 0.18619747459888458
0.93189996480941772 0.026338269934058189 0.20265893638134003
0.0040583740919828415 0.19181926548480988 0.23516258597373962
0.18190114200115204 0.19599616527557373 0.23863339424133301
0.47563016414642334 0.194316565990448 0.24041299521923065
0.76239180564880371 0.18802346289157867 0.2420935332775116
0.98766416311264038 0.24235956370830536 0.2765774130821228
0.0059851850382983685 0.48633226752281189 0.27536961436271667
0.22994475066661835 0.50913763046264648 0.28787413239479065
0.54175108671188354 0.52539658546447754 0.31033912301063538
0.83514946699142456 0.55270564556121826 0.33140766620635986
1 0.59180563688278198 0.36918815970420837
0.058871999382972717 0.83672213554382324 0.37321916222572327
0.34676232933998108 0.86719560623168945 0.39588722586631775
0.66435450315475464 0.88810569047927856 0.425924152135849
0.93623596429824829 0.89982116222381592 0.45246502757072449
1 0.9323420524597168 0.48337733745574951
0.20255331695079803 1 0.49549385905265808
0.49348843097686768 1 0.51401644945144653
0.78877413272857666 1 0.53303879499435425
0.99835032224655151 1 0.55326414108276367
1 1 0.5592535138130188
4.0929458918981254e-05 0 0.49968016147613525
0.14088238775730133 0.00018148982780985534 0.50299543142318726
0.41835841536521912 0 0.49757561087608337
0.69965916872024536 0 0.50536209344863892
0.93453598022460938 0.022630130872130394 0.52174371480941772
0.001170618343167007 0.19109137356281281 0.54490464925765991
0.1747557520866394 0.19541636109352112 0.5546112060546875
0.47656518220901489 0.19346402585506439 0.55705785751342773
0.76510012149810791 0.20316049456596375 0.56695866584777832
0.99003374576568604 0.26276519894599915 0.5921396017074585
0.0033251144923269749 0.49488946795463562 0.58154726028442383
0.23678617179393768 0.51718151569366455 0.60070109367370605
0.55134326219558716 0.53742331266403198 0.61520677804946899
0.84788781404495239 0.56853264570236206 0.63605296611785889
1 0.60692018270492554 0.66638559103012085
0.07566254585981369 0.84710323810577393 0.66803032159805298
0.36396437883377075 0.87024992704391479 0.68812936544418335
0.67498159408569336 0.88635718822479248 0.70330238342285156
0.94845139980316162 0.90885710716247559 0.72692054510116577
0.99633479118347168 0.93621623516082764 0.74792659282684326
0.21001115441322327 1 0.76591205596923828
0.49896392226219177 1 0.77508485317230225
0.78603023290634155 0.99997782707214355 0.78436422348022461
0.99847638607025146 0.999531090259552 0.80380493402481079
1 1 0.81397944688796997
0 0 0.75741672515869141
0.15018740296363831 0 0.76291614770889282
0.42529740929603577 3.4466913348296657e-05 0.75712186098098755
0.70178961753845215 0 0.75877320766448975
0.93596345186233521 0.0086911069229245186 0.76085942983627319
0.00079938105773180723 0.19228571653366089 0.79925352334976196
0.18702471256256104 0.2008114755153656 0.80268925428390503
0.49016165733337402 0.20669040083885193 0.80170625448226929
0.78342181444168091 0.2162838876247406 0.82883912324905396
0.99437844753265381 0.26805061101913452 0.84679436683654785
0.0048672845587134361 0.5091971755027771 0.82677739858627319
0.25371459126472473 0.53315621614456177 0.84345042705535889
0.56873935461044312 0.55388820171356201 0.85522794723510742
0.86254900693893433 0.58724308013916016 0.88200950622558594
0.99968081712722778 0.62278413772583008 0.90840429067611694
0.08528658002614975 0.8676152229309082 0.90387856960296631
0.38284415006637573 0.89127093553543091 0.92157965898513794
0.6929054856300354 0.90424126386642456 0.92973470687866211
0.95865452289581299 0.92272049188613892 0.94394659996032715
1 0.94880622625350952 0.96495592594146729
0.21782934665679932 1 0.98594856262207031
0.50972563028335571 1 0.98093777894973755
0.79919171333312988 0.99281519651412964 0.98715174198150635
0.99978458881378174 0.99930298328399658 0.99581819772720337
0.99991059303283691 1 0.9980698823928833
0.0021321764215826988 0 0.96585547924041748
0.15441657602787018 0.00020608340855687857 0.97241127490997314
0.43664434552192688 0.023868022486567497 0.95999413728713989
0.70541763305664062 0.0027302461676299572 0.94621872901916504
0.93154597282409668 0.012344794347882271 0.9244534969329834
0.020304586738348007 0.205367311835289 0.99379980564117432
0.20976336300373077 0.2215612530708313 0.99251252412796021
0.50161302089691162 0.23989547789096832 0.99322038888931274
0.79907220602035522 0.23502707481384277 0.99663549661636353
0.99899435043334961 0.28408288955688477 0.9887460470199585
0.028140213340520859 0.53014767169952393 0.99917834997177124
0.28594952821731567 0.55395126342773438 0.99947923421859741
0.59080809354782104 0.57509583234786987 1
0.89179700613021851 0.60379147529602051 1
1 0.64143902063369751 0.99880760908126831
0.11274468153715134 0.88277608156204224 1
0.39891096949577332 0.89853835105895996 0.99978840351104736
0.70803940296173096 0.9094129204750061 1
0.96874356269836426 0.93419563770294189 1
0.9994434118270874 0.95946019887924194 0.99900370836257935
0.23409996926784515 1 1
0.51922702789306641 1 1
0.81211847066879272 1 1
1 0.99997901916503906 0.99990320205688477
1 1 1
