assets/lut/jtsemple justpeachy.cube
# Created by: G'MIC (https://gmic.eu)
TITLE "justpeachy"
# LUT size
LUT_3D_SIZE 13
# Data domain
DOMAIN_MIN 0.0 0.0 0.0
DOMAIN_MAX 1.0 1.0 1.0
# LUT data points
0 0 0
0.0014178256969898939 0 0
0.037340573966503143 0 0
0.11113029718399048 0 0
0.1977890282869339 0 0
0.28849500417709351 0 0
0.38048318028450012 0 0
0.47243526577949524 0 0
0.56398892402648926 0 0
0.65557241439819336 0 0
0.74730628728866577 0 0
0.83955937623977661 0 0
0.93340247869491577 0 0
0.00011668485967675224 0.0023674459662288427 0
0.002788543701171875 0.0022306554019451141 0
0.042162321507930756 0.00051755720051005483 0.00038797713932581246
0.1150958314538002 0.00047128714504651725 4.1812072595348582e-05
0.20010541379451752 0.0013630886096507311 0
0.29000177979469299 0.00077374029206112027 0
0.38190728425979614 1.1848001122416463e-05 0
0.47437474131584167 0 0
0.56654661893844604 0 0
0.65840995311737061 0 0
0.75020694732666016 3.3898446417879313e-05 0
0.84213042259216309 0.00081679399590939283 0
0.93462735414505005 0.003512154333293438 0
4.0061800973489881e-05 0.038085069507360458 0
0.00078132480848580599 0.037856727838516235 0
0.035503759980201721 0.032289497554302216 0.00058536900905892253
0.11107949912548065 0.030984198674559593 0.00023375866294372827
0.19762028753757477 0.033534571528434753 0
0.28802788257598877 0.028259500861167908 0
0.38133364915847778 0.017418162897229195 0.0009675867622718215
0.47494220733642578 0.01083297748118639 0.00034356210380792618
0.56843012571334839 0.012035280466079712 0
0.66139000654220581 0.015327648259699345 0
0.75354564189910889 0.01943899504840374 0
0.8454323410987854 0.023843951523303986 0
0.937835693359375 0.030629925429821014 0.00010229372855974361
0 0.10637066513299942 0
0 0.10603853315114975 0
0.026050373911857605 0.10284067690372467 0
0.10119409114122391 0.098493821918964386 0
0.19009724259376526 0.09616629034280777 0
0.28314808011054993 0.089271277189254761 7.0788810262456536e-05
0.37812420725822449 0.078227117657661438 0.0031807245686650276
0.47415849566459656 0.068263530731201172 0.00060122623108327389
0.56937175989151001 0.065167956054210663 0
0.66385304927825928 0.065902575850486755 0
0.75716489553451538 0.067658476531505585 0
0.84952336549758911 0.069150440394878387 0
0.94176775217056274 0.074588045477867126 0.0014867595164105296
0 0.17982068657875061 0
0.00030245314701460302 0.17905433475971222 0
0.028977591544389725 0.17750895023345947 0
0.098148912191390991 0.17479950189590454 0
0.18374799191951752 0.17113372683525085 0
0.27695611119270325 0.16559815406799316 0
0.3738437294960022 0.15672881901264191 0.00016299977141898125
0.47157731652259827 0.14525651931762695 5.0264247875020374e-06
0.5691220760345459 0.13772584497928619 0
0.66583847999572754 0.13500705361366272 0
0.76072388887405396 0.13348358869552612 0
0.85391700267791748 0.13311691582202911 0
0.94669860601425171 0.13637343049049377 0.0015493804821744561
0 0.25323763489723206 0.0011044371640309691
0.0014731313567608595 0.25247707962989807 0.0013774797553196549
0.035003632307052612 0.2522490918636322 0.00072314694989472628
0.098641097545623779 0.25201901793479919 1.077091019396903e-05
0.18028663098812103 0.24970339238643646 0
0.27232760190963745 0.24566404521465302 0
0.3695894181728363 0.23822900652885437 0
0.46888434886932373 0.22854350507259369 0
0.5684199333190918 0.22090807557106018 0
0.66662406921386719 0.21645598113536835 0
0.76345157623291016 0.21429216861724854 0
0.85833346843719482 0.21386422216892242 0
0.95252138376235962 0.2169506847858429 1.1668485967675224e-05
0 0.32948040962219238 0.0035683875903487206
0.0023235245607793331 0.32818171381950378 0.0039623933844268322
0.037681981921195984 0.32943245768547058 0.0018624997464939952
0.099402502179145813 0.33065336942672729 9.5143041107803583e-05
0.17805340886116028 0.33064833283424377 0
0.26878878474235535 0.32778754830360413 0
0.36630183458328247 0.32225459814071655 0
0.46663206815719604 0.31551709771156311 0
0.56767177581787109 0.30963557958602905 0
0.66753029823303223 0.30599898099899292 0
0.76593899726867676 0.30472114682197571 0
0.86252790689468384 0.30583712458610535 0
0.95829355716705322 0.30957823991775513 0
0 0.41103044152259827 0.0029362696222960949
0.0013280981220304966 0.40983456373214722 0.0022210364695638418
0.035767842084169388 0.41170936822891235 0.00061599130276590586
0.097727246582508087 0.4142632782459259 3.7698184769396903e-06
0.17573994398117065 0.41536512970924377 0
0.26628714799880981 0.41395685076713562 0
0.36405962705612183 0.41029161214828491 0
0.46550047397613525 0.40577393770217896 0
0.56757920980453491 0.40207505226135254 0
0.66870313882827759 0.40044024586677551 0
0.76826262474060059 0.40079322457313538 0
0.86655402183532715 0.4031672477722168 0
0.96327286958694458 0.40723833441734314 0
0 0.49857914447784424 0.00058451632503420115
0.00036152859684079885 0.49844110012054443 5.977855107630603e-05
0.031322270631790161 0.50048041343688965 0
0.095010124146938324 0.50323188304901123 0
0.17401546239852905 0.50492924451828003 0
0.26521569490432739 0.50449156761169434 0
0.36410066485404968 0.50195980072021484 0
0.46635052561759949 0.49966201186180115 0
0.56942129135131836 0.49704062938690186 0
0.6715354323387146 0.49721574783325195 0
0.77216541767120361 0.49897059798240662 0
0.87128794193267822 0.50222182273864746 0
0.96782863140106201 0.50633835792541504 0
0 0.59013032913208008 0
4.7062891098903492e-05 0.5910792350769043 0
0.028206620365381241 0.5936274528503418 0
0.094140008091926575 0.59659713506698608 0
0.17476479709148407 0.59798747301101685 0
0.26721844077110291 0.59786117076873779 0
0.36701756715774536 0.59733486175537109 0
0.47045677900314331 0.59553903341293335 0
0.5744476318359375 0.59398418664932251 0
0.67743152379989624 0.59495896100997925 0
0.77869117259979248 0.59733080863952637 0
0.87827587127685547 0.60089743137359619 0
0.97374004125595093 0.60503435134887695 0
0 0.68549889326095581 0
0.000151884785736911 0.68619620800018311 0
0.030344659462571144 0.68912392854690552 0
0.098373517394065857 0.69199270009994507 0
0.18053659796714783 0.69387257099151611 7.2254857514053583e-05
0.27393800020217896 0.69387257099151611 0.00022020527103450149
0.37456360459327698 0.69387257099151611 6.498448783531785e-05
0.47877770662307739 0.69236618280410767 0
0.58338660001754761 0.69119560718536377 0
0.6871260404586792 0.69222772121429443 0
0.78901118040084839 0.69434630870819092 0
0.88894623517990112 0.69788861274719238 0
0.98092371225357056 0.70226532220840454 0
0 0.77970331907272339 0.00056399177992716432
0.0013654970098286867 0.78251904249191284 2.5132123937510187e-06
0.040726516395807266 0.78505927324295044 0
0.11046244204044342 0.78770500421524048 0.00034303852589800954
0.19367608428001404 0.79033535718917847 0.0040944418869912624
0.28712847828865051 0.79037988185882568 0.0073717902414500713
0.38782551884651184 0.79028034210205078 0.0039068483747541904
0.491830974817276 0.78816723823547363 0.00074777042027562857
0.59676855802536011 0.78676986694335938 2.3875516490079463e-05
0.7006756067276001 0.78738749027252197 0
0.80313968658447266 0.79014229774475098 0
0.9035460352897644 0.79327136278152466 0
0.98906117677688599 0.79731851816177368 0
0 0.87549614906311035 0.0081535335630178452
0.0074735754169523716 0.87900912761688232 0.0033609278034418821
0.05937919020652771 0.88050192594528198 0.0033908619079738855
0.13063576817512512 0.88309121131896973 0.0076868245378136635
0.21401709318161011 0.88520735502243042 0.01610126905143261
0.30661135911941528 0.88617175817489624 0.020071456208825111
0.40616163611412048 0.88471251726150513 0.016165250912308693
0.50918114185333252 0.88304144144058228 0.0085432613268494606
0.61354833841323853 0.88296568393707275 0.0027779224328696728
0.71751195192337036 0.88296568393707275 0.00052235921612009406
0.81982719898223877 0.88408046960830688 5.3675033996114507e-05
0.92052990198135376 0.88753777742385864 0
0.99573427438735962 0.89169657230377197 0.0001516903139417991
0 0 0.0030520271975547075
0.0030854467768222094 0 0.0025808147620409727
0.042652759701013565 0 0.0014919505920261145
0.11684665828943253 0 0.002463426673784852
0.20299839973449707 0 0.0023880153894424438
0.29279688000679016 0 0.00074262433918192983
0.38396874070167542 0 0.00013921401114203036
0.47500154376029968 0 9.0834670118056238e-05
0.56604468822479248 0 0
0.65744870901107788 0 0
0.74860960245132446 0 0
0.84013599157333374 0 0
0.93297523260116577 0 0.00010696111712604761
0.00044456930481828749 0.0035960029345005751 0.0031686520669609308
0.0012526268837973475 0.0014139960985630751 0.0019463034113869071
0.037580914795398712 0.00015797335072420537 0.0019806805066764355
0.11583930999040604 0.00018035290122497827 0.0028018427547067404
0.20333950221538544 0.0011581121943891048 0.0026843501254916191
0.29276889562606812 0.0013484131777659059 0.0024476444814354181
0.38409048318862915 0.00032417447073385119 0.0023951961193233728
0.47653347253799438 0 0.0020267113577574492
0.56876885890960693 7.2404450293106493e-06 0.00089150224812328815
0.66071033477783203 0.00023992202477529645 7.832844858057797e-05
0.7521209716796875 0.00091072532813996077 0
0.84333896636962891 0.0023364198859781027 5.7429893786320463e-05
0.93525081872940063 0.0057446048595011234 0.0014376920880749822
0.00012174119910923764 0.041285868734121323 0.0033320407383143902
4.1303446778329089e-05 0.0359065942466259 0.0023768555838614702
0.02949027344584465 0.029714262112975121 0.0017439599614590406
0.10895664244890213 0.029191335663199425 0.001170049887150526
0.19827106595039368 0.032867327332496643 0.00087441835785284638
0.2895829975605011 0.029686557129025459 0.0035769145470112562
0.38266769051551819 0.022325837984681129 0.007707513403147459
0.47672149538993835 0.017341284081339836 0.0069931028410792351
0.57101869583129883 0.017578395083546638 0.0024585050996392965
0.66428011655807495 0.020588938146829605 0.00034293381031602621
0.7564275860786438 0.023822814226150513 0
0.8476865291595459 0.027286259457468987 0.00058071658713743091
0.93908399343490601 0.032745257019996643 0.0056131100282073021
0 0.11114120483398438 0.003055766923353076
1.6291001884383149e-05 0.10549042373895645 0.0036522210575640202
0.026660291478037834 0.10079911351203918 0.0030000424012541771
0.10093359649181366 0.098160460591316223 0.00055839685956016183
0.19036084413528442 0.097151108086109161 0.00035561952972784638
0.28397923707962036 0.089347705245018005 0.0040604686364531517
0.37930181622505188 0.079554297029972076 0.0095442682504653931
0.4751889705657959 0.071776129305362701 0.0077682645060122013
0.57204258441925049 0.069331102073192596 0.0020649030338972807
0.66785913705825806 0.069979123771190643 9.6429561381228268e-05
0.76139110326766968 0.071140319108963013 0
0.85292893648147583 0.072485066950321198 0.00073637120658531785
0.94425433874130249 0.076537624001502991 0.010113569907844067
0 0.18364033102989197 0.0079154819250106812
0.00085781322559341788 0.18091529607772827 0.0085560819134116173
0.031143518164753914 0.17880347371101379 0.0072792503051459789
0.098588697612285614 0.17546623945236206 0.0037922877818346024
0.18440040946006775 0.172628253698349 0.0027417950332164764
0.27806815505027771 0.16519597172737122 0.0048907860182225704
0.37550076842308044 0.1552760899066925 0.0070568309165537357
0.47438585758209229 0.14585043489933014 0.003957696259021759
0.5729597806930542 0.14014485478401184 0.00052885169861838222
0.67061954736709595 0.13820283114910126 0
0.76609808206558228 0.13749411702156067 0
0.85877090692520142 0.13672739267349243 0.00027594473795033991
0.95021039247512817 0.13908030092716217 0.0084334127604961395
0 0.25651684403419495 0.016615564003586769
0.0022062414791435003 0.25572347640991211 0.015681860968470573
0.035304740071296692 0.25543156266212463 0.013535862788558006
0.098573632538318634 0.25358349084854126 0.0091987606137990952
0.18013665080070496 0.25107985734939575 0.0058130901306867599
0.2726801335811615 0.24569360911846161 0.0043977177701890469
0.37118086218833923 0.23758141696453094 0.0028164433315396309
0.47180506587028503 0.22890757024288177 0.00077857222640886903
0.57256847620010376 0.22250275313854218 6.5822227952594403e-06
0.67210638523101807 0.21933391690254211 0
0.76931363344192505 0.21803431212902069 0
0.86354106664657593 0.21762330830097198 5.1012225412705448e-06
0.95654869079589844 0.21976606547832489 0.0030145084019750357
0 0.33302196860313416 0.021776102483272552
0.0017222086898982525 0.33220979571342468 0.019908426329493523
0.035101152956485748 0.33303430676460266 0.016199806705117226
0.096828192472457886 0.33368793129920959 0.010716098360717297
0.17620588839054108 0.33250695466995239 0.0057039596140384674
0.26830139756202698 0.32884514331817627 0.0023386189714074135
0.36740440130233765 0.32287690043449402 0.00046534818829968572
0.46943509578704834 0.31623655557632446 6.9113339122850448e-06
0.57155799865722656 0.31134513020515442 0
0.67232990264892578 0.30886989831924438 0
0.77086478471755981 0.30842548608779907 0
0.86735820770263672 0.30974039435386658 0
0.96226340532302856 0.31289222836494446 0.00037533629802055657
0 0.41430240869522095 0.021122397854924202
0.00049843883607536554 0.41422402858734131 0.017457535490393639
0.030552733689546585 0.41570320725440979 0.01286525372415781
0.092560335993766785 0.41750028729438782 0.0077370735816657543
0.17195434868335724 0.41770738363265991 0.0035690756049007177
0.26451799273490906 0.41545960307121277 0.00079843855928629637
0.36480191349983215 0.4112764298915863 6.9113339122850448e-06
0.4680635929107666 0.4069482684135437 0
0.5712323784828186 0.40437203645706177 0
0.67284166812896729 0.40366804599761963 0
0.77277654409408569 0.40453562140464783 0
0.87082260847091675 0.40734061598777771 0
0.96640098094940186 0.41119760274887085 0
0 0.50139099359512329 0.015486624091863632
0 0.50193363428115845 0.0094272391870617867
0.023613410070538521 0.50413846969604492 0.0055709239095449448
0.087585374712944031 0.50631803274154663 0.0036194147542119026
0.1686163991689682 0.50720500946044922 0.0021049499046057463
0.26245748996734619 0.50612497329711914 0.00055702059762552381
0.36421442031860352 0.50365334749221802 3.9493338590546045e-06
0.46862062811851501 0.50093084573745728 0
0.57254230976104736 0.50060588121414185 0
0.67511826753616333 0.50070750713348389 0
0.77578222751617432 0.50275170803070068 0
0.87460488080978394 0.50625300407409668 0
0.96998828649520874 0.51020020246505737 0
0 0.59263509511947632 0.0097179636359214783
0 0.59415131807327271 0.0029806997627019882
0.018963145092129707 0.59681850671768188 0.0011171527439728379
0.08473823219537735 0.59936356544494629 0.001522752339951694
0.16855324804782867 0.60109001398086548 0.0026771994307637215
0.26416519284248352 0.60110306739807129 0.0025712107308208942
0.36679542064666748 0.5986742377281189 0.0010963140521198511
0.47207072377204895 0.59736520051956177 0.00028762817964889109
0.57720953226089478 0.59734755754470825 1.6784668332547881e-05
0.68076068162918091 0.59806770086288452 0
0.7820897102355957 0.60085034370422363 0
0.88100045919418335 0.6047511100769043 0
0.97520363330841064 0.60867166519165039 0
0 0.68625009059906006 0.0086043113842606544
0 0.68883389234542847 0.0013980491785332561
0.019672738388180733 0.69176685810089111 8.787267142906785e-05
0.088629752397537231 0.69426822662353516 0.002095645060762763
0.1747448593378067 0.69669920206069946 0.0081562865525484085
0.27139657735824585 0.69739586114883423 0.011842376552522182
0.37475457787513733 0.6953004002571106 0.0096111074090003967
0.48053961992263794 0.69390249252319336 0.0053397980518639088
0.58644962310791016 0.69387257099151611 0.0023951511830091476
0.69082182645797729 0.69441002607345581 0.00065908994292840362
0.79261147975921631 0.69721341133117676 0.0001056446781149134
0.89174330234527588 0.70098555088043213 1.6784668332547881e-05
0.98206102848052979 0.70519161224365234 0.00016866945952642709
0 0.7821999192237854 0.016020815819501877
7.7176562626846135e-05 0.78393113613128662 0.0057345372624695301
0.029844770208001137 0.78712457418441772 0.0037730198819190264
0.10184227675199509 0.79012399911880493 0.010066552087664604
0.18896289169788361 0.79131394624710083 0.021935166791081429
0.28596082329750061 0.79204314947128296 0.028883675113320351
0.38854628801345825 0.79071497917175293 0.027008311823010445
0.49420392513275146 0.79034906625747681 0.020218359306454659
0.60042822360992432 0.78972405195236206 0.012163004837930202
0.70530474185943604 0.78978496789932251 0.0062491022981703281
0.80762988328933716 0.79117637872695923 0.0031857211142778397
0.90705162286758423 0.79469233751296997 0.0021755143534392118
0.99018234014511108 0.79879850149154663 0.0037861543241888285
0 0.87720674276351929 0.034155767410993576
0.0037090526893734932 0.87921774387359619 0.024397501721978188
0.050691865384578705 0.88243997097015381 0.023009983822703362
0.1242288202047348 0.88460636138916016 0.030455330386757851
0.21081371605396271 0.88673573732376099 0.041013080626726151
0.30624324083328247 0.88688725233078003 0.047135148197412491
0.40756434202194214 0.8862641453742981 0.046074241399765015
0.51193541288375854 0.88416695594787598 0.039562884718179703
0.61766409873962402 0.88302582502365112 0.030559150502085686
0.72247552871704102 0.88296568393707275 0.021729772910475731
0.82485353946685791 0.88410907983779907 0.015930909663438797
0.92472738027572632 0.8871733546257019 0.014527085237205029
0.99646061658859253 0.89138531684875488 0.018130702897906303
0 0 0.043422158807516098
0.003491315757855773 0 0.04130413755774498
0.04598318412899971 0 0.039601702243089676
0.12207028269767761 0 0.042311247438192368
0.20663060247898102 0 0.038864001631736755
0.29423323273658752 0 0.030330253764986992
0.38432133197784424 0 0.023470919579267502
0.47540754079818726 0 0.021203000098466873
0.56679803133010864 0 0.019389044493436813
0.65831023454666138 0 0.016004554927349091
0.74966651201248169 0 0.013154108077287674
0.8408772349357605 0 0.01196664571762085
0.932975172996521 0.00020964379655197263 0.016374610364437103
0 0.0011513205245137215 0.046015363186597824
0.0015638911863788962 0.00068504485534504056 0.042253501713275909
0.039144180715084076 0.00022856768919155002 0.04131336510181427
0.11987744271755219 2.9620002806041157e-06 0.04241180419921875
0.2058788537979126 0.00059091905131936073 0.038766644895076752
0.29319131374359131 0.00071120914071798325 0.034842874854803085
0.38371419906616211 0.00059799494920298457 0.031963571906089783
0.47631707787513733 0.00058664061361923814 0.028705911710858345
0.56962871551513672 0.00088197295553982258 0.024106329306960106
0.66194599866867065 0.0017492555780336261 0.019030118361115456
0.7533988356590271 0.0032679988071322441 0.015463032759726048
0.84431916475296021 0.0056775263510644436 0.016182977706193924
0.93565696477890015 0.0097142839804291725 0.022508613765239716
0 0.036215793341398239 0.046712357550859451
3.225289037800394e-05 0.034277718514204025 0.042684607207775116
0.029216138646006584 0.030964016914367676 0.039810121059417725
0.11229300498962402 0.027256311848759651 0.036883767694234848
0.20034247636795044 0.029970280826091766 0.032266922295093536
0.28950080275535583 0.027338678017258644 0.035125270485877991
0.38224998116493225 0.023537654429674149 0.037299152463674545
0.47653314471244812 0.022540837526321411 0.034179013222455978
0.57143652439117432 0.023753700777888298 0.027251195162534714
0.6660657525062561 0.026028877124190331 0.02012551948428154
0.75823307037353516 0.028588090091943741 0.016440102830529213
0.84902429580688477 0.030788691714406013 0.019993336871266365
0.94012349843978882 0.034906245768070221 0.02930133230984211
0 0.10819890350103378 0.043049246072769165
9.4784008979331702e-05 0.10562442243099213 0.042355675250291824
0.02836926095187664 0.1022859588265419 0.040325149893760681
0.1049053743481636 0.098040714859962463 0.03311469778418541
0.19311150908470154 0.095894984900951385 0.02858663909137249
0.28458088636398315 0.088051602244377136 0.033980529755353928
0.37912085652351379 0.079790152609348297 0.037988115102052689
0.47689118981361389 0.074995584785938263 0.034426819533109665
0.57498502731323242 0.073394849896430969 0.025951355695724487
0.67040681838989258 0.074170403182506561 0.016766522079706192
0.76420724391937256 0.075073137879371643 0.013219167478382587
0.8552093505859375 0.075085088610649109 0.019316131249070168
0.94557696580886841 0.077494844794273376 0.032679330557584763
0 0.1831396222114563 0.047086425125598907
0.0021617366001009941 0.18127439916133881 0.046214789152145386
0.034668266773223877 0.17894920706748962 0.043967872858047485
0.10265296697616577 0.17588567733764648 0.038629136979579926
0.18708622455596924 0.17204432189464569 0.034321311861276627
0.27944868803024292 0.16372166574001312 0.03499959409236908
0.37671849131584167 0.15423488616943359 0.035161439329385757
0.4760424792766571 0.1465689092874527 0.030645348131656647
0.57568979263305664 0.14261884987354279 0.021353568881750107
0.67424571514129639 0.14060312509536743 0.011687484569847584
0.77000755071640015 0.14035975933074951 0.0079622901976108551
0.86201393604278564 0.13934341073036194 0.015125962905585766
0.95260107517242432 0.14030690491199493 0.031360328197479248
0 0.25693514943122864 0.052952021360397339
0.0038598005194216967 0.25615772604942322 0.050560552626848221
0.03838786855340004 0.25612744688987732 0.047841165214776993
0.10040231049060822 0.25508224964141846 0.043209780007600784
0.18144674599170685 0.2513822615146637 0.038436815142631531
0.27379041910171509 0.24508200585842133 0.034806106239557266
0.37273666262626648 0.23684413731098175 0.030926184728741646
0.47418263554573059 0.22926908731460571 0.024769457057118416
0.57584178447723389 0.22406779229640961 0.016629492864012718
0.67594254016876221 0.22172465920448303 0.0097001921385526657
0.7734110951423645 0.22080866992473602 0.0073391334153711796
0.86740279197692871 0.21990866959095001 0.012752397917211056
0.95942634344100952 0.22121100127696991 0.027211671695113182
0 0.33490845561027527 0.055750634521245956
0.0021939147263765335 0.33474647998809814 0.052218418568372726
0.035374198108911514 0.33517920970916748 0.04841429740190506
0.096145763993263245 0.33527761697769165 0.043427694588899612
0.17563657462596893 0.33378532528877258 0.037500567734241486
0.26847299933433533 0.32951760292053223 0.031173450872302055
0.36889490485191345 0.32322633266448975 0.024095034226775169
0.47205743193626404 0.31704893708229065 0.017839828506112099
0.57480448484420776 0.31291306018829346 0.013261607848107815
0.67611920833587646 0.31121599674224854 0.0099883135408163071
0.77531760931015015 0.31136056780815125 0.0089714350178837776
0.87136232852935791 0.31177026033401489 0.012055729515850544
0.9649842381477356 0.31456637382507324 0.022162986919283867
0 0.41730839014053345 0.054188895970582962
0.00025423834449611604 0.41770875453948975 0.048828229308128357
0.027718262746930122 0.41906827688217163 0.044159203767776489
0.089261494576931 0.42002370953559875 0.039562046527862549
0.16971433162689209 0.41965562105178833 0.033922456204891205
0.26393839716911316 0.41704052686691284 0.026373844593763351
0.36588817834854126 0.41252952814102173 0.017847292125225067
0.47051984071731567 0.40849792957305908 0.01292914617806673
0.57425707578659058 0.40616908669471741 0.011430568061769009
0.67646723985671997 0.40553557872772217 0.010624664835631847
0.77649557590484619 0.40760135650634766 0.010428574867546558
0.87436425685882568 0.40983840823173523 0.011915737763047218
0.96877789497375488 0.41309893131256104 0.018596827983856201
0 0.50428497791290283 0.048914201557636261
0 0.50546175241470337 0.041033022105693817
0.019103031605482101 0.50741064548492432 0.036004085093736649
0.082696758210659027 0.50929927825927734 0.033477287739515305
0.16526664793491364 0.50977003574371338 0.030890924856066704
0.26136565208435059 0.50831848382949829 0.02563120611011982
0.36484250426292419 0.50532549619674683 0.017979340627789497
0.47081729769706726 0.50307804346084595 0.013791686855256557
0.57533317804336548 0.50258803367614746 0.013855863362550735
0.67848247289657593 0.50382572412490845 0.013496623374521732
0.77944308519363403 0.50566798448562622 0.012403181754052639
