assets/lut/jtsemple magentacoffee.cube
# Created by: G'MIC (https://gmic.eu)
TITLE "magentacoffee"
# LUT size
LUT_3D_SIZE 5
# Data domain
DOMAIN_MIN 0.0 0.0 0.0
DOMAIN_MAX 1.0 1.0 1.0
# LUT data points
0 0.0066661462187767029 0.0016374476253986359
0.14442023634910583 0.00084789498941972852 5.1341336074983701e-05
0.3999326229095459 0.0018245322862640023 0
0.63896089792251587 0.0024452358484268188 0
0.83916306495666504 0.0053089214488863945 0
0 0.1575542539358139 0
0.10480037331581116 0.14940759539604187 0.00023642147425562143
0.37712430953979492 0.12514719367027283 0
0.63450521230697632 0.12022650986909866 0
0.84433251619338989 0.12772154808044434 0
0 0.36949560046195984 0
0.086346723139286041 0.36935156583786011 0
0.35300138592720032 0.36471894383430481 0
0.6341555118560791 0.37001383304595947 0
0.85706901550292969 0.39017575979232788 0
0 0.65248602628707886 0
0.089967511594295502 0.67117553949356079 0
0.36501505970954895 0.67844253778457642 0
0.65930646657943726 0.69148546457290649 0
0.87481909990310669 0.72589367628097534 0
0.0077980039641261101 0.96498173475265503 0.014643276110291481
0.13305497169494629 0.98163169622421265 0.039071641862392426
0.41938608884811401 0.98421669006347656 0.028371982276439667
0.71582067012786865 0.98796987533569336 0.017090935260057449
0.91918939352035522 0.99939072132110596 0.024413658306002617
0 0.0060647702775895596 0.17214858531951904
0.13928554952144623 0.0011386198457330465 0.15319924056529999
0.41073986887931824 7.2075337811838835e-05 0.10708478838205338
0.65505492687225342 0.00099191104527562857 0.06572355329990387
0.8397824764251709 0.0070031858049333096 0.053340177983045578
0 0.14714968204498291 0.14963427186012268
0.11274226754903793 0.14138397574424744 0.13835243880748749
0.38403862714767456 0.11722763627767563 0.1005212664604187
0.65013021230697632 0.10320118814706802 0.064718268811702728
0.84628486633300781 0.11426705867052078 0.069692887365818024
0.00083513447316363454 0.35665413737297058 0.11474769562482834
0.096858903765678406 0.36970287561416626 0.12329080700874329
0.36775648593902588 0.36680686473846436 0.099336020648479462
0.65560710430145264 0.37137559056282043 0.095192685723304749
0.86951273679733276 0.3963591456413269 0.10564877092838287
8.5628736997023225e-05 0.64280283451080322 0.1069866418838501
0.096012070775032043 0.67425167560577393 0.13475437462329865
0.38785752654075623 0.69142943620681763 0.13290910422801971
0.6787838339805603 0.70409828424453735 0.14079935848712921
0.88579684495925903 0.73500198125839233 0.16203385591506958
0.014032117091119289 0.96141642332077026 0.20150725543498993
0.15343394875526428 0.98306000232696533 0.22311544418334961
0.43975198268890381 0.9902263879776001 0.22182431817054749
0.72207450866699219 0.99303311109542847 0.22106395661830902
0.92426192760467529 0.99992460012435913 0.23366342484951019
0.0056610256433486938 0.0012642504880204797 0.46393081545829773
0.14467507600784302 0.0087377512827515602 0.44641822576522827
0.40131744742393494 0.00024575626594014466 0.39209440350532532
0.64729255437850952 0 0.34677377343177795
0.83698225021362305 0.0077719446271657944 0.34012320637702942
0 0.13519945740699768 0.44094085693359375
0.10507264733314514 0.13407549262046814 0.42363297939300537
0.37481766939163208 0.10767941921949387 0.38394948840141296
0.64748728275299072 0.083001323044300079 0.35698756575584412
0.85404282808303833 0.11975938081741333 0.35873699188232422
0.0012642205692827702 0.35171023011207581 0.40275603532791138
0.1011914536356926 0.36411765217781067 0.40335357189178467
0.37237977981567383 0.36295613646507263 0.39067685604095459
0.66083830595016479 0.36415937542915344 0.38749471306800842
0.87640136480331421 0.39416101574897766 0.40129342675209045
0 0.64395487308502197 0.40594986081123352
0.10419465601444244 0.67534518241882324 0.42372643947601318
0.40161052346229553 0.69141954183578491 0.43348664045333862
0.6874004602432251 0.70019066333770752 0.44243040680885315
0.89235490560531616 0.73454958200454712 0.46379896998405457
0.0097358403727412224 0.96452206373214722 0.49180939793586731
0.16387671232223511 0.98325604200363159 0.50599223375320435
0.45329388976097107 0.98733657598495483 0.50731754302978516
0.73084944486618042 0.98530560731887817 0.51024287939071655
0.9290040135383606 0.99836695194244385 0.51578611135482788
0.016583610326051712 0 0.71054559946060181
0.15063366293907166 0 0.69411849975585938
0.40200880169868469 0.0023164786398410797 0.65406239032745361
0.65164071321487427 0.00058150943368673325 0.62185519933700562
0.84606093168258667 0.00069752114359289408 0.61123073101043701
0 0.11893589049577713 0.69401490688323975
0.10533041507005692 0.11546138674020767 0.68087208271026611
0.37331810593605042 0.10994762182235718 0.65442925691604614
0.6512945294380188 0.10187137126922607 0.63906693458557129
0.86261987686157227 0.11896045506000519 0.64102685451507568
0.0033198038581758738 0.34370750188827515 0.67386525869369507
0.10931816697120667 0.35551956295967102 0.67394059896469116
0.37967005372047424 0.35952335596084595 0.66816443204879761
0.66993057727813721 0.36963656544685364 0.66761964559555054
0.8884316086769104 0.40061914920806885 0.68163412809371948
0.0046681421808898449 0.64492183923721313 0.68220943212509155
0.12414377182722092 0.67368042469024658 0.70168119668960571
0.41576048731803894 0.68653750419616699 0.70685940980911255
0.69956952333450317 0.7049858570098877 0.70886832475662231
0.90393286943435669 0.73922842741012573 0.72840023040771484
0.018622079864144325 0.96561282873153687 0.75001996755599976
0.17335435748100281 0.9823424220085144 0.77298134565353394
0.46771684288978577 0.9819825291633606 0.7625730037689209
0.74144154787063599 0.98275601863861084 0.75495553016662598
0.93261158466339111 0.99591672420501709 0.76007753610610962
0.035880640149116516 0 0.89873552322387695
0.18139791488647461 0 0.88458126783370972
0.41703507304191589 0.00024288402346428484 0.85836124420166016
0.65911179780960083 0.00024880800629034638 0.83508074283599854
0.85696989297866821 0 0.82181167602539062
0.010470700450241566 0.12026756256818771 0.88378316164016724
0.14196176826953888 0.11020856350660324 0.87333393096923828
0.39065101742744446 0.11154183745384216 0.85595977306365967
0.66200935840606689 0.1110832691192627 0.84575176239013672
0.86714112758636475 0.10883115977048874 0.83999913930892944
0.010231452062726021 0.34794700145721436 0.87139970064163208
0.1271335780620575 0.36130693554878235 0.87086862325668335
0.39808845520019531 0.36806964874267578 0.86845743656158447
0.69016486406326294 0.37930232286453247 0.87178981304168701
0.90517807006835938 0.41148322820663452 0.88550198078155518
0 0.65050190687179565 0.88838034868240356
0.11786926537752151 0.68623155355453491 0.89554905891418457
0.43573024868965149 0.70117956399917603 0.89670491218566895
0.71499037742614746 0.71689134836196899 0.89985275268554688
0.92185449600219727 0.74974364042282104 0.919178307056427
0.02085927315056324 0.96629375219345093 0.95016926527023315
0.18878009915351868 0.98401308059692383 0.95724612474441528
0.47746777534484863 0.98783797025680542 0.94853651523590088
0.74115437269210815 0.98729813098907471 0.93772292137145996
0.93776315450668335 0.98987942934036255 0.94172245264053345
