assets/lut/jtsemple frostedbeachpicnic.cube
# Created by: G'MIC (https://gmic.eu)
TITLE "frostedbeachpicnic"
# LUT size
LUT_3D_SIZE 5
# Data domain
DOMAIN_MIN 0.0 0.0 0.0
DOMAIN_MAX 1.0 1.0 1.0
# LUT data points
0.0014878965448588133 0 0.0049819648265838623
0.19063933193683624 0 0.009222845546901226
0.48905107378959656 0.00094327738042920828 0.0013637018855661154
0.76508975028991699 0 0.00042509191553108394
0.97101521492004395 0.0021921196021139622 0.0067116082645952702
0.0058461655862629414 0.17956751585006714 0.019767805933952332
0.24062874913215637 0.18806126713752747 0.030638810247182846
0.55408531427383423 0.19210454821586609 0.03180960938334465
0.84974592924118042 0.21236436069011688 0.057495355606079102
1 0.29374173283576965 0.11201757937669754
0.021063756197690964 0.51662391424179077 0.042640745639801025
0.33112317323684692 0.56820821762084961 0.089878946542739868
0.69637489318847656 0.62073427438735962 0.13055424392223358
0.96844244003295898 0.69082558155059814 0.19873487949371338
1 0.76646411418914795 0.27890941500663757
0.21888692677021027 0.9592127799987793 0.25453707575798035
0.58734411001205444 0.98144441843032837 0.31355366110801697
0.90352457761764526 0.99074453115463257 0.37259456515312195
1 1 0.4501953125
0.99450492858886719 1 0.51759016513824463
0.47730004787445068 1 0.50121533870697021
0.80276006460189819 0.99533647298812866 0.55809825658798218
0.98800480365753174 0.99006342887878418 0.62039738893508911
1 1 0.68843358755111694
0.99827980995178223 0.99915051460266113 0.74817264080047607
1.3463637515087612e-05 0 0.16201326251029968
0.1998421847820282 0 0.1630745530128479
0.4910358190536499 0 0.14899948239326477
0.76053094863891602 0 0.14568242430686951
0.97818207740783691 0.008856545202434063 0.18646004796028137
0.010504988022148609 0.18593031167984009 0.20235264301300049
0.25107526779174805 0.1941269189119339 0.21475176513195038
0.57164299488067627 0.20046469569206238 0.21891780197620392
0.87070739269256592 0.23464883863925934 0.25572454929351807
1 0.31539174914360046 0.32273069024085999
0.036435339599847794 0.54800653457641602 0.27104678750038147
0.35097584128379822 0.58688557147979736 0.31049689650535583
0.71297663450241089 0.63707822561264038 0.36497142910957336
0.97656631469726562 0.71366637945175171 0.44605952501296997
0.99599617719650269 0.77729356288909912 0.5261656641960144
0.24238619208335876 0.96621829271316528 0.515888512134552
0.60721015930175781 0.98665845394134521 0.57635575532913208
0.91066056489944458 0.99838298559188843 0.63950860500335693
1 1 0.70170265436172485
0.99167060852050781 1 0.75585007667541504
0.49819663166999817 1 0.74861615896224976
0.8250960111618042 1 0.79377388954162598
0.9991268515586853 0.99642097949981689 0.84340393543243408
1 0.99988800287246704 0.8893083930015564
0.9948582649230957 1 0.93136262893676758
0.00013786765339318663 6.8933826696593314e-05 0.40344476699829102
0.20189918577671051 2.423454679956194e-05 0.40507829189300537
0.49121993780136108 0 0.39089441299438477
0.77268368005752563 0.002522577065974474 0.39505136013031006
0.98711931705474854 0.01408208254724741 0.43567380309104919
0.010149532929062843 0.18849556148052216 0.4534207284450531
0.25768753886222839 0.20243147015571594 0.47299373149871826
0.5888788104057312 0.21395260095596313 0.48697316646575928
0.8792228102684021 0.25736173987388611 0.52538824081420898
1 0.33777031302452087 0.59463918209075928
0.044773504137992859 0.55305010080337524 0.53709697723388672
0.37541523575782776 0.61014991998672485 0.59020823240280151
0.72569757699966431 0.66041189432144165 0.64487892389297485
0.97910267114639282 0.73677992820739746 0.71543437242507935
1 0.80169302225112915 0.78546500205993652
0.26905140280723572 0.98166322708129883 0.78381335735321045
0.63167113065719604 0.98430496454238892 0.81593304872512817
0.93160533905029297 0.99780631065368652 0.86401641368865967
1 1 0.9111863374710083
1 0.999988853931427 0.95635414123535156
0.51650607585906982 0.99951553344726562 0.95927482843399048
0.83730721473693848 0.99508458375930786 0.96511131525039673
1 0.99986749887466431 0.9971851110458374
0.99772244691848755 0.99713242053985596 1
1 0.99756228923797607 1
0 0 0.65600097179412842
0.20003436505794525 0.0069519341923296452 0.67084389925003052
0.48951244354248047 0 0.64837783575057983
0.78010302782058716 0 0.65253639221191406
0.99359500408172607 0.0058427699841558933 0.69017475843429565
0.01265538576990366 0.1904282420873642 0.71169865131378174
0.26598942279815674 0.20989476144313812 0.73329395055770874
0.59758931398391724 0.22448988258838654 0.75195705890655518
0.89676249027252197 0.27200806140899658 0.78511053323745728
1 0.36312836408615112 0.8436780571937561
0.062444917857646942 0.57213211059570312 0.79085969924926758
0.3927217423915863 0.63175183534622192 0.82808876037597656
0.74959069490432739 0.68949246406555176 0.87681329250335693
0.98044306039810181 0.75489598512649536 0.93464499711990356
1 0.82795429229736328 0.97945642471313477
0.29837223887443542 0.98794883489608765 0.97992062568664551
0.66657382249832153 0.99673044681549072 0.99398815631866455
0.94579887390136719 1 0.99854940176010132
1 1 1
0.99902451038360596 1 1
0.54885572195053101 1 1
0.8538394570350647 0.99891209602355957 1
1 0.9971458911895752 1
1 0.99926841259002686 0.99398481845855713
1 1 1
0 0 0.84879124164581299
0.19878000020980835 0 0.86573559045791626
0.49501752853393555 0 0.85503780841827393
0.78250908851623535 5.1341336074983701e-05 0.86482250690460205
0.99478375911712646 0.037199508398771286 0.89449918270111084
0.013405564241111279 0.21377737820148468 0.91544270515441895
0.2858089804649353 0.22915135324001312 0.9316672682762146
0.62091857194900513 0.25182148814201355 0.94720917940139771
0.91896909475326538 0.29908591508865356 0.98176825046539307
1 0.4053046703338623 0.98879486322402954
0.092989362776279449 0.61215054988861084 0.98392385244369507
0.42617899179458618 0.6643136739730835 0.99258196353912354
0.78126198053359985 0.71791934967041016 0.99984526634216309
0.98521846532821655 0.78345984220504761 1
0.99750339984893799 0.83938497304916382 1
0.32891795039176941 0.99882876873016357 1
0.68297404050827026 0.99909144639968872 0.99937242269515991
0.95999544858932495 1 1
1 1 0.99629658460617065
1 1 1
0.5684313178062439 1 1
0.87132096290588379 0.99760794639587402 0.99854749441146851
1 0.99967366456985474 1
0.99984323978424072 0.99970483779907227 0.9993051290512085
1 1 1
