assets/lut/jtsemple frostedbeachpicnic.cube
# Created by: G'MIC (https://gmic.eu)
TITLE "frostedbeachpicnic"
# LUT size
LUT_3D_SIZE 7
# Data domain
DOMAIN_MIN 0.0 0.0 0.0
DOMAIN_MAX 1.0 1.0 1.0
# LUT data points
0.0014878965448588133 0 0.0049819648265838623
0.10694222897291183 0 0.0078622708097100258
0.28405475616455078 0 0.0076815136708319187
0.48905107378959656 0.00094327738042920828 0.0013637018855661154
0.6813850998878479 0.0018125945935025811 0.00042509191553108394
0.84397345781326294 0 0.00077909580431878567
0.97101521492004395 0.0021921196021139622 0.0067116082645952702
0.0045445458963513374 0.090824812650680542 0.019425470381975174
0.13255380094051361 0.095505975186824799 0.02376881055533886
0.32067260146141052 0.094188213348388672 0.024367313832044601
0.52805101871490479 0.097323067486286163 0.01771443709731102
0.72501552104949951 0.096441783010959625 0.022953527048230171
0.90783786773681641 0.10525401681661606 0.041091274470090866
0.99996769428253174 0.16358081996440887 0.070590347051620483
0.0066332500427961349 0.27859973907470703 0.018788430839776993
0.15856489539146423 0.28937050700187683 0.032253295183181763
0.36954489350318909 0.30354636907577515 0.042217899113893509
0.58838427066802979 0.31305593252182007 0.051672004163265228
0.78887361288070679 0.33672693371772766 0.073951840400695801
0.96430730819702148 0.38419151306152344 0.11003874242305756
1 0.44712996482849121 0.15812668204307556
0.021063756197690964 0.51662391424179077 0.042640745639801025
0.20817458629608154 0.54781883955001831 0.074150756001472473
0.4593845009803772 0.58675771951675415 0.10290572047233582
0.69637489318847656 0.62073427438735962 0.13055424392223358
0.89248168468475342 0.66362786293029785 0.173617884516716
0.99960017204284668 0.71984219551086426 0.22420156002044678
1 0.76646411418914795 0.27890941500663757
0.13041040301322937 0.82573914527893066 0.1637471616268158
0.35975557565689087 0.86415952444076538 0.20592120289802551
0.61589562892913818 0.88204818964004517 0.24311608076095581
0.8382105827331543 0.92106443643569946 0.28294503688812256
0.98547220230102539 0.95364826917648315 0.33623969554901123
1 0.97575652599334717 0.38732868432998657
0.9965369701385498 0.99184292554855347 0.43301239609718323
0.31335186958312988 1 0.34389981627464294
0.5590941309928894 1 0.38211178779602051
0.77557104825973511 0.9998774528503418 0.41735038161277771
0.95412832498550415 0.99899262189865112 0.45975971221923828
1 1 0.5111544132232666
1 1 0.55931824445724487
0.99523979425430298 1 0.60099190473556519
0.47730004787445068 1 0.50121533870697021
0.70799952745437622 0.99950891733169556 0.53930675983428955
0.87862890958786011 0.99187099933624268 0.57706594467163086
0.98800480365753174 0.99006342887878418 0.62039738893508911
1 0.99966126680374146 0.6660846471786499
1 1 0.71063101291656494
0.99827980995178223 0.99915051460266113 0.74817264080047607
0.001705229515209794 0 0.096728228032588959
0.11145897954702377 0 0.10354847460985184
0.29140836000442505 0 0.098845809698104858
0.49227669835090637 0 0.087036386132240295
0.68115204572677612 0.00029682833701372147 0.08064001053571701
0.8422437310218811 0 0.085700228810310364
0.97713887691497803 0.0042594759725034237 0.11562703549861908
0.0074186883866786957 0.098359093070030212 0.12668512761592865
0.13907063007354736 0.10077091306447983 0.13287077844142914
0.33152452111244202 0.10005452483892441 0.13031753897666931
0.5389554500579834 0.094596326351165771 0.1244887113571167
0.73820430040359497 0.10512398928403854 0.13294258713722229
0.91411060094833374 0.112789586186409 0.15150675177574158
1 0.17076419293880463 0.19207203388214111
0.0097009548917412758 0.285258948802948 0.14120469987392426
0.16580499708652496 0.29428854584693909 0.15391416847705841
0.37767130136489868 0.30641293525695801 0.16425850987434387
0.60087615251541138 0.32181313633918762 0.1748017817735672
0.81152999401092529 0.35645517706871033 0.20366714894771576
0.97381037473678589 0.39691856503486633 0.2429191917181015
1 0.4613264799118042 0.29597127437591553
0.029387425631284714 0.53518056869506836 0.18458926677703857
0.22058434784412384 0.56016260385513306 0.20774941146373749
0.46776458621025085 0.59425884485244751 0.24197129905223846
0.70492196083068848 0.63133472204208374 0.27577713131904602
0.90216994285583496 0.68108892440795898 0.32494422793388367
0.99966734647750854 0.73127412796020508 0.38088563084602356
0.9936683177947998 0.77168959379196167 0.43643462657928467
0.14425541460514069 0.83409756422042847 0.32419240474700928
0.37328645586967468 0.86753612756729126 0.36319029331207275
0.62859171628952026 0.89625352621078491 0.40908852219581604
0.84363341331481934 0.93777155876159668 0.45678916573524475
0.98838770389556885 0.96013683080673218 0.50948584079742432
0.99916833639144897 0.98069489002227783 0.55652254819869995
0.99005776643753052 0.98623830080032349 0.59987664222717285
0.32667785882949829 1 0.51191657781600952
0.56788331270217896 1 0.5508684515953064
0.79064065217971802 1 0.59160405397415161
0.96411526203155518 1 0.63391572237014771
1 1 0.6758924126625061
0.9999617338180542 1 0.71356618404388428
0.98899096250534058 1 0.75028026103973389
0.49309420585632324 1 0.665546715259552
0.72103899717330933 1 0.70085322856903076
0.90208566188812256 0.99931567907333374 0.73643827438354492
0.99555134773254395 0.99758666753768921 0.77605992555618286
1 1 0.81070518493652344
1 1 0.84412187337875366
0.99384886026382446 1 0.87427163124084473
0 0 0.23633623123168945
0.11285065114498138 0 0.23749691247940063
0.29509803652763367 0 0.23063963651657104
0.49045795202255249 0 0.22188249230384827
0.67737442255020142 3.3748852729331702e-05 0.21962407231330872
0.84498709440231323 0.0029836618341505527 0.23121559619903564
0.98076564073562622 0.016640622168779373 0.26540634036064148
0.0066393683664500713 0.10028640180826187 0.26612719893455505
0.14387300610542297 0.10238243639469147 0.27212980389595032
0.33608955144882202 0.10440070927143097 0.2715182900428772
0.54510980844497681 0.10320519655942917 0.27121031284332275
0.74486547708511353 0.11365673691034317 0.28352057933807373
0.9234049916267395 0.13539974391460419 0.31122317910194397
1 0.19060662388801575 0.35660791397094727
0.01222680788487196 0.29069092869758606 0.2939247190952301
0.17480431497097015 0.30248701572418213 0.3104037344455719
0.38787731528282166 0.3167184591293335 0.32342314720153809
0.61167579889297485 0.33142071962356567 0.33855679631233215
0.81552320718765259 0.36740052700042725 0.37446814775466919
0.97144973278045654 0.41806694865226746 0.4217454195022583
1 0.48351943492889404 0.47571134567260742
0.039924174547195435 0.55299097299575806 0.35949221253395081
0.24192100763320923 0.5798414945602417 0.38578876852989197
0.4872327446937561 0.61430257558822632 0.42367419600486755
0.71759235858917236 0.64465796947479248 0.45902359485626221
0.90961575508117676 0.69825506210327148 0.50993645191192627
0.99894273281097412 0.74556726217269897 0.56777632236480713
0.99924719333648682 0.78772741556167603 0.61826801300048828
0.16248233616352081 0.86161994934082031 0.51755952835083008
0.39488676190376282 0.88415336608886719 0.55229741334915161
0.65195602178573608 0.91672104597091675 0.59678906202316284
0.8563309907913208 0.93821686506271362 0.6374858021736145
0.99325978755950928 0.96127170324325562 0.6874697208404541
1 0.97863876819610596 0.72918057441711426
0.99800479412078857 0.99373787641525269 0.76713627576828003
0.34310466051101685 1 0.69935351610183716
0.58042889833450317 1 0.72711098194122314
0.79574209451675415 1 0.75761079788208008
0.96228253841400146 1 0.78916794061660767
1 1 0.82899361848831177
1 1 0.85564452409744263
0.99594926834106445 1 0.88799667358398438
0.50331157445907593 1 0.82791239023208618
0.72755175828933716 1 0.84946739673614502
0.91772568225860596 1 0.87538152933120728
0.99972027540206909 0.99964642524719238 0.90424472093582153
0.99982458353042603 0.99919956922531128 0.93682587146759033
0.99822890758514404 0.99836832284927368 0.95832264423370361
0.99617499113082886 0.9998776912689209 0.98176681995391846
0.00013786765339318663 6.8933826696593314e-05 0.40344476699829102
0.11635534465312958 0.00050533516332507133 0.40747499465942383
0.29507353901863098 0 0.40045356750488281
0.49121993780136108 0 0.39089441299438477
0.68273347616195679 0.00018364402058068663 0.38971516489982605
0.85579591989517212 0.0082188025116920471 0.40491998195648193
0.98711931705474854 0.01408208254724741 0.43567380309104919
0.0068745929747819901 0.10303144156932831 0.43871638178825378
0.14752504229545593 0.10663601756095886 0.4483296275138855
0.34024220705032349 0.10523317754268646 0.45003315806388855
0.5541873574256897 0.1066911444067955 0.45183685421943665
0.75367695093154907 0.12259303033351898 0.46336951851844788
0.92888712882995605 0.15195693075656891 0.49380367994308472
1 0.19664469361305237 0.53627336025238037
0.01309623010456562 0.29381510615348816 0.46999251842498779
0.17918147146701813 0.30908793210983276 0.49024310708045959
0.39663171768188477 0.3284076452255249 0.50776863098144531
0.6257861852645874 0.34479525685310364 0.5262945294380188
0.82645136117935181 0.38116610050201416 0.55891627073287964
0.97379583120346069 0.4358830451965332 0.60482972860336304
1 0.49794840812683105 0.65648066997528076
0.044773504137992859 0.55305010080337524 0.53709697723388672
0.25357624888420105 0.58907830715179443 0.57118058204650879
0.49811840057373047 0.62787932157516479 0.60685580968856812
0.72569757699966431 0.66041189432144165 0.64487892389297485
0.91598749160766602 0.71141564846038818 0.69204449653625488
0.99940890073776245 0.75971931219100952 0.73914295434951782
1 0.80169302225112915 0.78546500205993652
0.17660915851593018 0.86673164367675781 0.69190841913223267
0.41505888104438782 0.88786476850509644 0.72467964887619019
0.66414624452590942 0.92066663503646851 0.75925165414810181
0.86896395683288574 0.94363176822662354 0.79782909154891968
0.9963146448135376 0.97154361009597778 0.83754873275756836
1 0.98888683319091797 0.87052935361862183
1 0.99348336458206177 0.90351659059524536
0.35990360379219055 1 0.85994678735733032
0.59797185659408569 0.9999280571937561 0.87051796913146973
0.80876600742340088 0.99998265504837036 0.88844257593154907
0.9755740761756897 1 0.92120277881622314
1 1 0.95087963342666626
0.99997544288635254 0.99950170516967773 0.9751967191696167
1 0.99836564064025879 0.99373579025268555
0.51650607585906982 0.99951553344726562 0.95927482843399048
0.74071943759918213 0.99755924940109253 0.95700979232788086
0.92285341024398804 0.9951663613319397 0.98103052377700806
1 0.99986749887466431 0.9971851110458374
1 0.99898862838745117 0.99989873170852661
0.99608057737350464 0.99531877040863037 1
1 0.99756228923797607 1
1.7233456674148329e-05 0.00017825856048148125 0.57567840814590454
0.11645530164241791 0.0036742417141795158 0.58698111772537231
0.29334738850593567 1.220703143189894e-05 0.5784914493560791
0.49025532603263855 0 0.56603372097015381
0.68609899282455444 0 0.56419670581817627
0.86506599187850952 0 0.58048588037490845
0.99238091707229614 0.002704620361328125 0.60738444328308105
0.0067468979395925999 0.10288127511739731 0.61391830444335938
0.15054234862327576 0.11111773550510406 0.62732291221618652
0.3417612612247467 0.10398438572883606 0.6302793025970459
0.55778676271438599 0.10283355414867401 0.63225287199020386
0.75810664892196655 0.11956465244293213 0.6423981785774231
0.93089234828948975 0.15018413960933685 0.67195522785186768
1 0.19781653583049774 0.70973020792007446
0.017002465203404427 0.29533237218856812 0.64489191770553589
0.18540047109127045 0.31598031520843506 0.66482990980148315
0.40321409702301025 0.33888542652130127 0.68455410003662109
0.63535845279693604 0.358894944190979 0.70637989044189453
0.83429986238479614 0.39287334680557251 0.73510730266571045
0.97674620151519775 0.45062392950057983 0.77411264181137085
1 0.5128859281539917 0.82156646251678467
0.058125931769609451 0.56483304500579834 0.71258032321929932
0.26404401659965515 0.60420125722885132 0.74302303791046143
0.5116046667098999 0.64237332344055176 0.76981019973754883
0.73921447992324829 0.678608238697052 0.80472469329833984
0.92473965883255005 0.71992617845535278 0.8495098352432251
0.99521774053573608 0.77154386043548584 0.88580864667892456
1 0.81974667310714722 0.9275633692741394
0.19435146450996399 0.87825894355773926 0.85208958387374878
0.44140762090682983 0.91511726379394531 0.8807680606842041
0.6880757212638855 0.93679040670394897 0.90349888801574707
0.87913566827774048 0.95949369668960571 0.93482863903045654
0.99747323989868164 0.97955691814422607 0.96181851625442505
1 0.99348878860473633 0.98135650157928467
1 0.99890077114105225 0.99426800012588501
0.38111200928688049 1 0.97611939907073975
0.62054347991943359 1 0.98158973455429077
0.82444405555725098 1 0.99355363845825195
0.98233246803283691 0.99794596433639526 0.99961119890213013
1 1 0.99994373321533203
0.99939793348312378 1 1
0.99992048740386963 1 1
0.53879427909851074 1 1
0.75749421119689941 0.99790942668914795 0.99984431266784668
0.9277845025062561 0.9932134747505188 1
1 0.99605238437652588 1
1 0.99840003252029419 0.99993801116943359
0.99780601263046265 0.99835801124572754 0.99766218662261963
1 0.9999813437461853 1
0 0 0.72899109125137329
0.11449188739061356 0.0049249688163399696 0.74727773666381836
0.29142013192176819 0.00093629123875871301 0.74040943384170532
0.48972266912460327 0 0.72488617897033691
0.68557274341583252 0 0.72200930118560791
0.8684762716293335 1.5438305126735941e-05 0.74234211444854736
0.99469494819641113 0.012912032194435596 0.76709330081939697
0.007017472293227911 0.09952709823846817 0.77219730615615845
0.15592548251152039 0.10937537252902985 0.7861446738243103
0.34687319397926331 0.11192649602890015 0.78938275575637817
0.56286245584487915 0.1084253191947937 0.79133564233779907
0.77001357078552246 0.12432768940925598 0.8024895191192627
0.94309598207473755 0.16388003528118134 0.83367824554443359
1 0.23071697354316711 0.86158555746078491
0.020758384838700294 0.30474108457565308 0.80660474300384521
0.19714024662971497 0.32512873411178589 0.8230358362197876
0.41541644930839539 0.35103246569633484 0.84121263027191162
0.64878255128860474 0.37768447399139404 0.86676084995269775
0.86174267530441284 0.41492536664009094 0.89196336269378662
0.99632304906845093 0.47134670615196228 0.92113626003265381
1 0.5381166934967041 0.95392191410064697
0.065674737095832825 0.58206450939178467 0.86322104930877686
0.28311663866043091 0.62075972557067871 0.89111143350601196
0.53174293041229248 0.66050702333450317 0.91067779064178467
0.76327979564666748 0.69914799928665161 0.94362723827362061
0.94347751140594482 0.74285340309143066 0.96966147422790527
0.99995213747024536 0.78995060920715332 0.98784607648849487
0.99854618310928345 0.83374530076980591 0.9993584156036377
0.21187771856784821 0.89626306295394897 0.97725337743759155
0.46409305930137634 0.92377364635467529 0.99176090955734253
0.70648926496505737 0.94367402791976929 0.99615657329559326
0.89189726114273071 0.96904116868972778 0.99980711936950684
0.99973732233047485 0.98566120862960815 1
0.99651312828063965 0.99759966135025024 1
0.99980467557907104 1 0.99999380111694336
0.40096056461334229 1 1
0.63760221004486084 1 1
0.84276479482650757 1 1
0.99019211530685425 0.99979269504547119 1
1 1 0.99995452165603638
0.99992787837982178 1 0.99999004602432251
0.99932068586349487 1 1
0.55812197923660278 1 1
0.77179586887359619 1 1
0.94651037454605103 0.99975669384002686 1
1 0.99899804592132568 1
1 0.99920344352722168 0.99704766273498535
1 0.9999961256980896 0.9958120584487915
1 1 1
0 0 0.84879124164581299
0.11089406907558441 0 0.8645179271697998
0.29337182641029358 0 0.86303436756134033
0.49501752853393555 0 0.85503780841827393
0.68983554840087891 0 0.85662877559661865
0.87021243572235107 0.0027623046189546585 0.87763506174087524
0.99478375911712646 0.037199508398771286 0.89449918270111084
0.0049670049920678139 0.10978146642446518 0.89547538757324219
0.16009502112865448 0.1138693243265152 0.90846115350723267
0.35733434557914734 0.11891744285821915 0.91228961944580078
0.57668983936309814 0.12273179739713669 0.91554248332977295
0.78151440620422363 0.14330993592739105 0.93071228265762329
0.95354914665222168 0.18538780510425568 0.96334236860275269
1 0.26391234993934631 0.96601253747940063
0.026799743995070457 0.33303305506706238 0.93581807613372803
0.21489138901233673 0.35016018152236938 0.94693470001220703
0.43494096398353577 0.37326911091804504 0.95811951160430908
0.66768121719360352 0.4012024998664856 0.97630280256271362
0.87177735567092896 0.43771493434906006 0.99281364679336548
0.99354672431945801 0.48630830645561218 0.99953275918960571
1 0.55827468633651733 0.99777472019195557
0.092989362776279449 0.61215054988861084 0.98392385244369507
0.31041181087493896 0.64918875694274902 0.98921424150466919
0.5488206148147583 0.6804385781288147 0.99458879232406616
0.78126198053359985 0.71791934967041016 0.99984526634216309
0.94891357421875 0.76303452253341675 1
0.99858295917510986 0.80232185125350952 1
0.99750339984893799 0.83938497304916382 1
0.23755088448524475 0.92258411645889282 1
0.48339676856994629 0.94243568181991577 1
0.7112739086151123 0.94998204708099365 1
0.90440815687179565 0.97643864154815674 1
0.9997018575668335 0.9901006817817688 0.9985843300819397
0.99809235334396362 0.99809783697128296 0.99932163953781128
1 1 0.99990576505661011
0.4187529981136322 1 1
0.6528397798538208 1 0.99802786111831665
0.84768038988113403 1 0.99832987785339355
0.99160033464431763 1 0.99998384714126587
1 1 0.99611419439315796
1 0.99997824430465698 0.99669140577316284
1 1 1
0.5684313178062439 1 1
0.78656101226806641 0.99877011775970459 0.99942433834075928
0.94648265838623047 0.99773287773132324 0.99974775314331055
1 0.99967366456985474 1
0.9989432692527771 1 0.99888217449188232
1 0.99921822547912598 0.99995511770248413
1 1 1
