assets/lut/jtsemple crushin.cube
# Created by: G'MIC (https://gmic.eu)
TITLE "crushin"
# LUT size
LUT_3D_SIZE 13
# Data domain
DOMAIN_MIN 0.0 0.0 0.0
DOMAIN_MAX 1.0 1.0 1.0
# LUT data points
0 0 0
0.0042570973746478558 0 0.00013729918282479048
0.050833504647016525 0 0.0029031191952526569
0.13564147055149078 0 0.0024315179325640202
0.23392222821712494 0 9.3347889560391195e-06
0.33915919065475464 0 0
0.44675961136817932 0 0
0.55265849828720093 0 0
0.6532588005065918 0 0
0.7464720606803894 0 0
0.83257550001144409 0 0
0.91175895929336548 0 0
0.98105889558792114 0 0
0 0.00083660049131140113 0
0.0085652964189648628 0.0021235148888081312 0.0011779336491599679
0.055824220180511475 0.0041832569986581802 0.004550514742732048
0.13730041682720184 0.0027230654377490282 0.0046372506767511368
0.23661473393440247 0.00072470272425562143 0.00043698478839360178
0.34464752674102783 3.5544002457754686e-05 0
0.45517560839653015 0 0
0.56403940916061401 0 0
0.66735267639160156 0 0
0.76276630163192749 0 0
0.85008502006530762 0 0
0.92998242378234863 1.4645445844507776e-05 0
0.99168539047241211 0.0054845171980559826 0
0 0.037997063249349594 0
0.0052288728766143322 0.04320940375328064 0.001075056497938931
0.055750381201505661 0.046785585582256317 0.0022594078909605742
0.13867142796516418 0.044891297817230225 0.003403891809284687
0.23713667690753937 0.038370724767446518 0.0012127446243539453
0.34816959500312805 0.031002329662442207 0
0.46258148550987244 0.027306694537401199 0
0.57534003257751465 0.022794894874095917 0
0.68284934759140015 0.01707763597369194 0
0.78211432695388794 0.01280605886131525 0
0.87240481376647949 0.013928252272307873 0.00019992006127722561
0.95245945453643799 0.029490556567907333 4.2784446122823283e-05
0.99855887889862061 0.059826750308275223 0
0 0.11487296968698502 0
0.0024807499721646309 0.11786609888076782 6.4176670093729626e-06
0.054456733167171478 0.1205068975687027 1.458560745959403e-05
0.14123533666133881 0.12117249518632889 0.0011588750639930367
0.2387736588716507 0.11801030486822128 0.00080726476153358817
0.35116055607795715 0.11119456589221954 0
0.4689374566078186 0.10636400431394577 0
0.58618509769439697 0.10237612575292587 0
0.69914847612380981 0.098559059202671051 0
0.80478030443191528 0.096516810357570648 0
0.89976775646209717 0.10280110687017441 0.00093826593365520239
0.9766421914100647 0.12255926430225372 0.0023686427157372236
1 0.15043401718139648 0.00012673770834226161
0 0.2054850310087204 0
0.0011618371354416013 0.20578482747077942 0
0.047427713871002197 0.2090485692024231 0
0.13623297214508057 0.21351698040962219 0.00068785721668973565
0.23817585408687592 0.21452189981937408 0.00078606698662042618
0.3523237407207489 0.21224504709243774 0
0.47356611490249634 0.20957547426223755 0
0.59507137537002563 0.20832264423370361 0
0.71267974376678467 0.20900224149227142 0
0.82275986671447754 0.21297936141490936 0
0.91988402605056763 0.22279490530490875 1.2326708201726433e-05
0.98910456895828247 0.24000184237957001 0.00050005444791167974
1 0.26144784688949585 7.62939453125e-05
0 0.30943846702575684 0
0.00043426215415820479 0.31063586473464966 0
0.041127163916826248 0.31520116329193115 0
0.12831577658653259 0.32154366374015808 8.751364475756418e-06
0.23344650864601135 0.32586240768432617 0.00010754454706329852
0.35156667232513428 0.32742017507553101 0
0.47600296139717102 0.3281823992729187 0
0.60059529542922974 0.33009624481201172 0
0.72077274322509766 0.33429467678070068 0
0.83179861307144165 0.34155014157295227 0
0.92599302530288696 0.35231265425682068 0
0.98907750844955444 0.36620226502418518 0
1 0.38193455338478088 0
0 0.42422223091125488 0
0.00027382047846913338 0.42855349183082581 0
0.03954252228140831 0.43525424599647522 0
0.12493598461151123 0.44263568520545959 0
0.23131398856639862 0.44841122627258301 0
0.35143905878067017 0.45210564136505127 0
0.47775506973266602 0.45502480864524841 0
0.60352921485900879 0.45871156454086304 0
0.72388017177581787 0.4644867479801178 0
0.83418810367584229 0.4726378321647644 0
0.92662507295608521 0.48278409242630005 0
0.98846381902694702 0.49365153908729553 0
1 0.50507646799087524 0
0 0.54562520980834961 0
0.00037864237674511969 0.5533333420753479 0
0.039982814341783524 0.56200957298278809 0
0.12514829635620117 0.57017070055007935 0
0.23225995898246765 0.57634001970291138 0
0.35360926389694214 0.58055716753005981 0
0.48014447093009949 0.58387583494186401 0
0.60532718896865845 0.58760738372802734 0
0.72400414943695068 0.59284299612045288 0
0.83227872848510742 0.60005718469619751 0
0.92475795745849609 0.60876548290252686 0
0.98866391181945801 0.61721491813659668 0
1 0.62508523464202881 0
0 0.66881227493286133 0
0.00075448729330673814 0.67931652069091797 0
0.042533606290817261 0.68988078832626343 0
0.12876775860786438 0.69856405258178711 0
0.23679731786251068 0.70426452159881592 0
0.35797199606895447 0.70728904008865356 0
0.48368895053863525 0.70898252725601196 0
0.60730922222137451 0.71077632904052734 0
0.72340339422225952 0.71398055553436279 0
0.82792371511459351 0.7187650203704834 0
0.91670364141464233 0.72501450777053833 0
0.98207008838653564 0.73149657249450684 0
1 0.73740804195404053 7.9345700214616954e-05
0 0.78946185111999512 0
0.0027695600874722004 0.80226600170135498 0
0.051040321588516235 0.81422030925750732 0
0.1378251314163208 0.82281410694122314 0
0.24547697603702545 0.82681012153625488 0
0.3651084303855896 0.82707220315933228 0
0.48882085084915161 0.82570552825927734 0
0.61016619205474854 0.82443803548812866 0
0.72332364320755005 0.8240545392036438 0
0.82330960035324097 0.82534885406494141 0
0.90665781497955322 0.82839643955230713 0
0.97086375951766968 0.83358091115951538 0
0.99970179796218872 0.83864027261734009 0.00058070162776857615
0 0.90368503332138062 0
0.012602847069501877 0.91776901483535767 0
0.069947004318237305 0.93066233396530151 1.2147193046985194e-05
0.15494389832019806 0.93831300735473633 0.00025284712319262326
0.26005208492279053 0.93918997049331665 3.2941032259259373e-05
0.37611010670661926 0.93594598770141602 0
0.49579933285713196 0.9311058521270752 0
0.61337703466415405 0.92558115720748901 0
0.72292506694793701 0.92069590091705322 0
0.81876665353775024 0.91731429100036621 0
0.89860183000564575 0.91709405183792114 0
0.96040177345275879 0.92117571830749512 0
0.99755620956420898 0.92623388767242432 0.0017465777928009629
0.0030644435901194811 0.99122804403305054 0
0.037802033126354218 0.99620205163955688 0.00029277426074258983
0.098143681883811951 0.99861001968383789 0.0041707954369485378
0.18007829785346985 0.99981015920639038 0.0089033087715506554
0.28003299236297607 0.99968338012695312 0.0051050223410129547
0.39011335372924805 0.99873584508895874 0.0011441698297858238
0.50453364849090576 0.99752426147460938 0.00010386448411736637
0.61707258224487305 0.99519705772399902 0
0.72213047742843628 0.99204754829406738 0
0.81503337621688843 0.98836416006088257 0
0.89274704456329346 0.98656928539276123 0
0.95425993204116821 0.98786765336990356 0
0.99547398090362549 0.99092882871627808 0.0029416251927614212
0.021417984738945961 1 0.0023233899846673012
0.068281345069408417 1 0.0073304418474435806
0.13018418848514557 1 0.016349507495760918
0.20909090340137482 1 0.020573200657963753
0.30317467451095581 1 0.016999293118715286
0.40703865885734558 1 0.0096359550952911377
0.51498675346374512 1 0.0034192402381449938
0.62176394462585449 1 0.00057953479699790478
0.72239375114440918 1 0
0.8127860426902771 1 0
0.88988411426544189 1 0
0.95274001359939575 1 0
0.99569475650787354 1 0.0022413216065615416
0 0 0
0.0073060127906501293 0 0
0.054240565747022629 0 0
0.13662590086460114 0.0001026826721499674 2.3336972390097799e-06
0.23515987396240234 3.6366782296681777e-05 0
0.34219169616699219 0 0
0.45271733403205872 0 0
0.56150138378143311 0 0
0.66344499588012695 0 0
0.75639241933822632 0 0
0.84162783622741699 0 0
0.91983366012573242 0 0
0.98612231016159058 0 0
0 0.0014816134935244918 0
0.0070199854671955109 0.0016787360655143857 0
0.056204043328762054 0.0013918109470978379 8.8112028606701642e-05
0.13877663016319275 0.0010338877327740192 0.00036268046824261546
0.23739801347255707 0.001355279702693224 0
0.34641304612159729 0.00072898116195574403 0
0.46016779541969299 0.00021408678730949759 0
0.57167363166809082 0 0
0.67627274990081787 0 0
0.77187496423721313 0 0
0.8589596152305603 0 0
0.93760436773300171 0.00032670263317413628 0
0.99465680122375488 0.0083184782415628433 2.3531445549451746e-05
0 0.042221609503030777 0
0.0034590328577905893 0.04278380423784256 0
0.053436249494552612 0.040704194456338882 2.4683335141162388e-05
0.13909760117530823 0.041205476969480515 7.5860116339754313e-05
0.23770587146282196 0.041862204670906067 0
0.35045740008354187 0.035895820707082748 0
0.46744808554649353 0.031745370477437973 0
0.58206433057785034 0.027437113225460052 0
0.6905515193939209 0.02173207513988018 0
0.79065859317779541 0.017610961571335793 0
0.88112425804138184 0.020193660631775856 0.00034242519177496433
0.95922666788101196 0.035919398069381714 0.0021684085950255394
0.99937957525253296 0.064020149409770966 0.0035200230777263641
0 0.11749912053346634 0
0.0020236894488334656 0.11750596016645432 0.00036552280653268099
0.052425265312194824 0.11837343871593475 0.0011792500736191869
0.141399085521698 0.12166258692741394 0.00085895013762637973
0.24096138775348663 0.12121964991092682 0.00014934166392777115
0.35494276881217957 0.11490397900342941 0
0.47452422976493835 0.1097637414932251 0
0.59262394905090332 0.10574186593294144 0
0.70586931705474854 0.10271985083818436 0
0.81166869401931763 0.1023273840546608 2.3696002244832925e-05
0.90597403049468994 0.1096002459526062 0.003343978663906455
0.97976797819137573 0.12786300480365753 0.010399612598121166
1 0.15352584421634674 0.012540091760456562
0 0.20643150806427002 0
0.00086276483489200473 0.20551152527332306 0.0010342915775254369
0.045266319066286087 0.2088908851146698 0.0046145720407366753
0.13631382584571838 0.21498464047908783 0.004800205584615469
0.24115841090679169 0.21742457151412964 0.0024100509472191334
0.35728621482849121 0.21540427207946777 0.00041533826151862741
0.47932496666908264 0.21277086436748505 0
0.60096687078475952 0.21193458139896393 0
0.71829694509506226 0.21365639567375183 0
0.82809877395629883 0.21895806491374969 3.1594670872436836e-05
0.92338234186172485 0.22898060083389282 0.0037179086357355118
0.98877578973770142 0.24502226710319519 0.011129880324006081
1 0.26498651504516602 0.013752746395766735
0 0.30946058034896851 0
0.00032812380231916904 0.31093823909759521 6.3024781411513686e-05
0.039513800293207169 0.31642279028892517 0.0010090996511280537
0.1278529018163681 0.32401931285858154 0.002451474079862237
0.23624895513057709 0.32886627316474915 0.0026200686115771532
0.35613438487052917 0.33123376965522766 0.0011176314437761903
0.4813198447227478 0.33246287703514099 5.1341336074983701e-05
0.6057315468788147 0.33488732576370239 0
0.72560572624206543 0.34006741642951965 0
0.83632946014404297 0.34828132390975952 0.00015780878311488777
0.92842137813568115 0.35888558626174927 0.0026812683790922165
0.98701566457748413 0.3718925416469574 0.0063045574352145195
0.99998617172241211 0.38613083958625793 0.0074872635304927826
0 0.42472219467163086 0
0.00034902236075140536 0.43021199107170105 0
0.038167018443346024 0.4381159245967865 0
0.12337265163660049 0.44645163416862488 3.4556669561425224e-05
0.23229604959487915 0.45287805795669556 0.00021721335360780358
0.35482531785964966 0.45721715688705444 0.00015040379366837442
0.48203405737876892 0.46070399880409241 0
0.60758817195892334 0.46499013900756836 0
0.72722536325454712 0.47126585245132446 0
0.83736956119537354 0.47987255454063416 0.00025193457258865237
0.92863261699676514 0.48978161811828613 0.0018839966505765915
0.98597151041030884 0.49978703260421753 0.0043682022951543331
0.99979490041732788 0.50953787565231323 0.0045620636083185673
0 0.54725992679595947 0
0.00012604956282302737 0.55606824159622192 0
0.037391796708106995 0.56618058681488037 0
0.12181830406188965 0.57537692785263062 0
0.23188565671443939 0.58225280046463013 0
0.35594585537910461 0.5870475172996521 0
0.48376819491386414 0.59065955877304077 0
0.60845267772674561 0.59469437599182129 0
0.72556173801422119 0.60035818815231323 2.4683335141162388e-05
0.83324629068374634 0.60768574476242065 3.225289037800394e-05
0.92589461803436279 0.61588394641876221 0.00095422781305387616
0.98977231979370117 0.62317925691604614 0.0053693284280598164
1 0.6297600269317627 0.0091137010604143143
0 0.67154771089553833 0
2.7974447220913135e-06 0.68285119533538818 0
0.037465639412403107 0.6943814754486084 0
0.12441307306289673 0.7040332555770874 0
0.23559410870075226 0.71056902408599854 0
0.35984867811203003 0.71426880359649658 0
0.48711517453193665 0.71641838550567627 0
0.61065113544464111 0.71855080127716064 0.00014777090109419078
0.72595894336700439 0.7212599515914917 0.00088180840248242021
0.82938992977142334 0.72567880153656006 0.00070108153158798814
0.91875153779983521 0.73096168041229248 0.0007340374868363142
0.9850267767906189 0.73624461889266968 0.0048165861517190933
1 0.7412906289100647 0.012850742787122726
0 0.79301756620407104 0
0.00087310193339362741 0.80602073669433594 0
0.04367523267865181 0.8181881308555603 1.7772001228877343e-05
0.13290868699550629 0.82774072885513306 0.0001237457909155637
0.2441583126783371 0.83270943164825439 0.00012555590365082026
0.36681997776031494 0.83403420448303223 4.6569224650738761e-05
0.49233829975128174 0.83322852849960327 0.00025061811902560294
0.61456763744354248 0.83144217729568481 0.0013789756922051311
0.72833347320556641 0.83007591962814331 0.0035577511880546808
0.82832115888595581 0.82981336116790771 0.0027126686181873083
0.91292136907577515 0.83128434419631958 0.001895470661111176
0.97760206460952759 0.83490848541259766 0.0047407262027263641
0.99999946355819702 0.84018570184707642 0.01460393238812685
3.9493338590546045e-06 0.90777182579040527 0.00021118462609592825
0.010055467486381531 0.92160743474960327 0.0012333889026194811
0.064680986106395721 0.93356025218963623 0.0039296615868806839
0.15192712843418121 0.94167548418045044 0.0061231725849211216
0.25965091586112976 0.94401299953460693 0.0050329319201409817
0.37796983122825623 0.94173246622085571 0.0037067937664687634
0.499805748462677 0.93696296215057373 0.0031891318503767252
0.61907804012298584 0.93090558052062988 0.0036401038523763418
0.73025459051132202 0.92436778545379639 0.0044779907912015915
0.82775259017944336 0.91824084520339966 0.003134559141471982
0.90855824947357178 0.91554135084152222 0.0021471211221069098
0.97057485580444336 0.91680753231048584 0.0045357798226177692
0.99968945980072021 0.9224666953086853 0.015244337730109692
0.0048491084016859531 0.99282735586166382 0.0065266629680991173
0.03788134828209877 0.9970661997795105 0.0129597382619977
0.096592798829078674 0.9991115927696228 0.022116538137197495
0.17967088520526886 0.9999995231628418 0.025142384693026543
0.28102627396583557 1 0.022674845531582832
0.39315292239189148 0.99961060285568237 0.017431475222110748
0.50928032398223877 0.9983675479888916 0.012211638502776623
0.62400102615356445 0.99639153480529785 0.0076643549837172031
0.73126184940338135 0.99240827560424805 0.0046801697462797165
0.82655447721481323 0.98651313781738281 0.002633711788803339
0.9057992696762085 0.9806097149848938 0.0016895368462428451
0.96716165542602539 0.97935092449188232 0.0036266252864152193
0.99930691719055176 0.98423916101455688 0.015162822790443897
0.025999974459409714 1 0.028680091723799706
0.070169471204280853 1 0.036705587059259415
0.13055258989334106 1 0.044399484992027283
0.20961947739124298 1 0.046895928680896759
0.30490118265151978 1 0.043530929833650589
0.41021600365638733 1 0.036506097763776779
0.52028554677963257 1 0.027715316042304039
0.62946587800979614 1 0.018431389704346657
0.73240470886230469 1 0.010546725243330002
0.82558345794677734 1 0.0056563881225883961
0.90486979484558105 1 0.0034440881572663784
0.96784937381744385 1 0.0049309073947370052
0.99946379661560059 1 0.016414327546954155
0.0001497455668868497 0 0.012124319560825825
0.0090926820412278175 0 0.011360916309058666
0.053279638290405273 9.5292634796351194e-05 0.014072253368794918
0.13459227979183197 0.0011337879113852978 0.018144914880394936
0.23423008620738983 0.0013803818728774786 0.011802463792264462
0.34287512302398682 3.5005457903025672e-05 0.0066895280033349991
0.45653513073921204 0 0.0043707904405891895
0.56839096546173096 0 0.0023336822632700205
0.67155581712722778 0 0.0014804017264395952
0.76307696104049683 0 0.0014706780202686787
0.84657162427902222 0 0.0017153272638097405
0.92429071664810181 0 0.0019044015789404511
0.98901057243347168 2.3336971935350448e-05 0.0032288795337080956
0.00067677214974537492 0.0018506518099457026 0.017418909817934036
0.0076433965004980564 0.0013250014744699001 0.015515091829001904
0.056837253272533417 0.00084268907085061073 0.020997978746891022
0.13978499174118042 0.0010105357505381107 0.02352478913962841
0.23746092617511749 0.0010893129510805011 0.017063574865460396
0.34675657749176025 0.00036498424015007913 0.010766183026134968
0.46269762516021729 0.00057874195044860244 0.0061290515586733818
0.57655614614486694 0.00043508491944521666 0.0041003059595823288
0.68207961320877075 0 0.0034879797603935003
0.77660822868347168 0 0.0038478327915072441
0.86270946264266968 0 0.0052354251965880394
0.94145417213439941 0.0011227177456021309 0.0080682942643761635
0.996082603931427 0.012935862876474857 0.013110186904668808
0.00044865327072329819 0.044934067875146866 0.018622724339365959
0.0032354318536818027 0.042709067463874817 0.016736783087253571
0.053093824535608292 0.039601314812898636 0.020693790167570114
0.14032430946826935 0.041492104530334473 0.020307937636971474
0.2397380918264389 0.039358176290988922 0.017563030123710632
0.35219815373420715 0.03349699079990387 0.012223935686051846
0.4701581597328186 0.032293505966663361 0.0072304820641875267
0.58580118417739868 0.030218102037906647 0.0064441608265042305
0.69452393054962158 0.025361035019159317 0.0071687735617160797
0.79395598173141479 0.0209999680519104 0.0095869330689311028
0.88384568691253662 0.023639455437660217 0.015685033053159714
0.96170389652252197 0.040386155247688293 0.024822339415550232
0.99956125020980835 0.067143924534320831 0.033831488341093063
9.5098155725281686e-05 0.12030074000358582 0.021170912310481071
0.0030537773855030537 0.11871716380119324 0.024951515719294548
0.050195269286632538 0.11963101476430893 0.025695471093058586
0.13918617367744446 0.12273773550987244 0.0233791284263134
0.24341890215873718 0.12110690027475357 0.020995466038584709
0.3588661253452301 0.11517633497714996 0.014522133395075798
0.47854200005531311 0.11053010821342468 0.010352953337132931
0.59653365612030029 0.10684968531131744 0.0105501813814044
0.70964616537094116 0.10461881756782532 0.012247736565768719
0.81550341844558716 0.10467933118343353 0.017989827319979668
0.9099891185760498 0.11275933682918549 0.030132053419947624
0.98281967639923096 0.13123506307601929 0.043260134756565094
1 0.15531907975673676 0.052270956337451935
0 0.20898731052875519 0.017195353284478188
0.0032995634246617556 0.20895396173000336 0.025722682476043701
0.048886138945817947 0.21232286095619202 0.031233977526426315
0.13674506545066833 0.21702632308006287 0.031824883073568344
0.24463994801044464 0.21889883279800415 0.031261712312698364
0.3624870777130127 0.21704418957233429 0.025766724720597267
0.48402747511863708 0.21521736681461334 0.019471246749162674
0.60518467426300049 0.21318927407264709 0.017191838473081589
0.72249442338943481 0.21544378995895386 0.017817838117480278
0.8325648307800293 0.22150686383247375 0.023931825533509254
0.92871725559234619 0.23295459151268005 0.038978427648544312
0.99220877885818481 0.24965173006057739 0.052889641374349594
1 0.26708734035491943 0.060110040009021759
0 0.31093493103981018 0.0077932318672537804
0.0031913158018141985 0.31429147720336914 0.015755850821733475
0.046623963862657547 0.32046377658843994 0.024442007765173912
0.13175639510154724 0.32717746496200562 0.030158726498484612
0.24067249894142151 0.33191457390785217 0.03320128470659256
0.3613055944442749 0.33391439914703369 0.031525153666734695
0.48577770590782166 0.33544912934303284 0.026509169489145279
0.60948652029037476 0.33793759346008301 0.0232835803180933
0.72899073362350464 0.34311330318450928 0.023328579962253571
0.8400757908821106 0.35168078541755676 0.028987286612391472
0.93351370096206665 0.36296951770782471 0.0412723608314991
0.99039101600646973 0.37578502297401428 0.051175899803638458
0.99998116493225098 0.38886934518814087 0.05614197626709938
0 0.42633286118507385 0.003456175560131669
0.0025953555013984442 0.4333488941192627 0.0069459951482713223
0.044357240200042725 0.44223952293395996 0.012203754857182503
0.12728069722652435 0.45072519779205322 0.018806936219334602
0.23636063933372498 0.45711812376976013 0.024660013616085052
0.35896903276443481 0.46166172623634338 0.025919131934642792
0.48550847172737122 0.46533668041229248 0.025218648836016655
0.60995727777481079 0.46933656930923462 0.025834506377577782
0.72914308309555054 0.47542482614517212 0.027004033327102661
0.83851367235183716 0.48407614231109619 0.031061328947544098
0.93137913942337036 0.49348446726799011 0.039395619183778763
0.98860615491867065 0.50250494480133057 0.047837469726800919
0.99980300664901733 0.51197308301925659 0.052041474729776382
0 0.54937422275543213 0.0037082897033542395
0.0014841716038063169 0.5593867301940918 0.0051308874972164631
0.041814751923084259 0.57033449411392212 0.0074534248560667038
0.12543590366840363 0.58004844188690186 0.011869527399539948
0.23514421284198761 0.58722579479217529 0.016034519299864769
0.35905295610427856 0.59236502647399902 0.017194276675581932
0.4862155020236969 0.59610342979431152 0.019668474793434143
0.60936456918716431 0.59990763664245605 0.024920623749494553
0.72499626874923706 0.60514575242996216 0.028344845399260521
0.83049696683883667 0.61219489574432373 0.029256260022521019
0.92302268743515015 0.61962097883224487 0.032255388796329498
0.98932039737701416 0.62575817108154297 0.044930074363946915
1 0.63202226161956787 0.055293813347816467
0 0.67403155565261841 0.0066604912281036377
0.00095051783137023449 0.68603396415710449 0.0078771701082587242
0.041292976588010788 0.69810467958450317 0.010432508774101734
0.12717217206954956 0.70822972059249878 0.013553230091929436
0.23810084164142609 0.71538817882537842 0.015333093702793121
0.36237740516662598 0.71969085931777954 0.015042652375996113
0.48911312222480774 0.72207605838775635 0.018817931413650513
0.61087542772293091 0.72381389141082764 0.026645883917808533
0.72438699007034302 0.7262721061706543 0.031350303441286087
0.82605499029159546 0.73009639978408813 0.029975727200508118
0.91601788997650146 0.73442381620407104 0.029469164088368416
0.98524731397628784 0.73856586217880249 0.04056980088353157
1 0.74368661642074585 0.055432546883821487
0 0.79573988914489746 0.013727763667702675
0.0023339663166552782 0.80866992473602295 0.01616179570555687
0.047551203519105911 0.82088762521743774 0.020202681422233582
0.13604162633419037 0.83074808120727539 0.023409152403473854
0.24658577144145966 0.83648866415023804 0.02415485680103302
0.36897110939025879 0.83848387002944946 0.024107720702886581
0.4939437210559845 0.83805638551712036 0.026787761598825455
0.61520528793334961 0.83645021915435791 0.032175924628973007
0.72796410322189331 0.83462893962860107 0.035398073494434357
0.82861882448196411 0.83302456140518188 0.033914275467395782
0.91555410623550415 0.83304214477539062 0.032150119543075562
0.98156177997589111 0.83572202920913696 0.038536686450242996
1 0.84162312746047974 0.053241357207298279
0.00026556276134215295 0.91053491830825806 0.027332769706845284
0.014707557857036591 0.92349064350128174 0.032857377082109451
0.06895243376493454 0.93517899513244629 0.039011981338262558
0.15560163557529449 0.94301915168762207 0.040997926145792007
0.26264205574989319 0.9463995099067688 0.040466085076332092
0.38027352094650269 0.9449273943901062 0.039694499224424362
0.50183254480361938 0.94060415029525757 0.03917337954044342
