assets/lut/jtsemple lateafternoonwanderlust.cube
# Created by: G'MIC (https://gmic.eu)
TITLE "lateafternoonwanderlust"
# LUT size
LUT_3D_SIZE 7
# Data domain
DOMAIN_MIN 0.0 0.0 0.0
DOMAIN_MAX 1.0 1.0 1.0
# LUT data points
0 0 0.019506461918354034
0.029348636046051979 0.0001840030454332009 0.017518347129225731
0.20894607901573181 0 0.01041259802877903
0.39946964383125305 0.0020906785503029823 0.0031673505436629057
0.58664625883102417 0 0.0039731790311634541
0.77544486522674561 0.00034269446041435003 9.4424976850859821e-05
0.96272146701812744 0.00017736098379828036 0
0 0.078943021595478058 0.010442412458360195
0.02936166524887085 0.081382036209106445 0.013854696415364742
0.19884750247001648 0.075401455163955688 0.01189003698527813
0.38819965720176697 0.065384313464164734 0.0068907495588064194
0.57641589641571045 0.044117361307144165 0.011376369744539261
0.76563179492950439 0.04533589631319046 0.0040112663991749287
0.95642608404159546 0.06212838739156723 0
0 0.21005971729755402 0.011370640248060226
0.020744862034916878 0.21022196114063263 0.015439620241522789
0.18212161958217621 0.2099263072013855 0.0070078680291771889
0.37735188007354736 0.19991257786750793 0.0033727907575666904
0.57321321964263916 0.19178301095962524 0.0010945637477561831
0.77017229795455933 0.18979857861995697 0.00069544173311442137
0.96651154756546021 0.20094984769821167 0.00024126838252414018
0 0.36321136355400085 0.0080141108483076096
0.022247359156608582 0.36429131031036377 0.013184985145926476
0.17741602659225464 0.37045085430145264 0.0085493801161646843
0.37979653477668762 0.37309205532073975 0.0046557108871638775
0.58800578117370605 0.37483561038970947 0.0026939841918647289
0.79415935277938843 0.38043692708015442 0.0029484019614756107
0.98648154735565186 0.39062869548797607 0.0051685855723917484
0.00054470886243507266 0.54033380746841431 0.0071961348876357079
0.068504780530929565 0.5481371283531189 0.011836497113108635
0.21488872170448303 0.55905669927597046 0.014210973866283894
0.41195228695869446 0.56856387853622437 0.014118747785687447
0.62630617618560791 0.57531094551086426 0.015169061720371246
0.83738148212432861 0.58237332105636597 0.019546613097190857
0.99930417537689209 0.59312379360198975 0.024990875273942947
0.028512183576822281 0.73239338397979736 0.020392997190356255
0.12583480775356293 0.74476379156112671 0.027012664824724197
0.27344593405723572 0.75792181491851807 0.03379841148853302
0.46772247552871704 0.76845341920852661 0.037593558430671692
0.6843913197517395 0.77557730674743652 0.042354464530944824
0.89819353818893433 0.7781606912612915 0.049889523535966873
1 0.78687465190887451 0.057567328214645386
0.080546453595161438 0.92970460653305054 0.054598521441221237
0.19242995977401733 0.94206488132476807 0.060470625758171082
0.34506624937057495 0.95365047454833984 0.067354194819927216
0.53762638568878174 0.96053910255432129 0.073954232037067413
0.75203198194503784 0.96262478828430176 0.079478226602077484
0.9637414813041687 0.96464574337005615 0.086973808705806732
1 0.97145777940750122 0.095106683671474457
0 0.00067497702548280358 0.12067938596010208
0.039202552288770676 0.0011758094187825918 0.11676659435033798
0.21355883777141571 0 0.10790210962295532
0.39972352981567383 0 0.09572911262512207
0.58579903841018677 0 0.086367711424827576
0.77328741550445557 0 0.07034195214509964
0.95624607801437378 0 0.060177523642778397
0.0023885390255600214 0.086684763431549072 0.11159408837556839
0.025217423215508461 0.080105893313884735 0.10987040400505066
0.20011353492736816 0.070903167128562927 0.10225149244070053
0.39023414254188538 0.057052116841077805 0.096639014780521393
0.57490295171737671 0.054343532770872116 0.09082716703414917
0.7643701434135437 0.047031927853822708 0.079712331295013428
0.94963306188583374 0.043327689170837402 0.068071998655796051
0 0.2165026068687439 0.10560461133718491
0.031053490936756134 0.21520644426345825 0.10428472608327866
0.19160696864128113 0.20955765247344971 0.095249906182289124
0.38255828619003296 0.19920419156551361 0.091304689645767212
0.57292962074279785 0.1945807933807373 0.08597833663225174
0.77034527063369751 0.19070684909820557 0.081051036715507507
0.964954674243927 0.19283346831798553 0.081330724060535431
0 0.36808198690414429 0.09532533586025238
0.044490139931440353 0.37197482585906982 0.099414125084877014
0.19307234883308411 0.37598773837089539 0.098210670053958893
0.38802051544189453 0.37583735585212708 0.097774937748908997
0.59282118082046509 0.37812486290931702 0.096882015466690063
0.80029559135437012 0.38540810346603394 0.09665718674659729
0.98924386501312256 0.39300212264060974 0.10379093885421753
0.0050752079114317894 0.54388260841369629 0.095825940370559692
0.078749939799308777 0.55623513460159302 0.10630948096513748
0.22245603799819946 0.56836652755737305 0.11392862349748611
0.41909876465797424 0.57564151287078857 0.11829250305891037
0.63490474224090576 0.58216828107833862 0.12189240008592606
0.84548568725585938 0.5922691822052002 0.12725023925304413
0.9998328685760498 0.60112327337265015 0.13609671592712402
0.029730599373579025 0.73744189739227295 0.1249668225646019
0.12129741162061691 0.75479692220687866 0.13589121401309967
0.26830390095710754 0.76914793252944946 0.14679206907749176
0.46920472383499146 0.77597248554229736 0.15328402817249298
0.69196152687072754 0.78030359745025635 0.15871088206768036
0.90488290786743164 0.78650051355361938 0.16554039716720581
1 0.79432100057601929 0.17542742192745209
0.071302346885204315 0.93533498048782349 0.1728263646364212
0.17949046194553375 0.95174044370651245 0.18166135251522064
0.33338284492492676 0.96325862407684326 0.19129721820354462
0.53347909450531006 0.9662131667137146 0.19794684648513794
0.75328695774078369 0.96615350246429443 0.20336373150348663
0.96528226137161255 0.96789228916168213 0.21004241704940796
1 0.97350913286209106 0.21918568015098572
0 0.00092827290063723922 0.24192552268505096
0.033230770379304886 0.0036391164176166058 0.23364855349063873
0.20831771194934845 0 0.22868968546390533
0.39479243755340576 0 0.2181822806596756
0.57990396022796631 0 0.20458695292472839
0.76737886667251587 0 0.19132174551486969
0.95310878753662109 0 0.18330870568752289
0 0.083981879055500031 0.2321275919675827
0.024916255846619606 0.08212076872587204 0.22826327383518219
0.19978111982345581 0.070279456675052643 0.22195321321487427
0.38915026187896729 0.057626057416200638 0.21375918388366699
0.57251203060150146 0.052373416721820831 0.20352931320667267
0.76447409391403198 0.042449742555618286 0.19450749456882477
0.9536128044128418 0.041880574077367783 0.1898190826177597
0 0.21663147211074829 0.21961881220340729
0.022646825760602951 0.21532678604125977 0.21770255267620087
0.19078318774700165 0.20892603695392609 0.21344229578971863
0.38337036967277527 0.20283481478691101 0.209829181432724
0.57577133178710938 0.20005719363689423 0.20480191707611084
0.77481323480606079 0.19619797170162201 0.20207652449607849
0.97020286321640015 0.19892600178718567 0.20448485016822815
0 0.37072911858558655 0.21031978726387024
0.05181458592414856 0.37626144289970398 0.21364930272102356
0.19965188205242157 0.38021475076675415 0.21642336249351501
0.3939632773399353 0.38260486721992493 0.21845658123493195
0.59972286224365234 0.38676264882087708 0.21896751224994659
0.8087882399559021 0.39360830187797546 0.22258046269416809
0.99308127164840698 0.40057700872421265 0.23071733117103577
0.0077546811662614346 0.54843378067016602 0.21645966172218323
0.084691338241100311 0.56282186508178711 0.22800420224666595
0.22841396927833557 0.57541489601135254 0.23883345723152161
0.42664197087287903 0.58261096477508545 0.24566952884197235
0.64368247985839844 0.58972066640853882 0.25099962949752808
0.85536772012710571 0.60045188665390015 0.25772327184677124
1 0.60856884717941284 0.26763719320297241
0.02864481694996357 0.74298477172851562 0.25477820634841919
0.1208624467253685 0.76200449466705322 0.26793298125267029
0.27051550149917603 0.77617961168289185 0.2811586856842041
0.47483059763908386 0.78092604875564575 0.28887215256690979
0.69812697172164917 0.78481948375701904 0.2942562997341156
0.91013634204864502 0.7917330265045166 0.30085670948028564
1 0.79854655265808105 0.31076553463935852
0.065588273108005524 0.9406968355178833 0.31010463833808899
0.17632049322128296 0.958057701587677 0.32203620672225952
0.33303475379943848 0.96782892942428589 0.33306866884231567
0.53604328632354736 0.96931290626525879 0.33878666162490845
0.75628578662872314 0.96820569038391113 0.34245610237121582
0.96715664863586426 0.96889424324035645 0.34741595387458801
1 0.97435420751571655 0.35647666454315186
0 0 0.38208943605422974
0.055357120931148529 0.0005861170357093215 0.37556889653205872
0.20626597106456757 0 0.37019398808479309
0.38882061839103699 0 0.36077123880386353
0.5733000636100769 0 0.34641316533088684
0.76060694456100464 0 0.33242809772491455
0.94963234663009644 0 0.32497239112854004
0 0.074735306203365326 0.3714849054813385
0.035653550177812576 0.080147057771682739 0.36758458614349365
0.19662904739379883 0.076692275702953339 0.36321043968200684
0.38524103164672852 0.057748772203922272 0.35539370775222778
0.57144749164581299 0.044645797461271286 0.34398457407951355
0.76302832365036011 0.042386073619127274 0.33465227484703064
0.95542997121810913 0.045710694044828415 0.33130607008934021
0 0.21039313077926636 0.35937896370887756
0.02507253922522068 0.21387878060340881 0.35836958885192871
0.18567802011966705 0.21167607605457306 0.35686561465263367
0.38285669684410095 0.20496805012226105 0.35286363959312439
0.58022266626358032 0.20015111565589905 0.34713250398635864
0.77884459495544434 0.20135116577148438 0.34516850113868713
0.97333353757858276 0.20727786421775818 0.3480454683303833
0 0.36994531750679016 0.3546348512172699
0.046394437551498413 0.37779983878135681 0.35816973447799683
0.19601413607597351 0.3837316632270813 0.36303338408470154
0.3956916332244873 0.38731658458709717 0.36478340625762939
0.60539650917053223 0.3927992582321167 0.36456164717674255
0.81245964765548706 0.39983987808227539 0.3701021671295166
0.99290037155151367 0.40648344159126282 0.37787586450576782
0.0012512955581769347 0.55221664905548096 0.36944428086280823
0.075867265462875366 0.56689620018005371 0.37863919138908386
0.22584919631481171 0.57959318161010742 0.38980039954185486
0.43038135766983032 0.58759087324142456 0.39690351486206055
0.65216541290283203 0.59576845169067383 0.40261098742485046
0.86046802997589111 0.60640603303909302 0.41055616736412048
1 0.61329132318496704 0.41909089684486389
0.017306145280599594 0.74758994579315186 0.40999358892440796
0.11881239712238312 0.76496404409408569 0.42375379800796509
0.27501672506332397 0.77833634614944458 0.43656045198440552
0.48193466663360596 0.7841416597366333 0.44345831871032715
0.70626604557037354 0.78839325904846191 0.44879701733589172
0.91532081365585327 0.79471701383590698 0.45529049634933472
1 0.80117529630661011 0.46314951777458191
0.058496095240116119 0.94487971067428589 0.46553748846054077
0.17895324528217316 0.95988136529922485 0.48090687394142151
0.34150642156600952 0.96839863061904907 0.49145519733428955
0.54349881410598755 0.97025996446609497 0.49449390172958374
0.76190280914306641 0.96859180927276611 0.49587047100067139
0.97019356489181519 0.96795666217803955 0.49898922443389893
1 0.97407054901123047 0.50683075189590454
0 0 0.53184652328491211
0.056877914816141129 8.4372128185350448e-05 0.53020423650741577
0.20712925493717194 0.0010591394966468215 0.52713793516159058
0.38913136720657349 3.6980123695684597e-05 0.51864957809448242
0.57224053144454956 0 0.5021633505821228
0.75676542520523071 0 0.48581644892692566
0.94583302736282349 0 0.47650644183158875
0 0.072571426630020142 0.5239676833152771
0.02853788435459137 0.079801462590694427 0.52401429414749146
0.18966877460479736 0.078875310719013214 0.52183133363723755
0.38369622826576233 0.063780017197132111 0.51377767324447632
0.57270520925521851 0.048768375068902969 0.5001145601272583
0.76214474439620972 0.044182542711496353 0.48864585161209106
0.95532190799713135 0.047779083251953125 0.48449641466140747
0 0.20695759356021881 0.51580005884170532
0.018705330789089203 0.21261695027351379 0.51873040199279785
0.18158939480781555 0.21233384311199188 0.51850265264511108
0.38528946042060852 0.20517189800739288 0.51374137401580811
0.58469372987747192 0.2015221118927002 0.50585007667541504
0.78127467632293701 0.20423918962478638 0.50153017044067383
0.97454166412353516 0.21164000034332275 0.50297665596008301
0 0.36791986227035522 0.51477652788162231
0.042326521128416061 0.37802904844284058 0.51973778009414673
0.19561667740345001 0.38667735457420349 0.52673530578613281
0.40182524919509888 0.39063912630081177 0.52860766649246216
0.61104172468185425 0.39606884121894836 0.52679270505905151
0.81665658950805664 0.40360939502716064 0.52956002950668335
0.99398881196975708 0.41026890277862549 0.53514069318771362
0 0.55436903238296509 0.53211134672164917
0.06180204451084137 0.57096028327941895 0.54073905944824219
0.22245830297470093 0.58437442779541016 0.55374515056610107
0.43677273392677307 0.59206950664520264 0.5609743595123291
0.65688472986221313 0.60074788331985474 0.56462979316711426
0.86662811040878296 0.61029672622680664 0.57200789451599121
1 0.61527639627456665 0.57810086011886597
0.0062097436748445034 0.75270044803619385 0.57322841882705688
0.10980275273323059 0.76904106140136719 0.58809530735015869
0.27600833773612976 0.78152108192443848 0.60065525770187378
0.48876237869262695 0.78795677423477173 0.6056748628616333
0.71315681934356689 0.79272365570068359 0.61016714572906494
0.92109435796737671 0.79864948987960815 0.61767017841339111
1 0.80362880229949951 0.62333446741104126
0.047043278813362122 0.94985413551330566 0.62767857313156128
0.17812663316726685 0.96280229091644287 0.64725154638290405
0.34714886546134949 0.96992868185043335 0.65604418516159058
0.55059456825256348 0.97154980897903442 0.65471237897872925
0.76734822988510132 0.9705461859703064 0.6549079418182373
0.97221803665161133 0.97094345092773438 0.65936756134033203
1 0.97562605142593384 0.66482257843017578
0 0 0.68531936407089233
0.048914246261119843 0 0.68529409170150757
0.20705859363079071 0.0031276778317987919 0.68529409170150757
0.3935944139957428 0.0081137716770172119 0.68003129959106445
0.57356709241867065 0 0.66065758466720581
0.75535005331039429 0 0.64332205057144165
0.94571077823638916 0 0.63435882329940796
0 0.070954330265522003 0.67953348159790039
0.021978490054607391 0.07477346807718277 0.68137252330780029
0.18756246566772461 0.07999064028263092 0.68121349811553955
0.38560467958450317 0.075436882674694061 0.67293566465377808
0.57351326942443848 0.057877440005540848 0.6573823094367981
0.76115506887435913 0.046633042395114899 0.64573973417282104
0.95468306541442871 0.047020047903060913 0.64189416170120239
0 0.20752541720867157 0.67433398962020874
0.0183524489402771 0.21069155633449554 0.67795431613922119
0.18456791341304779 0.21174030005931854 0.67991906404495239
0.38909065723419189 0.20806965231895447 0.67440813779830933
0.58779454231262207 0.20457051694393158 0.66528469324111938
0.78327232599258423 0.20624032616615295 0.66028141975402832
0.97601664066314697 0.2132883220911026 0.66139340400695801
0 0.37149181962013245 0.67604094743728638
0.04513237252831459 0.38057637214660645 0.68129521608352661
0.20452159643173218 0.39010646939277649 0.68924963474273682
0.41217127442359924 0.39545643329620361 0.69120585918426514
0.61902183294296265 0.40152159333229065 0.6882704496383667
0.82248800992965698 0.40822112560272217 0.68954163789749146
0.99590599536895752 0.41406682133674622 0.69403976202011108
0 0.56156063079833984 0.69290220737457275
0.060391116887331009 0.57622063159942627 0.70064312219619751
0.23173259198665619 0.58902150392532349 0.71452009677886963
0.44934248924255371 0.59803789854049683 0.72193628549575806
0.6644631028175354 0.6077994704246521 0.72379380464553833
0.87363231182098389 0.61698073148727417 0.73008096218109131
1 0.6202501654624939 0.73612374067306519
0.00053776759887114167 0.7610098123550415 0.73185473680496216
0.099108137190341949 0.77544337511062622 0.74376410245895386
0.27760708332061768 0.78614091873168945 0.75649070739746094
0.49517175555229187 0.79253548383712769 0.76191127300262451
0.71880710124969482 0.7984311580657959 0.76537775993347168
0.92789942026138306 0.80416703224182129 0.77486306428909302
1 0.80782616138458252 0.78076791763305664
0.031564764678478241 0.95693296194076538 0.78431218862533569
0.16874688863754272 0.96678453683853149 0.79970943927764893
0.34655067324638367 0.97260200977325439 0.808155357837677
0.5543939471244812 0.97414344549179077 0.80797886848449707
0.77276378870010376 0.97331482172012329 0.80766904354095459
0.97571903467178345 0.97316008806228638 0.81404060125350952
1 0.97798079252243042 0.82156014442443848
0 0 0.839771568775177
0.044853240251541138 0 0.83835369348526001
0.20333811640739441 8.1140853581018746e-05 0.83715444803237915
0.38764378428459167 0.001548273372463882 0.8308722972869873
0.57041722536087036 0 0.81483042240142822
0.75592255592346191 0 0.80115252733230591
0.94904410839080811 0 0.79479682445526123
0 0.07123894989490509 0.83525478839874268
0.025695934891700745 0.068517275154590607 0.833973228931427
0.18756900727748871 0.073972009122371674 0.83207905292510986
0.3785393238067627 0.074217416346073151 0.82468807697296143
0.56906914710998535 0.05614197626709938 0.81061303615570068
0.76075619459152222 0.048354428261518478 0.80348312854766846
0.95720618963241577 0.048535395413637161 0.8020433783531189
0 0.21481771767139435 0.83186274766921997
0.026060530915856361 0.21395036578178406 0.83186274766921997
0.19024313986301422 0.21533286571502686 0.83283525705337524
0.38728570938110352 0.21330182254314423 0.82850188016891479
0.58727389574050903 0.20876598358154297 0.82103514671325684
0.78587228059768677 0.21081505715847015 0.818401038646698
0.97927159070968628 0.21755649149417877 0.82123976945877075
0 0.38483133912086487 0.83569127321243286
0.039749864488840103 0.38981172442436218 0.8378722071647644
0.20845328271389008 0.39628085494041443 0.84351241588592529
0.41407111287117004 0.40263250470161438 0.84551358222961426
0.62369680404663086 0.40905079245567322 0.84455275535583496
0.82849991321563721 0.41499963402748108 0.84652173519134521
0.99785834550857544 0.41987729072570801 0.85236227512359619
0 0.57564657926559448 0.85157221555709839
0.051678512245416641 0.58633172512054443 0.85522294044494629
0.23410840332508087 0.59503477811813354 0.86661434173583984
0.45095261931419373 0.60464709997177124 0.87385910749435425
0.67055642604827881 0.61544191837310791 0.87724590301513672
0.88159513473510742 0.62531137466430664 0.88397443294525146
1 0.62757217884063721 0.89140486717224121
0 0.77226054668426514 0.88728636503219604
0.089723505079746246 0.78387820720672607 0.89294672012329102
0.27808114886283875 0.79127675294876099 0.90447366237640381
0.49763670563697815 0.79726290702819824 0.91134011745452881
0.72239905595779419 0.80391097068786621 0.91525053977966309
0.93579065799713135 0.81067460775375366 0.92328613996505737
1 0.81396889686584473 0.93250328302383423
0.021552156656980515 0.96473711729049683 0.93682175874710083
0.16262255609035492 0.97168266773223877 0.94489884376525879
0.34512591361999512 0.97606933116912842 0.95242452621459961
0.55633485317230225 0.97749519348144531 0.95545387268066406
0.77597755193710327 0.97721558809280396 0.95688855648040771
0.97980678081512451 0.97703105211257935 0.96157115697860718
1 0.98152428865432739 0.97096771001815796
