assets/lut/jtsemple minimalistcaffeination.cube
# Created by: G'MIC (https://gmic.eu)
TITLE "minimalistcaffeination"
# LUT size
LUT_3D_SIZE 7
# Data domain
DOMAIN_MIN 0.0 0.0 0.0
DOMAIN_MAX 1.0 1.0 1.0
# LUT data points
0 0 0
0.031261712312698364 0 0
0.17827416956424713 0 0
0.34226757287979126 0 0
0.50386470556259155 0 0
0.65547478199005127 0 0
0.80387461185455322 0 0
0.00031563252559863031 0.058316145092248917 6.5343519963789731e-05
0.03337840735912323 0.056781455874443054 5.3869509429205209e-05
0.18094374239444733 0.055250909179449081 0
0.34378117322921753 0.043273370712995529 0
0.51323193311691284 0.024835757911205292 0
0.66939002275466919 0.022506564855575562 0
0.81733733415603638 0.035066492855548859 0.0013718249974772334
0 0.19436702132225037 0.0057839038781821728
0.038348060101270676 0.19080117344856262 0.0035245409235358238
0.17852646112442017 0.18579298257827759 0
0.34891039133071899 0.18017569184303284 0
0.52798151969909668 0.17194569110870361 0
0.6950681209564209 0.17406569421291351 0
0.8474152684211731 0.19155038893222809 0
0.0016833585686981678 0.34304565191268921 0.0075574237853288651
0.047743525356054306 0.35026556253433228 0.010449981316924095
0.18443083763122559 0.35533657670021057 3.2312731491401792e-05
0.36938661336898804 0.3596002459526062 0
0.55780965089797974 0.36563235521316528 0.0018498589051887393
0.73238813877105713 0.38147595524787903 0.00021739286603406072
0.88889455795288086 0.40666383504867554 0.00078313489211723208
0.0019998888019472361 0.53439033031463623 0
0.062721759080886841 0.54721426963806152 0.0024703680537641048
0.20967258512973785 0.55952942371368408 4.5955883251735941e-05
0.40375971794128418 0.57129347324371338 0
0.59807103872299194 0.58827358484268188 0.0047681471332907677
0.77422499656677246 0.6123008131980896 0.0041485805995762348
0.92998576164245605 0.6402738094329834 0.0058789718896150589
0.018172724172472954 0.74613207578659058 0
0.10972375422716141 0.7615278959274292 0
0.25920924544334412 0.77496957778930664 0.0005345961544662714
0.44809424877166748 0.78708714246749878 0.0011749267578125
0.64061492681503296 0.803844153881073 0.0034560258500277996
0.81270647048950195 0.82420635223388672 0.0064179515466094017
0.96427649259567261 0.84321421384811401 0.013482696376740932
0.055140551179647446 0.9581979513168335 0
0.16383270919322968 0.96892642974853516 2.3336971935350448e-05
0.31422033905982971 0.97653770446777344 0.0024920892901718616
0.49339497089385986 0.98101449012756348 0.0043448954820632935
0.6780058741569519 0.9865720272064209 0.0043559805490076542
0.84364235401153564 0.9930838942527771 0.0096276374533772469
0.98650282621383667 0.99756759405136108 0.02261861227452755
0.00026254093972966075 2.3336971935350448e-05 0.044023089110851288
0.033275961875915527 0 0.043677549809217453
0.17551027238368988 2.0225375919835642e-05 0.045450501143932343
0.34174194931983948 0 0.03904208168387413
0.50137776136398315 0 0.045925453305244446
0.65343743562698364 0 0.039962515234947205
0.80277228355407715 0.004299552645534277 0.035902839154005051
1.5946930943755433e-05 0.057170405983924866 0.030151337385177612
0.024624094367027283 0.055966425687074661 0.036730494350194931
0.17208541929721832 0.048308026045560837 0.037760116159915924
0.33847609162330627 0.039069995284080505 0.031801380217075348
0.50888383388519287 0.033386647701263428 0.033834926784038544
0.66859608888626099 0.036083653569221497 0.032752435654401779
0.81952452659606934 0.064699389040470123 0.042602028697729111
0 0.19580276310443878 0.047206595540046692
0.039716023951768875 0.19570697844028473 0.046529881656169891
0.17662245035171509 0.18918149173259735 0.03315010666847229
0.34816843271255493 0.18187236785888672 0.027845360338687897
0.52878022193908691 0.17840565741062164 0.030951391905546188
0.69891071319580078 0.18431355059146881 0.035383649170398712
0.85094302892684937 0.2066577821969986 0.054119512438774109
0.00046799602569080889 0.35189008712768555 0.06008128821849823
0.052480179816484451 0.3591817319393158 0.060747094452381134
0.1912541538476944 0.36341562867164612 0.046545185148715973
0.37650999426841736 0.36691924929618835 0.045566931366920471
0.56539064645767212 0.37646150588989258 0.062261976301670074
0.73985373973846436 0.38998568058013916 0.073674775660037994
0.89299017190933228 0.41210097074508667 0.099035121500492096
0.0023701386526226997 0.54522716999053955 0.050122473388910294
0.07293219119310379 0.56214463710784912 0.067220531404018402
0.2210833728313446 0.57563841342926025 0.063334837555885315
0.41474065184593201 0.58765649795532227 0.064798600971698761
0.60901618003845215 0.60701829195022583 0.092355348169803619
0.78282952308654785 0.62320077419281006 0.10533078014850616
0.93278628587722778 0.64000582695007324 0.12464336305856705
0.012968160212039948 0.76189118623733521 0.041452832520008087
0.11025634407997131 0.78407877683639526 0.077280662953853607
0.26497450470924377 0.79750645160675049 0.094028457999229431
0.45627740025520325 0.80584633350372314 0.10189957171678543
0.64851170778274536 0.82076674699783325 0.11746769398450851
0.81630116701126099 0.83274692296981812 0.1310185045003891
0.96160995960235596 0.8421136736869812 0.14689670503139496
0.043109249323606491 0.97171026468276978 0.07553042471408844
0.15680557489395142 0.98337149620056152 0.10316959768533707
0.31300130486488342 0.98831534385681152 0.12185446172952652
0.49562805891036987 0.98904341459274292 0.12902569770812988
0.67826896905899048 0.99030470848083496 0.1352149099111557
0.83909648656845093 0.99312925338745117 0.1468888521194458
0.98008608818054199 0.99648714065551758 0.1632450670003891
0.00016802619211375713 3.9672850107308477e-05 0.19979257881641388
0.039413273334503174 0 0.20034430921077728
0.16938845813274384 0 0.19564847648143768
0.33573997020721436 0 0.18562985956668854
0.49463331699371338 0 0.17544540762901306
0.64704853296279907 0 0.16797098517417908
0.79729545116424561 0.015840418636798859 0.16856899857521057
0 0.060683906078338623 0.18427692353725433
0.024759044870734215 0.054745182394981384 0.18968798220157623
0.1644732803106308 0.043716251850128174 0.18334627151489258
0.33403638005256653 0.034721419215202332 0.17516264319419861
0.50315850973129272 0.031283628195524216 0.17109552025794983
0.66287493705749512 0.039222508668899536 0.17328014969825745
0.81690841913223267 0.079549513757228851 0.18204925954341888
0 0.19203963875770569 0.17638713121414185
0.033668860793113708 0.1928660124540329 0.17969919741153717
0.17260576784610748 0.18696154654026031 0.17883977293968201
0.34616422653198242 0.18070019781589508 0.18178799748420715
0.52683824300765991 0.17871707677841187 0.18347582221031189
0.69607841968536377 0.18933118879795074 0.19559027254581451
0.85065805912017822 0.21924972534179688 0.21632981300354004
4.3083641685370822e-06 0.35176074504852295 0.17758983373641968
0.045636661350727081 0.36082917451858521 0.18531875312328339
0.18898187577724457 0.3682672381401062 0.19032014906406403
0.37640714645385742 0.37371575832366943 0.20189796388149261
0.56563180685043335 0.38171482086181641 0.21464648842811584
0.73994451761245728 0.39910760521888733 0.23578067123889923
0.89356237649917603 0.4226338267326355 0.26244944334030151
0.0044576455838978291 0.54850476980209351 0.18564869463443756
0.077548772096633911 0.56890231370925903 0.2043871134519577
0.22563816606998444 0.58553284406661987 0.21568438410758972
0.41782021522521973 0.59693580865859985 0.22850506007671356
0.61012864112854004 0.61121922731399536 0.25046578049659729
0.78108805418014526 0.6284908652305603 0.27342841029167175
0.93028074502944946 0.64323258399963379 0.29600954055786133
0.012196918949484825 0.77144742012023926 0.21628372371196747
0.11338487267494202 0.79511064291000366 0.24107199907302856
0.27063822746276855 0.80912107229232788 0.25696176290512085
0.46097400784492493 0.81462889909744263 0.26844614744186401
0.64715760946273804 0.82309705018997192 0.2858462929725647
0.8098146915435791 0.83178341388702393 0.30255156755447388
0.95143389701843262 0.83731359243392944 0.31780293583869934
0.034129243344068527 0.97971159219741821 0.25956431031227112
0.15326571464538574 0.9892040491104126 0.27989226579666138
0.3138275146484375 0.99172794818878174 0.29316112399101257
0.49476498365402222 0.99125516414642334 0.30064797401428223
0.67175489664077759 0.98940944671630859 0.31012541055679321
0.82565152645111084 0.99027198553085327 0.31935226917266846
0.96359533071517944 0.99203455448150635 0.32931026816368103
0.00084158207755535841 0 0.37220361828804016
0.037503395229578018 0 0.37220296263694763
0.15740513801574707 0 0.36479118466377258
0.3208719789981842 0 0.35477182269096375
0.48438248038291931 0 0.34602454304695129
0.638558030128479 0 0.34328332543373108
0.78836679458618164 0.009665156714618206 0.34898266196250916
0 0.055332273244857788 0.36268359422683716
0.026017088443040848 0.048808198422193527 0.36448836326599121
0.15218579769134521 0.047584637999534607 0.35879525542259216
0.3228459358215332 0.03208649531006813 0.35264706611633301
0.49579671025276184 0.026766788214445114 0.34991198778152466
0.65762007236480713 0.046424057334661484 0.35387676954269409
0.8103453516960144 0.077087685465812683 0.36253643035888672
0 0.1879139244556427 0.34827303886413574
0.026339452713727951 0.18747450411319733 0.35408911108970642
0.16122831404209137 0.18716113269329071 0.35692140460014343
0.33876010775566101 0.18066000938415527 0.36345264315605164
0.52302783727645874 0.18334530293941498 0.37044042348861694
0.69376128911972046 0.20063215494155884 0.38287436962127686
0.84850472211837769 0.22586102783679962 0.39728286862373352
0 0.34773638844490051 0.34259989857673645
0.029765618965029716 0.35793682932853699 0.35820871591567993
0.18019500374794006 0.3702864944934845 0.3712298572063446
0.37190300226211548 0.37897315621376038 0.38672807812690735
0.56377053260803223 0.39004820585250854 0.4031282365322113
0.73875290155410767 0.41263583302497864 0.42438387870788574
0.8927314281463623 0.43543180823326111 0.44432824850082397
0.0056630303151905537 0.54579907655715942 0.35802704095840454
0.072217129170894623 0.56917476654052734 0.38255536556243896
0.22450125217437744 0.59014737606048584 0.40220403671264648
0.41787499189376831 0.6038627028465271 0.41920477151870728
0.6089286208152771 0.6184508204460144 0.43915054202079773
0.77954161167144775 0.6409447193145752 0.46327972412109375
0.92810982465744019 0.65670287609100342 0.48433449864387512
0.0088682882487773895 0.77311986684799194 0.40731558203697205
0.10982239991426468 0.79374760389328003 0.42852067947387695
0.27336665987968445 0.81171709299087524 0.44429400563240051
0.46196821331977844 0.82036036252975464 0.45615467429161072
0.64322763681411743 0.82731890678405762 0.47031262516975403
0.80198848247528076 0.83671277761459351 0.48650076985359192
0.94180601835250854 0.84043866395950317 0.49953505396842957
0.027096796780824661 0.98114901781082153 0.45315364003181458
0.1499033123254776 0.98704797029495239 0.46984082460403442
0.31458687782287598 0.991463303565979 0.47850969433784485
0.49316057562828064 0.99166667461395264 0.48292258381843567
0.66249167919158936 0.98982268571853638 0.48870211839675903
0.81109607219696045 0.98860293626785278 0.49536845088005066
0.94545161724090576 0.98861813545227051 0.50071650743484497
0.0025530497077852488 0 0.53922861814498901
0.044319797307252884 0 0.53849440813064575
0.15368510782718658 0 0.53220552206039429
0.31142523884773254 0 0.52633059024810791
0.47706615924835205 0 0.52140456438064575
0.63086152076721191 0 0.51776933670043945
0.77871465682983398 0 0.51894855499267578
0.00030664182850159705 0.050138510763645172 0.53492206335067749
0.031214859336614609 0.049096770584583282 0.53563785552978516
0.14343582093715668 0.04826870933175087 0.53108066320419312
0.31154271960258484 0.039260338991880417 0.52721202373504639
0.48834499716758728 0.034100446850061417 0.52624714374542236
0.65071374177932739 0.040060020983219147 0.52969872951507568
0.80091887712478638 0.049272410571575165 0.53556174039840698
0 0.18664593994617462 0.5210074782371521
0.028362767770886421 0.18685027956962585 0.5291634202003479
0.15055587887763977 0.18571576476097107 0.53423917293548584
0.32993897795677185 0.18068026006221771 0.54040271043777466
0.5181879997253418 0.18564534187316895 0.54904860258102417
0.69077140092849731 0.20179536938667297 0.56072372198104858
0.84392833709716797 0.2181728184223175 0.57112061977386475
0 0.34900572896003723 0.51840662956237793
0.038203638046979904 0.36058565974235535 0.53498470783233643
0.1776251345872879 0.37162554264068604 0.55084550380706787
0.36836585402488708 0.38070785999298096 0.56732690334320068
0.56205898523330688 0.3968052864074707 0.58440607786178589
0.73725992441177368 0.42047843337059021 0.60282629728317261
0.8899652361869812 0.43780612945556641 0.61646419763565063
0.00087040918879210949 0.55189049243927002 0.53853499889373779
0.064722590148448944 0.57440239191055298 0.56105715036392212
0.22342768311500549 0.59554028511047363 0.58225828409194946
0.41988015174865723 0.61107110977172852 0.60092860460281372
0.60892939567565918 0.62762469053268433 0.61926239728927612
0.77696812152862549 0.64769178628921509 0.63941985368728638
0.92410308122634888 0.66036444902420044 0.65398269891738892
0.002140105003491044 0.77862221002578735 0.57973361015319824
0.093995146453380585 0.79919230937957764 0.60333788394927979
0.27269408106803894 0.82074791193008423 0.6214786171913147
0.46515083312988281 0.82877653837203979 0.63254022598266602
0.64140892028808594 0.83176934719085693 0.64338982105255127
0.79754805564880371 0.84005123376846313 0.65653979778289795
0.93685543537139893 0.84447932243347168 0.66420704126358032
0.024075586348772049 0.98184680938720703 0.61801999807357788
0.14232034981250763 0.98598301410675049 0.64037138223648071
0.31134289503097534 0.99210429191589355 0.64911043643951416
0.49091586470603943 0.99227529764175415 0.65097081661224365
0.65653663873672485 0.98890846967697144 0.65325343608856201
0.80483478307723999 0.9907415509223938 0.65735906362533569
0.94197332859039307 0.99162399768829346 0.66056501865386963
0.00010735006799222901 0 0.68588340282440186
0.045836489647626877 0 0.68740826845169067
0.15511886775493622 0 0.68470621109008789
0.30944344401359558 0.00035481172380968928 0.68330925703048706
0.4757247269153595 0.0018827999010682106 0.68115115165710449
0.62809121608734131 0 0.67394101619720459
0.77638930082321167 0 0.67390817403793335
0 0.050214745104312897 0.6834525465965271
0.027255892753601074 0.052698411047458649 0.68706202507019043
0.13994047045707703 0.053870242089033127 0.68475282192230225
0.30587193369865417 0.052711173892021179 0.68241971731185913
0.48331382870674133 0.04490743950009346 0.68021976947784424
0.64672744274139404 0.032982200384140015 0.68356519937515259
0.79798990488052368 0.030958438292145729 0.69143199920654297
0 0.18569605052471161 0.67564535140991211
0.019850471988320351 0.19028015434741974 0.68453168869018555
0.14328855276107788 0.18892449140548706 0.69033718109130859
0.32435354590415955 0.18552367389202118 0.69589662551879883
0.51364129781723022 0.18769469857215881 0.70299297571182251
0.68773144483566284 0.19937901198863983 0.71457135677337646
0.84200143814086914 0.21172070503234863 0.72610688209533691
0 0.35088911652565002 0.67682212591171265
0.035755544900894165 0.36451184749603271 0.69154244661331177
0.17532238364219666 0.37534046173095703 0.70689278841018677
0.36693453788757324 0.38266927003860474 0.72349226474761963
0.55943149328231812 0.39763176441192627 0.73928391933441162
0.73379522562026978 0.41936522722244263 0.75388723611831665
0.88605993986129761 0.43321380019187927 0.76451641321182251
0.0006776697700843215 0.55863851308822632 0.69734758138656616
0.053304154425859451 0.58201634883880615 0.71454250812530518
0.21747268736362457 0.59963059425354004 0.73446774482727051
0.41856268048286438 0.61609214544296265 0.75315934419631958
0.60882014036178589 0.63422328233718872 0.77034455537796021
0.7737763524055481 0.64731085300445557 0.78560769557952881
0.91781771183013916 0.65302550792694092 0.79313856363296509
0.00024659399059601128 0.79125314950942993 0.72935527563095093
0.075735665857791901 0.81018352508544922 0.74879658222198486
0.25793883204460144 0.82362544536590576 0.76599001884460449
0.45928001403808594 0.83133989572525024 0.77733922004699707
0.64068710803985596 0.83769738674163818 0.78749239444732666
0.79606467485427856 0.84314560890197754 0.79850375652313232
0.9321931004524231 0.8434332013130188 0.80230724811553955
0.024615179747343063 0.9881666898727417 0.76031816005706787
0.13212795555591583 0.99156302213668823 0.77914023399353027
0.30025380849838257 0.99327415227890015 0.78878521919250488
0.48426026105880737 0.99183011054992676 0.79099762439727783
0.65421324968338013 0.98872435092926025 0.79254955053329468
0.80428999662399292 0.99225234985351562 0.79678142070770264
0.94111806154251099 0.99396032094955444 0.80007314682006836
0 0 0.81935667991638184
0.04735444113612175 0 0.82193267345428467
0.16051961481571198 0 0.82108074426651001
0.31066146492958069 0 0.81802946329116821
0.47255262732505798 0 0.81334227323532104
0.63048022985458374 0 0.81300777196884155
0.78477358818054199 0 0.81980365514755249
0 0.050560325384140015 0.81681293249130249
0.025857558473944664 0.051457919180393219 0.82064831256866455
0.1442166268825531 0.056391231715679169 0.82063806056976318
0.30724665522575378 0.051504623144865036 0.81660610437393188
0.48089906573295593 0.032986212521791458 0.81018209457397461
0.64821475744247437 0.032278861850500107 0.81944674253463745
0.80711156129837036 0.050052162259817123 0.8366888165473938
0 0.18953019380569458 0.81264966726303101
0.018996862694621086 0.19335521757602692 0.82051223516464233
0.14779698848724365 0.19632604718208313 0.82631254196166992
0.32685533165931702 0.19227972626686096 0.82995748519897461
0.51086151599884033 0.18772388994693756 0.8346409797668457
0.68470710515975952 0.19922569394111633 0.84851080179214478
0.8453790545463562 0.22248998284339905 0.86620110273361206
1.4002182979311328e-05 0.36026450991630554 0.81368416547775269
0.036489926278591156 0.37487390637397766 0.82677054405212402
0.18072739243507385 0.38721615076065063 0.8405613899230957
0.37033259868621826 0.39315411448478699 0.85431736707687378
0.55655491352081299 0.40230649709701538 0.86800235509872437
0.72834306955337524 0.41791346669197083 0.88242822885513306
0.88272404670715332 0.43312528729438782 0.89525479078292847
9.8015283583663404e-05 0.57219767570495605 0.8305249810218811
0.047440458089113235 0.592948317527771 0.84483367204666138
0.21540553867816925 0.60721170902252197 0.86243897676467896
0.41543138027191162 0.62011003494262695 0.87890833616256714
0.60348623991012573 0.63562238216400146 0.89403784275054932
0.76836729049682617 0.64607459306716919 0.90729552507400513
0.91369128227233887 0.64983618259429932 0.91630679368972778
0.0063100326806306839 0.80347782373428345 0.86084431409835815
0.080609612166881561 0.81461805105209351 0.87429511547088623
0.24956431984901428 0.82073384523391724 0.88792812824249268
0.44953778386116028 0.82671439647674561 0.89817696809768677
0.63532698154449463 0.83676332235336304 0.90710073709487915
0.79481798410415649 0.84797561168670654 0.91684263944625854
0.93144744634628296 0.84573352336883545 0.92411434650421143
0.040534418076276779 0.99225181341171265 0.88893002271652222
0.13923719525337219 0.99325978755950928 0.90178215503692627
0.29588037729263306 0.99301016330718994 0.90939515829086304
0.47810602188110352 0.99040460586547852 0.9112168550491333
0.65273678302764893 0.98894304037094116 0.91153407096862793
0.80606335401535034 0.99458789825439453 0.91901534795761108
0.94432258605957031 0.99640971422195435 0.92632126808166504
