assets/lut/jtsemple magentacoffee.cube
# Created by: G'MIC (https://gmic.eu)
TITLE "magentacoffee"
# LUT size
LUT_3D_SIZE 13
# Data domain
DOMAIN_MIN 0.0 0.0 0.0
DOMAIN_MAX 1.0 1.0 1.0
# LUT data points
0 0.0066661462187767029 0.0016374476253986359
0.012519686482846737 0.0064584468491375446 0.0038706311024725437
0.066706806421279907 0.0028833576943725348 0.0010192721383646131
0.14442023634910583 0.00084789498941972852 5.1341336074983701e-05
0.22738923132419586 0.00083420699229463935 0
0.31343400478363037 0.0011547611793503165 0
0.3999326229095459 0.0018245322862640023 0
0.48446738719940186 0.0024702632799744606 0
0.56464904546737671 0.0028134214226156473 0
0.63896089792251587 0.0024452358484268188 0
0.70856201648712158 0.0022671569604426622 0
0.77477806806564331 0.0027440239209681749 0
0.83916306495666504 0.0053089214488863945 0
0 0.042003016918897629 0.00038995180511847138
0.0086155906319618225 0.040591713041067123 9.7237381851300597e-05
0.058604281395673752 0.035427872091531754 3.5903033790418704e-07
0.13468435406684875 0.030988685786724091 0
0.21876052021980286 0.027187421917915344 3.2866235414985567e-05
0.30659478902816772 0.024737624451518059 0
0.39467814564704895 0.02509104460477829 0
0.48058202862739563 0.027364738285541534 0
0.562022864818573 0.028015945106744766 0
0.63797467947006226 0.027524268254637718 0
0.70844966173171997 0.027146462351083755 0
0.7752760648727417 0.028807874768972397 0
0.84008699655532837 0.034342013299465179 0
0 0.098049178719520569 0
0.0049462411552667618 0.094477348029613495 0
0.046911861747503281 0.091457903385162354 0
0.1189674511551857 0.089160174131393433 0
0.20503683388233185 0.082700945436954498 0
0.29613813757896423 0.072872385382652283 0
0.3866828978061676 0.068319700658321381 0
0.47448837757110596 0.067445851862430573 0
0.55810821056365967 0.06728527694940567 0
0.63608765602111816 0.066655851900577545 0
0.70845013856887817 0.066107116639614105 0
0.7763359546661377 0.067803539335727692 0
0.84154808521270752 0.074253842234611511 0
0 0.1575542539358139 0
0.0016951916040852666 0.15342558920383453 8.5449217294808477e-05
0.035781577229499817 0.1505630761384964 0.00051588169299066067
0.10480037331581116 0.14940759539604187 0.00023642147425562143
0.19155041873455048 0.14244335889816284 6.4625460254319478e-06
0.28449246287345886 0.13185785710811615 0
0.37712430953979492 0.12514719367027283 0
0.46744731068611145 0.12243273854255676 0
0.55385714769363403 0.12109250575304031 0
0.63450521230697632 0.12022650986909866 0
0.70884537696838379 0.11967167258262634 0
0.77821338176727295 0.12094277888536453 0
0.84433251619338989 0.12772154808044434 0
0 0.22037923336029053 0
4.2126226617256179e-05 0.21575470268726349 0.00079580571036785841
0.025658655911684036 0.21414276957511902 0.0022324805613607168
0.093321435153484344 0.21268658339977264 0.001728117698803544
0.17899967730045319 0.20757183432579041 0.00030732995946891606
0.27238020300865173 0.20023255050182343 0
0.36715236306190491 0.19436685740947723 0
0.46032160520553589 0.19125606119632721 0
0.54962641000747681 0.19028683006763458 0
0.63331347703933716 0.18979500234127045 0
0.71016234159469604 0.18972654640674591 0
0.78113925457000732 0.19130043685436249 0
0.84816384315490723 0.19769202172756195 0
0 0.29038426280021667 0
0 0.28715366125106812 0.00022180595260579139
0.023155137896537781 0.28595256805419922 0.0011249915696680546
0.087341144680976868 0.28543397784233093 0.00066417618654668331
0.16963373124599457 0.28311225771903992 2.4593577109044418e-05
0.26213929057121277 0.27861714363098145 0
0.35836884379386902 0.27469435334205627 0
0.45424759387969971 0.27288445830345154 0
0.54652243852615356 0.2727418839931488 0
0.63283425569534302 0.27404999732971191 0
0.71199125051498413 0.27594304084777832 0
0.78464055061340332 0.27947297692298889 0
0.85253417491912842 0.28727996349334717 0
0 0.36949560046195984 0
0.00046651504817418754 0.36842364072799683 0
0.027202770113945007 0.36893555521965027 0
0.086346723139286041 0.36935156583786011 0
0.16457679867744446 0.36872044205665588 0
0.25562068819999695 0.36714482307434082 0
0.35300138592720032 0.36471894383430481 0
0.45115536451339722 0.36449113488197327 0
0.54581606388092041 0.36681604385375977 0
0.6341555118560791 0.37001383304595947 0
0.71478933095932007 0.37472611665725708 0
0.78856348991394043 0.38095927238464355 0
0.85706901550292969 0.39017575979232788 0
0 0.45703577995300293 0
0.0017781725618988276 0.45820683240890503 0
0.031273815780878067 0.4608193039894104 0
0.086688220500946045 0.46330633759498596 0
0.16232113540172577 0.46417409181594849 0
0.25333419442176819 0.46427696943283081 0
0.35200023651123047 0.46409785747528076 0
0.45232543349266052 0.46526232361793518 0
0.54878634214401245 0.46862307190895081 0
0.63824683427810669 0.47408047318458557 0
0.719268798828125 0.48116335272789001 0
0.79308086633682251 0.48975920677185059 0
0.86177736520767212 0.5000196099281311 0
0 0.55214142799377441 0
0.0035369424149394035 0.5555877685546875 0
0.034483801573514938 0.56036829948425293 0
0.088474780321121216 0.56468445062637329 0
0.16277295351028442 0.56737148761749268 0
0.2547852098941803 0.56866991519927979 0
0.35603177547454834 0.56957918405532837 0
0.4588283896446228 0.57161599397659302 0
0.55682718753814697 0.57586765289306641 0
0.64640110731124878 0.58244520425796509 0
0.72659409046173096 0.59121936559677124 0
0.79927301406860352 0.60179954767227173 0
0.86719483137130737 0.6130412220954895 0
0 0.65248602628707886 0
0.005994460079818964 0.6580890417098999 0
0.037568364292383194 0.66495925188064575 0
0.089967511594295502 0.67117553949356079 0
0.16541311144828796 0.67523384094238281 0
0.25994586944580078 0.67725008726119995 0
0.36501505970954895 0.67844253778457642 0
0.47094011306762695 0.68043345212936401 0
0.57019048929214478 0.68447011709213257 0
0.65930646657943726 0.69148546457290649 0
0.73763066530227661 0.70162886381149292 0
0.80820482969284058 0.71371358633041382 0
0.87481909990310669 0.72589367628097534 0
3.6980123695684597e-05 0.75624006986618042 0
0.01078395452350378 0.76352840662002563 8.6167283370741643e-06
0.043070923537015915 0.77181321382522583 0.00056524836691096425
0.094612836837768555 0.77976447343826294 0.002225344767794013
0.1711389422416687 0.78439968824386597 0.002576431492343545
0.27002054452896118 0.78616142272949219 0.0010657067177817225
0.37920096516609192 0.78675830364227295 0.00013697007670998573
0.48839667439460754 0.78790342807769775 2.5132123937510187e-06
0.58846038579940796 0.7910841703414917 0
0.67671048641204834 0.79806280136108398 0
0.75292402505874634 0.8089866042137146 0
0.82093179225921631 0.82238072156906128 9.6938192655215971e-06
0.88592195510864258 0.83539998531341553 0.00032908123102970421
0.0012882157461717725 0.86160314083099365 0.00095554423751309514
0.02046661451458931 0.86950290203094482 0.003337860107421875
0.055295292288064957 0.87841594219207764 0.0091383242979645729
0.10747849941253662 0.88660538196563721 0.015976026654243469
0.18538369238376617 0.89139878749847412 0.017206244170665741
0.28653016686439514 0.89247733354568481 0.012149048037827015
0.39780262112617493 0.89204674959182739 0.0064974767155945301
0.50854557752609253 0.89177650213241577 0.0033755134791135788
0.61005067825317383 0.89378613233566284 0.0023416406475007534
0.69681888818740845 0.90056616067886353 0.0022538576740771532
0.77101302146911621 0.91206473112106323 0.0023232554085552692
0.83753472566604614 0.92580372095108032 0.0031078264582902193
0.90123367309570312 0.9390372633934021 0.0057964101433753967
0.0077980039641261101 0.96498173475265503 0.014643276110291481
0.036270424723625183 0.97113525867462158 0.021859008818864822
0.07634289562702179 0.97731971740722656 0.031302209943532944
0.13305497169494629 0.98163169622421265 0.039071641862392426
0.21182854473590851 0.98425686359405518 0.040526863187551498
0.31050971150398254 0.98482620716094971 0.035878453403711319
0.41938608884811401 0.98421669006347656 0.028371982276439667
0.52886533737182617 0.9835396409034729 0.022330565378069878
0.63008618354797363 0.98426491022109985 0.018755953758955002
0.71582067012786865 0.98796987533569336 0.017090935260057449
0.78885030746459961 0.99282199144363403 0.016915548592805862
0.85508537292480469 0.99705129861831665 0.0190010666847229
0.91918939352035522 0.99939072132110596 0.024413658306002617
0 0.0053999507799744606 0.029195358976721764
0.012006917037069798 0.0070638172328472137 0.028722098097205162
0.066449150443077087 0.0023993100039660931 0.024631708860397339
0.14574705064296722 0.00073062675073742867 0.017148649320006371
0.22988146543502808 0.0025675606448203325 0.0062424903735518456
0.31745922565460205 0.0028836417477577925 0.0023063360713422298
0.40673354268074036 0.0024752449244260788 0.00089996936731040478
0.49340659379959106 0.0043873954564332962 1.382266782457009e-05
0.57392221689224243 0.004536856897175312 0
0.64708513021469116 0.0033882439602166414 0
0.71458566188812256 0.0022671569604426622 0
0.7784685492515564 0.0025662740226835012 0
0.84090358018875122 0.005167732946574688 0
0 0.040381129831075668 0.02419281005859375
0.0060544931329786777 0.041736677289009094 0.017051456496119499
0.056994404643774033 0.034261859953403473 0.015045330859720707
0.13629330694675446 0.028250735253095627 0.013335268944501877
0.22162313759326935 0.028179692104458809 0.0073112784884870052
0.31042447686195374 0.025878665968775749 0.0043697133660316467
0.40069746971130371 0.024923631921410561 0.001948188291862607
0.48866510391235352 0.026616489514708519 0.00015287211863324046
0.57098573446273804 0.027661476284265518 0
0.64579170942306519 0.026296593248844147 0
0.71446937322616577 0.025230571627616882 0
0.77909302711486816 0.026153160259127617 0
0.84137171506881714 0.031425535678863525 0
0 0.097083747386932373 0.016009341925382614
0.0041516320779919624 0.094527855515480042 0.01318181399255991
0.046576093882322311 0.089692480862140656 0.012442720122635365
0.12121647596359253 0.085756309330463409 0.0084000080823898315
0.20822224020957947 0.081276640295982361 0.0034795873798429966
0.29985871911048889 0.072133220732212067 0.0038970797322690487
0.39205390214920044 0.066159144043922424 0.0022819070145487785
0.48176854848861694 0.06464308500289917 0.00021063112944830209
0.56619542837142944 0.064100585877895355 0
0.64370661973953247 0.062903307378292084 0
0.7144167423248291 0.061703070998191833 0
0.77994745969772339 0.062949173152446747 0
0.84287303686141968 0.069342702627182007 0
0 0.15575061738491058 0.015742462128400803
0.0022783617023378611 0.15274907648563385 0.018115922808647156
0.03841337189078331 0.14996810257434845 0.018506862223148346
0.10810562968254089 0.1482478529214859 0.012782900594174862
0.1948191225528717 0.14264842867851257 0.0066866558045148849
0.28802585601806641 0.13199837505817413 0.0056240158155560493
0.38223510980606079 0.12346864491701126 0.0025369981303811073
0.47435972094535828 0.11935656517744064 0.00021063112944830209
0.56170868873596191 0.1174657791852951 0
0.64211076498031616 0.11613596230745316 0
0.71545660495758057 0.11518904566764832 0
0.78244113922119141 0.11650247126817703 0
0.84641748666763306 0.12330925464630127 0.0001026826721499674
0 0.21739606559276581 0.016053816303610802
0.00077143649104982615 0.21471554040908813 0.022244846448302269
0.031119717285037041 0.21411126852035522 0.024873336777091026
0.097595617175102234 0.21284098923206329 0.020834065973758698
0.18257468938827515 0.20809477567672729 0.014159213751554489
0.2762790322303772 0.20034903287887573 0.0075944340787827969
0.37244769930839539 0.19303737580776215 0.0023228065110743046
0.46722269058227539 0.18891642987728119 7.3062670708168298e-05
0.55779337882995605 0.18715852499008179 0
0.6415894627571106 0.1871313601732254 0
0.71744728088378906 0.18735966086387634 0
0.7865675687789917 0.18966454267501831 0
0.85135787725448608 0.19701984524726868 0.00016472012794110924
0 0.28605988621711731 0.011093109846115112
0.00080542470095679164 0.28426024317741394 0.018154937773942947
0.029316546395421028 0.28443160653114319 0.022348411381244659
0.091396838426589966 0.28517454862594604 0.020134706050157547
0.17322759330272675 0.28310799598693848 0.013161349110305309
0.26623949408531189 0.27850162982940674 0.0055451337248086929
0.36383074522018433 0.27367714047431946 0.0010780933080241084
0.46139195561408997 0.2714124321937561 0
0.55491447448730469 0.2715337872505188 0
0.64163833856582642 0.27337944507598877 0
0.72027206420898438 0.2762812077999115 0
0.7912367582321167 0.2809566855430603 0
0.85700732469558716 0.28930011391639709 6.8455119617283344e-05
0 0.36376425623893738 0.0044027739204466343
0.0022106096148490906 0.36470857262611389 0.0087495539337396622
0.031903285533189774 0.36725512146949768 0.01295445766299963
0.089446425437927246 0.36898514628410339 0.01286920253187418
0.16762769222259521 0.36868777871131897 0.0079919109120965004
0.25967797636985779 0.36712187528610229 0.002629897091537714
0.35866644978523254 0.36406359076499939 0.00016323912132065743
0.45832473039627075 0.36375924944877625 0
0.55431866645812988 0.36715978384017944 0
0.64306157827377319 0.3714911937713623 2.2215001081349328e-05
0.72352057695388794 0.37740656733512878 0.00048445159336552024
0.79568946361541748 0.38452747464179993 0.00097391463350504637
0.86204499006271362 0.39351621270179749 0.0018752752803266048
0 0.45090559124946594 0.00095175945898517966
0.0044550877064466476 0.45430722832679749 0.0031233394984155893
0.034828171133995056 0.45871707797050476 0.0063535952940583229
0.089349575340747833 0.46307498216629028 0.0076909530907869339
0.16570866107940674 0.46448951959609985 0.0051885270513594151
0.25733509659767151 0.46478429436683655 0.0015805263537913561
0.35791069269180298 0.46465668082237244 2.4683335141162388e-05
0.45980468392372131 0.46643894910812378 0
0.55732351541519165 0.47085091471672058 3.2911113976297202e-06
0.64702516794204712 0.47731402516365051 0.00054237514268606901
0.72754210233688354 0.48531070351600647 0.0018630083650350571
0.79974448680877686 0.49447810649871826 0.0036113215610384941
0.86626523733139038 0.5043143630027771 0.0067142113111913204
0 0.54633498191833496 0.00014349244884215295
0.0068596783094108105 0.55183297395706177 0.0016364003531634808
0.037500075995922089 0.55858665704727173 0.0051254271529614925
0.090449251234531403 0.56454598903656006 0.0077720494009554386
0.16630983352661133 0.56861484050750732 0.0067000892013311386
0.25966495275497437 0.57070684432983398 0.0033082251902669668
0.3627992570400238 0.57222610712051392 0.00086530798580497503
0.46697840094566345 0.57518166303634644 0.00038374357973225415
0.56545621156692505 0.58005267381668091 0.00076911778887733817
0.65466129779815674 0.58727097511291504 0.0020637661218643188
0.73394483327865601 0.59678769111633301 0.0041637197136878967
0.80487704277038574 0.60746568441390991 0.0069433175958693027
0.87082797288894653 0.61835610866546631 0.011923696845769882
0.00013369391672313213 0.64764750003814697 0.00074274401413276792
0.010473648086190224 0.6549072265625 0.0035433899611234665
0.040922127664089203 0.66349649429321289 0.0094876904040575027
0.093669041991233826 0.67157274484634399 0.014937247149646282
0.170283243060112 0.67719882726669312 0.015242153778672218
0.26674258708953857 0.68065923452377319 0.010759166441857815
0.37324285507202148 0.68330579996109009 0.0060047674924135208
0.48001310229301453 0.68625748157501221 0.004072106909006834
0.57904422283172607 0.69079208374023438 0.004405332263559103
0.66701215505599976 0.69779330492019653 0.006406447384506464
0.74402821063995361 0.70804738998413086 0.0090270098298788071
0.81244474649429321 0.72039711475372314 0.012196619063615799
0.8769075870513916 0.73243075609207153 0.018194893375039101
0.0011643802281469107 0.7522728443145752 0.0067860470153391361
0.016155572608113289 0.76117557287216187 0.013537582941353321
0.047758303582668304 0.77114188671112061 0.024582164362072945
0.10081517696380615 0.78012734651565552 0.033342938870191574
0.17901989817619324 0.78657054901123047 0.034931004047393799
0.27843388915061951 0.79056662321090698 0.02923176996409893
0.38850942254066467 0.79312783479690552 0.020940190181136131
0.49783855676651001 0.79551774263381958 0.015770481899380684
0.59704744815826416 0.79886364936828613 0.015337402001023293
0.68361133337020874 0.80536067485809326 0.017492346465587616
0.75794762372970581 0.81605762243270874 0.020322507247328758
0.82397365570068359 0.82961702346801758 0.023570401594042778
0.88649332523345947 0.84280693531036377 0.030018676072359085
0.0040761460550129414 0.85855084657669067 0.029063161462545395
0.025551291182637215 0.86783474683761597 0.038635030388832092
0.060706883668899536 0.87746244668960571 0.050623290240764618
0.11587425321340561 0.88697701692581177 0.059369433671236038
0.19520188868045807 0.89353889226913452 0.061193622648715973
0.29582759737968445 0.89694058895111084 0.056085400283336639
0.40681219100952148 0.89872771501541138 0.04767170175909996
0.51683765649795532 0.89997386932373047 0.040899641811847687
0.61638212203979492 0.90206193923950195 0.039043605327606201
0.7020561695098877 0.90820491313934326 0.040328469127416611
0.7749292254447937 0.91883039474487305 0.042517509311437607
0.83978956937789917 0.93214768171310425 0.045485924929380417
0.90190160274505615 0.94508594274520874 0.052101988345384598
0.011459126137197018 0.96319866180419922 0.063417933881282806
0.040200699120759964 0.97036051750183105 0.071474902331829071
0.081003420054912567 0.97729557752609253 0.081197880208492279
0.13972596824169159 0.98223072290420532 0.088497012853622437
0.21970805525779724 0.98556381464004517 0.090328007936477661
0.31835901737213135 0.98726153373718262 0.086311757564544678
0.42669126391410828 0.98774808645248413 0.079547405242919922
0.53477770090103149 0.98776423931121826 0.073678873479366302
0.63371461629867554 0.98870575428009033 0.070913203060626984
0.7187381386756897 0.99106186628341675 0.070337571203708649
0.79178154468536377 0.99502849578857422 0.071479380130767822
0.8574368953704834 0.99815744161605835 0.07441992312669754
0.92005223035812378 0.99993950128555298 0.080717511475086212
0 0.0031085892114788294 0.092529699206352234
0.010814950801432133 0.005763618741184473 0.088042162358760834
0.064030982553958893 0.0024833229836076498 0.083415284752845764
0.14334225654602051 0.00014738195750396699 0.073849394917488098
0.22888626158237457 0.00062133191386237741 0.056513123214244843
0.31857007741928101 0.00052980909822508693 0.045093055814504623
0.4105498194694519 0.0011588152265176177 0.035959355533123016
0.50003165006637573 0.0044150855392217636 0.024412581697106361
0.58110231161117554 0.0052891001105308533 0.014809582382440567
0.6528630256652832 0.0032219530548900366 0.0086780022829771042
0.71846884489059448 0.0022671569604426622 0.0050905114039778709
0.78063148260116577 0.002667789813131094 0.0033893210347741842
0.84092307090759277 0.0060327565297484398 0.0045981761068105698
0 0.036176420748233795 0.086722880601882935
0.008195510134100914 0.037737783044576645 0.079494595527648926
0.057225663214921951 0.031976062804460526 0.075059555470943451
0.1347055584192276 0.024719538167119026 0.068077415227890015
0.22039802372455597 0.022075952962040901 0.055062897503376007
0.31057888269424438 0.017885379493236542 0.046826545149087906
0.40336832404136658 0.019155554473400116 0.037711184471845627
0.49371740221977234 0.023764442652463913 0.025692613795399666
0.57682722806930542 0.025040032342076302 0.01459293719381094
0.65096479654312134 0.023336179554462433 0.0082824407145380974
0.71804505586624146 0.021803567185997963 0.0051091662608087063
0.78076767921447754 0.023418711498379707 0.0045964261516928673
0.84122180938720703 0.029445258900523186 0.0073111141100525856
0 0.091285973787307739 0.076863966882228851
0.0057189790531992912 0.089853696525096893 0.072049714624881744
0.048976000398397446 0.085771612823009491 0.068003349006175995
0.12259512394666672 0.080400653183460236 0.059776514768600464
0.20883527398109436 0.074548117816448212 0.048686683177947998
0.30048888921737671 0.065978184342384338 0.043771378695964813
0.39424505829811096 0.061006613075733185 0.036876246333122253
0.48585349321365356 0.060278963297605515 0.025493307039141655
0.57141745090484619 0.059399593621492386 0.014222702011466026
0.64870941638946533 0.057619400322437286 0.0080498037859797478
0.71795511245727539 0.056597691029310226 0.0059430589899420738
0.78149318695068359 0.057805497199296951 0.0068383910693228245
0.84280920028686523 0.06462414562702179 0.01166458148509264
0 0.15128630399703979 0.071995742619037628
0.0037811279762536287 0.14973399043083191 0.071021959185600281
0.042668901383876801 0.14757026731967926 0.068857423961162567
0.1124570369720459 0.14455389976501465 0.0614151731133461
0.19745926558971405 0.13864317536354065 0.050699584186077118
0.28969922661781311 0.1289188414812088 0.044272374361753464
0.38490855693817139 0.12037986516952515 0.036424644291400909
0.47830140590667725 0.11541323363780975 0.024281267076730728
0.56691187620162964 0.11280328780412674 0.013014715164899826
0.64739507436752319 0.1110079288482666 0.0075434218160808086
0.71954041719436646 0.11007446795701981 0.0071657067164778709
0.78469127416610718 0.11154866218566895 0.0094125634059309959
0.84656983613967896 0.11873683333396912 0.016344137489795685
0 0.21403798460960388 0.068183764815330505
0.0029822555370628834 0.21370945870876312 0.070204943418502808
0.038147557526826859 0.21330922842025757 0.070746853947639465
0.1034526601433754 0.21183872222900391 0.065728507936000824
0.18643650412559509 0.20708546042442322 0.056512299925088882
0.27919873595237732 0.19930161535739899 0.046953313052654266
0.37586832046508789 0.19159890711307526 0.036097999662160873
0.47188958525657654 0.18637353181838989 0.023490846157073975
0.56363695859909058 0.18406504392623901 0.013443920761346817
0.64771407842636108 0.18360321223735809 0.0091850133612751961
0.72268104553222656 0.18440110981464386 0.010394541546702385
0.79018497467041016 0.18755316734313965 0.012963163666427135
0.85313612222671509 0.19578176736831665 0.018698135390877724
0 0.28254878520965576 0.059525076299905777
0.0041350419633090496 0.28365975618362427 0.064024768769741058
0.037041891366243362 0.28467333316802979 0.066681161522865295
0.09719327837228775 0.28581029176712036 0.064018324017524719
0.17749735713005066 0.2834022045135498 0.05607440322637558
0.2700139582157135 0.27865174412727356 0.045475304126739502
0.36828154325485229 0.27343600988388062 0.033517081290483475
0.46679174900054932 0.2704811692237854 0.023237893357872963
0.56133913993835449 0.27037468552589417 0.01730072870850563
0.64855217933654785 0.27224007248878479 0.01647472009062767
0.72674667835235596 0.27620819211006165 0.019645676016807556
0.79655039310455322 0.281963050365448 0.020582132041454315
0.86040961742401123 0.29085883498191833 0.021959612146019936
1.077091019396903e-05 0.35933387279510498 0.046832963824272156
0.0067497552372515202 0.36265188455581665 0.052957393229007721
0.037856113165616989 0.36680075526237488 0.05787932500243187
0.093913644552230835 0.36932498216629028 0.057796090841293335
0.17164239287376404 0.36989542841911316 0.051617041230201721
0.26412412524223328 0.3676351010799408 0.040865492075681686
0.36379298567771912 0.36586707830429077 0.029660213738679886
0.4646470844745636 0.36466822028160095 0.023027801886200905
0.56130111217498779 0.36767828464508057 0.02262948639690876
0.65068429708480835 0.37251412868499756 0.026674218475818634
0.73090797662734985 0.37950965762138367 0.032829046249389648
0.80193120241165161 0.38739985227584839 0.034669749438762665
0.86640530824661255 0.39644443988800049 0.036249931901693344
8.2576974818948656e-05 0.44617018103599548 0.035623215138912201
0.0086277378723025322 0.45163583755493164 0.042790476232767105
0.038403872400522232 0.45790666341781616 0.050011429935693741
0.092675350606441498 0.46348193287849426 0.053004920482635498
0.16921539604663849 0.46631389856338501 0.048908218741416931
0.26228299736976624 0.46679645776748657 0.039562705904245377
0.36391040682792664 0.46664869785308838 0.029732812196016312
0.46672040224075317 0.46868988871574402 0.026340484619140625
