assets/lut/jtsemple minimalistcaffeination.cube
# Created by: G'MIC (https://gmic.eu)
TITLE "minimalistcaffeination"
# LUT size
LUT_3D_SIZE 5
# Data domain
DOMAIN_MIN 0.0 0.0 0.0
DOMAIN_MAX 1.0 1.0 1.0
# LUT data points
0 0 0
0.099585451185703278 0 0
0.34226757287979126 0 0
0.58067142963409424 0 0
0.80387461185455322 0 0
0 0.12719929218292236 0.0012115179561078548
0.10004383325576782 0.11906471848487854 0
0.34503120183944702 0.10522030293941498 0
0.60186028480529785 0.08799947053194046 0
0.83056753873825073 0.10226177424192429 7.0010914896556642e-06
0.0016833585686981678 0.34304565191268921 0.0075574237853288651
0.10596078634262085 0.35301461815834045 0.0034484562929719687
0.36938661336898804 0.3596002459526062 0
0.64742165803909302 0.37214270234107971 0.0014540429692715406
0.88889455795288086 0.40666383504867554 0.00078313489211723208
0.0067804525606334209 0.63925790786743164 0
0.14977796375751495 0.66108661890029907 0.00032276826095767319
0.42497524619102478 0.68059492111206055 0.00021505917538888752
0.70985066890716553 0.7104610800743103 0.0051662069745361805
0.94808226823806763 0.74628573656082153 0.0095333624631166458
0.055140551179647446 0.9581979513168335 0
0.23411694169044495 0.97325462102890015 0.0010399313177913427
0.49339497089385986 0.98101449012756348 0.0043448954820632935
0.76381981372833252 0.99001157283782959 0.0057243946939706802
0.98650282621383667 0.99756759405136108 0.02261861227452755
5.1341336074983701e-05 0.00021003274014219642 0.1180732399225235
0.096648178994655609 0 0.11912111937999725
0.3399004340171814 0 0.10617310553789139
0.57519078254699707 0 0.098827317357063293
0.80070549249649048 0.012496409937739372 0.091221049427986145
0 0.12374910712242126 0.098457038402557373
0.093556515872478485 0.11850916594266891 0.10120765864849091
0.33994635939598083 0.099874101579189301 0.090386122465133667
0.59881597757339478 0.093930728733539581 0.093303695321083069
0.83377301692962646 0.13337282836437225 0.11237118393182755
0.00014361213834490627 0.35314449667930603 0.11074838042259216
0.11240456998348236 0.36434847116470337 0.11247379332780838
0.37654921412467957 0.3700624406337738 0.11729031801223755
0.65607374906539917 0.38599231839179993 0.13768188655376434
0.89356988668441772 0.41622629761695862 0.17741534113883972
0.006891841534525156 0.65715014934539795 0.11351001262664795
0.16213175654411316 0.68894851207733154 0.14686457812786102
0.43808436393737793 0.70535016059875488 0.16005329787731171
0.71925109624862671 0.73042535781860352 0.19254365563392639
0.94606995582580566 0.74433177709579468 0.21874472498893738
0.038659892976284027 0.97674006223678589 0.16240966320037842
0.22980695962905884 0.99046242237091064 0.19742797315120697
0.49538746476173401 0.99035394191741943 0.2117806077003479
0.75763416290283203 0.99067491292953491 0.22571673989295959
0.97327524423599243 0.99448233842849731 0.24415148794651031
0.00084158207755535841 0 0.37220361828804016
0.08758506178855896 0 0.36914801597595215
0.3208719789981842 0 0.35477182269096375
0.56242769956588745 0 0.3437778651714325
0.78836679458618164 0.009665156714618206 0.34898266196250916
0 0.11805970221757889 0.35498499870300293
0.082524515688419342 0.11595780402421951 0.3573804497718811
0.32896122336387634 0.097234584391117096 0.35597515106201172
0.5924990177154541 0.10203258693218231 0.36131376028060913
0.82754993438720703 0.14104421436786652 0.37734726071357727
0 0.34773638844490051 0.34259989857673645
0.095690406858921051 0.36449682712554932 0.36451113224029541
0.37190300226211548 0.37897315621376038 0.38672807812690735
0.65398544073104858 0.40033009648323059 0.41309422254562378
0.8927314281463623 0.43543180823326111 0.44432824850082397
0.0074739344418048859 0.65827685594558716 0.3798460066318512
0.16291895508766174 0.69387763738632202 0.41430044174194336
0.44173362851142883 0.71570700407028198 0.43812164664268494
0.71413117647171021 0.738139808177948 0.46617376804351807
0.93770647048950195 0.75420403480529785 0.4948028028011322
0.027096796780824661 0.98114901781082153 0.45315364003181458
0.22853632271289825 0.98962414264678955 0.4751579761505127
0.49316057562828064 0.99166667461395264 0.48292258381843567
0.73962020874023438 0.9887959361076355 0.49208575487136841
0.94545161724090576 0.98861813545227051 0.50071650743484497
0.0011010562302544713 0 0.61501532793045044
0.092318050563335419 0 0.61296021938323975
0.30997064709663391 2.423454679956194e-05 0.60796999931335449
0.55399018526077271 0 0.60109728574752808
0.77577847242355347 0 0.59767568111419678
0 0.11499311029911041 0.60641831159591675
0.073857098817825317 0.11437270045280457 0.61200982332229614
0.31442689895629883 0.10557309538125992 0.6127932071685791
0.58519726991653442 0.1059274896979332 0.61880701780319214
0.81848794221878052 0.11438637226819992 0.63129788637161255
0 0.34968897700309753 0.60090416669845581
0.097010158002376556 0.36772766709327698 0.62437921762466431
0.36713346838951111 0.38101571798324585 0.64899939298629761
0.65149563550949097 0.40971782803535461 0.67397749423980713
0.88774764537811279 0.43556052446365356 0.69322824478149414
0 0.67054802179336548 0.63836902379989624
0.14744246006011963 0.70437794923782349 0.6703912615776062
0.44394516944885254 0.72801667451858521 0.69630604982376099
0.71159559488296509 0.7449231743812561 0.71903657913208008
0.92963242530822754 0.75479316711425781 0.73425960540771484
0.022852564230561256 0.9846642017364502 0.69140899181365967
0.2166268527507782 0.99124044179916382 0.71928036212921143
0.48802447319030762 0.9922415018081665 0.72453707456588745
0.73155587911605835 0.98962807655334473 0.72820329666137695
0.94146847724914551 0.99271625280380249 0.73282122611999512
0 0 0.81935667991638184
0.098139986395835876 0 0.82186192274093628
0.31066146492958069 0 0.81802946329116821
0.5531197190284729 0 0.81209814548492432
0.78477358818054199 0 0.81980365514755249
0 0.11642210930585861 0.81456387042999268
0.072475224733352661 0.1190221756696701 0.82178282737731934
0.31363466382026672 0.11281578242778778 0.82125997543334961
0.58016884326934814 0.098995119333267212 0.82355564832687378
0.82511967420578003 0.12894445657730103 0.85061025619506836
1.4002182979311328e-05 0.36026450991630554 0.81368416547775269
0.096738763153553009 0.38163596391677856 0.83356934785842896
0.37033259868621826 0.39315411448478699 0.85431736707687378
0.64472204446792603 0.40984925627708435 0.87513816356658936
0.88272404670715332 0.43312528729438782 0.89525479078292847
0.00047203511348925531 0.68928712606430054 0.84502154588699341
0.13487167656421661 0.71176755428314209 0.86710524559020996
0.43387967348098755 0.7282564640045166 0.88930445909500122
0.70624399185180664 0.74854284524917603 0.90839523077011108
0.92416250705718994 0.75129920244216919 0.9217115044593811
0.040534418076276779 0.99225181341171265 0.88893002271652222
0.2117094099521637 0.99325978755950928 0.90621852874755859
0.47810602188110352 0.99040460586547852 0.9112168550491333
0.73182469606399536 0.99194610118865967 0.91512393951416016
0.94432258605957031 0.99640971422195435 0.92632126808166504
