assets/lut/jtsemple toastedgarden.cube
# Created by: G'MIC (https://gmic.eu)
TITLE "toastedgarden"
# LUT size
LUT_3D_SIZE 5
# Data domain
DOMAIN_MIN 0.0 0.0 0.0
DOMAIN_MAX 1.0 1.0 1.0
# LUT data points
0 0 0
0.0088599259033799171 0 0
0.24323143064975739 0 0
0.53500115871429443 0 0
0.77204614877700806 0 0
0 0.062634080648422241 0
0.057940389961004257 0.075640283524990082 0
0.33815056085586548 0.067463502287864685 0
0.66006004810333252 0.075677730143070221 0
0.90059220790863037 0.095143169164657593 0.014816419221460819
0.00091237085871398449 0.32230448722839355 0.0035491345915943384
0.10648360848426819 0.35996687412261963 0.0025841507595032454
0.43495863676071167 0.3855208158493042 0.00035131117329001427
0.76401501893997192 0.41121757030487061 3.2312730127159739e-06
0.98307681083679199 0.4517570436000824 0.019101880490779877
0.036572892218828201 0.67841404676437378 0.0093850381672382355
0.22076360881328583 0.7243725061416626 0.0085126245394349098
0.55342108011245728 0.74206435680389404 0.012865656986832619
0.86460965871810913 0.76116973161697388 0.019747819751501083
0.99964094161987305 0.78974771499633789 0.033074293285608292
0.12244311720132828 0.98882895708084106 0.058326423168182373
0.36248084902763367 0.99671709537506104 0.056719865649938583
0.67600905895233154 0.99551635980606079 0.058097328990697861
0.94212013483047485 0.99031895399093628 0.060169879347085953
0.99975204467773438 0.99168747663497925 0.070427358150482178
0 0 0.018349636346101761
0.013348104432225227 0 0.028159825131297112
0.25257658958435059 0 0.025693302974104881
0.56208902597427368 0 0.013474961742758751
0.7962716817855835 0 0.016520719975233078
0 0.071093663573265076 0.050425808876752853
0.069255486130714417 0.080950930714607239 0.062716573476791382
0.35044604539871216 0.069049134850502014 0.058302335441112518
0.68386876583099365 0.090700559318065643 0.067377038300037384
0.91914963722229004 0.13168336451053619 0.096966147422790527
0 0.34313347935676575 0.07809651643037796
0.12298676371574402 0.37580278515815735 0.096547521650791168
0.4631827175617218 0.40249764919281006 0.10600089281797409
0.79502034187316895 0.42678657174110413 0.11847459524869919
0.99134945869445801 0.47174146771430969 0.16358205676078796
0.029839908704161644 0.70358836650848389 0.12376753985881805
0.23495793342590332 0.74761676788330078 0.14330708980560303
0.57028460502624512 0.76194024085998535 0.15845787525177002
0.87464624643325806 0.77661019563674927 0.16900084912776947
1 0.80190986394882202 0.20370244979858398
0.13294759392738342 0.99387097358703613 0.22937500476837158
0.37544268369674683 0.99997740983963013 0.23563580214977264
0.68523412942886353 0.99860411882400513 0.23565684258937836
0.94430917501449585 0.99397236108779907 0.23150311410427094
1 0.99798369407653809 0.25658226013183594
0.0023697647266089916 9.1014189820270985e-05 0.19665384292602539
0.031212391331791878 0 0.21149829030036926
0.26055142283439636 0 0.21174663305282593
0.56867951154708862 0 0.20048901438713074
0.79918378591537476 0 0.20471665263175964
0.0033993441611528397 0.078155964612960815 0.25800630450248718
0.068949617445468903 0.082596659660339355 0.27126225829124451
0.35882630944252014 0.076124094426631927 0.27586308121681213
0.68724316358566284 0.088295072317123413 0.28504940867424011
0.91965126991271973 0.11447248607873917 0.31458911299705505
0 0.35396245121955872 0.29459375143051147
0.14077128469944 0.39053037762641907 0.32871425151824951
0.47675761580467224 0.41218408942222595 0.34744369983673096
0.80404019355773926 0.43536970019340515 0.37306132912635803
0.99778079986572266 0.48353174328804016 0.41730839014053345
0.025531034916639328 0.71385741233825684 0.35895535349845886
0.24422647058963776 0.7507929801940918 0.39889732003211975
0.57868200540542603 0.76231735944747925 0.41853496432304382
0.88144171237945557 0.77676421403884888 0.43483573198318481
1 0.80161410570144653 0.46034491062164307
0.14084242284297943 0.99211126565933228 0.4864862859249115
0.38487124443054199 0.9990837574005127 0.50224184989929199
0.68471741676330566 0.99680715799331665 0.49822697043418884
0.94056099653244019 0.99159032106399536 0.49618053436279297
1 0.99709904193878174 0.50256979465484619
0 0 0.45644780993461609
0.030728328973054886 0 0.47085392475128174
0.26210787892341614 0 0.47728666663169861
0.57727736234664917 6.5732470829971135e-05 0.47462937235832214
0.81326878070831299 0 0.4807230532169342
5.2508185035549104e-06 0.059577029198408127 0.52640253305435181
0.06829465925693512 0.075265206396579742 0.54164284467697144
0.36282703280448914 0.080355837941169739 0.55254131555557251
0.69891142845153809 0.087831579148769379 0.56351006031036377
0.93374419212341309 0.11315635591745377 0.60202044248580933
0.004979361779987812 0.35155358910560608 0.57277786731719971
0.14770655333995819 0.39578768610954285 0.60614597797393799
0.48767358064651489 0.41501104831695557 0.62236160039901733
0.81392389535903931 0.44247901439666748 0.6469266414642334
0.99880766868591309 0.48831915855407715 0.68281978368759155
0.015817798674106598 0.72368651628494263 0.641002357006073
0.2534850537776947 0.75624865293502808 0.67589175701141357
0.58864986896514893 0.76453173160552979 0.68423378467559814
0.87982791662216187 0.77987515926361084 0.6974644660949707
0.99950850009918213 0.80199682712554932 0.70983195304870605
0.14037792384624481 0.99133670330047607 0.75301074981689453
0.39056196808815002 0.99852943420410156 0.76035237312316895
0.68720269203186035 0.99201244115829468 0.74501365423202515
0.93369311094284058 0.98704713582992554 0.73593133687973022
1 0.9940304160118103 0.7331082820892334
0 0 0.69150811433792114
0.011717284098267555 0 0.71433418989181519
0.25113680958747864 0.0035536224022507668 0.72282129526138306
0.56725001335144043 0 0.70542210340499878
0.81670421361923218 0.0080726323649287224 0.7078481912612915
0 0.061814986169338226 0.74657773971557617
0.073458895087242126 0.082340225577354431 0.77009785175323486
0.37056320905685425 0.10686075687408447 0.78136289119720459
0.70657962560653687 0.09495207667350769 0.77499526739120483
0.9417768120765686 0.1609356552362442 0.8087889552116394
0.012458741664886475 0.36329659819602966 0.78382980823516846
0.17142294347286224 0.41322183609008789 0.81594645977020264
0.50269359350204468 0.43826636672019958 0.8327939510345459
0.83140426874160767 0.45898187160491943 0.84882432222366333
1 0.50336062908172607 0.87655353546142578
0.032666075974702835 0.73672449588775635 0.83510863780975342
0.28009429574012756 0.7718082070350647 0.86670476198196411
0.60380536317825317 0.77299296855926514 0.86899775266647339
0.88706141710281372 0.78033638000488281 0.87516015768051147
0.99852222204208374 0.80242657661437988 0.887459397315979
0.14090202748775482 0.99721986055374146 0.93330192565917969
0.39966428279876709 0.99974721670150757 0.93542075157165527
0.69078409671783447 0.99105054140090942 0.90885633230209351
0.93825036287307739 0.98798608779907227 0.90566372871398926
0.9999014139175415 0.99090421199798584 0.9142192006111145
