assets/lut/jtsemple lushgreensummer.cube
# Created by: G'MIC (https://gmic.eu)
TITLE "lushgreensummer"
# LUT size
LUT_3D_SIZE 13
# Data domain
DOMAIN_MIN 0.0 0.0 0.0
DOMAIN_MAX 1.0 1.0 1.0
# LUT data points
0 0 0
0 0 5.6008731917245314e-05
0.0097435591742396355 0 0.00049688300350680947
0.077817432582378387 0 0.0011290606344118714
0.17334364354610443 0 0.0008697509765625
0.27273404598236084 0 0
0.37304297089576721 0 0
0.47196897864341736 0 0
0.5678972601890564 0 0
0.65923112630844116 0 0
0.7446969747543335 0.00016102510562632233 0
0.82418268918991089 0.0002053653442999348 0
0.90018284320831299 0.00014935662329662591 0
0.0005165249458514154 0.0024670171551406384 0.0012317731743678451
0 0.0040665720589458942 0.0041451994329690933
0.017274325713515282 0.005265598651021719 0.0055150799453258514
0.08462485671043396 0.0035646625328809023 0.0057473424822092056
0.1768718957901001 0.0008751812856644392 0.0041709602810442448
0.27762332558631897 1.0696111530705821e-05 0.0013442095369100571
0.38072347640991211 0 0.00015227374387905002
0.48100340366363525 0.00037913603591732681 0
0.57689028978347778 0.0038009942509233952 0
0.66777068376541138 0.010377232916653156 0
0.75250351428985596 0.014371116645634174 0
0.83135873079299927 0.014925563707947731 0
0.9066130518913269 0.015287870541214943 0
8.2651771663222462e-05 0.043993901461362839 0.00056614592904224992
0.00010482189827598631 0.046914044767618179 0.0047043743543326855
0.024722125381231308 0.045588340610265732 0.0069571700878441334
0.093388423323631287 0.039863824844360352 0.0051611955277621746
0.18327254056930542 0.033030025660991669 0.0032905878033488989
0.2834504246711731 0.026385229080915451 0.0027955747209489346
0.3875885009765625 0.023447627201676369 0.00093542359536513686
0.48883894085884094 0.027357468381524086 0
0.5851472020149231 0.035965729504823685 0
0.67633843421936035 0.043903574347496033 0
0.76127684116363525 0.048938211053609848 0
0.84024834632873535 0.051037956029176712 0
0.91570448875427246 0.054058536887168884 0
0 0.11720476299524307 0
0.00039497824036516249 0.11815699934959412 0.00038486556150019169
0.028296288102865219 0.11647991091012955 0.0015437406254932284
0.099011361598968506 0.10955426096916199 0.001133593381382525
0.18956917524337769 0.1045018807053566 0.0010491913417354226
0.29011732339859009 0.099950753152370453 0.0012008816702291369
0.39390438795089722 0.092424102127552032 0.00011571248614927754
0.49573671817779541 0.089729771018028259 0
0.59344041347503662 0.093210779130458832 0
0.68602389097213745 0.098878391087055206 0
0.77256882190704346 0.10363159328699112 0
0.85300648212432861 0.10730082541704178 0
0.92886656522750854 0.11255735158920288 0
0 0.19557100534439087 0
0.0026162092108279467 0.19592495262622833 0
0.037764977663755417 0.19411423802375793 0
0.10653562098741531 0.18924884498119354 0
0.19590732455253601 0.18422430753707886 6.6899316152557731e-05
0.2969021201133728 0.17853239178657532 0.00033002367126755416
0.40120083093643188 0.17142096161842346 0
0.50359302759170532 0.16756898164749146 0
0.60273224115371704 0.1688818633556366 0
0.69722092151641846 0.17310856282711029 0
0.78584998846054077 0.17810526490211487 0
0.86815065145492554 0.18340019881725311 0
0.94479411840438843 0.19036878645420074 0
0 0.2781713604927063 0
0.0080488761886954308 0.2778419554233551 0
0.048212341964244843 0.27601909637451172 0
0.11409612745046616 0.27222862839698792 0
0.20150551199913025 0.26708972454071045 0.00013379863230511546
0.30329102277755737 0.26043859124183655 0.00077381508890539408
0.40916785597801208 0.25589290261268616 0
0.51304584741592407 0.25512558221817017 0
0.6139686107635498 0.2570699155330658 0
0.7102319598197937 0.26155132055282593 0
0.80043500661849976 0.26762464642524719 0
0.8839380145072937 0.27449563145637512 0
0.96131271123886108 0.28237435221672058 0
0.00043085135985165834 0.36478883028030396 0
0.017604708671569824 0.36417216062545776 0
0.059415914118289948 0.36322933435440063 0
0.12268808484077454 0.36072999238967896 0
0.20691570639610291 0.35700604319572449 0.0010677262907847762
0.30835235118865967 0.35238203406333923 0.0011450075544416904
0.41716256737709045 0.35012704133987427 0
0.52484273910522461 0.35102233290672302 0
0.62833178043365479 0.35412228107452393 0
0.72598397731781006 0.3594357967376709 0
0.81678885221481323 0.36650630831718445 0
0.90027672052383423 0.37441185116767883 0
0.97653394937515259 0.38272538781166077 0
0.0056830313988029957 0.45504999160766602 0
0.032350875437259674 0.45536148548126221 0
0.075383521616458893 0.45536899566650391 0
0.13744491338729858 0.45533087849617004 0
0.21900571882724762 0.45410031080245972 0.001209752750582993
0.3198707103729248 0.4517056941986084 0.00051407160935923457
0.43105930089950562 0.45086729526519775 0
0.54228460788726807 0.45258572697639465 0
0.64822232723236084 0.45652148127555847 0
0.74692994356155396 0.46230810880661011 0
0.83723706007003784 0.46968096494674683 0
0.91977471113204956 0.47777572274208069 0
0.98890352249145508 0.48569038510322571 0
0.020221710205078125 0.54848670959472656 0
0.052626501768827438 0.55045801401138306 0
0.098734758794307709 0.55186933279037476 0
0.1618984043598175 0.55305105447769165 0
0.24389345943927765 0.5537254810333252 0.00053998164366930723
0.34422057867050171 0.55397552251815796 0.00020680147281382233
0.45499345660209656 0.55472373962402344 0
0.56728315353393555 0.55703788995742798 0
0.67498141527175903 0.56123977899551392 0
0.77433645725250244 0.56686162948608398 0
0.86393427848815918 0.57344645261764526 0
0.94523352384567261 0.58044266700744629 0
0.99791353940963745 0.58723527193069458 0
0.040139365941286087 0.64547812938690186 0
0.077968195080757141 0.64808976650238037 0
0.12849929928779602 0.65084123611450195 0
0.19466544687747955 0.6536552906036377 0.00019172219617757946
0.27843004465103149 0.65571022033691406 0.0010732912924140692
0.37764158844947815 0.65719836950302124 0.00066639023134484887
0.48732909560203552 0.65856832265853882 3.1235638743964955e-05
0.59958469867706299 0.66136211156845093 0
0.70797502994537354 0.66544413566589355 0
0.80763441324234009 0.67002511024475098 0
0.89634537696838379 0.67487692832946777 0
0.97450411319732666 0.68000501394271851 0
1 0.68507742881774902 0
0.063611291348934174 0.7444954514503479 0
0.10735253989696503 0.74713671207427979 4.2904124711640179e-05
0.16264040768146515 0.75080621242523193 0.00069704244378954172
0.23173260688781738 0.75469779968261719 0.0028930066619068384
0.31691926717758179 0.7576640248298645 0.0048180073499679565
0.41568887233734131 0.75914120674133301 0.0043556364253163338
0.52447259426116943 0.76055377721786499 0.0020917854271829128
0.63574838638305664 0.76308339834213257 0.00054669845849275589
0.74433243274688721 0.76659095287322998 8.4192615759093314e-05
0.84397101402282715 0.76997393369674683 2.297794162586797e-05
0.93148899078369141 0.7722477912902832 2.297794162586797e-05
0.99407696723937988 0.7751929759979248 0.0002057243837043643
1 0.77937978506088257 0.00097479729447513819
0.090246342122554779 0.84381771087646484 0.0026148178149014711
0.13958814740180969 0.84652101993560791 0.0048286286182701588
0.19948756694793701 0.85038155317306519 0.0089495042338967323
0.27190542221069336 0.85447639226913452 0.013770025223493576
0.35766103863716125 0.85703867673873901 0.016406264156103134
0.45648455619812012 0.85825026035308838 0.015529363416135311
0.56316548585891724 0.860210120677948 0.011632043868303299
0.67224651575088501 0.86106574535369873 0.0076721040531992912
0.77878326177597046 0.86276054382324219 0.0048499461263418198
0.87736207246780396 0.86421054601669312 0.0036535374820232391
0.96346908807754517 0.86455577611923218 0.0039819157682359219
0.99988412857055664 0.86658614873886108 0.0058728684671223164
1 0.87066012620925903 0.010082409717142582
0.11988505721092224 0.94287145137786865 0.022014439105987549
0.17432218790054321 0.94546937942504883 0.02563183382153511
0.23860523104667664 0.94886219501495361 0.030485654249787331
0.3138878345489502 0.95210558176040649 0.034709256142377853
0.40072619915008545 0.95355391502380371 0.036473575979471207
0.49788907170295715 0.95437449216842651 0.035527069121599197
0.60145896673202515 0.95508205890655518 0.032013207674026489
0.70687389373779297 0.95523512363433838 0.02711862325668335
0.80963468551635742 0.95523512363433838 0.022701114416122437
0.90552657842636108 0.95467758178710938 0.02044963464140892
0.98518222570419312 0.95402795076370239 0.021016618236899376
1 0.95643490552902222 0.025197811424732208
1 0.96112948656082153 0.032588373869657516
0.0005371393053792417 0 0
0 0 0
0.010801203548908234 0 0
0.078301586210727692 0 0.0013082466321066022
0.17357642948627472 0 0.0035786048974841833
0.27287542819976807 0 0.00063545379089191556
0.37297859787940979 0 0
0.47279685735702515 0 0
0.5703234076499939 0 0
0.66291093826293945 0.00036259071202948689 0
0.74860095977783203 0.00062864716164767742 0
0.8263511061668396 0 0
0.8993077278137207 0 0
0.0033947513438761234 0.0032466663978993893 4.3083641685370822e-06
0 0.0030083151068538427 2.297794162586797e-05
0.015421056188642979 0.0026848586276173592 2.7450860216049477e-05
0.0852789506316185 0.0016257342649623752 0.0004989923327229917
0.17928390204906464 0.00080418307334184647 0.0020432865712791681
0.27907285094261169 0.00019121357763651758 0.0007228626636788249
0.38105565309524536 0.00019713757501449436 0
0.4816327691078186 0.0010926041286438704 0
0.57895505428314209 0.0047903773374855518 0
0.67071789503097534 0.010413524694740772 0
0.75517338514328003 0.011485724709928036 0
0.83167392015457153 0.0073169334791600704 0
0.90417850017547607 0.0044383630156517029 0
0.0010460797930136323 0.046217527240514755 3.5903033790418704e-07
0 0.045818284153938293 3.0697094189235941e-05
0.020582834258675575 0.042644262313842773 4.7227447794284672e-05
0.093458570539951324 0.03768361359834671 2.432430483167991e-05
0.1860385537147522 0.033978600054979324 2.1571739125647582e-05
0.28516218066215515 0.028838198632001877 1.8759334125206806e-05
0.38795667886734009 0.026643641293048859 0
0.48931095004081726 0.028631143271923065 0
0.58669745922088623 0.03490905836224556 0
0.67862492799758911 0.040295708924531937 0
0.7631344199180603 0.04142182320356369 0
0.83972418308258057 0.038333293050527573 0
0.91201877593994141 0.036691285669803619 0
0 0.1182452067732811 0
0 0.11781435459852219 0
0.024014268070459366 0.11586672067642212 0
0.09767092764377594 0.10970991849899292 0
0.19066122174263 0.10614284127950668 0
0.29058828949928284 0.10046367347240448 0
0.39412692189216614 0.09289049357175827 0
0.49611493945121765 0.088687971234321594 0
0.59487658739089966 0.090590335428714752 0
0.68814778327941895 0.093960195779800415 0
0.77468693256378174 0.095276057720184326 0
0.85316675901412964 0.094583280384540558 0
0.92666256427764893 0.096281953155994415 0
0 0.19702042639255524 0
0.0010941599030047655 0.1961570531129837 0
0.033192053437232971 0.19375941157341003 0
0.10428276658058167 0.18908032774925232 0
0.19561479985713959 0.18537749350070953 0
0.29644739627838135 0.18025490641593933 0
0.4006212055683136 0.17260418832302094 0
0.50376027822494507 0.16745568811893463 0
0.6038212776184082 0.16682830452919006 0
0.69941037893295288 0.1693684458732605 0
0.78906303644180298 0.17198114097118378 0
0.87079203128814697 0.1745389848947525 0
0.94565707445144653 0.17900560796260834 0
0 0.27777913212776184 0
0.0040460326708853245 0.27733582258224487 0
0.041585240513086319 0.27546069025993347 0
0.10969078540802002 0.27207654714584351 1.0367000868427567e-05
0.19921053946018219 0.26818212866783142 0.00017504225252196193
0.30167660117149353 0.2633177638053894 0.00015647738473489881
0.40807011723518372 0.2585291862487793 0
0.51302576065063477 0.25601914525032043 0
0.61488419771194458 0.25709718465805054 0
0.71219491958618164 0.25994095206260681 0
0.80366843938827515 0.26462355256080627 0
0.88728541135787964 0.2703043520450592 0
0.96255338191986084 0.27680990099906921 0
1.5079273907758761e-05 0.36300879716873169 0
0.010210688225924969 0.36298507452011108 0
0.05059674009680748 0.36230131983757019 0
0.11628533154726028 0.36061623692512512 0.00074368645437061787
0.20414283871650696 0.35815897583961487 0.0037961623165756464
0.30765128135681152 0.35473203659057617 0.0031343346927314997
0.41744807362556458 0.35258010029792786 0.00023743872588966042
0.52586311101913452 0.35261291265487671 0
0.63002574443817139 0.35518848896026611 0
0.72835034132003784 0.35990419983863831 0
0.81865191459655762 0.36663076281547546 0
0.90104269981384277 0.37450417876243591 0
0.97542011737823486 0.38219133019447327 0
0.002414957620203495 0.45298078656196594 0
0.023775557056069374 0.45367622375488281 0
0.066195622086524963 0.45519229769706726 0.00011913823254872113
0.13061743974685669 0.45533087849617004 0.0030467014294117689
0.21699726581573486 0.45484539866447449 0.0083020981401205063
0.32066053152084351 0.45332437753677368 0.0060835597105324268
0.43277528882026672 0.45319658517837524 0.0009874680545181036
0.54409968852996826 0.45485541224479675 5.7594447753217537e-06
0.65038102865219116 0.45857369899749756 0
0.74882316589355469 0.4643213152885437 0
0.83794295787811279 0.47212269902229309 0
0.91768115758895874 0.48125818371772766 3.5873112210538238e-05
0.9868808388710022 0.48942887783050537 0.0005757500184699893
0.014734395779669285 0.54735761880874634 0
0.044902727007865906 0.54817771911621094 0
0.090280182659626007 0.55150187015533447 0.00098730344325304031
0.15587060153484344 0.55294311046600342 0.0066498103551566601
0.24202015995979309 0.55442947149276733 0.012400922365486622
0.34499618411064148 0.55544590950012207 0.010182818397879601
0.45721045136451721 0.55685794353485107 0.0041334712877869606
0.57010120153427124 0.55961233377456665 0.0013334985123947263
0.67763310670852661 0.56406468152999878 0.00065651687327772379
0.77634578943252563 0.57002967596054077 0.00058378331596031785
0.86452007293701172 0.57753896713256836 0.0010346805211156607
0.94339281320571899 0.58578181266784668 0.0023197697009891272
0.99696606397628784 0.5930284857749939 0.0054106321185827255
0.034181378781795502 0.64410078525543213 6.9607005571015179e-05
0.070877373218536377 0.64660358428955078 0.00097270292462781072
0.12117822468280792 0.64999604225158691 0.0059359683655202389
0.18946763873100281 0.65356159210205078 0.014724492095410824
0.27637690305709839 0.65629130601882935 0.02030729316174984
0.37857505679130554 0.65841323137283325 0.019243098795413971
0.48988786339759827 0.66073399782180786 0.013563582673668861
0.60287463665008545 0.66405069828033447 0.0086714206263422966
0.71119755506515503 0.66862136125564575 0.0064874538220465183
0.81028717756271362 0.67389893531799316 0.006033280398696661
0.89757698774337769 0.6794629693031311 0.0075553148053586483
0.97385066747665405 0.68531787395477295 0.010834068991243839
1 0.69070374965667725 0.017173228785395622
0.056259036064147949 0.74254661798477173 0.0065439110621809959
0.09993261843919754 0.74596881866455078 0.011769418604671955
0.15604814887046814 0.75016611814498901 0.021094841882586479
0.22790555655956268 0.75420808792114258 0.03013102151453495
0.31611987948417664 0.75780194997787476 0.035325381904840469
0.41748788952827454 0.76005369424819946 0.0351371169090271
0.52747935056686401 0.76252990961074829 0.03087260015308857
0.63958799839019775 0.76554250717163086 0.025898758322000504
0.74777203798294067 0.76971197128295898 0.02183990553021431
0.84687131643295288 0.7736356258392334 0.020689226686954498
0.93309307098388672 0.77676928043365479 0.023080069571733475
0.99426382780075073 0.78007346391677856 0.028964592143893242
1 0.78392452001571655 0.038315881043672562
0.081267505884170532 0.84202331304550171 0.032146543264389038
0.13158421218395233 0.84543311595916748 0.038105353713035583
0.19339793920516968 0.84969151020050049 0.045792702585458755
0.26861792802810669 0.85380250215530396 0.05285707488656044
0.35771653056144714 0.85698574781417847 0.056621119379997253
0.45864981412887573 0.85946553945541382 0.056836925446987152
0.56667220592498779 0.86096811294555664 0.054074663668870926
0.67638325691223145 0.86269384622573853 0.050086528062820435
0.78272664546966553 0.86551022529602051 0.046664264053106308
0.88050121068954468 0.86754626035690308 0.045776680111885071
0.96533495187759399 0.86868709325790405 0.048431470990180969
0.99988412857055664 0.87065714597702026 0.054955903440713882
1 0.87410926818847656 0.064763009548187256
0.10981424152851105 0.94155818223953247 0.066666655242443085
0.16577312350273132 0.94457447528839111 0.070639543235301971
0.2321801483631134 0.94797438383102417 0.076033033430576324
0.3106534481048584 0.95125323534011841 0.081029094755649567
0.40051037073135376 0.95355391502380371 0.083815619349479675
0.50005507469177246 0.95481520891189575 0.084116198122501373
0.60521113872528076 0.95616066455841064 0.081837251782417297
0.71122473478317261 0.95658308267593384 0.078982226550579071
0.81395363807678223 0.95701086521148682 0.076416537165641785
0.90910053253173828 0.95733678340911865 0.075855717062950134
0.98655807971954346 0.95749020576477051 0.078587338328361511
1 0.95945680141448975 0.085065580904483795
1 0.96311753988265991 0.094641849398612976
0.00082924036541953683 0 0.0082530006766319275
0 0 0.009173927828669548
0.010079851374030113 0 0.011332478374242783
0.07725418359041214 0 0.019932601600885391
0.17127077281475067 0 0.023940231651067734
0.2704254686832428 0 0.017980732023715973
0.37053778767585754 0 0.0082094380632042885
0.47115221619606018 0 0.004353212658315897
0.57022207975387573 0 0.0030973844695836306
0.66444921493530273 0.0014199051074683666 0.001864698831923306
0.75103294849395752 0.0014143700245767832 0.0012667786795645952
0.82726079225540161 0 0.0016337375855073333
0.89822405576705933 0 0.0032726810313761234
0.0034643735270947218 0.0065232818014919758 0.013091053813695908
0 0.004669862799346447 0.010099926963448524
0.011519293300807476 0.0041752234101295471 0.0087002469226717949
0.084504880011081696 0.0025312686339020729 0.016179358586668968
0.18045191466808319 0.0026050342712551355 0.020581293851137161
0.27889600396156311 0.0019718094263225794 0.018149970099329948
0.37949115037918091 0.00089470361126586795 0.013222952373325825
0.4802650511264801 0.0016744426684454083 0.0089240577071905136
0.57871299982070923 0.0050856047309935093 0.0058856741525232792
0.67183756828308105 0.0098949205130338669 0.003586877603083849
0.75655549764633179 0.0091147627681493759 0.002275803592056036
0.83171629905700684 0.0025970309507101774 0.0019751605577766895
0.90184611082077026 0.00029358209576457739 0.0034139745403081179
0.0019122703233733773 0.049681015312671661 0.011061499826610088
0 0.046160902827978134 0.0097167221829295158
0.015969639644026756 0.044640142470598221 0.0084971413016319275
0.092206679284572601 0.040602844208478928 0.011841269209980965
0.18740415573120117 0.040504679083824158 0.012795272283256054
0.28555107116699219 0.035468351095914841 0.013297032564878464
0.38673213124275208 0.029488582164049149 0.014249120838940144
0.48794481158256531 0.028946910053491592 0.012247931212186813
0.58635991811752319 0.033311177045106888 0.009190637618303299
0.67928886413574219 0.037156496196985245 0.0060362573713064194
0.76390308141708374 0.035970710217952728 0.0041855457238852978
0.83893972635269165 0.028453556820750237 0.0035974690690636635
0.90830552577972412 0.022320153191685677 0.0042588775977492332
4.6284993004519492e-05 0.12023312598466873 0.0074054645374417305
0 0.11713121831417084 0.0089155612513422966
0.023089854046702385 0.11429428309202194 0.0077792447991669178
0.097395233809947968 0.1101432666182518 0.0073568457737565041
0.19131092727184296 0.10954152792692184 0.0070371292531490326
0.29051938652992249 0.10263331979513168 0.0075156418606638908
0.39253741502761841 0.093536972999572754 0.0092608137056231499
0.49464875459671021 0.088194094598293304 0.011320196092128754
0.59417259693145752 0.088641807436943054 0.01056569442152977
0.68890202045440674 0.090481400489807129 0.0081968121230602264
0.77620559930801392 0.089799560606479645 0.0061372793279588223
0.85402965545654297 0.085608631372451782 0.0054394290782511234
0.9246101975440979 0.083557426929473877 0.0064054154790937901
0 0.19721025228500366 0.0080964928492903709
0.00085305608808994293 0.19467909634113312 0.0090373018756508827
0.032045252621173859 0.19171981513500214 0.0084836622700095177
0.10425586998462677 0.18783329427242279 0.0077874427661299706
0.19634000957012177 0.18611815571784973 0.0083436407148838043
0.29545402526855469 0.18200720846652985 0.0067581627517938614
0.39857226610183716 0.17453168332576752 0.0069956760853528976
0.50204956531524658 0.1682056337594986 0.010005292482674122
0.60293686389923096 0.16595914959907532 0.010437924414873123
0.70021891593933105 0.16767597198486328 0.0091438889503479004
0.79120916128158569 0.1685362309217453 0.0080019030719995499
0.87424778938293457 0.16939222812652588 0.0074909133836627007
0.94645720720291138 0.17158286273479462 0.0097202826291322708
0 0.27704575657844543 0.0069767073728144169
0.0019467672100290656 0.27592450380325317 0.0083540827035903931
0.036041498184204102 0.27383407950401306 0.010331517085433006
0.105843186378479 0.27117350697517395 0.01281319372355938
0.19757595658302307 0.26924377679824829 0.014684310182929039
0.30011841654777527 0.26640146970748901 0.013203938491642475
0.40619775652885437 0.26213601231575012 0.010786063969135284
0.51169514656066895 0.25874102115631104 0.011125976219773293
0.61417442560195923 0.2583925724029541 0.011088172905147076
0.71283590793609619 0.2599480152130127 0.010481995530426502
0.8058580756187439 0.26379191875457764 0.010154065676033497
0.8903428316116333 0.26846817135810852 0.010828010737895966
0.96394634246826172 0.2737831175327301 0.014790388755500317
0 0.36179402470588684 0.0043159485794603825
0.0043088425882160664 0.361532062292099 0.0072805369272828102
0.041051901876926422 0.36110836267471313 0.013079175725579262
0.10947994142770767 0.36027085781097412 0.019642937928438187
0.2015509158372879 0.35928970575332642 0.022932717576622963
0.30710384249687195 0.35817012190818787 0.020626412704586983
0.41721343994140625 0.35641771554946899 0.015521075576543808
0.52576702833175659 0.35604956746101379 0.012455884367227554
0.63024801015853882 0.35746067762374878 0.012605195865035057
0.72870510816574097 0.36119818687438965 0.01317126676440239
0.82027947902679443 0.36732527613639832 0.014356635510921478
0.90232187509536743 0.37539628148078918 0.01750652864575386
0.9752967357635498 0.38298845291137695 0.023973217234015465
0.00068513461155816913 0.4513639509677887 0.0026030596345663071
0.015327752567827702 0.45223981142044067 0.0069351047277450562
0.05601564422249794 0.45420420169830322 0.016247065737843513
0.12394598871469498 0.45533087849617004 0.026196349412202835
0.21521000564098358 0.45546811819076538 0.030281141400337219
0.32197076082229614 0.45596888661384583 0.026936924085021019
0.43475982546806335 0.45650202035903931 0.019972797483205795
0.54598051309585571 0.45805543661117554 0.016831027343869209
0.65168684720993042 0.46117725968360901 0.017734842374920845
0.74988621473312378 0.46628051996231079 0.019886525347828865
0.8388749361038208 0.47415366768836975 0.023358408361673355
0.91735732555389404 0.48468503355979919 0.029221523553133011
0.98531633615493774 0.49381032586097717 0.038597989827394485
0.010699986480176449 0.54452663660049438 0.0039579202421009541
0.037474658340215683 0.54786211252212524 0.010825886391103268
0.082300759851932526 0.55074787139892578 0.023785773664712906
0.15066656470298767 0.55325114727020264 0.035282853990793228
0.2411811351776123 0.55570381879806519 0.04031575471162796
0.34719079732894897 0.55755406618118286 0.037718962877988815
0.46051019430160522 0.55951452255249023 0.031613264232873917
0.5729336142539978 0.56242460012435913 0.028970038518309593
0.67950475215911865 0.56665807962417603 0.030385544523596764
0.77763503789901733 0.57252651453018188 0.033576920628547668
0.86506909132003784 0.58059984445571899 0.038885992020368576
0.94240504503250122 0.59045267105102539 0.04665687307715416
0.99629396200180054 0.59860002994537354 0.057442296296358109
0.028966851532459259 0.64237409830093384 0.015755627304315567
