assets/lut/jtsemple lateafternoonwanderlust.cube
# Created by: G'MIC (https://gmic.eu)
TITLE "lateafternoonwanderlust"
# LUT size
LUT_3D_SIZE 13
# Data domain
DOMAIN_MIN 0.0 0.0 0.0
DOMAIN_MAX 1.0 1.0 1.0
# LUT data points
0 0 0.019506461918354034
2.5670668037491851e-05 7.7371034421958029e-05 0.017838258296251297
0.029348636046051979 0.0001840030454332009 0.017518347129225731
0.11267563700675964 0 0.015396297909319401
0.20894607901573181 0 0.01041259802877903
0.30513390898704529 0.0010702095460146666 0.0054906955920159817
0.39946964383125305 0.0020906785503029823 0.0031673505436629057
0.4929485023021698 0.0002297794126207009 0.0035355661530047655
0.58664625883102417 0 0.0039731790311634541
0.68135052919387817 0 0.0019447924569249153
0.77544486522674561 0.00034269446041435003 9.4424976850859821e-05
0.86886882781982422 0.00061412138165906072 0
0.96272146701812744 0.00017736098379828036 0
0.00026040172087959945 0.023526225239038467 0.012995506636798382
0.00019680845434777439 0.021903363987803459 0.013580815866589546
0.028323648497462273 0.023168841376900673 0.016012169420719147
0.11134838312864304 0.017044724896550179 0.01556034479290247
0.20685434341430664 0.01839681901037693 0.012024015188217163
0.30090004205703735 0.023893633857369423 0.0077110291458666325
0.39477783441543579 0.023833300918340683 0.0059463651850819588
0.48806062340736389 0.015932105481624603 0.0073538538999855518
0.5815807580947876 0.0064263883978128433 0.010135127231478691
0.6758500337600708 0.0040071224793791771 0.0086328843608498573
0.77017366886138916 0.011247971095144749 0.002165566198527813
0.86379659175872803 0.017610512673854828 4.7392004489665851e-05
0.95859670639038086 0.019831908866763115 0
0 0.078943021595478058 0.010442412458360195
0.00035132613265886903 0.079903334379196167 0.011488357558846474
0.02936166524887085 0.081382036209106445 0.013854696415364742
0.10754220932722092 0.077976703643798828 0.014628900215029716
0.19884750247001648 0.075401455163955688 0.01189003698527813
0.29374489188194275 0.071518540382385254 0.0083639705553650856
0.38819965720176697 0.065384313464164734 0.0068907495588064194
0.48208713531494141 0.055880289524793625 0.0084227016195654869
0.57641589641571045 0.044117361307144165 0.011376369744539261
0.6711464524269104 0.038252063095569611 0.010757416486740112
0.76563179492950439 0.04533589631319046 0.0040112663991749287
0.86050337553024292 0.054529991000890732 0.00036549288779497147
0.95642608404159546 0.06212838739156723 0
0 0.14228199422359467 0.011063369922339916
0.00046799602569080889 0.14326980710029602 0.012701700441539288
0.030058348551392555 0.14416854083538055 0.014457672834396362
0.10171612352132797 0.14340898394584656 0.01260013971477747
0.19136124849319458 0.14055041968822479 0.0091008655726909637
0.28675496578216553 0.1341758519411087 0.006208471953868866
0.38202860951423645 0.12594231963157654 0.0053618485108017921
0.47729918360710144 0.11720149964094162 0.0052685607224702835
0.57261782884597778 0.10935963690280914 0.005101312417536974
0.66820746660232544 0.10530023276805878 0.0040620244108140469
0.76496720314025879 0.10739830136299133 0.0019853180274367332
0.86177396774291992 0.11401619762182236 0.00037967457319609821
0.95957553386688232 0.12252666801214218 0
0 0.21005971729755402 0.011370640248060226
0 0.20996668934822083 0.014144986867904663
0.020744862034916878 0.21022196114063263 0.015439620241522789
0.089966177940368652 0.21065044403076172 0.012294694781303406
0.18212161958217621 0.2099263072013855 0.0070078680291771889
0.27975261211395264 0.20578211545944214 0.0043693543411791325
0.37735188007354736 0.19991257786750793 0.0033727907575666904
0.47488874197006226 0.19470550119876862 0.0023466672282665968
0.57321321964263916 0.19178301095962524 0.0010945637477561831
0.67237108945846558 0.18989801406860352 0.00044896741746924818
0.77017229795455933 0.18979857861995697 0.00069544173311442137
0.86847472190856934 0.19357398152351379 0.00048720414633862674
0.96651154756546021 0.20094984769821167 0.00024126838252414018
0 0.28361344337463379 0.010121139697730541
0 0.28302222490310669 0.013391786254942417
0.014077533967792988 0.28257977962493896 0.015430674888193607
0.081198707222938538 0.28416508436203003 0.012640275992453098
0.17444722354412079 0.28591558337211609 0.0074324365705251694
0.27461820840835571 0.28511080145835876 0.0044759712181985378
0.37535929679870605 0.28285780549049377 0.0032178841065615416
0.47647908329963684 0.28102883696556091 0.0019780776929110289
0.57805299758911133 0.28118279576301575 0.00091929716290906072
0.67928719520568848 0.28195604681968689 0.0003899069270119071
0.77979761362075806 0.28205138444900513 0.00083707919111475348
0.88015711307525635 0.2859070897102356 0.0011413574684411287
0.97639012336730957 0.29217281937599182 0.0015186534728854895
0 0.36321136355400085 0.0080141108483076096
0.00010070800635730848 0.36321717500686646 0.010843883268535137
0.022247359156608582 0.36429131031036377 0.013184985145926476
0.088134542107582092 0.36713626980781555 0.011954408138990402
0.17741602659225464 0.37045085430145264 0.0085493801161646843
0.2769477367401123 0.37225258350372314 0.0060136532410979271
0.37979653477668762 0.37309205532073975 0.0046557108871638775
0.4837309718132019 0.37440750002861023 0.003655796404927969
0.58800578117370605 0.37483561038970947 0.0026939841918647289
0.69164079427719116 0.37809017300605774 0.0023823007941246033
0.79415935277938843 0.38043692708015442 0.0029484019614756107
0.89622503519058228 0.38477423787117004 0.0039574266411364079
0.98648154735565186 0.39062869548797607 0.0051685855723917484
0 0.44935083389282227 0.0065833893604576588
0.004514642059803009 0.45071327686309814 0.0089225023984909058
0.042806215584278107 0.45366001129150391 0.011141309514641762
0.10774805396795273 0.45776110887527466 0.011529137380421162
0.19228518009185791 0.46220788359642029 0.010265110991895199
0.28905034065246582 0.4661833643913269 0.0089897308498620987
0.39208200573921204 0.46883282065391541 0.0080696102231740952
0.49775338172912598 0.47158023715019226 0.007326462771743536
0.60434883832931519 0.47405833005905151 0.007120080292224884
0.70965814590454102 0.47715273499488831 0.0076743033714592457
0.81329667568206787 0.48130378127098083 0.0088916551321744919
0.91575664281845093 0.48656809329986572 0.010571693070232868
0.99468147754669189 0.49214693903923035 0.012688326649367809
0.00054470886243507266 0.54033380746841431 0.0071961348876357079
0.02152588777244091 0.54360467195510864 0.0093266954645514488
0.068504780530929565 0.5481371283531189 0.011836497113108635
0.13320931792259216 0.55365872383117676 0.013726238161325455
0.21488872170448303 0.55905669927597046 0.014210973866283894
0.30949997901916504 0.56412458419799805 0.014314000494778156
0.41195228695869446 0.56856387853622437 0.014118747785687447
0.51847726106643677 0.57235831022262573 0.01419595442712307
0.62630617618560791 0.57531094551086426 0.015169061720371246
0.73316365480422974 0.5781063437461853 0.017269538715481758
0.83738148212432861 0.58237332105636597 0.019546613097190857
0.93958640098571777 0.58788597583770752 0.022054335102438927
0.99930417537689209 0.59312379360198975 0.024990875273942947
0.0088404640555381775 0.63512444496154785 0.01112575177103281
0.04573783278465271 0.63988333940505981 0.013517058454453945
0.096517004072666168 0.64577412605285645 0.016756454482674599
0.16191630065441132 0.65210121870040894 0.019582964479923248
0.24253778159618378 0.65831178426742554 0.021428709849715233
0.33570569753646851 0.66403448581695557 0.022819263860583305
0.43751317262649536 0.66911882162094116 0.023716496303677559
0.54457950592041016 0.67364925146102905 0.024795172736048698
0.65340232849121094 0.6767008900642395 0.027159268036484718
0.76133394241333008 0.67864614725112915 0.030472893267869949
0.86582791805267334 0.68178480863571167 0.033868588507175446
0.96597331762313843 0.68662565946578979 0.03707369789481163
1 0.69135802984237671 0.040591325610876083
0.028512183576822281 0.73239338397979736 0.020392997190356255
0.072031281888484955 0.738211989402771 0.023197682574391365
0.12583480775356293 0.74476379156112671 0.027012664824724197
0.19286386668682098 0.75156623125076294 0.030692679807543755
0.27344593405723572 0.75792181491851807 0.03379841148853302
0.36614051461219788 0.76360398530960083 0.035865530371665955
0.46772247552871704 0.76845341920852661 0.037593558430671692
0.57495594024658203 0.77266848087310791 0.039688557386398315
0.6843913197517395 0.77557730674743652 0.042354464530944824
0.79305750131607056 0.7761726975440979 0.046097490936517715
0.89819353818893433 0.7781606912612915 0.049889523535966873
0.98683834075927734 0.78233587741851807 0.053570318967103958
1 0.78687465190887451 0.057567328214645386
0.052958276122808456 0.83103018999099731 0.035743173211812973
0.10060137510299683 0.83694916963577271 0.038401808589696884
0.1576816737651825 0.84383875131607056 0.042211927473545074
0.2264673262834549 0.85044068098068237 0.04597868025302887
0.30763536691665649 0.85649895668029785 0.049336645752191544
0.40020757913589478 0.8613128662109375 0.051821332424879074
0.50147789716720581 0.86538976430892944 0.054823301732540131
0.60824644565582275 0.86830168962478638 0.056991487741470337
0.71788626909255981 0.86938261985778809 0.060108497738838196
0.82691740989685059 0.86968410015106201 0.06396879255771637
0.93217414617538452 0.87185698747634888 0.067829087376594543
0.99812620878219604 0.87587982416152954 0.071595840156078339
1 0.88048219680786133 0.075696505606174469
0.080546453595161438 0.92970460653305054 0.054598521441221237
0.13225686550140381 0.93568426370620728 0.057295076549053192
0.19242995977401733 0.94206488132476807 0.060470625758171082
0.26321423053741455 0.94831526279449463 0.064100854098796844
0.34506624937057495 0.95365047454833984 0.067354194819927216
0.43725341558456421 0.95758867263793945 0.070440180599689484
0.53762638568878174 0.96053910255432129 0.073954232037067413
0.64343714714050293 0.96203434467315674 0.076384164392948151
0.75203198194503784 0.96262478828430176 0.079478226602077484
0.86032611131668091 0.96294629573822021 0.083275318145751953
0.9637414813041687 0.96464574337005615 0.086973808705806732
1 0.96764278411865234 0.09086444228887558
1 0.97145777940750122 0.095106683671474457
0 0.00054841884411871433 0.066888295114040375
0.00051802094094455242 0.00039403580012731254 0.065176330506801605
0.034532912075519562 0.00029440486105158925 0.064107976853847504
0.11701687425374985 0 0.061015244573354721
0.21250435709953308 0 0.054774310439825058
0.30666905641555786 0.00013456157466862351 0.047139409929513931
0.40072032809257507 0.00048864027485251427 0.041577883064746857
0.49362272024154663 6.6600128775462508e-05 0.040313150733709335
0.58700042963027954 0 0.038795500993728638
0.68138968944549561 1.4002182979311328e-05 0.031952608376741409
0.7751278281211853 0.00084904691902920604 0.020906426012516022
0.86686927080154419 0.00020734001009259373 0.013721002265810966
0.95913481712341309 0 0.010469892993569374
0.00010521084914216772 0.02840767614543438 0.060007642954587936
2.7480780772748403e-05 0.025113752111792564 0.059383437037467957
0.02829061821103096 0.023644391447305679 0.059781018644571304
0.11166482418775558 0.01816742867231369 0.057926550507545471
0.20754338800907135 0.017139839008450508 0.053995110094547272
0.30270090699195862 0.01753978431224823 0.049229923635721207
0.39608177542686462 0.017473692074418068 0.046069439500570297
0.48876038193702698 0.014403010718524456 0.046111579984426498
0.58186435699462891 0.01008230447769165 0.046344157308340073
0.67590987682342529 0.0099523058161139488 0.041742287576198578
0.76951831579208374 0.014289900660514832 0.030673816800117493
0.86141383647918701 0.013897869735956192 0.020114105194807053
0.95424759387969971 0.011655979789793491 0.014218662865459919
0.00031699385726824403 0.083726190030574799 0.056704457849264145
0.0003277946962043643 0.082496985793113708 0.056375153362751007
0.029982892796397209 0.081225678324699402 0.05625234916806221
0.10667827725410461 0.078353404998779297 0.054045390337705612
0.19975200295448303 0.073804773390293121 0.051313094794750214
0.29589623212814331 0.066899225115776062 0.048701342195272446
0.38995280861854553 0.061309035867452621 0.047178201377391815
0.4827779233455658 0.056037828326225281 0.047230545431375504
0.57643848657608032 0.049842983484268188 0.04767882451415062
0.67048949003219604 0.046387378126382828 0.044319901615381241
0.76468688249588013 0.04747689887881279 0.03548990935087204
0.85738462209701538 0.049654386937618256 0.02554638497531414
0.95149272680282593 0.052178669720888138 0.01861979253590107
0 0.14625480771064758 0.056939773261547089
0.0007474113954231143 0.14610069990158081 0.057102665305137634
0.031223222613334656 0.14582137763500214 0.056324992328882217
0.10259843617677689 0.14419835805892944 0.053034838289022446
0.19469384849071503 0.13960073888301849 0.048142854124307632
0.2906462550163269 0.13185884058475494 0.044789750128984451
0.38467204570770264 0.12426138669252396 0.043568391352891922
0.47832626104354858 0.1180606335401535 0.04256877675652504
0.57224404811859131 0.11302763968706131 0.040645118802785873
0.66795903444290161 0.10920502990484238 0.037761852145195007
0.76424551010131836 0.10759030282497406 0.033286239951848984
0.85889291763305664 0.10909998416900635 0.027668328955769539
0.95526057481765747 0.11377952247858047 0.023406727239489555
0 0.21338830888271332 0.055614769458770752
0.00034474392305128276 0.2132573127746582 0.05705566331744194
0.027470458298921585 0.2131371945142746 0.056326981633901596
0.096520803868770599 0.21256043016910553 0.052094686776399612
0.18890899419784546 0.21064041554927826 0.045100808143615723
0.28545823693275452 0.20540793240070343 0.041429944336414337
0.38056054711341858 0.19940130412578583 0.040346678346395493
0.47530016303062439 0.19486398994922638 0.038030453026294708
0.57325345277786255 0.19311876595020294 0.033610429614782333
0.67181229591369629 0.19130943715572357 0.030394624918699265
0.76966434717178345 0.18939447402954102 0.02991955354809761
0.86739343404769897 0.19052182137966156 0.029532577842473984
0.96462786197662354 0.19531866908073425 0.029223138466477394
0 0.2865176796913147 0.052236802875995636
0.00017130235210061073 0.28621897101402283 0.054959900677204132
0.025076054036617279 0.2865525484085083 0.055502843111753464
0.092252694070339203 0.28761968016624451 0.052289523184299469
0.18266813457012177 0.28812435269355774 0.046314209699630737
0.28048250079154968 0.28609821200370789 0.042468711733818054
0.37898537516593933 0.28294074535369873 0.041017375886440277
0.47829028964042664 0.28041914105415344 0.038780871778726578
0.57889539003372192 0.28135377168655396 0.034400280565023422
0.68004190921783447 0.28216353058815002 0.031649839133024216
0.78056246042251587 0.28209534287452698 0.032907046377658844
0.88065582513809204 0.28483414649963379 0.035028673708438873
0.97619760036468506 0.28956961631774902 0.037330403923988342
0 0.36564379930496216 0.048316340893507004
0.0014782176585868001 0.36647379398345947 0.051588546484708786
0.032808147370815277 0.36822763085365295 0.053897514939308167
0.098033905029296875 0.37083908915519714 0.052670855075120926
0.18483640253543854 0.37328946590423584 0.049411997199058533
0.28235149383544922 0.37441873550415039 0.046672627329826355
0.38360020518302917 0.37452897429466248 0.045437950640916824
0.48620361089706421 0.37452057003974915 0.043984178453683853
0.58993160724639893 0.37618875503540039 0.041821498423814774
0.69366496801376343 0.37928503751754761 0.040628410875797272
0.79636937379837036 0.38238382339477539 0.042068541049957275
0.89803540706634521 0.3860774040222168 0.045013755559921265
0.98712331056594849 0.39076557755470276 0.048616565763950348
0 0.4509023129940033 0.045977573841810226
0.0089927222579717636 0.45365971326828003 0.049618694931268692
0.050494145601987839 0.45727294683456421 0.053004201501607895
0.11442387849092484 0.46179857850074768 0.054379690438508987
0.19749918580055237 0.46608838438987732 0.053969662636518478
0.29345259070396423 0.46923366189002991 0.053071204572916031
0.39565101265907288 0.47150897979736328 0.052596237510442734
0.50092542171478271 0.47344246506690979 0.052592676132917404
0.60719621181488037 0.47649991512298584 0.052548769861459732
0.71278303861618042 0.4802888035774231 0.053279772400856018
0.8163573145866394 0.48475652933120728 0.055402897298336029
0.91845285892486572 0.4896436333656311 0.058589126914739609
0.99530571699142456 0.49444770812988281 0.06262708455324173
0.001688848715275526 0.54196274280548096 0.047885850071907043
0.026525041088461876 0.54637175798416138 0.051764305680990219
0.072460025548934937 0.5519791841506958 0.056255925446748734
0.13629671931266785 0.55803751945495605 0.059634249657392502
0.2175140380859375 0.56359404325485229 0.061431780457496643
0.31199932098388672 0.5681147575378418 0.062247887253761292
0.41475853323936462 0.57191962003707886 0.063084229826927185
0.5217399001121521 0.57528138160705566 0.064226292073726654
0.63005679845809937 0.57851797342300415 0.065741628408432007
0.73697245121002197 0.58229684829711914 0.068035006523132324
0.8405645489692688 0.58704978227615356 0.070882759988307953
0.94194072484970093 0.59233194589614868 0.074337199330329895
0.9995463490486145 0.59666067361831665 0.078639820218086243
0.011246071197092533 0.63722860813140869 0.056226003915071487
0.047654379159212112 0.64301228523254395 0.060053747147321701
0.096695020794868469 0.65006113052368164 0.065124467015266418
0.1611887514591217 0.65714490413665771 0.069504953920841217
0.24195991456508636 0.66349822282791138 0.072708681225776672
0.33589562773704529 0.66873973608016968 0.074989169836044312
0.43911457061767578 0.67310518026351929 0.076690658926963806
0.54745382070541382 0.67664915323257446 0.078684441745281219
0.65748769044876099 0.6796533465385437 0.081037186086177826
0.76562052965164185 0.68259191513061523 0.084048420190811157
0.86912018060684204 0.68676197528839111 0.087580829858779907
0.96720421314239502 0.69154214859008789 0.0915093794465065
1 0.69540709257125854 0.095909342169761658
0.028058804571628571 0.73484981060028076 0.070693954825401306
0.070429064333438873 0.74180358648300171 0.074282176792621613
0.12269424647092819 0.74960583448410034 0.079311951994895935
0.18876467645168304 0.7571721076965332 0.084188438951969147
0.26985672116279602 0.76348841190338135 0.088131971657276154
0.3640981912612915 0.76851922273635864 0.090835839509963989
0.46775764226913452 0.77238339185714722 0.093561626970767975
0.57675361633300781 0.77566397190093994 0.095983259379863739
0.6879844069480896 0.77715128660202026 0.098358079791069031
0.79717415571212769 0.77926385402679443 0.10191266238689423
0.90125536918640137 0.78221422433853149 0.10594233870506287
0.98775678873062134 0.78651118278503418 0.11020500212907791
1 0.79056739807128906 0.1148618683218956
0.049721468240022659 0.83352893590927124 0.089485496282577515
0.096111387014389038 0.84092468023300171 0.093075662851333618
0.1518646627664566 0.84883737564086914 0.097752578556537628
0.21992804110050201 0.85620647668838501 0.10258127748966217
0.30197286605834961 0.86199146509170532 0.10664655268192291
0.39636659622192383 0.86630070209503174 0.10962829738855362
0.49993571639060974 0.86921155452728271 0.11286640912294388
0.60882937908172607 0.87120741605758667 0.11549024283885956
0.7198864221572876 0.87197446823120117 0.11838807910680771
0.82964164018630981 0.87235254049301147 0.12208588421344757
0.9343300461769104 0.87475168704986572 0.1259981244802475
0.99841564893722534 0.87873744964599609 0.13007533550262451
1 0.88297969102859497 0.13477596640586853
0.075318217277526855 0.93232220411300659 0.11171647906303406
0.12572377920150757 0.93940585851669312 0.11480859667062759
0.18501898646354675 0.94680070877075195 0.1189938560128212
0.25558686256408691 0.95343136787414551 0.12343835085630417
0.33839499950408936 0.95853573083877563 0.12753960490226746
0.43249097466468811 0.96190100908279419 0.13079206645488739
0.53473925590515137 0.96373939514160156 0.13376796245574951
0.64245700836181641 0.96440261602401733 0.13672395050525665
0.75258755683898926 0.96447420120239258 0.13986390829086304
0.86145585775375366 0.96459180116653442 0.14337192475795746
0.96456867456436157 0.96590238809585571 0.14706923067569733
1 0.96898001432418823 0.1511768102645874
1 0.97246336936950684 0.15565669536590576
0 0.00067497702548280358 0.12067938596010208
0.0012285718694329262 0.00017556583043187857 0.11866715550422668
0.039202552288770676 0.0011758094187825918 0.11676659435033798
0.12089179456233978 0.00036452049971558154 0.11359415948390961
0.21355883777141571 0 0.10790210962295532
0.30685922503471375 0 0.10165601223707199
0.39972352981567383 0 0.09572911262512207
0.4925025999546051 0 0.091218270361423492
0.58579903841018677 0 0.086367711424827576
0.67995232343673706 0 0.079233311116695404
0.77328741550445557 0 0.07034195214509964
0.8645893931388855 0 0.063616357743740082
0.95624607801437378 0 0.060177523642778397
0.00032944025588221848 0.030195752158761024 0.11518038809299469
0.00051917281234636903 0.023607395589351654 0.11475896090269089
0.031134976074099541 0.023584058508276939 0.11323811858892441
0.11226604878902435 0.019878925755620003 0.10983040183782578
0.20794785022735596 0.015195000916719437 0.10549895465373993
0.30278494954109192 0.010505316779017448 0.10182897746562958
0.39543333649635315 0.0094779971987009048 0.09778904914855957
0.48766815662384033 0.010810208506882191 0.093959644436836243
0.58084237575531006 0.010590377263724804 0.090331330895423889
0.67500197887420654 0.0095554571598768234 0.084391936659812927
0.76875776052474976 0.0085562309250235558 0.076184593141078949
0.86003845930099487 0.0061160069890320301 0.068443447351455688
0.95161181688308716 0.0045787435956299305 0.063676737248897552
0.0023885390255600214 0.086684763431549072 0.11159408837556839
2.8961780117242597e-05 0.082657203078269958 0.11151960492134094
0.025217423215508461 0.080105893313884735 0.10987040400505066
0.10364717990159988 0.07724761962890625 0.10584107786417007
0.20011353492736816 0.070903167128562927 0.10225149244070053
0.29671558737754822 0.061606880277395248 0.099331185221672058
0.39023414254188538 0.057052116841077805 0.096639014780521393
0.48186823725700378 0.056577913463115692 0.093748860061168671
0.57490295171737671 0.054343532770872116 0.09082716703414917
0.66976159811019897 0.050664864480495453 0.086198531091213226
0.7643701434135437 0.047031927853822708 0.079712331295013428
0.85606282949447632 0.043649021536111832 0.072667278349399567
0.94963306188583374 0.043327689170837402 0.068071998655796051
0.00032593970536254346 0.14893020689487457 0.11021466553211212
0.00065410835668444633 0.14709600806236267 0.11039533466100693
0.028344083577394485 0.14601722359657288 0.10718946158885956
0.10061725974082947 0.14319641888141632 0.10315155237913132
0.1950797438621521 0.13738982379436493 0.098589561879634857
0.29193034768104553 0.12923157215118408 0.09507027268409729
0.38543608784675598 0.12310402095317841 0.093154072761535645
0.4775511622428894 0.12006600946187973 0.090892106294631958
0.57151544094085693 0.1174749955534935 0.087731197476387024
0.66795343160629272 0.11329616606235504 0.084080025553703308
0.76410239934921265 0.10913663357496262 0.080095477402210236
0.85840296745300293 0.10634595155715942 0.076130375266075134
0.95385795831680298 0.10787417739629745 0.07389475405216217
0 0.2165026068687439 0.10560461133718491
0.0011477002408355474 0.21567106246948242 0.1061769500374794
0.031053490936756134 0.21520644426345825 0.10428472608327866
0.099802218377590179 0.21308110654354095 0.10016908496618271
0.19160696864128113 0.20955765247344971 0.095249906182289124
0.28777405619621277 0.20435439050197601 0.092271573841571808
0.38255828619003296 0.19920419156551361 0.091304689645767212
0.47649350762367249 0.19581905007362366 0.089572146534919739
0.57292962074279785 0.1945807933807373 0.08597833663225174
0.67156124114990234 0.19287575781345367 0.08276405930519104
0.77034527063369751 0.19070684909820557 0.081051036715507507
0.86808454990386963 0.19023950397968292 0.080700471997261047
