assets/lut/jtsemple toastedgarden.cube
# Created by: G'MIC (https://gmic.eu)
TITLE "toastedgarden"
# LUT size
LUT_3D_SIZE 7
# Data domain
DOMAIN_MIN 0.0 0.0 0.0
DOMAIN_MAX 1.0 1.0 1.0
# LUT data points
0 0 0
0 0 0
0.067825525999069214 0 0
0.24323143064975739 0 0
0.4400724470615387 0 0
0.62326955795288086 0 0
0.77204614877700806 0 0
0 0.0082913115620613098 0
0.0018324758857488632 0.013627384789288044 0
0.11594285815954208 0.013839781284332275 0
0.3050994873046875 0.011391314677894115 0
0.51652419567108154 0.0094147771596908569 0
0.71156734228134155 0.0099355960264801979 3.5903033221984515e-06
0.85887759923934937 0.014430895447731018 0.0054441862739622593
0 0.1369265615940094 0.00058743346016854048
0.018012881278991699 0.14991414546966553 5.1700368203455582e-05
0.16070863604545593 0.15890957415103912 0.00011058134259656072
0.37074315547943115 0.15343166887760162 0.00031433106050826609
0.59351098537445068 0.16337050497531891 0
0.79531347751617432 0.17914570868015289 0.0012046664487570524
0.93697476387023926 0.20250016450881958 0.018896752968430519
0.00091237085871398449 0.32230448722839355 0.0035491345915943384
0.040771692991256714 0.34603437781333923 0.0028250899631530046
0.20269015431404114 0.37151452898979187 0.0022585401311516762
0.43495863676071167 0.3855208158493042 0.00035131117329001427
0.66294324398040771 0.40128269791603088 0
0.85588991641998291 0.42353498935699463 0.0012228423729538918
0.98307681083679199 0.4517570436000824 0.019101880490779877
0.016933605074882507 0.55851942300796509 0.0048448452726006508
0.09866015613079071 0.59379202127456665 0.0033263859804719687
0.27397274971008301 0.61815786361694336 0.0046200621873140335
0.50988787412643433 0.63111770153045654 0.0054025240242481232
0.73592758178710938 0.64795804023742676 0.006577600259333849
0.91211152076721191 0.66857415437698364 0.012373846024274826
0.99795478582382202 0.69517683982849121 0.024506721645593643
0.062088612467050552 0.79304742813110352 0.020074088126420975
0.18518228828907013 0.82065588235855103 0.017964337021112442
0.37149879336357117 0.83659929037094116 0.021336035802960396
0.59852832555770874 0.84134316444396973 0.025030547752976418
0.8118208646774292 0.84563785791397095 0.028970172628760338
0.95555061101913452 0.85393685102462769 0.034729961305856705
0.99997663497924805 0.86674433946609497 0.043767202645540237
0.12244311720132828 0.98882895708084106 0.058326423168182373
0.27173355221748352 0.99533259868621826 0.056250955909490585
0.46245437860488892 0.99719667434692383 0.057226277887821198
0.67600905895233154 0.99551635980606079 0.058097328990697861
0.87196815013885498 0.9919590950012207 0.05908660963177681
0.98109817504882812 0.98990416526794434 0.061990715563297272
0.99975204467773438 0.99168747663497925 0.070427358150482178
0 0 2.154182038793806e-05
0 0 0.0010890287812799215
0.06911468505859375 0.00046012728125788271 0.0040341992862522602
0.24947915971279144 0 0.0015933167887851596
0.45600825548171997 0 3.7698184314649552e-05
0.64322042465209961 0 0
0.79148203134536743 0 0.00054448447190225124
0.0014274447457864881 0.012185623869299889 0.0083104297518730164
0.0027144786436110735 0.018096564337611198 0.0073157665319740772
0.11780818551778793 0.022406425327062607 0.012612062506377697
0.30999070405960083 0.0094971004873514175 0.0094544058665633202
0.53103119134902954 0.013752985745668411 0.0097423326224088669
0.72931396961212158 0.0258623156696558 0.018138198181986809
0.87615334987640381 0.044104572385549545 0.035206962376832962
0 0.1474488377571106 0.020914055407047272
0.023433610796928406 0.1532181054353714 0.023109136149287224
0.17083849012851715 0.16476014256477356 0.02932954765856266
0.38402280211448669 0.15978926420211792 0.032472122460603714
0.61358213424682617 0.16922050714492798 0.032812021672725677
0.81319797039031982 0.19136223196983337 0.050656337291002274
0.95105355978012085 0.22238437831401825 0.07842148095369339
0 0.33657076954841614 0.039376143366098404
0.040526729077100754 0.35566499829292297 0.043424658477306366
0.21726939082145691 0.38295888900756836 0.053238034248352051
0.45558345317840576 0.39814159274101257 0.052248381078243256
0.68741178512573242 0.41258102655410767 0.05092741921544075
0.87789225578308105 0.43497255444526672 0.071857988834381104
0.99322539567947388 0.46576789021492004 0.10469859838485718
0.0078993849456310272 0.57567179203033447 0.059052858501672745
0.10153412073850632 0.60775744915008545 0.064041823148727417
0.28706473112106323 0.63400363922119141 0.074256673455238342
0.52586525678634644 0.64683729410171509 0.079132914543151855
0.75322961807250977 0.66012364625930786 0.083046585321426392
0.92912817001342773 0.67999958992004395 0.10146726667881012
0.99972045421600342 0.70411771535873413 0.124939925968647
0.06047096848487854 0.80881232023239136 0.10013463348150253
0.18885970115661621 0.83789777755737305 0.10390850901603699
0.38070511817932129 0.85433143377304077 0.11233269423246384
0.60899609327316284 0.85587203502655029 0.11685098707675934
0.82110846042633057 0.85631555318832397 0.12013351172208786
0.97037404775619507 0.86451303958892822 0.13314166665077209
1 0.8779909610748291 0.15345318615436554
0.12898112833499908 0.99296587705612183 0.16340412199497223
0.27935901284217834 0.99856102466583252 0.16393032670021057
0.47214204072952271 0.99965965747833252 0.16682016849517822
0.68514502048492432 0.9982333779335022 0.16593654453754425
0.87591934204101562 0.99468702077865601 0.16214515268802643
0.99265950918197632 0.99375897645950317 0.16923071444034576
1 0.99694913625717163 0.18712855875492096
0 0 0.066467851400375366
0.00027103797765448689 0 0.072915017604827881
0.075344190001487732 0 0.077612258493900299
0.25589746236801147 0 0.07196538895368576
0.4704996645450592 0 0.062088191509246826
0.65325319766998291 0 0.054871980100870132
0.79843294620513916 0 0.058711331337690353
0.00092317169765010476 0.014858784154057503 0.09822535514831543
0.0081524718552827835 0.018268255516886711 0.10450644046068192
0.1218615248799324 0.020213482901453972 0.10670545697212219
0.31670951843261719 0.014253414236009121 0.097570948302745819
0.54065364599227905 0.025017144158482552 0.096086837351322174
0.7343827486038208 0.036420140415430069 0.10064701735973358
0.87841439247131348 0.057646375149488449 0.11389178037643433
0 0.15006168186664581 0.11610788106918335
0.02172432653605938 0.15828892588615417 0.12730635702610016
0.17743889987468719 0.16996166110038757 0.13776697218418121
0.39719787240028381 0.16680394113063812 0.13749925792217255
0.62554967403411865 0.17623986303806305 0.14245171844959259
0.82073479890823364 0.19846095144748688 0.16240394115447998
0.95419645309448242 0.23260803520679474 0.18796771764755249
0 0.34893637895584106 0.13441696763038635
0.050404507666826248 0.36766576766967773 0.14947345852851868
0.23300448060035706 0.39402824640274048 0.1687663346529007
0.46960416436195374 0.4066237211227417 0.1744389683008194
0.69886857271194458 0.41942107677459717 0.18249677121639252
0.88356584310531616 0.44418790936470032 0.20673485100269318
0.99253374338150024 0.47583881020545959 0.23659603297710419
0.0064836088567972183 0.59214121103286743 0.15891140699386597
0.10988153517246246 0.6194995641708374 0.17997641861438751
0.30162951350212097 0.64360755681991577 0.20167958736419678
0.53581100702285767 0.65440493822097778 0.21232005953788757
0.75649207830429077 0.66654109954833984 0.21976982057094574
0.92748719453811646 0.68712353706359863 0.23962420225143433
0.99968481063842773 0.70862293243408203 0.26548871397972107
0.061837572604417801 0.81912261247634888 0.22205394506454468
0.19581344723701477 0.84599274396896362 0.23764720559120178
0.3897145688533783 0.86072695255279541 0.25337740778923035
0.61220395565032959 0.86031794548034668 0.26024433970451355
0.81693464517593384 0.86035871505737305 0.26290613412857056
0.96777695417404175 0.86889272928237915 0.27649030089378357
1 0.88183653354644775 0.29810172319412231
0.13642808794975281 0.99394625425338745 0.30624639987945557
0.28769180178642273 0.99912053346633911 0.31310892105102539
0.47827574610710144 1 0.3179478645324707
0.68461668491363525 0.99843209981918335 0.31632205843925476
0.8695138692855835 0.99511182308197021 0.31213745474815369
0.99216634035110474 0.99476337432861328 0.31844231486320496
1 0.99809283018112183 0.33392530679702759
0.0023697647266089916 9.1014189820270985e-05 0.19665384292602539
0.0047803241759538651 0 0.20672941207885742
0.084449276328086853 0 0.21364514529705048
0.26055142283439636 0 0.21174663305282593
0.47199392318725586 0 0.2042662650346756
0.65425980091094971 0 0.1979319155216217
0.79918378591537476 0 0.20471665263175964
0.0059510325081646442 0.030380982905626297 0.2404225766658783
0.011615319177508354 0.029514940455555916 0.2477218359708786
0.1216600313782692 0.020250627771019936 0.25384029746055603
0.32037866115570068 0.014977399259805679 0.25283986330032349
0.54280537366867065 0.024963991716504097 0.25119534134864807
0.73053658008575439 0.018219636753201485 0.25414985418319702
0.87444770336151123 0.028389619663357735 0.26960346102714539
0.00022850785171613097 0.14926707744598389 0.27198907732963562
0.030670465901494026 0.15980195999145508 0.28366050124168396
0.1813553124666214 0.1691976934671402 0.29589036107063293
0.40115979313850403 0.17036983370780945 0.30021855235099792
0.62909579277038574 0.17888353765010834 0.30910903215408325
0.82229292392730713 0.19531507790088654 0.33062970638275146
0.96219396591186523 0.22987775504589081 0.35853961110115051
0 0.35396245121955872 0.29459375143051147
0.05613231286406517 0.3769092857837677 0.31576186418533325
0.24300633370876312 0.40305444598197937 0.33841407299041748
0.47675761580467224 0.41218408942222595 0.34744369983673096
0.70401084423065186 0.42389553785324097 0.36083927750587463
0.8897024393081665 0.45019647479057312 0.38813260197639465
0.99778079986572266 0.48353174328804016 0.41730839014053345
0.0044790678657591343 0.59718257188796997 0.32846260070800781
0.11036975681781769 0.62498944997787476 0.3562052845954895
0.30990946292877197 0.6463281512260437 0.38135945796966553
0.54336535930633545 0.65594077110290527 0.39312949776649475
0.76195639371871948 0.66828280687332153 0.40484124422073364
0.93507248163223267 0.68913298845291138 0.42542466521263123
1 0.70998692512512207 0.44707590341567993
0.05987466499209404 0.82021313905715942 0.39942067861557007
0.19798532128334045 0.84546792507171631 0.42227774858474731
0.39521104097366333 0.85699522495269775 0.43912014365196228
0.61563950777053833 0.85614794492721558 0.44546759128570557
0.81942987442016602 0.85693901777267456 0.45081791281700134
0.97206872701644897 0.86472296714782715 0.46267062425613403
1 0.87918883562088013 0.47425130009651184
0.14084242284297943 0.99211126565933228 0.4864862859249115
0.29355230927467346 0.99826067686080933 0.49874225258827209
0.48280838131904602 0.99898809194564819 0.50220131874084473
0.68471741676330566 0.99680715799331665 0.49822697043418884
0.86696672439575195 0.99269372224807739 0.49518340826034546
0.9924931526184082 0.99206292629241943 0.49868375062942505
1 0.99709904193878174 0.50256979465484619
0 0 0.36802098155021667
0.0048945257440209389 0 0.3771832287311554
0.090180568397045135 0 0.38555771112442017
0.26287195086479187 0 0.38717207312583923
0.47421619296073914 0 0.38437733054161072
0.66218221187591553 0 0.38341397047042847
0.80754554271697998 0 0.3896690309047699
0.0025084849912673235 0.015505397692322731 0.41927388310432434
0.011583455838263035 0.019949968904256821 0.42520514130592346
0.12391725182533264 0.015865804627537727 0.43354490399360657
0.32149228453636169 0.014975035563111305 0.43663272261619568
0.54665869474411011 0.024525916203856468 0.43749049305915833
0.73854982852935791 0.016738995909690857 0.4473881721496582
0.88401222229003906 0.023599183186888695 0.46635329723358154
0 0.14390692114830017 0.45335876941680908
0.024658937007188797 0.16027794778347015 0.46636208891868591
0.17946599423885345 0.16755825281143188 0.48102918267250061
0.40249425172805786 0.17005842924118042 0.48769250512123108
0.63394331932067871 0.17970724403858185 0.4970969557762146
0.83025211095809937 0.19514663517475128 0.52176618576049805
0.97297543287277222 0.2302558571100235 0.5520511269569397
9.0655157691799104e-05 0.35191404819488525 0.48393481969833374
0.055599138140678406 0.3820003867149353 0.50593316555023193
0.24775613844394684 0.40490064024925232 0.52685284614562988
0.48437625169754028 0.41208034753799438 0.53565192222595215
0.70988583564758301 0.42783060669898987 0.55003011226654053
0.89312845468521118 0.45482602715492249 0.57717782258987427
0.99850177764892578 0.48863327503204346 0.60326516628265381
0.0042359596118330956 0.59949088096618652 0.52511012554168701
0.11275719851255417 0.62894350290298462 0.55279761552810669
0.31747913360595703 0.64821434020996094 0.5719037652015686
0.5516020655632019 0.65715253353118896 0.58097529411315918
0.76406282186508179 0.67324626445770264 0.59378379583358765
0.9256780743598938 0.69189953804016113 0.61170035600662231
0.99744898080825806 0.71304535865783691 0.62639534473419189
0.051115598529577255 0.82281720638275146 0.59314966201782227
0.19795183837413788 0.8471798300743103 0.61596572399139404
0.40056741237640381 0.85498648881912231 0.62640106678009033
0.61992776393890381 0.85259997844696045 0.62842893600463867
0.81895899772644043 0.85466307401657104 0.63280379772186279
0.96666222810745239 0.86169981956481934 0.64079344272613525
1 0.87678670883178711 0.64431315660476685
0.14206928014755249 0.98996818065643311 0.6736331582069397
0.29660147428512573 0.99774599075317383 0.68441444635391235
0.48702052235603333 0.99787634611129761 0.68142741918563843
0.68599522113800049 0.9930802583694458 0.67283612489700317
0.8642238974571228 0.98826265335083008 0.66698718070983887
0.98985749483108521 0.98835676908493042 0.66582542657852173
1 0.99491202831268311 0.66303598880767822
0 0 0.54008716344833374
0.00014675364946015179 0 0.55116617679595947
0.081823788583278656 0 0.56239032745361328
0.25857111811637878 0 0.56443995237350464
0.473248690366745 0 0.55892521142959595
0.66780799627304077 0 0.55865520238876343
0.81752067804336548 0 0.56392031908035278
0 0.0041237175464630127 0.58867090940475464
0.0059586018323898315 0.0083062415942549706 0.59780848026275635
0.12082725763320923 0.01832021027803421 0.60936719179153442
0.32419392466545105 0.026611732318997383 0.61252260208129883
0.55244332551956177 0.026260539889335632 0.6094551682472229
0.75053554773330688 0.02463848702609539 0.62174141407012939
0.89525920152664185 0.04020150750875473 0.64462608098983765
0.00032154159271158278 0.13496170938014984 0.62109601497650146
0.036659795790910721 0.15313868224620819 0.63730108737945557
0.18368068337440491 0.16846367716789246 0.65313780307769775
0.40929180383682251 0.17691823840141296 0.66001689434051514
0.64488315582275391 0.18351048231124878 0.66413670778274536
0.84206122159957886 0.1989264041185379 0.68617504835128784
0.97678667306900024 0.23403643071651459 0.71234613656997681
0.0082811992615461349 0.35320296883583069 0.65061700344085693
0.080368548631668091 0.38451793789863586 0.67477834224700928
0.2554725706577301 0.4082980751991272 0.69187390804290771
0.49222278594970703 0.42080909013748169 0.70050394535064697
0.72277510166168213 0.43617880344390869 0.7117425799369812
0.90517628192901611 0.4599187970161438 0.73410391807556152
0.99972730875015259 0.49022248387336731 0.75370222330093384
0.0086704175919294357 0.60880917310714722 0.68734240531921387
0.1301686018705368 0.63802659511566162 0.71635240316390991
0.32917505502700806 0.65703862905502319 0.73019427061080933
0.56068474054336548 0.665141761302948 0.73572838306427002
0.77400714159011841 0.67766135931015015 0.74494248628616333
0.93291372060775757 0.69501835107803345 0.75906288623809814
0.99931657314300537 0.71418029069900513 0.76913821697235107
0.047295186668634415 0.83458924293518066 0.74779975414276123
0.20524400472640991 0.85670989751815796 0.76907068490982056
0.41043168306350708 0.86142456531524658 0.77394372224807739
0.62705457210540771 0.85488927364349365 0.77056580781936646
0.82137119770050049 0.85593932867050171 0.77080142498016357
0.97109901905059814 0.86219996213912964 0.77733981609344482
1 0.87505459785461426 0.7803533673286438
0.13795711100101471 0.99392247200012207 0.81917834281921387
0.2995460033416748 0.99885612726211548 0.82730686664581299
0.49180743098258972 0.99799466133117676 0.81888866424560547
0.68879568576812744 0.99170351028442383 0.8050541877746582
0.86244481801986694 0.98710936307907104 0.79756242036819458
0.98520529270172119 0.9881366491317749 0.7970346212387085
1 0.99299710988998413 0.79681104421615601
0 0 0.69150811433792114
0 0 0.70627284049987793
0.071570314466953278 0 0.72179168462753296
0.25113680958747864 0.0035536224022507668 0.72282129526138306
0.46472331881523132 0 0.70964711904525757
0.66100925207138062 3.5005457903025672e-05 0.70425564050674438
0.81670421361923218 0.0080726323649287224 0.7078481912612915
0 0.0071076336316764355 0.73050934076309204
0.0018793143099173903 0.009218776598572731 0.74420845508575439
0.12043134123086929 0.033224906772375107 0.75958716869354248
0.32570275664329529 0.046518571674823761 0.76180571317672729
0.55201226472854614 0.032826308161020279 0.75076389312744141
0.75137060880661011 0.041030284017324448 0.75712317228317261
0.89968585968017578 0.084698587656021118 0.77647131681442261
0.00045142081216908991 0.14286050200462341 0.76028043031692505
0.047453876584768295 0.16188845038414001 0.77804183959960938
0.19437006115913391 0.18529525399208069 0.79472219944000244
0.41750338673591614 0.19888743758201599 0.80066168308258057
0.65120404958724976 0.19852647185325623 0.79875510931015015
0.84757333993911743 0.21706439554691315 0.81470304727554321
0.98002475500106812 0.26354128122329712 0.83754515647888184
0.012458741664886475 0.36329659819602966 0.78382980823516846
0.097856529057025909 0.39763069152832031 0.80628407001495361
0.26914632320404053 0.42340022325515747 0.82374304533004761
0.50269359350204468 0.43826636672019958 0.8327939510345459
0.73325186967849731 0.45132055878639221 0.84114658832550049
0.91583245992660522 0.47244474291801453 0.85957127809524536
1 0.50336062908172607 0.87655353546142578
0.017260473221540451 0.61893576383590698 0.81131762266159058
0.15095193684101105 0.64884614944458008 0.83838993310928345
0.3453734815120697 0.66903311014175415 0.85256332159042358
0.57140141725540161 0.67356449365615845 0.85767298936843872
0.78233003616333008 0.68063133955001831 0.86388778686523438
0.93686091899871826 0.69712036848068237 0.87580734491348267
0.99964523315429688 0.71609783172607422 0.88540422916412354
0.06291903555393219 0.8413425087928772 0.8670392632484436
0.22446222603321075 0.8643043041229248 0.88606154918670654
0.42414039373397827 0.86847537755966187 0.88749092817306519
0.6356428861618042 0.8579944372177124 0.88092613220214844
0.82793092727661133 0.85620856285095215 0.87947160005569458
0.96873617172241211 0.86311799287796021 0.88652360439300537
0.99992996454238892 0.87352371215820312 0.89383918046951294
0.14090202748775482 0.99721986055374146 0.93330192565917969
0.30673354864120483 0.99999570846557617 0.93921846151351929
0.49663865566253662 0.99848347902297974 0.92764890193939209
0.69078409671783447 0.99105054140090942 0.90885633230209351
0.86568707227706909 0.98772704601287842 0.90432727336883545
0.98864960670471191 0.9885251522064209 0.90811425447463989
0.9999014139175415 0.99090421199798584 0.9142192006111145
