assets/lut/jtsemple toastedgarden.cube
# Created by: G'MIC (https://gmic.eu)
TITLE "toastedgarden"
# LUT size
LUT_3D_SIZE 13
# Data domain
DOMAIN_MIN 0.0 0.0 0.0
DOMAIN_MAX 1.0 1.0 1.0
# LUT data points
0 0 0
0 0 0
0 0 0
0.0088599259033799171 0 0
0.067825525999069214 0 0
0.15033574402332306 0 0
0.24323143064975739 0 0
0.34114983677864075 0 0
0.4400724470615387 0 0
0.53500115871429443 0 0
0.62326955795288086 0 0
0.70252174139022827 0 0
0.77204614877700806 0 0
0 0 0
0 0 0
0.00010531556472415105 0 0
0.022046901285648346 0 0
0.090161912143230438 0 0
0.1764293760061264 0 0
0.27291619777679443 0 0
0.37479117512702942 0 0
0.47740581631660461 0 0
0.57611250877380371 0 0
0.66687297821044922 0 0
0.74690115451812744 0 0
0.81558036804199219 0 2.5670668037491851e-05
0 0.0082913115620613098 0
0 0.0081632575020194054 0
0.0018324758857488632 0.013627384789288044 0
0.041293170303106308 0.012361908331513405 0
0.11594285815954208 0.013839781284332275 0
0.2052825391292572 0.014689710922539234 0
0.3050994873046875 0.011391314677894115 0
0.41054102778434753 0.0092776874080300331 0
0.51652419567108154 0.0094147771596908569 0
0.61837303638458252 0.0097268195822834969 0
0.71156734228134155 0.0099355960264801979 3.5903033221984515e-06
0.79226338863372803 0.010534293949604034 0.0010338727151975036
0.85887759923934937 0.014430895447731018 0.0054441862739622593
0 0.062634080648422241 0
0 0.065896831452846527 0
0.0063895578496158123 0.074280023574829102 0
0.057940389961004257 0.075640283524990082 0
0.13935819268226624 0.075105510652065277 0
0.23385284841060638 0.071346744894981384 0
0.33815056085586548 0.067463502287864685 0
0.44704854488372803 0.067565232515335083 0
0.55570149421691895 0.071289360523223877 0
0.66006004810333252 0.075677730143070221 0
0.75540083646774292 0.079526238143444061 0.00055763393174856901
0.83660364151000977 0.084952577948570251 0.0063149398192763329
0.90059220790863037 0.095143169164657593 0.014816419221460819
0 0.1369265615940094 0.00058743346016854048
0.0001634036743780598 0.14241026341915131 2.0105699150008149e-05
0.018012881278991699 0.14991414546966553 5.1700368203455582e-05
0.076442018151283264 0.15574276447296143 9.1911766503471881e-05
0.16070863604545593 0.15890957415103912 0.00011058134259656072
0.26098534464836121 0.15595781803131104 0.00041162827983498573
0.37074315547943115 0.15343166887760162 0.00031433106050826609
0.48309990763664246 0.15686865150928497 0
0.59351098537445068 0.16337050497531891 0
0.69851690530776978 0.17097929120063782 0
0.79531347751617432 0.17914570868015289 0.0012046664487570524
0.87664663791656494 0.18902602791786194 0.0092555172741413116
0.93697476387023926 0.20250016450881958 0.018896752968430519
0 0.22231234610080719 0.0025650174356997013
0.0018613029969856143 0.22920899093151093 0.0016963285161182284
0.026724047958850861 0.23836654424667358 0.0020727717783302069
0.088919423520565033 0.24859218299388885 0.0020060969982296228
0.17993418872356415 0.2571260929107666 0.0013883104547858238
0.28726419806480408 0.2607215940952301 0.00097974890377372503
0.40245512127876282 0.26334911584854126 0.00026029697619378567
0.51813161373138428 0.26879635453224182 0
0.62864679098129272 0.27644938230514526 0
0.73219996690750122 0.28563231229782104 0
0.82740062475204468 0.29628393054008484 0.00094465370057150722
0.90721768140792847 0.30917215347290039 0.0084991455078125
0.96408820152282715 0.32353714108467102 0.01932310126721859
0.00091237085871398449 0.32230448722839355 0.0035491345915943384
0.0097668962553143501 0.33292177319526672 0.0028908522799611092
0.040771692991256714 0.34603437781333923 0.0028250899631530046
0.10648360848426819 0.35996687412261963 0.0025841507595032454
0.20269015431404114 0.37151452898979187 0.0022585401311516762
0.31561818718910217 0.37923732399940491 0.0013820573221892118
0.43495863676071167 0.3855208158493042 0.00035131117329001427
0.55274266004562378 0.39277854561805725 0
0.66294324398040771 0.40128269791603088 0
0.76401501893997192 0.41121757030487061 3.2312730127159739e-06
0.85588991641998291 0.42353498935699463 0.0012228423729538918
0.93105685710906982 0.43780982494354248 0.0083930520340800285
0.98307681083679199 0.4517570436000824 0.019101880490779877
0.0051419278606772423 0.43720546364784241 0.0036524005699902773
0.025683773681521416 0.45145511627197266 0.0022887436207383871
0.065278448164463043 0.46877628564834595 0.0022671569604426622
0.13508224487304688 0.48439216613769531 0.0022752350196242332
0.2338591068983078 0.4952419102191925 0.0024342855904251337
0.34920966625213623 0.50322502851486206 0.0022940242197364569
0.47023582458496094 0.51053452491760254 0.0014887491706758738
0.58853083848953247 0.5187143087387085 0.00079691270366311073
0.6986348032951355 0.52785813808441162 0.00065211876062676311
0.79804611206054688 0.53833311796188354 0.0013073341688141227
0.88470298051834106 0.55088871717453003 0.0044576609507203102
0.95195317268371582 0.56578439474105835 0.01145610399544239
0.99337637424468994 0.579029381275177 0.020432639867067337
0.016933605074882507 0.55851942300796509 0.0048448452726006508
0.049484957009553909 0.57492035627365112 0.0035663680173456669
0.09866015613079071 0.59379202127456665 0.0033263859804719687
0.17340740561485291 0.60912543535232544 0.0036942276638001204
0.27397274971008301 0.61815786361694336 0.0046200621873140335
0.38950708508491516 0.62465226650238037 0.0050103282555937767
0.50988787412643433 0.63111770153045654 0.0054025240242481232
0.62723803520202637 0.63902735710144043 0.0055005690082907677
0.73592758178710938 0.64795804023742676 0.006577600259333849
0.83213746547698975 0.65731692314147949 0.008367905393242836
0.91211152076721191 0.66857415437698364 0.012373846024274826
0.96983712911605835 0.68278193473815918 0.018185889348387718
0.99795478582382202 0.69517683982849121 0.024506721645593643
0.036572892218828201 0.67841404676437378 0.0093850381672382355
0.080751754343509674 0.69476222991943359 0.0080170128494501114
0.14031633734703064 0.71121817827224731 0.0079792691394686699
0.22076360881328583 0.7243725061416626 0.0085126245394349098
0.32150012254714966 0.73243945837020874 0.010017589665949345
0.43528148531913757 0.7374463677406311 0.011575392447412014
0.55342108011245728 0.74206435680389404 0.012865656986832619
0.66842412948608398 0.74757242202758789 0.014720198698341846
0.7739683985710144 0.7542722225189209 0.017285799607634544
0.86460965871810913 0.76116973161697388 0.019747819751501083
0.9359285831451416 0.76950764656066895 0.02351868525147438
0.98368841409683228 0.78038877248764038 0.028051428496837616
0.99964094161987305 0.78974771499633789 0.033074293285608292
0.062088612467050552 0.79304742813110352 0.020074088126420975
0.11642738431692123 0.80746269226074219 0.018150044605135918
0.18518228828907013 0.82065588235855103 0.017964337021112442
0.27059650421142578 0.83063840866088867 0.019434386864304543
0.37149879336357117 0.83659929037094116 0.021336035802960396
0.48310354351997375 0.83949273824691772 0.022959496825933456
0.59852832555770874 0.84134316444396973 0.025030547752976418
0.71042615175247192 0.84302324056625366 0.026667725294828415
0.8118208646774292 0.84563785791397095 0.028970172628760338
0.89528548717498779 0.84896790981292725 0.0314304418861866
0.95555061101913452 0.85393685102462769 0.034729961305856705
0.99153625965118408 0.86079376935958862 0.038715556263923645
0.99997663497924805 0.86674433946609497 0.043767202645540237
0.09124341607093811 0.90104109048843384 0.03655923530459404
0.15411785244941711 0.91273045539855957 0.035480454564094543
0.22970834374427795 0.92209994792938232 0.035484403371810913
0.31854158639907837 0.92869049310684204 0.035733569413423538
0.4194791316986084 0.93190407752990723 0.03737366572022438
0.52866578102111816 0.9321213960647583 0.038874037563800812
0.64062422513961792 0.93061894178390503 0.03980477899312973
0.74915701150894165 0.9285353422164917 0.041167959570884705
0.8464738130569458 0.92640143632888794 0.042280368506908417
0.92272394895553589 0.92607444524765015 0.044337417930364609
0.9709925651550293 0.92759907245635986 0.046964548528194427
0.99493134021759033 0.93064337968826294 0.050536241382360458
0.99993699789047241 0.93447589874267578 0.055852178484201431
0.12244311720132828 0.98882895708084106 0.058326423168182373
0.19136443734169006 0.99273347854614258 0.056410681456327438
0.27173355221748352 0.99533259868621826 0.056250955909490585
0.36248084902763367 0.99671709537506104 0.056719865649938583
0.46245437860488892 0.99719667434692383 0.057226277887821198
0.56844526529312134 0.99666213989257812 0.057734053581953049
0.67600905895233154 0.99551635980606079 0.058097328990697861
0.77972471714019775 0.99376296997070312 0.058652631938457489
0.87196815013885498 0.9919590950012207 0.05908660963177681
0.94212013483047485 0.99031895399093628 0.060169879347085953
0.98109817504882812 0.98990416526794434 0.061990715563297272
0.99676531553268433 0.99052006006240845 0.065192714333534241
0.99975204467773438 0.99168747663497925 0.070427358150482178
0 0 0
0 0 0
0 0 0
0.0093277124688029289 0 0
0.068660572171211243 0 0
0.15215247869491577 0 0
0.24656218290328979 0 0
0.34687104821205139 0 0
0.4480232298374176 0 0
0.54513305425643921 0 0
0.63430726528167725 0 0
0.71372520923614502 0 0
0.78336954116821289 0 0
0 0 0
0 0 0
0.00010531556472415105 0 0
0.024511599913239479 0 0
0.091836564242839813 0.00015780878311488777 0.0002053653442999348
0.17876645922660828 7.1088004915509373e-05 0
0.27609562873840332 0 0
0.38020601868629456 0 0
0.48534306883811951 0 0
0.58596104383468628 0 0
0.67768281698226929 0 0
0.75820374488830566 0 0.00015978346345946193
0.82681167125701904 2.3531445549451746e-05 0.0017954658251255751
0 0.0079851187765598297 9.5876057457644492e-05
0 0.011335829272866249 0
0.002701000077649951 0.016669463366270065 0
0.043898742645978928 0.015899732708930969 0
0.11784696578979492 0.017907401546835899 1.7113779904320836e-05
0.20737315714359283 0.016995163634419441 3.2911113521549851e-05
0.30834853649139404 0.011254598386585712 5.2657782362075523e-05
0.41586163640022278 0.0091737033799290657 0
0.52457016706466675 0.010891723446547985 2.7974447220913135e-05
0.62830275297164917 0.013200707733631134 0.00034751143539324403
0.72227752208709717 0.015792980790138245 0.0022740683052688837
0.80297333002090454 0.019248722121119499 0.0086142150685191154
0.86999434232711792 0.027159104123711586 0.01757781021296978
0 0.065915115177631378 0.00088272092398256063
0.00010613834456307814 0.071270644664764404 0
0.0116818742826581 0.075794726610183716 5.3316005505621433e-05
0.063610956072807312 0.076723568141460419 8.1455007602926344e-05
0.14237204194068909 0.078141562640666962 6.7467779444996268e-05
0.23714183270931244 0.073721043765544891 0.0012819328112527728
0.34280619025230408 0.067867755889892578 0.0025358311831951141
0.45400020480155945 0.067638173699378967 0.0018448025221005082
0.56508356332778931 0.072745367884635925 0.0017789354315027595
0.67053365707397461 0.079676806926727295 0.0041798311285674572
0.76593875885009766 0.086682640016078949 0.011462417431175709
0.84673845767974854 0.095510281622409821 0.022859759628772736
0.91097098588943481 0.10803704708814621 0.033599600195884705
0 0.14214052259922028 0.0047603682614862919
0.00062415929278358817 0.14677023887634277 0.0023590386845171452
0.024579185992479324 0.15101487934589386 0.0030599406454712152
0.084599606692790985 0.15615373849868774 0.0037548139225691557
0.16656875610351562 0.1611192524433136 0.004555676132440567
0.26665118336677551 0.15926431119441986 0.0075494204647839069
0.3778778612613678 0.15648055076599121 0.0082723135128617287
0.49253097176551819 0.15893569588661194 0.0055855545215308666
0.60441279411315918 0.1657387763261795 0.004775073379278183
0.7099844217300415 0.17459785938262939 0.0080203339457511902
0.80572128295898438 0.18464703857898712 0.018089205026626587
0.88593477010726929 0.1967955082654953 0.031990066170692444
0.94663745164871216 0.21201451122760773 0.044756557792425156
0 0.2279365211725235 0.011070909909904003
0.0010441200574859977 0.23340202867984772 0.0097008049488067627
0.029806967824697495 0.24137388169765472 0.010868790559470654
0.095805630087852478 0.25169679522514343 0.012730392627418041
0.18687628209590912 0.26102930307388306 0.013750666752457619
0.29493415355682373 0.26544174551963806 0.014318488538265228
0.41216194629669189 0.26828572154045105 0.011985943652689457
0.53003889322280884 0.27344360947608948 0.0079671526327729225
0.64121401309967041 0.28057736158370972 0.0063469680026173592
0.74432921409606934 0.28983327746391296 0.0093845445662736893
0.83909827470779419 0.3016970157623291 0.020644618198275566
0.91801989078521729 0.31582427024841309 0.037122674286365509
0.97452270984649658 0.33166360855102539 0.051800761371850967
1.0770910421342705e-06 0.32909104228019714 0.01671670563519001
0.0050999061204493046 0.33840003609657288 0.015467191115021706
0.040831472724676132 0.35107356309890747 0.016914801672101021
0.11131265759468079 0.36528745293617249 0.01899871788918972
0.20926792919635773 0.3772435188293457 0.02022133581340313
0.32395443320274353 0.38556033372879028 0.019421057775616646
0.44584494829177856 0.39234456419944763 0.016101224347949028
0.56588977575302124 0.39952775835990906 0.011820086278021336
0.67648392915725708 0.4072718620300293 0.010608014650642872
0.77705323696136475 0.41665416955947876 0.013400432653725147
0.86952465772628784 0.42926573753356934 0.025397596880793571
0.94523882865905762 0.44400790333747864 0.042792242020368576
0.99235826730728149 0.45891052484512329 0.057676997035741806
0.001198248821310699 0.44482883810997009 0.021158389747142792
0.019749749451875687 0.45831030607223511 0.020244553685188293
0.064161621034145355 0.47507569193840027 0.021127574145793915
0.13832437992095947 0.49095010757446289 0.02330474928021431
0.23943530023097992 0.50273674726486206 0.025055918842554092
0.35712191462516785 0.51133155822753906 0.025379570201039314
0.4804302453994751 0.51878446340560913 0.02377675287425518
0.60078328847885132 0.52657485008239746 0.02180379256606102
0.7116275429725647 0.53489243984222412 0.021804271265864372
0.81178325414657593 0.54465150833129883 0.026187552139163017
0.90002578496932983 0.55698400735855103 0.037249621003866196
0.96824949979782104 0.5716015100479126 0.051570173352956772
0.9991183876991272 0.58504718542098999 0.063982702791690826
0.011056952178478241 0.56677192449569702 0.027561936527490616
0.045104920864105225 0.5831640362739563 0.026830127462744713
0.097972691059112549 0.6013990044593811 0.027570402249693871
0.17636395990848541 0.61694967746734619 0.030072171241044998
0.2789054811000824 0.62713658809661865 0.032623633742332458
0.39640367031097412 0.63400042057037354 0.034482993185520172
0.51867163181304932 0.64013326168060303 0.034860122948884964
0.63757193088531494 0.6469728946685791 0.035682514309883118
0.74749350547790527 0.65483927726745605 0.037655100226402283
0.84530550241470337 0.66382819414138794 0.042857613414525986
0.92745828628540039 0.67483532428741455 0.052084829658269882
0.98478299379348755 0.68786215782165527 0.062838897109031677
0.99999856948852539 0.69956737756729126 0.071817882359027863
0.032607283443212509 0.6871868371963501 0.038755051791667938
0.077555052936077118 0.70381027460098267 0.037514779716730118
0.13993577659130096 0.720753014087677 0.038994267582893372
0.22294721007347107 0.73405396938323975 0.041561558842658997
0.32574528455734253 0.74257081747055054 0.044733084738254547
0.44130551815032959 0.74738591909408569 0.047252535820007324
0.56109863519668579 0.75120288133621216 0.049152106046676636
0.67732912302017212 0.75551021099090576 0.050896767526865005
0.78410136699676514 0.76107072830200195 0.05389818549156189
0.87667238712310791 0.76752668619155884 0.059040743857622147
0.9510796070098877 0.77570909261703491 0.06695074588060379
0.99564599990844727 0.78586828708648682 0.07570870965719223
1 0.7948683500289917 0.082902587950229645
0.060671862214803696 0.80148059129714966 0.056068688631057739
0.1152394637465477 0.8167116641998291 0.05504157766699791
0.18564131855964661 0.83046227693557739 0.055982731282711029
0.27294018864631653 0.8407137393951416 0.058905225247144699
0.37559133768081665 0.84673893451690674 0.061513669788837433
0.48867100477218628 0.84927111864089966 0.063925497233867645
0.60522359609603882 0.84989595413208008 0.06586533784866333
0.71805399656295776 0.85054689645767212 0.067250646650791168
0.82026904821395874 0.8520781397819519 0.069552116096019745
0.90550243854522705 0.85509967803955078 0.07367580384016037
0.96866321563720703 0.85999387502670288 0.080334968864917755
0.99905824661254883 0.86686021089553833 0.087715834379196167
1 0.87325537204742432 0.095228888094425201
0.091790474951267242 0.90824431180953979 0.079183138906955719
0.15510903298854828 0.92082363367080688 0.077869296073913574
0.23147569596767426 0.93116629123687744 0.078761786222457886
0.32166945934295654 0.93798071146011353 0.080793820321559906
0.42403778433799744 0.94086885452270508 0.082713916897773743
0.53430837392807007 0.94050472974777222 0.084391169250011444
0.6471937894821167 0.93802672624588013 0.085163548588752747
0.7558901309967041 0.93479418754577637 0.085122369229793549
0.85298943519592285 0.93208372592926025 0.086421191692352295
0.93027150630950928 0.93112277984619141 0.089193083345890045
0.98228365182876587 0.93297463655471802 0.094304747879505157
0.99993646144866943 0.93701720237731934 0.10097582638263702
1 0.94157606363296509 0.10893014818429947
0.12521283328533173 0.99134540557861328 0.10658536106348038
0.19446897506713867 0.99540168046951294 0.10496944189071655
0.27514845132827759 0.99747997522354126 0.10522028803825378
0.36690628528594971 0.99840682744979858 0.10639747232198715
0.46785411238670349 0.99871665239334106 0.10722967237234116
0.57470846176147461 0.99827682971954346 0.10750652849674225
0.68277204036712646 0.99742662906646729 0.10736573487520218
0.78603953123092651 0.9958183765411377 0.10665411502122879
0.87742120027542114 0.99372744560241699 0.10639780014753342
0.94750368595123291 0.99243360757827759 0.10779654979705811
0.99052953720092773 0.99247092008590698 0.11170468479394913
1 0.99336659908294678 0.11751967668533325
1 0.99475795030593872 0.12508445978164673
0 0 2.154182038793806e-05
0 0 0.00035089231096208096
0 0 0.0010890287812799215
0.010007850825786591 0 0.0021357967052608728
0.06911468505859375 0.00046012728125788271 0.0040341992862522602
0.15341408550739288 0 0.0039208955131471157
0.24947915971279144 0 0.0015933167887851596
0.35244801640510559 0 0.00031804104219190776
0.45600825548171997 0 3.7698184314649552e-05
0.55403053760528564 0 0
0.64322042465209961 0 0
0.7222294807434082 0 2.5132123482762836e-05
0.79148203134536743 0 0.00054448447190225124
0.00028412762912921607 0 0.0021309347357600927
0 0 0.0034625933039933443
0.00028318515978753567 0 0.0050040152855217457
0.025495462119579315 0.00011337878822814673 0.0080365650355815887
0.092513062059879303 0.00064012117218226194 0.010569733567535877
0.17946112155914307 0.00013213812781032175 0.008794059045612812
0.27797773480415344 0 0.004487939178943634
0.38448247313499451 0 0.002396751893684268
0.49227407574653625 0 0.0020187676418572664
0.59402942657470703 0 0.0021748412400484085
0.68561559915542603 7.1746224421076477e-05 0.0030283760279417038
0.76556521654129028 0.00047421923954971135 0.0056049120612442493
0.83393251895904541 0.0019958196207880974 0.011625237762928009
0.0014274447457864881 0.012185623869299889 0.0083104297518730164
0 0.011820116080343723 0.0079844901338219643
0.0027144786436110735 0.018096564337611198 0.0073157665319740772
0.042997922748327255 0.021529223769903183 0.010211720131337643
0.11780818551778793 0.022406425327062607 0.012612062506377697
0.20802962779998779 0.017041822895407677 0.012011329643428326
0.30999070405960083 0.0094971004873514175 0.0094544058665633202
0.41979789733886719 0.0091182785108685493 0.0085638305172324181
0.53103119134902954 0.013752985745668411 0.0097423326224088669
0.63570773601531982 0.019864415749907494 0.012885403819382191
0.72931396961212158 0.0258623156696558 0.018138198181986809
0.80961018800735474 0.033386379480361938 0.025697477161884308
0.87615334987640381 0.044104572385549545 0.035206962376832962
0 0.072075754404067993 0.012879420071840286
0.00012061923189321533 0.073486030101776123 0.010769788175821304
0.012806043028831482 0.077052310109138489 0.012313139624893665
0.06488502025604248 0.080972440540790558 0.014747424982488155
0.14438992738723755 0.08203423023223877 0.015761731192469597
0.23960399627685547 0.075043998658657074 0.019154073670506477
0.34634467959403992 0.067925684154033661 0.020024856552481651
0.45952090620994568 0.068287387490272522 0.019940664991736412
0.5722956657409668 0.075790882110595703 0.021943993866443634
0.67829787731170654 0.085440061986446381 0.027484729886054993
0.77285659313201904 0.095640696585178375 0.036209899932146072
0.85240638256072998 0.10746919363737106 0.046997684985399246
0.91622710227966309 0.12217164784669876 0.058949459344148636
0 0.1474488377571106 0.020914055407047272
0.0003141365887131542 0.14928396046161652 0.019509334117174149
0.023433610796928406 0.1532181054353714 0.023109136149287224
0.085740722715854645 0.1601128876209259 0.027305977419018745
0.17083849012851715 0.16476014256477356 0.02932954765856266
0.27181357145309448 0.16250595450401306 0.032266341149806976
0.38402280211448669 0.15978926420211792 0.032472122460603714
0.50033128261566162 0.16182538866996765 0.031400132924318314
0.61358213424682617 0.16922050714492798 0.032812021672725677
0.71907413005828857 0.17926506698131561 0.039294134825468063
0.81319797039031982 0.19136223196983337 0.050656337291002274
0.89112985134124756 0.20575359463691711 0.064587809145450592
0.95105355978012085 0.22238437831401825 0.07842148095369339
0 0.23363764584064484 0.030637793242931366
0.00021803613344673067 0.23678392171859741 0.029845742508769035
0.027623793110251427 0.24433128535747528 0.033968113362789154
0.099049165844917297 0.25606271624565125 0.03948642686009407
0.19346041977405548 0.26575016975402832 0.04323698952794075
0.30256402492523193 0.27026423811912537 0.044788315892219543
0.42078661918640137 0.27302002906799316 0.043005790561437607
0.53991496562957764 0.27787423133850098 0.040200669318437576
0.65210127830505371 0.28504931926727295 0.041177518665790558
0.75546050071716309 0.29484906792640686 0.048108119517564774
0.84771192073822021 0.30766692757606506 0.061200294643640518
0.92300283908843994 0.32309615612030029 0.077743068337440491
0.97742694616317749 0.33984163403511047 0.093114249408245087
0 0.33657076954841614 0.039376143366098404
0.0027136858552694321 0.34376147389411926 0.039453066885471344
0.040526729077100754 0.35566499829292297 0.043424658477306366
0.11685262620449066 0.37022396922111511 0.048891764134168625
0.21726939082145691 0.38295888900756836 0.053238034248352051
0.33288517594337463 0.39152374863624573 0.054353136569261551
0.45558345317840576 0.39814159274101257 0.052248381078243256
0.57613587379455566 0.40499243140220642 0.049555610865354538
0.68741178512573242 0.41258102655410767 0.05092741921544075
0.78833210468292236 0.42219775915145874 0.057880371809005737
0.87789225578308105 0.43497255444526672 0.071857988834381104
0.948860764503479 0.45023623108863831 0.089159227907657623
0.99322539567947388 0.46576789021492004 0.10469859838485718
0.00027280321228317916 0.45320576429367065 0.047880765050649643
0.016520855948328972 0.46549740433692932 0.048344302922487259
0.066472344100475311 0.48064726591110229 0.052460163831710815
0.14514592289924622 0.49622496962547302 0.05785682424902916
0.24819287657737732 0.50894594192504883 0.062417212873697281
0.3659396767616272 0.51796144247055054 0.064290560781955719
0.48938795924186707 0.52515482902526855 0.063960105180740356
0.60962808132171631 0.53245049715042114 0.063387133181095123
0.7203182578086853 0.54034388065338135 0.065418124198913574
0.81980741024017334 0.55012524127960205 0.072703495621681213
0.90507841110229492 0.56248056888580322 0.085796982049942017
0.96884310245513916 0.57695168256759644 0.10122490674257278
0.99849146604537964 0.59064316749572754 0.11453542113304138
