assets/lut/jtsemple brightgreen.cube
# Created by: G'MIC (https://gmic.eu)
TITLE "brightgreen"
# LUT size
LUT_3D_SIZE 7
# Data domain
DOMAIN_MIN 0.0 0.0 0.0
DOMAIN_MAX 1.0 1.0 1.0
# LUT data points
0 0 0
0 0 0
0.088896945118904114 0 0
0.2580934464931488 0 0
0.43698737025260925 0 0
0.6213068962097168 0 0
0.81143593788146973 0 0
0 0.0040475283749401569 0.00044145769788883626
0.00036606134381145239 0.010688288137316704 0
0.11894579231739044 0.010524570010602474 0.0018134323181584477
0.29212886095046997 0.01389465294778347 0
0.47116315364837646 0.014250616542994976 0
0.6557384729385376 0.023583056405186653 0
0.84367150068283081 0.056549176573753357 0
9.3347889560391195e-06 0.16133648157119751 7.0788810262456536e-05
0.01759287528693676 0.1735331267118454 0
0.14586824178695679 0.18724387884140015 0
0.32618832588195801 0.18932260572910309 0
0.51072013378143311 0.19343183934688568 0
0.6968877911567688 0.19989402592182159 0.0001013213477563113
0.88523489236831665 0.212739497423172 0
0.001155853271484375 0.35238352417945862 0
0.042018651962280273 0.36335822939872742 0
0.17902590334415436 0.37824901938438416 0
0.36411774158477783 0.3911837637424469 0
0.5533447265625 0.40230664610862732 0
0.7424812912940979 0.40840387344360352 0
0.93082815408706665 0.4128032922744751 0
0.020442962646484375 0.54893982410430908 0
0.090826205909252167 0.5621187686920166 0
0.22957807779312134 0.57686984539031982 0
0.41023063659667969 0.58972835540771484 0
0.60112398862838745 0.60025006532669067 0
0.79141056537628174 0.60817641019821167 0
0.97540462017059326 0.61405962705612183 0.0032652162481099367
0.052083976566791534 0.74754446744918823 0.00016299977141898125
0.14880803227424622 0.76302272081375122 0
0.29159286618232727 0.77631932497024536 0
0.46588283777236938 0.78320235013961792 0
0.65258103609085083 0.78885692358016968 2.0105699150008149e-05
0.84042662382125854 0.7959936261177063 0.0014788758708164096
0.99763196706771851 0.80474036931991577 0.021501697599887848
0.094096437096595764 0.94357156753540039 0.022582873702049255
0.20699311792850494 0.95627588033676147 0.012992424890398979
0.35420197248458862 0.96527403593063354 0.0087285507470369339
0.52534776926040649 0.96831268072128296 0.0097474940121173859
0.70705139636993408 0.96966981887817383 0.011743463575839996
0.89151358604431152 0.97227984666824341 0.016253378242254257
1 0.97883975505828857 0.042570136487483978
0 0 0
0 0 0
0.086980752646923065 0 1.4361213288793806e-05
0.25607830286026001 0 3.4107881219824776e-05
0.43446022272109985 0 0.00030098709976300597
0.61891418695449829 0 0.0013166540302336216
0.80833333730697632 5.3675033996114507e-05 0.0014177808770909905
3.8894952012924477e-05 0.0049563688226044178 0.00040820252615958452
0.003118851687759161 0.012171173468232155 0.00025521073257550597
0.11692805588245392 0.011325282976031303 0.0016127342823892832
0.29020139575004578 0.017046445980668068 0.0025997236371040344
0.47083333134651184 0.022023100405931473 0.0029941783286631107
0.65699833631515503 0.030802827328443527 0.0071221892721951008
0.84599763154983521 0.052878480404615402 0.01794535294175148
0 0.16117410361766815 0.0098784500733017921
0.023103004321455956 0.1746334433555603 0.012139040045440197
0.15277709066867828 0.18883597850799561 0.0058698318898677826
0.32857170701026917 0.19602750241756439 0.0079687377437949181
0.51174366474151611 0.20290681719779968 0.013003330677747726
0.70018959045410156 0.20622900128364563 0.011765019968152046
0.88886165618896484 0.21113894879817963 0.02001119963824749
0.00013661103730555624 0.35562112927436829 0.019513627514243126
0.039117924869060516 0.36706551909446716 0.033365137875080109
0.18541574478149414 0.380329430103302 0.013218000531196594
0.36867472529411316 0.39612120389938354 0.025604996830224991
0.55614387989044189 0.40908095240592957 0.044051885604858398
0.7466309666633606 0.41540351510047913 0.044026482850313187
0.93496298789978027 0.41838371753692627 0.043390281498432159
0.011066826060414314 0.55385392904281616 0.030549995601177216
0.078924991190433502 0.56753909587860107 0.045669391751289368
0.22511650621891022 0.58190315961837769 0.041226211935281754
0.41183763742446899 0.59517520666122437 0.050202641636133194
0.60468268394470215 0.60619723796844482 0.063282161951065063
0.79616111516952515 0.61425000429153442 0.069683536887168884
0.97760921716690063 0.61850202083587646 0.091064900159835815
0.027496876195073128 0.75202971696853638 0.084808573126792908
0.12695275247097015 0.7683899998664856 0.082759276032447815
0.2801460325717926 0.78209114074707031 0.079728685319423676
0.46367883682250977 0.7881963849067688 0.090429820120334625
0.6551443338394165 0.7935175895690918 0.098240166902542114
0.84369313716888428 0.79928797483444214 0.10593444108963013
0.9980766773223877 0.80501466989517212 0.13380768895149231
0.06234225258231163 0.94727343320846558 0.14947754144668579
0.18005792796611786 0.96043699979782104 0.14370729029178619
0.33868157863616943 0.96858412027359009 0.14090174436569214
0.52024465799331665 0.97103720903396606 0.14736798405647278
0.70677506923675537 0.97223526239395142 0.15132749080657959
0.89093190431594849 0.9750177264213562 0.15722186863422394
1 0.97980636358261108 0.17832010984420776
0.0012994803255423903 0.00024620504700578749 0.069714643061161041
0 0.0031561010982841253 0.083661668002605438
0.093256980180740356 0.0036897696554660797 0.095477007329463959
0.25919011235237122 0.00096089980797842145 0.098097033798694611
0.43600130081176758 0 0.10247376561164856
0.62244153022766113 0 0.10723854601383209
0.81200355291366577 0.0040056416764855385 0.10621113330125809
0.00013397814473137259 0.0068374034017324448 0.10168845951557159
0.00031385236070491374 0.015578819438815117 0.11291749030351639
0.1192203164100647 0.011345492675900459 0.12046963721513748
0.292074054479599 0.022530574351549149 0.12188751995563507
0.47046715021133423 0.01934763602912426 0.13003154098987579
0.65973359346389771 0.030243009328842163 0.13479204475879669
0.85072940587997437 0.044414684176445007 0.14492300152778625
3.1115962428884814e-06 0.16557906568050385 0.12393999099731445
0.011519532650709152 0.17489618062973022 0.13847588002681732
0.15393996238708496 0.189383864402771 0.15194730460643768
0.32741698622703552 0.19668924808502197 0.15837050974369049
0.51095116138458252 0.19462254643440247 0.16287238895893097
0.7026246190071106 0.19616517424583435 0.16311591863632202
0.89365524053573608 0.2023361474275589 0.17357847094535828
0 0.35735452175140381 0.14892879128456116
0.031637784093618393 0.36971572041511536 0.17021028697490692
0.18336863815784454 0.38353416323661804 0.17881324887275696
0.36825010180473328 0.39644154906272888 0.18967877328395844
0.55675184726715088 0.40579947829246521 0.19855067133903503
0.74912023544311523 0.41261106729507446 0.20638453960418701
0.93914997577667236 0.41784653067588806 0.21975748240947723
0.0011520535917952657 0.55633044242858887 0.18011768162250519
0.072251290082931519 0.57054835557937622 0.19886445999145508
0.22352613508701324 0.58403700590133667 0.20812681317329407
0.41254639625549316 0.59637570381164551 0.21925200521945953
0.60600489377975464 0.60636645555496216 0.22957926988601685
0.79730600118637085 0.61441820859909058 0.24026744067668915
0.97889471054077148 0.61846494674682617 0.25611472129821777
0.0076704137027263641 0.75427365303039551 0.24492305517196655
0.11094845086336136 0.7689322829246521 0.25361323356628418
0.27362707257270813 0.78057557344436646 0.25838825106620789
0.46489241719245911 0.78794419765472412 0.2692151665687561
0.65766167640686035 0.79386204481124878 0.27643540501594543
0.84424293041229248 0.79936116933822632 0.28331273794174194
0.99793195724487305 0.80355000495910645 0.29858121275901794
0.037273183465003967 0.9492449164390564 0.31153330206871033
0.16052936017513275 0.9609944224357605 0.3161393404006958
0.32980233430862427 0.96787744760513306 0.31991592049598694
0.52103793621063232 0.97007375955581665 0.33150443434715271
0.70989149808883667 0.97216200828552246 0.33456659317016602
0.89134377241134644 0.97535210847854614 0.33642935752868652
1 0.97927141189575195 0.34696623682975769
0 0 0.24161429703235626
8.0781821452546865e-05 0 0.25819498300552368
0.084079280495643616 0 0.26746433973312378
0.25458410382270813 0 0.27375471591949463
0.43726825714111328 0.00022756539692636579 0.27522289752960205
0.62756836414337158 0.0058290818706154823 0.27896669507026672
0.81833606958389282 0.0014214908005669713 0.2828775942325592
0 0.024514561519026756 0.27300110459327698
0.0042367223650217056 0.022281736135482788 0.2884972095489502
0.11984501034021378 0.015332899056375027 0.29593133926391602
0.28993764519691467 0.032601077109575272 0.30231541395187378
0.47217658162117004 0.045972384512424469 0.30820825695991516
0.66176468133926392 0.051740698516368866 0.31337288022041321
0.85443341732025146 0.055337809026241302 0.31697428226470947
0 0.16911749541759491 0.29949560761451721
0.017102887853980064 0.17779912054538727 0.31410714983940125
0.15639373660087585 0.18915538489818573 0.32350063323974609
0.32835391163825989 0.19568288326263428 0.33514192700386047
0.51245647668838501 0.19905160367488861 0.34259900450706482
0.70483243465423584 0.20122940838336945 0.34967231750488281
0.89612632989883423 0.20520108938217163 0.35535559058189392
0 0.35978126525878906 0.32632982730865479
0.041664902120828629 0.37390473484992981 0.34627380967140198
0.18635813891887665 0.38802841305732727 0.35910925269126892
0.36863821744918823 0.39745306968688965 0.369545578956604
0.55850589275360107 0.40411874651908875 0.37718898057937622
0.75132566690444946 0.40976810455322266 0.38827022910118103
0.94096136093139648 0.41202414035797119 0.39713051915168762
0.00063763785874471068 0.55943119525909424 0.36455672979354858
0.077288925647735596 0.57418447732925415 0.38348844647407532
0.22801896929740906 0.58729821443557739 0.39639002084732056
0.41520828008651733 0.59764140844345093 0.40649792551994324
0.60793071985244751 0.60616421699523926 0.41450333595275879
0.79845386743545532 0.61271625757217407 0.42489048838615417
0.9796137809753418 0.61458331346511841 0.43415364623069763
0.0070016002282500267 0.75794059038162231 0.42067080736160278
0.11364281177520752 0.77111196517944336 0.43546903133392334
0.27593773603439331 0.78182733058929443 0.44592693448066711
0.46682754158973694 0.78879296779632568 0.45654061436653137
0.6596372127532959 0.79412835836410522 0.46284747123718262
0.8452797532081604 0.79854291677474976 0.46809878945350647
0.99815601110458374 0.80177170038223267 0.47478872537612915
0.032939866185188293 0.9529680609703064 0.47794786095619202
0.15906985104084015 0.96311718225479126 0.49033451080322266
0.32872974872589111 0.96866542100906372 0.50033891201019287
0.5206596851348877 0.97113972902297974 0.5118178129196167
0.71066784858703613 0.97261154651641846 0.51500242948532104
0.89289838075637817 0.97496563196182251 0.51507729291915894
1 0.9785006046295166 0.51864391565322876
0 0 0.40474924445152283
0.010906174778938293 0 0.41948667168617249
0.10247575491666794 0 0.42995965480804443
0.2586510181427002 0 0.43728077411651611
0.44038361310958862 0 0.44159731268882751
0.62982302904129028 0 0.44489046931266785
0.82111591100692749 0 0.44744369387626648
0 0.023007158190011978 0.43662574887275696
0.013725879602134228 0.016211297363042831 0.45083600282669067
0.11949007958173752 0.013567831367254257 0.46028280258178711
0.28624776005744934 0.036091599613428116 0.46955475211143494
0.47267252206802368 0.053945206105709076 0.47667258977890015
0.66306138038635254 0.05359567329287529 0.48184162378311157
0.85477942228317261 0.043768100440502167 0.48339226841926575
0 0.17212577164173126 0.46669405698776245
0.024179929867386818 0.17791299521923065 0.48016089200973511
0.14910082519054413 0.18399105966091156 0.49027195572853088
0.32563039660453796 0.19703830778598785 0.50139307975769043
0.5153501033782959 0.20852333307266235 0.51033097505569458
0.70839238166809082 0.21235547959804535 0.51755440235137939
0.89822816848754883 0.20918440818786621 0.52169120311737061
0 0.36258184909820557 0.4987771213054657
0.052895326167345047 0.37667649984359741 0.51506465673446655
0.19051794707775116 0.38864105939865112 0.52729880809783936
0.37237399816513062 0.39939418435096741 0.5374138355255127
0.56358307600021362 0.40974283218383789 0.54534363746643066
0.75625425577163696 0.41777047514915466 0.55420911312103271
0.94432687759399414 0.41615942120552063 0.56026685237884521
0.0029664132744073868 0.56419235467910767 0.53980135917663574
0.088436439633369446 0.57856911420822144 0.55619019269943237
0.2374345064163208 0.59079527854919434 0.5689501166343689
0.42238026857376099 0.60126453638076782 0.57820373773574829
0.61372196674346924 0.6100345253944397 0.58507406711578369
0.80277383327484131 0.6157912015914917 0.59243977069854736
0.98143553733825684 0.61549103260040283 0.59855622053146362
0.011434727348387241 0.76363974809646606 0.58715987205505371
0.12303771823644638 0.77621126174926758 0.60301518440246582
0.28274589776992798 0.78588378429412842 0.61529386043548584
0.47095206379890442 0.792766273021698 0.62470042705535889
0.66351842880249023 0.79752624034881592 0.63024574518203735
0.84977388381958008 0.80062288045883179 0.63388252258300781
0.99869328737258911 0.80307161808013916 0.63749998807907104
0.037413444370031357 0.95883774757385254 0.63624238967895508
0.16565220057964325 0.96713906526565552 0.65107256174087524
0.33178135752677917 0.97232913970947266 0.66312223672866821
0.5205264687538147 0.97492301464080811 0.67212563753128052
0.71194714307785034 0.97552692890167236 0.67604213953018188
0.89738363027572632 0.97569078207015991 0.67610293626785278
1 0.97921222448348999 0.67610293626785278
0.00033258175244554877 0 0.5620998740196228
0.038395047187805176 0 0.57428282499313354
0.13211072981357574 0 0.58423590660095215
0.27778506278991699 0 0.59161508083343506
0.45216560363769531 0 0.5971977710723877
0.63779783248901367 0 0.60100346803665161
0.82799708843231201 0 0.60281860828399658
0.00019722733122762293 0.015350282192230225 0.5937616229057312
0.030942505225539207 0.017700929194688797 0.6058661937713623
0.13603734970092773 0.022459186613559723 0.61606234312057495
0.29641044139862061 0.037559658288955688 0.62469851970672607
0.47941592335700989 0.047473877668380737 0.63129293918609619
0.66843128204345703 0.040875751525163651 0.63647115230560303
0.85790812969207764 0.028917096555233002 0.6394418478012085
2.1661497157765552e-05 0.17076209187507629 0.62422215938568115
0.027422258630394936 0.18173685669898987 0.63625270128250122
0.15521001815795898 0.18917891383171082 0.6474233865737915
0.33083444833755493 0.2023933082818985 0.656879723072052
0.52103567123413086 0.21278686821460724 0.66437166929244995
0.71325379610061646 0.21486620604991913 0.67084842920303345
0.90199166536331177 0.20983313024044037 0.67542755603790283
0 0.36425703763961792 0.65749943256378174
0.056316748261451721 0.37818366289138794 0.67104256153106689
0.19647619128227234 0.39035263657569885 0.6833004355430603
0.37875416874885559 0.40408235788345337 0.69232690334320068
0.57045286893844604 0.41639417409896851 0.69931542873382568
0.76131629943847656 0.42356044054031372 0.70620274543762207
0.94764584302902222 0.42018920183181763 0.7109484076499939
0.00074756098911166191 0.56842893362045288 0.69603848457336426
0.088646873831748962 0.58204418420791626 0.71071499586105347
0.24307425320148468 0.59407716989517212 0.72362345457077026
0.42923930287361145 0.60591983795166016 0.73263120651245117
0.62052184343338013 0.61567729711532593 0.73844879865646362
0.80775493383407593 0.62046915292739868 0.74368792772293091
0.9830470085144043 0.61851423978805542 0.74778860807418823
0.007807114627212286 0.76964986324310303 0.73956674337387085
0.12338624894618988 0.78149580955505371 0.75429469347000122
0.28659540414810181 0.79061496257781982 0.7670823335647583
0.47560423612594604 0.79815399646759033 0.77586656808853149
0.66962277889251709 0.80279940366744995 0.78095382452011108
0.85669076442718506 0.80482494831085205 0.78463029861450195
0.99927258491516113 0.80747753381729126 0.78701275587081909
0.038367729634046555 0.96408414840698242 0.78675353527069092
0.16924230754375458 0.97164821624755859 0.80033904314041138
0.33554071187973022 0.97690320014953613 0.81206375360488892
0.5235896110534668 0.97936975955963135 0.8199731707572937
0.71703755855560303 0.98003309965133667 0.82370907068252563
0.90480548143386841 0.97992539405822754 0.82519561052322388
1 0.98281198740005493 0.82730615139007568
0.011392855085432529 0 0.71690702438354492
0.07208772748708725 0 0.72656452655792236
0.17022927105426788 0 0.73481506109237671
0.3098967969417572 0 0.74176406860351562
0.47576159238815308 0 0.74723988771438599
0.65665507316589355 0 0.75181573629379272
0.84561151266098022 0 0.75635159015655518
0.0090525457635521889 0.011281616054475307 0.74797916412353516
0.065817184746265411 0.018021795898675919 0.75764656066894531
0.1709960550069809 0.028627164661884308 0.76635110378265381
0.32187309861183167 0.040241360664367676 0.77370738983154297
0.49723318219184875 0.04516104981303215 0.77945852279663086
0.68238896131515503 0.041976913809776306 0.78459209203720093
0.87194281816482544 0.042301926761865616 0.78963953256607056
0.0038753284607082605 0.16925203800201416 0.77756649255752563
0.065235942602157593 0.18143756687641144 0.78791230916976929
0.18428902328014374 0.19521342217922211 0.79754221439361572
0.34916207194328308 0.20806659758090973 0.80524939298629761
0.53292965888977051 0.21499273180961609 0.81144881248474121
0.72100788354873657 0.21540449559688568 0.81738871335983276
0.90978068113327026 0.21597722172737122 0.82305687665939331
0.00019369686197023839 0.36526373028755188 0.80855381488800049
0.073803052306175232 0.37813952565193176 0.82011353969573975
0.21284057199954987 0.39214059710502625 0.83115416765213013
0.38932645320892334 0.40677171945571899 0.83922260999679565
0.57763195037841797 0.41728255152702332 0.8451576828956604
0.76515465974807739 0.41981536149978638 0.85126328468322754
0.95156288146972656 0.41896027326583862 0.85692059993743896
0 0.57165855169296265 0.843025803565979
0.090954020619392395 0.58347868919372559 0.85602384805679321
0.24939751625061035 0.59544843435287476 0.86869031190872192
0.43416258692741394 0.60785645246505737 0.87731051445007324
0.62536507844924927 0.6173892617225647 0.88238930702209473
0.81100362539291382 0.62075191736221313 0.88640189170837402
0.98488104343414307 0.62033569812774658 0.89141488075256348
0.0051894844509661198 0.77411442995071411 0.88502746820449829
0.12427854537963867 0.78465455770492554 0.89779132604598999
0.29172918200492859 0.79337292909622192 0.91044765710830688
0.48063468933105469 0.80144631862640381 0.91877949237823486
0.67505651712417603 0.80748820304870605 0.92296230792999268
0.86004316806793213 0.80985909700393677 0.92442673444747925
0.99955266714096069 0.81240832805633545 0.92867839336395264
0.043570306152105331 0.96813559532165527 0.93342292308807373
0.17627702653408051 0.97512125968933105 0.94448292255401611
0.34296491742134094 0.97948819398880005 0.95512598752975464
0.52986270189285278 0.9824683666229248 0.96244519948959351
0.72284454107284546 0.9843142032623291 0.96554118394851685
0.91007798910140991 0.9849555492401123 0.96688187122344971
1 0.98734724521636963 0.97094863653182983
