assets/lut/jtsemple nostalgiahoney.cube
# Created by: G'MIC (https://gmic.eu)
TITLE "nostalgiahoney"
# LUT size
LUT_3D_SIZE 7
# Data domain
DOMAIN_MIN 0.0 0.0 0.0
DOMAIN_MAX 1.0 1.0 1.0
# LUT data points
0 0 0
0.00061693380121141672 0.0010797239374369383 0
0.15735732018947601 0.00038953294279053807 3.9672850107308477e-05
0.36877891421318054 0 0
0.5757642388343811 0 0
0.77723652124404907 0.0013283523730933666 0
0.96905785799026489 0.0084202932193875313 0
0.00065596337663009763 0.013072054833173752 0
0.01230957917869091 0.016382031142711639 0
0.20605266094207764 0.016750261187553406 0
0.43223434686660767 0.039297740906476974 0
0.64813786745071411 0.042280398309230804 0.00065941904904320836
0.85125863552093506 0.078929498791694641 2.6927275030175224e-05
0.99931925535202026 0.10705307871103287 0.0017596675315871835
0.00089812930673360825 0.22134803235530853 0.00024826946901157498
0.052519809454679489 0.24284517765045166 0.0028731552883982658
0.25062134861946106 0.25587889552116394 0.003770102746784687
0.4801599383354187 0.25223970413208008 0.00079525215551257133
0.68804931640625 0.2501499354839325 0.0015955008566379547
0.88995391130447388 0.26117664575576782 0.0059884614311158657
1 0.27419540286064148 0.014461981132626534
0.0088298572227358818 0.45155981183052063 0.0006245332770049572
0.093387007713317871 0.46109846234321594 0.004581705667078495
0.26964986324310303 0.462668776512146 0.0047039557248353958
0.49248117208480835 0.45758005976676941 0.0022180892992764711
0.69863808155059814 0.4583095908164978 0.0071167591959238052
0.89688688516616821 0.46315181255340576 0.017618546262383461
1 0.46294015645980835 0.023219238966703415
0.015269140712916851 0.65566235780715942 0.0028296825475990772
0.11272893846035004 0.65901821851730347 0.0099625382572412491
0.27764946222305298 0.65384125709533691 0.008129374124109745
0.49410548806190491 0.64462602138519287 0.00037123737274669111
0.69463628530502319 0.64120829105377197 0.0073037240654230118
0.88537633419036865 0.63948017358779907 0.020113881677389145
1 0.6330878734588623 0.01798960380256176
0.022280465811491013 0.83143907785415649 0.01453501358628273
0.12777113914489746 0.83326560258865356 0.021773364394903183
0.28172600269317627 0.82587301731109619 0.018057625740766525
0.4818854033946991 0.81150031089782715 0.0027675405144691467
0.67960441112518311 0.80115658044815063 0.0024942285381257534
0.86725366115570068 0.79376840591430664 0.004583949688822031
1 0.78550463914871216 0.003435980062931776
0.03647860512137413 0.98541724681854248 0.025519756600260735
0.15081614255905151 0.98378485441207886 0.023321263492107391
0.29969990253448486 0.97513866424560547 0.013382197357714176
0.47929319739341736 0.96007305383682251 0.0021665983367711306
0.66689664125442505 0.94746309518814087 0
0.85104191303253174 0.93787497282028198 0
0.99866729974746704 0.93027520179748535 0
0.00050680123968049884 0.00095739925745874643 0.019004521891474724
0.0031658096704632044 0.0068477406166493893 0.029154116287827492
0.16231174767017365 0.0023506912402808666 0.02603524923324585
0.37720319628715515 0 0.023200554773211479
0.58944022655487061 0 0.039218813180923462
0.79134976863861084 0.0001439861225662753 0.036433111876249313
0.98074120283126831 0.00024701288202777505 0.069788582623004913
0.0009048910578712821 0.01363875437527895 0.052496246993541718
0.017762517556548119 0.019849305972456932 0.060240771621465683
0.21343967318534851 0.028365833684802055 0.06656944751739502
0.44222128391265869 0.038047295063734055 0.069351077079772949
0.66395556926727295 0.039851125329732895 0.083454355597496033
0.86903691291809082 0.058607302606105804 0.097158573567867279
1 0.087526582181453705 0.11834879964590073
0.00075679103611037135 0.22952888906002045 0.086419485509395599
0.058356698602437973 0.24999922513961792 0.10029695928096771
0.26036199927330017 0.26183736324310303 0.11173116415739059
0.49222984910011292 0.25440040230751038 0.10598297417163849
0.69929146766662598 0.25495725870132446 0.10661820322275162
0.9017338752746582 0.26354771852493286 0.12340910732746124
1 0.27427151799201965 0.14370284974575043
0.0061200009658932686 0.45833253860473633 0.11048965156078339
0.092007219791412354 0.46720424294471741 0.11756662279367447
0.27403023838996887 0.46741384267807007 0.11870245635509491
0.50068587064743042 0.4617016613483429 0.11537792533636093
0.70516467094421387 0.4655071496963501 0.11980478465557098
0.90209674835205078 0.46918192505836487 0.13103550672531128
1 0.467154860496521 0.14746309816837311
0.01102555263787508 0.66020363569259644 0.12285859137773514
0.11149652302265167 0.66330415010452271 0.12830999493598938
0.28327140212059021 0.6573755145072937 0.12414007633924484
0.49501395225524902 0.64948022365570068 0.11268351227045059
0.69684821367263794 0.64550566673278809 0.11674948036670685
0.88822519779205322 0.64201682806015015 0.12373718619346619
1 0.63550180196762085 0.13454508781433105
0.019169691950082779 0.83538609743118286 0.14355634152889252
0.13024422526359558 0.8352542519569397 0.1436292827129364
0.29177501797676086 0.82544642686843872 0.13356135785579681
0.48711338639259338 0.81159788370132446 0.11329291760921478
0.68171006441116333 0.80080735683441162 0.10575807094573975
0.86793452501296997 0.79268801212310791 0.10561053454875946
1 0.78478223085403442 0.10787459462881088
0.034835875034332275 0.98627448081970215 0.15928463637828827
0.1518600732088089 0.98358762264251709 0.1512017697095871
0.30410590767860413 0.97201001644134521 0.13264991343021393
0.48250055313110352 0.95327365398406982 0.1070181131362915
0.66781395673751831 0.94201314449310303 0.09321942925453186
0.85024702548980713 0.93292844295501709 0.083559505641460419
0.99838203191757202 0.92513066530227661 0.079303726553916931
0.0022664088755846024 0 0.18450421094894409
0.015594347380101681 0 0.19492985308170319
0.16726213693618774 0 0.19048067927360535
0.38223353028297424 0 0.19136762619018555
0.59772199392318726 0 0.20309968292713165
0.80633723735809326 0 0.21229447424411774
0.98747390508651733 0 0.23191675543785095
0 0.016027621924877167 0.23005929589271545
0.020653383806347847 0.0284131970256567 0.23989580571651459
0.22094248235225677 0.028300222009420395 0.25146842002868652
0.45040816068649292 0.039640896022319794 0.25235888361930847
0.66501909494400024 0.041891764849424362 0.26087519526481628
0.87336975336074829 0.062753461301326752 0.26676556468009949
1 0.091584973037242889 0.27881908416748047
0.0011855032062157989 0.2400658130645752 0.26537081599235535
0.057635482400655746 0.25498262047767639 0.27618032693862915
0.26443925499916077 0.26157394051551819 0.28413888812065125
0.50042808055877686 0.25601416826248169 0.28273648023605347
0.7055739164352417 0.26369893550872803 0.27913069725036621
0.90412765741348267 0.2720702588558197 0.28535300493240356
1 0.28300249576568604 0.30025514960289001
0.0017385146347805858 0.46118271350860596 0.28921034932136536
0.085853502154350281 0.47083723545074463 0.28590819239616394
0.27405640482902527 0.46920555830001831 0.28521057963371277
0.50016331672668457 0.46666702628135681 0.28379127383232117
0.70814597606658936 0.4686274528503418 0.27731737494468689
0.90293049812316895 0.47225666046142578 0.27975773811340332
1 0.47117391228675842 0.29622012376785278
0.0039653554558753967 0.65934187173843384 0.29176235198974609
0.10516893118619919 0.66321051120758057 0.28793025016784668
0.28180974721908569 0.65880697965621948 0.285878986120224
0.48876097798347473 0.65221971273422241 0.28043416142463684
0.69387447834014893 0.64580225944519043 0.26825049519538879
0.88522517681121826 0.64350599050521851 0.26486691832542419
1 0.63761502504348755 0.27847069501876831
0.013529070653021336 0.83348745107650757 0.30339601635932922
0.12830083072185516 0.833240807056427 0.2975652813911438
0.2938474714756012 0.82461285591125488 0.28876906633377075
0.4850459098815918 0.81154805421829224 0.27322322130203247
0.67839878797531128 0.79964429140090942 0.25623634457588196
0.86444544792175293 0.79230970144271851 0.24704925715923309
1 0.78523927927017212 0.25040328502655029
0.032702561467885971 0.98490607738494873 0.3148084282875061
0.15230424702167511 0.98157083988189697 0.30361929535865784
0.30599173903465271 0.96969610452651978 0.28534433245658875
0.482208251953125 0.95191460847854614 0.26303339004516602
0.66495025157928467 0.93922382593154907 0.24503785371780396
0.84621959924697876 0.93057382106781006 0.23195996880531311
0.99749237298965454 0.92435085773468018 0.22787079215049744
0 0 0.35913765430450439
0.035384532064199448 0 0.36859217286109924
0.17971900105476379 0 0.37297838926315308
0.38763156533241272 0 0.37743136286735535
0.6055605411529541 0 0.3843502402305603
0.81613397598266602 0 0.39216840267181396
0.99046564102172852 0 0.40436697006225586
0 0.028874071314930916 0.40457499027252197
0.035433527082204819 0.031565632671117783 0.4147484302520752
0.22290080785751343 0.044316969811916351 0.4269292950630188
0.45104962587356567 0.055805444717407227 0.43350374698638916
0.67043924331665039 0.066005036234855652 0.43770745396614075
0.88006711006164551 0.080286972224712372 0.43943995237350464
1 0.099468722939491272 0.44721221923828125
0 0.24931448698043823 0.44372600317001343
0.065368399024009705 0.26353675127029419 0.45555204153060913
0.26991775631904602 0.26503220200538635 0.45689544081687927
0.49763432145118713 0.26312404870986938 0.4601503312587738
0.70895087718963623 0.26726776361465454 0.45926898717880249
0.9098542332649231 0.27196890115737915 0.45768678188323975
1 0.2819189727306366 0.46702092885971069
0 0.46704554557800293 0.46479851007461548
0.076117478311061859 0.47118878364562988 0.46319261193275452
0.27730372548103333 0.4686274528503418 0.46203240752220154
0.49960193037986755 0.46858805418014526 0.46131700277328491
0.70964008569717407 0.46828535199165344 0.45527946949005127
0.9077187180519104 0.46910712122917175 0.45405086874961853
1 0.46963000297546387 0.46312111616134644
2.7645335649140179e-05 0.66056150197982788 0.46935009956359863
0.091125696897506714 0.66215413808822632 0.46320268511772156
0.2783559262752533 0.65596455335617065 0.46259868144989014
0.48660126328468323 0.65009045600891113 0.45480823516845703
0.69313794374465942 0.64394241571426392 0.44127213954925537
0.88887012004852295 0.64247941970825195 0.43282404541969299
1 0.637775719165802 0.44009828567504883
0.0058946050703525543 0.83214342594146729 0.47790372371673584
0.1185237392783165 0.83053231239318848 0.4704710841178894
0.28856870532035828 0.82091623544692993 0.46170368790626526
0.48059248924255371 0.80838948488235474 0.44823178648948669
0.67458546161651611 0.79755586385726929 0.43125149607658386
0.86277872323989868 0.79107183218002319 0.41798233985900879
0.9999769926071167 0.78508895635604858 0.41641935706138611
0.027561381459236145 0.98337960243225098 0.48466545343399048
0.14762313663959503 0.97910338640213013 0.4729577898979187
0.30272611975669861 0.96740138530731201 0.45690745115280151
0.47826957702636719 0.95043361186981201 0.43929511308670044
0.65975785255432129 0.93662106990814209 0.42142018675804138
0.84143805503845215 0.92852914333343506 0.40495318174362183
0.996165931224823 0.92320317029953003 0.39698028564453125
0 0 0.52959847450256348
0.04430076852440834 0 0.54157906770706177
0.1856912225484848 0 0.54903513193130493
0.39061418175697327 0 0.55455446243286133
0.61015629768371582 0 0.56030106544494629
0.82197648286819458 0 0.56905096769332886
0.99114370346069336 0 0.57998347282409668
0 0.024390038102865219 0.58371174335479736
0.046191960573196411 0.034440644085407257 0.59953325986862183
0.22288297116756439 0.042687032371759415 0.60681605339050293
0.45041391253471375 0.062422510236501694 0.6112067699432373
0.67412561178207397 0.077192582190036774 0.61546653509140015
0.88476121425628662 0.090074516832828522 0.62105530500411987
1 0.10183963924646378 0.62732279300689697
0 0.25289660692214966 0.62646281719207764
0.068891845643520355 0.26479735970497131 0.64460557699203491
0.27154079079627991 0.26510116457939148 0.64487850666046143
0.49713116884231567 0.2680269181728363 0.64403712749481201
0.71138268709182739 0.26820895075798035 0.64491593837738037
0.91467583179473877 0.27489838004112244 0.64837181568145752
1 0.28336396813392639 0.65058231353759766
0 0.47141596674919128 0.64551591873168945
0.072553671896457672 0.47344443202018738 0.65339118242263794
0.28310278058052063 0.46965774893760681 0.65325617790222168
0.50386703014373779 0.46824893355369568 0.65243524312973022
0.71075433492660522 0.4668426513671875 0.64906990528106689
0.91046404838562012 0.46707427501678467 0.64990872144699097
1 0.4683164656162262 0.64763545989990234
0 0.66399496793746948 0.64905524253845215
0.080922387540340424 0.66438841819763184 0.64818471670150757
0.27804499864578247 0.65483909845352173 0.64694935083389282
0.48882260918617249 0.6480705738067627 0.64057660102844238
0.69054204225540161 0.64334982633590698 0.63278377056121826
0.8882061243057251 0.63809448480606079 0.63064134120941162
1 0.63423240184783936 0.62806439399719238
0.00069035548949614167 0.83284491300582886 0.65323132276535034
0.10480744391679764 0.83078837394714355 0.64723706245422363
0.28447061777114868 0.81891477108001709 0.63883280754089355
0.48045855760574341 0.80535006523132324 0.62718212604522705
0.67141264677047729 0.79504537582397461 0.61424738168716431
0.86035102605819702 0.7874457836151123 0.6046295166015625
0.99973469972610474 0.78173893690109253 0.59878557920455933
0.018110012635588646 0.98161762952804565 0.6555635929107666
0.13776753842830658 0.97783100605010986 0.64410042762756348
0.2975163459777832 0.96509206295013428 0.62967836856842041
0.47567170858383179 0.94699561595916748 0.61530888080596924
0.65562236309051514 0.93252861499786377 0.60111141204833984
0.83732366561889648 0.9248274564743042 0.58429867029190063
0.99439102411270142 0.92022520303726196 0.57348382472991943
1.8669577912078239e-05 0 0.69221556186676025
0.04748496413230896 0 0.70564949512481689
0.18868809938430786 0 0.71486926078796387
0.39276984333992004 0 0.720966637134552
0.61034184694290161 0 0.72539716958999634
0.82613176107406616 0 0.73539674282073975
0.9919440746307373 0 0.75026965141296387
0 0.026174897328019142 0.74856209754943848
0.049894057214260101 0.039384700357913971 0.76457500457763672
0.23152674734592438 0.049867052584886551 0.77390050888061523
0.4550502598285675 0.059132549911737442 0.77944386005401611
0.67688965797424316 0.073003090918064117 0.78437381982803345
0.88689690828323364 0.087672382593154907 0.7927442193031311
1 0.094270892441272736 0.80197060108184814
0.00033425723086111248 0.25814962387084961 0.79205614328384399
0.072961084544658661 0.27163472771644592 0.80639910697937012
0.27900752425193787 0.271333247423172 0.81086462736129761
0.49962663650512695 0.26462656259536743 0.81132900714874268
0.71247309446334839 0.26270413398742676 0.81334900856018066
0.91791826486587524 0.27425891160964966 0.81962639093399048
1 0.28383177518844604 0.82221764326095581
0 0.47442597150802612 0.81102794408798218
0.085084505379199982 0.47702372074127197 0.81848043203353882
0.28507262468338013 0.47283837199211121 0.81858319044113159
0.50073665380477905 0.4686274528503418 0.81513434648513794
0.70768404006958008 0.46831566095352173 0.81354093551635742
0.91124773025512695 0.46886342763900757 0.8161625862121582
1 0.46983906626701355 0.81489437818527222
0 0.66428804397583008 0.81514233350753784
0.07934088259935379 0.66545575857162476 0.81580847501754761
0.27655944228172302 0.65625983476638794 0.8123478889465332
0.4866938591003418 0.64932084083557129 0.80413961410522461
0.68762004375457764 0.64447617530822754 0.79714196920394897
0.88633817434310913 0.63896387815475464 0.79684209823608398
1 0.63376826047897339 0.79397398233413696
0 0.83284419775009155 0.81661403179168701
0.092820949852466583 0.83201450109481812 0.81171059608459473
0.27930909395217896 0.81911492347717285 0.80250662565231323
0.48043239116668701 0.80384653806686401 0.78992104530334473
0.66913098096847534 0.79302477836608887 0.77795928716659546
0.85859602689743042 0.78433537483215332 0.77314525842666626
0.99926364421844482 0.77875667810440063 0.76752722263336182
0.0075151482596993446 0.98161762952804565 0.81405150890350342
0.12581270933151245 0.97783106565475464 0.80444371700286865
0.29058593511581421 0.96403241157531738 0.79041677713394165
0.4737703800201416 0.9437793493270874 0.77563869953155518
0.6553148627281189 0.92918926477432251 0.76244789361953735
0.83463692665100098 0.92116594314575195 0.75127327442169189
0.99218118190765381 0.91673558950424194 0.7417638897895813
0.00095038319705054164 0 0.84471529722213745
0.051043938845396042 0 0.85836112499237061
0.19202175736427307 0 0.86849886178970337
0.39573720097541809 0 0.87502217292785645
0.60908049345016479 0.00074126297840848565 0.87704139947891235
0.82782906293869019 0.0015942143509164453 0.88723713159561157
0.99258720874786377 0 0.90774667263031006
0.0020581113640218973 0.043850738555192947 0.89776408672332764
0.053600836545228958 0.046617157757282257 0.91403132677078247
0.228314608335495 0.057139962911605835 0.92394202947616577
0.45795533061027527 0.062092829495668411 0.93113493919372559
0.68428027629852295 0.073111981153488159 0.93601781129837036
0.89850461483001709 0.086123526096343994 0.94422364234924316
0.99924170970916748 0.088207811117172241 0.95889765024185181
0.00073529413202777505 0.26158350706100464 0.93985992670059204
0.077950946986675262 0.27606534957885742 0.95430731773376465
0.27927336096763611 0.27783837914466858 0.95843470096588135
0.50206559896469116 0.26473647356033325 0.95963418483734131
0.71836298704147339 0.25980457663536072 0.96144574880599976
0.92365604639053345 0.27616140246391296 0.96553325653076172
1 0.28797408938407898 0.97167342901229858
0.00040031882235780358 0.46929818391799927 0.95974451303482056
0.096600942313671112 0.47607636451721191 0.96471363306045532
0.28785693645477295 0.47575968503952026 0.96480005979537964
0.50135201215744019 0.46914982795715332 0.96179097890853882
0.71126610040664673 0.46470588445663452 0.95890539884567261
0.91073185205459595 0.46936169266700745 0.95883303880691528
1 0.47092804312705994 0.96032577753067017
0 0.65685194730758667 0.96629542112350464
0.093212425708770752 0.66023188829421997 0.96583479642868042
0.27726039290428162 0.65562504529953003 0.95974498987197876
0.48312219977378845 0.64760637283325195 0.95097976922988892
0.68746161460876465 0.64104264974594116 0.94380480051040649
0.88363164663314819 0.63767677545547485 0.94126856327056885
1 0.63323974609375 0.94054901599884033
4.6673944780195598e-06 0.82648324966430664 0.96669548749923706
0.098724663257598877 0.82763510942459106 0.96141135692596436
0.27198505401611328 0.81950175762176514 0.95017868280410767
0.47023338079452515 0.80263322591781616 0.93660092353820801
0.6652105450630188 0.79018741846084595 0.92661464214324951
0.85342592000961304 0.78251022100448608 0.92327815294265747
0.997733473777771 0.77672910690307617 0.92005950212478638
0.0057223751209676266 0.97860252857208252 0.96255820989608765
0.12297964841127396 0.97570312023162842 0.95389604568481445
0.28503939509391785 0.96287119388580322 0.93949532508850098
0.46898040175437927 0.94056069850921631 0.92395836114883423
0.65232175588607788 0.92702871561050415 0.91283988952636719
0.82970088720321655 0.9195982813835144 0.90545070171356201
0.98831379413604736 0.91458451747894287 0.89873450994491577
