assets/lut/jtsemple brightgreen.cube
# Created by: G'MIC (https://gmic.eu)
TITLE "brightgreen"
# LUT size
LUT_3D_SIZE 13
# Data domain
DOMAIN_MIN 0.0 0.0 0.0
DOMAIN_MAX 1.0 1.0 1.0
# LUT data points
0 0 0
0 0 0
0 0 0
0.02137400396168232 0 0
0.088896945118904114 0 0
0.17135635018348694 0 0
0.2580934464931488 0 0
0.34683781862258911 0 0
0.43698737025260925 0 0
0.52847194671630859 0 0
0.6213068962097168 0 0
0.71560811996459961 0 0
0.81143593788146973 0 0
0 0 0
0 0 0
0 0 0
0.022512294352054596 0 0
0.10014244168996811 0 0
0.18678873777389526 0 0
0.27409005165100098 0 0
0.36279067397117615 0 0
0.45308598875999451 0 0
0.54465502500534058 0 0
0.63749808073043823 0 0
0.73139774799346924 0.0010940402280539274 0
0.82699191570281982 0.0080803064629435539 0
0 0.0040475283749401569 0.00044145769788883626
0 0.0065731871873140335 8.3624145190697163e-05
0.00036606134381145239 0.010688288137316704 0
0.034885361790657043 0.01059957779943943 0.00043836107943207026
0.11894579231739044 0.010524570010602474 0.0018134323181584477
0.20562142133712769 0.012481300160288811 0.00063751818379387259
0.29212886095046997 0.01389465294778347 0
0.38109728693962097 0.014808565378189087 0
0.47116315364837646 0.014250616542994976 0
0.56312435865402222 0.01521275844424963 5.0563437980599701e-05
0.6557384729385376 0.023583056405186653 0
0.75008702278137207 0.03862883523106575 0
0.84367150068283081 0.056549176573753357 0
0.00056708842748776078 0.067109830677509308 0.0033842497505247593
0.0005661160103045404 0.073146656155586243 0.00089166680118069053
0.0040260464884340763 0.080659352242946625 0
0.048543579876422882 0.084654085338115692 0.00035256778937764466
0.1325664222240448 0.089226789772510529 0.0012423496227711439
0.22074183821678162 0.090880326926708221 7.1536793257109821e-05
0.30949532985687256 0.090352617204189301 0
0.39960780739784241 0.091713085770606995 0
0.49067407846450806 0.09212736040353775 0
0.58298999071121216 0.094559855759143829 0.00063729379326105118
0.6758425235748291 0.10183609277009964 0.00018183390784543008
0.76969373226165771 0.11267784237861633 0
0.86298215389251709 0.12583845853805542 0
9.3347889560391195e-06 0.16133648157119751 7.0788810262456536e-05
0.0022003771737217903 0.16705666482448578 0
0.01759287528693676 0.1735331267118454 0
0.066608577966690063 0.18058604001998901 0
0.14586824178695679 0.18724387884140015 0
0.23499999940395355 0.18950328230857849 0
0.32618832588195801 0.18932260572910309 0
0.41799435019493103 0.19071754813194275 0
0.51072013378143311 0.19343183934688568 0
0.60371214151382446 0.19678571820259094 0.00037650312879122794
0.6968877911567688 0.19989402592182159 0.0001013213477563113
0.79029464721679688 0.20452927052974701 0
0.88523489236831665 0.212739497423172 0
4.6673943870700896e-05 0.25637757778167725 0
0.0057908301241695881 0.2620428204536438 0
0.029724255204200745 0.2679804265499115 0
0.082560323178768158 0.27520102262496948 0
0.16118967533111572 0.28250935673713684 0
0.25104421377182007 0.28740191459655762 0
0.34404349327087402 0.29075029492378235 0
0.43771597743034363 0.29457855224609375 0
0.53106540441513062 0.29926222562789917 0
0.62544023990631104 0.30322468280792236 0
0.71921002864837646 0.30457308888435364 0
0.81302744150161743 0.30627340078353882 0
0.9073561429977417 0.31069222092628479 0
0.001155853271484375 0.35238352417945862 0
0.013064006343483925 0.35751602053642273 0
0.042018651962280273 0.36335822939872742 0
0.0989503413438797 0.37037962675094604 0
0.17902590334415436 0.37824901938438416 0
0.26982772350311279 0.38519382476806641 0
0.36411774158477783 0.3911837637424469 0
0.45797008275985718 0.39688163995742798 0
0.5533447265625 0.40230664610862732 0
0.64804756641387939 0.40641987323760986 0
0.7424812912940979 0.40840387344360352 0
0.83667802810668945 0.40995115041732788 0
0.93082815408706665 0.4128032922744751 0
0.007932715117931366 0.44978705048561096 0
0.0281028151512146 0.45545697212219238 0
0.062903143465518951 0.46141907572746277 0
0.12196183949708939 0.46866980195045471 0
0.20183080434799194 0.47659033536911011 0
0.29200786352157593 0.48405691981315613 0
0.38564392924308777 0.49084910750389099 0
0.48091831803321838 0.49697750806808472 0
0.576407790184021 0.50248974561691284 0
0.67178803682327271 0.5067790150642395 0
0.76669502258300781 0.50969868898391724 0
0.86087173223495483 0.51193881034851074 0
0.95485115051269531 0.51442378759384155 0.00026468015857972205
0.020442962646484375 0.54893982410430908 0
0.048806283622980118 0.55521893501281738 0
0.090826205909252167 0.5621187686920166 0
0.15172721445560455 0.56951475143432617 0
0.22957807779312134 0.57686984539031982 0
0.31759285926818848 0.58366149663925171 0
0.41023063659667969 0.58972835540771484 0
0.50543713569641113 0.59532463550567627 0
0.60112398862838745 0.60025006532669067 0
0.69654810428619385 0.60440611839294434 0
0.79141056537628174 0.60817641019821167 0
0.88524484634399414 0.61121547222137451 0.00020849191059824079
0.97540462017059326 0.61405962705612183 0.0032652162481099367
0.035360854119062424 0.64830946922302246 0
0.071501441299915314 0.65548163652420044 0
0.12002793699502945 0.66316640377044678 0
0.18341216444969177 0.67086851596832275 0
0.2600979208946228 0.67751044034957886 0
0.34607207775115967 0.68292206525802612 0
0.43728280067443848 0.68748456239700317 0
0.53140866756439209 0.69160407781600952 0
0.62625581026077271 0.69557750225067139 0
0.72165614366531372 0.69965189695358276 0
0.81600445508956909 0.70364087820053101 6.0496611695270985e-05
0.90955251455307007 0.70767378807067871 0.0022917354945093393
0.98952877521514893 0.71097105741500854 0.010699552483856678
0.052083976566791534 0.74754446744918823 0.00016299977141898125
0.095066577196121216 0.75506317615509033 1.4361213288793806e-05
0.14880803227424622 0.76302272081375122 0
0.21492657065391541 0.77050590515136719 0
0.29159286618232727 0.77631932497024536 0
0.37618407607078552 0.78027766942977905 0
0.46588283777236938 0.78320235013961792 0
0.55853885412216187 0.78605443239212036 0
0.65258103609085083 0.78885692358016968 2.0105699150008149e-05
0.74670606851577759 0.7921823263168335 0.00021182789350859821
0.84042662382125854 0.7959936261177063 0.0014788758708164096
0.93353939056396484 0.80073481798171997 0.0078163295984268188
0.99763196706771851 0.80474036931991577 0.021501697599887848
0.07153734564781189 0.8460344672203064 0.0054070716723799706
0.11956136673688889 0.85314810276031494 0.0032248701900243759
0.17755615711212158 0.86062502861022949 0.0016190472524613142
0.2457951158285141 0.86736369132995605 0.00066006230190396309
0.32291200757026672 0.87217402458190918 0.00050647213356569409
0.40675860643386841 0.87523400783538818 0.0006464939215220511
0.49523359537124634 0.87721562385559082 0.0010892231948673725
0.58661317825317383 0.87868344783782959 0.0017222685273736715
0.67939406633377075 0.8804166316986084 0.0025172962341457605
0.77245998382568359 0.88264596462249756 0.0033747204579412937
0.86527132987976074 0.88554203510284424 0.0063382615335285664
0.95783418416976929 0.8896864652633667 0.014684220775961876
1 0.89431905746459961 0.031114106997847557
0.094096437096595764 0.94357156753540039 0.022582873702049255
0.14603963494300842 0.94998741149902344 0.017312861979007721
0.20699311792850494 0.95627588033676147 0.012992424890398979
0.27680346369743347 0.96185845136642456 0.0099329780787229538
0.35420197248458862 0.96527403593063354 0.0087285507470369339
0.43775370717048645 0.96727669239044189 0.0087625840678811073
0.52534776926040649 0.96831268072128296 0.0097474940121173859
0.61546581983566284 0.96903133392333984 0.010732673108577728
0.70705139636993408 0.96966981887817383 0.011743463575839996
0.79925912618637085 0.97078567743301392 0.012863294221460819
0.89151358604431152 0.97227984666824341 0.016253378242254257
0.97886210680007935 0.97484159469604492 0.02533162385225296
1 0.97883975505828857 0.042570136487483978
0 0 0
0 0 0
0 0 0
0.019471844658255577 0 0
0.08626239001750946 0 0
0.16849347949028015 0 0
0.25566545128822327 0 0
0.34456583857536316 0 0
0.43480199575424194 0 0
0.5263788104057312 0 0
0.61917692422866821 0 0
0.71312844753265381 0 0
0.80893975496292114 0 0
0 0 0
0 0 0
3.9493337681051344e-05 0 0
0.02538248710334301 0 0
0.09876454621553421 0 0
0.18434973061084747 0 0
0.27222809195518494 0 0
0.36167141795158386 0 0
0.45168989896774292 0 0
0.54353654384613037 0 0
0.63624948263168335 3.5708559153135866e-05 0
0.73088490962982178 0.0018866595346480608 0
0.82478344440460205 0.0096212653443217278 0
0 0.004192995373159647 5.834242983837612e-06
0 0.0077989613637328148 0
0.0015270308358594775 0.012946723029017448 0
0.039188042283058167 0.012764276005327702 0.00035704069887287915
0.1178048849105835 0.010393493808805943 0.0018249960849061608
0.20360769331455231 0.010421034879982471 0.0004122565733268857
0.29106977581977844 0.013614758849143982 0
0.38076296448707581 0.018168086186051369 0
0.47083333134651184 0.01945069245994091 0
0.56286895275115967 0.021253354847431183 0
0.65574473142623901 0.028379118070006371 0
0.75005412101745605 0.040103510022163391 0
0.84328436851501465 0.055402703583240509 0.0001476063480367884
0 0.066833481192588806 0.00073939305730164051
0.00017673267575446516 0.076425693929195404 3.1115962428884814e-06
0.0078664738684892654 0.08353365957736969 0
0.054643653333187103 0.08782852441072464 0.00013634176866617054
0.13531148433685303 0.089906863868236542 0.00043343935976736248
0.22132942080497742 0.090245954692363739 3.7249396882543806e-06
0.30955487489700317 0.092424921691417694 0
0.4000973105430603 0.096689812839031219 0
0.49097397923469543 0.098866432905197144 0
0.58361691236495972 0.10142672806978226 0
0.67673546075820923 0.10624175518751144 0
0.77016830444335938 0.11340852826833725 0
0.8648827075958252 0.12437980622053146 0.00062056898605078459
0 0.16127113997936249 0.00016768212663009763
0.0015510708326473832 0.16985593736171722 0.00025636260397732258
0.018839098513126373 0.17635011672973633 0.00024333280452992767
0.069946721196174622 0.18325944244861603 3.9493338590546045e-06
0.14949674904346466 0.1892528235912323 0
0.23757654428482056 0.19179190695285797 0
0.32779967784881592 0.19300501048564911 0
0.4192880392074585 0.19621691107749939 0
0.51151067018508911 0.19942043721675873 0
0.60460853576660156 0.20236660540103912 0
0.69841235876083374 0.20431090891361237 0
0.79215097427368164 0.20679071545600891 0
0.88615280389785767 0.21282103657722473 0.00013691023923456669
0 0.25737059116363525 0.00046223658137023449
0.0033079709392040968 0.26434266567230225 0.0020143995061516762
0.027210146188735962 0.2705533504486084 0.0025816075503826141
0.08262239396572113 0.2775627076625824 0.00024099911388475448
0.16426123678684235 0.28456491231918335 0
0.25472557544708252 0.29014438390731812 0
0.34654223918914795 0.29463741183280945 0
0.43909212946891785 0.29946193099021912 0.00019763123418670148
0.53266602754592896 0.3042004406452179 0.0012852537911385298
0.62675207853317261 0.3076728880405426 0.0017884348053485155
0.72093278169631958 0.30885380506515503 0.00085751403821632266
0.8148924708366394 0.30974337458610535 0.00012160656478954479
0.90902620553970337 0.31282654404640198 8.7708118371665478e-05
0.00029530245228670537 0.35409992933273315 0.00018298579379916191
0.0084228664636611938 0.36009305715560913 0.0026015187613666058
0.036205604672431946 0.36530289053916931 0.0052439672872424126
0.095742620527744293 0.37235283851623535 0.00096209655748680234
0.18059417605400085 0.38020426034927368 0
0.27303290367126465 0.38768893480300903 0
0.36606168746948242 0.39469975233078003 3.1594670872436836e-05
0.46047616004943848 0.40134400129318237 0.0013072293950244784
0.55477523803710938 0.40691721439361572 0.0042699179612100124
0.64979493618011475 0.41100853681564331 0.0057580834254622459
0.74448698759078979 0.41297224164009094 0.0046291276812553406
0.83851224184036255 0.41408857703208923 0.0030966815538704395
0.93262040615081787 0.41590103507041931 0.0044014723971486092
0.0049779107794165611 0.45243677496910095 0
0.022183436900377274 0.45809558033943176 0.0017664292827248573
0.055861067026853561 0.46393463015556335 0.004273104015737772
0.1169903352856636 0.47105175256729126 0.0015722237294539809
0.20049154758453369 0.47893628478050232 2.2544112653122284e-05
0.29262956976890564 0.48683011531829834 5.7594447753217537e-06
0.38733050227165222 0.49432605504989624 0.00059724698076024652
0.48254814743995667 0.50113153457641602 0.0029985166620463133
0.57837802171707153 0.50694936513900757 0.0062698214314877987
0.67408186197280884 0.51125639677047729 0.0082999281585216522
0.76895356178283691 0.51406925916671753 0.0091479429975152016
0.86296147108078003 0.51605039834976196 0.011517573148012161
0.95642131567001343 0.51758205890655518 0.018368739634752274
0.015002366155385971 0.55154198408126831 0.00074519735062494874
0.041592810302972794 0.55828142166137695 0.0024894115049391985
0.08283589780330658 0.56522786617279053 0.0039464314468204975
0.14542548358440399 0.57275557518005371 0.0025615168269723654
0.22579152882099152 0.58021873235702515 0.001214390154927969
0.31624850630760193 0.58700722455978394 0.0013311647344380617
0.41048365831375122 0.59332519769668579 0.0029977387748658657
0.50622719526290894 0.59915876388549805 0.0059948642738163471
0.60263246297836304 0.60420447587966919 0.0090217143297195435
0.69891291856765747 0.6083642840385437 0.010911934077739716
0.79402345418930054 0.61181753873825073 0.013885737396776676
0.88758164644241333 0.61446499824523926 0.0221443772315979
0.97635895013809204 0.61672890186309814 0.035155128687620163
0.026303429156541824 0.6511235237121582 0.0072139068506658077
0.061606254428625107 0.65875637531280518 0.0078067705035209656
0.11050479114055634 0.66675573587417603 0.0076019586995244026
0.17570799589157104 0.67476731538772583 0.0057292715646326542
0.25490832328796387 0.68146359920501709 0.0048377243801951408
0.34320440888404846 0.68661278486251831 0.0060978010296821594
0.43649333715438843 0.69106471538543701 0.0089678745716810226
0.53191637992858887 0.69521886110305786 0.012446279637515545
0.6280672550201416 0.6991734504699707 0.015294198878109455
0.72385865449905396 0.70280992984771729 0.017409201711416245
0.81868237257003784 0.70642411708831787 0.022416537627577782
0.9117158055305481 0.70999258756637573 0.035314090549945831
0.99009698629379272 0.71222126483917236 0.052634458988904953
0.039642874151468277 0.75016504526138306 0.025051580742001534
0.082359567284584045 0.75810188055038452 0.022265475243330002
0.1373777836561203 0.7666967511177063 0.018767772242426872
0.20591911673545837 0.77480918169021606 0.0147297577932477
0.28533455729484558 0.78065603971481323 0.013944573700428009
0.37225538492202759 0.78399801254272461 0.016797741875052452
0.4640602171421051 0.78682237863540649 0.021330844610929489
0.5584673285484314 0.78913897275924683 0.025413647294044495
0.65334212779998779 0.79192894697189331 0.028398387134075165
0.74832755327224731 0.7947467565536499 0.031587801873683929
0.84213554859161377 0.79809606075286865 0.038633756339550018
0.93479388952255249 0.8018718957901001 0.052306067198514938
0.99780380725860596 0.80512434244155884 0.07051626592874527
0.05665275827050209 0.84828972816467285 0.051487252116203308
0.10500162094831467 0.85606592893600464 0.046878844499588013
0.16450822353363037 0.86392718553543091 0.041362281888723373
0.23524793982505798 0.87110686302185059 0.036201789975166321
0.31531515717506409 0.87600171566009521 0.034766625612974167
0.40190395712852478 0.87856030464172363 0.038059715181589127
0.49277737736701965 0.8800768256187439 0.04244525358080864
0.58570617437362671 0.88148945569992065 0.046062007546424866
0.67953181266784668 0.88284265995025635 0.048669569194316864
0.77294224500656128 0.88482856750488281 0.051468450576066971
0.86585164070129395 0.88753849267959595 0.058006945997476578
0.95797932147979736 0.89109134674072266 0.070524789392948151
1 0.89463293552398682 0.087359122931957245
0.077838078141212463 0.94550949335098267 0.080594994127750397
0.13043588399887085 0.95235222578048706 0.075710758566856384
0.19299095869064331 0.95913231372833252 0.070490710437297821
0.26531893014907837 0.96435028314590454 0.066342793405056
0.3457457423210144 0.9676746129989624 0.064880877733230591
0.4319368302822113 0.96938765048980713 0.066286943852901459
0.52185839414596558 0.97021490335464478 0.068994663655757904
0.61379486322402954 0.97077161073684692 0.071264930069446564
0.70628541707992554 0.97148638963699341 0.072645612061023712
0.79870045185089111 0.97226059436798096 0.074776515364646912
0.89078295230865479 0.9737887978553772 0.079601630568504333
0.9783058762550354 0.97624033689498901 0.089828416705131531
1 0.97942674160003662 0.10508101433515549
0 0 0
0 0 0
0 0 0
0.018832024186849594 0 0
0.086980752646923065 0 1.4361213288793806e-05
0.1695304661989212 0 0.00011488970631035045
0.25607830286026001 0 3.4107881219824776e-05
0.34438154101371765 0 8.9757586465566419e-06
0.43446022272109985 0 0.00030098709976300597
0.52586108446121216 0 0.0010087854461744428
0.61891418695449829 0 0.0013166540302336216
0.71247512102127075 0 0.001110510784201324
0.80833333730697632 5.3675033996114507e-05 0.0014177808770909905
0 0 0
0 0 0
6.7467779444996268e-05 0 0
0.026105888187885284 0 0
0.099128752946853638 0 0.00074293848592787981
0.18444977700710297 0 0.0022967171389609575
0.27232712507247925 0 0.0015731961466372013
0.3614402711391449 0 0.0010581820970401168
0.45154547691345215 0 0.0021613475400954485
0.54342007637023926 0 0.0036641587503254414
0.6366579532623291 0.00024683334049768746 0.0048214779235422611
0.73111915588378906 0.0027507557533681393 0.0059233871288597584
0.82562947273254395 0.011778603307902813 0.0084365997463464737
3.8894952012924477e-05 0.0049563688226044178 0.00040820252615958452
0 0.0070256702601909637 0.00012925092596560717
0.003118851687759161 0.012171173468232155 0.00025521073257550597
0.041924703866243362 0.013674253597855568 0.0001735313271638006
0.11692805588245392 0.011325282976031303 0.0016127342823892832
0.20192013680934906 0.012254603207111359 0.0032922334503382444
0.29020139575004578 0.017046445980668068 0.0025997236371040344
0.37961128354072571 0.021849673241376877 0.001420383807271719
0.47083333134651184 0.022023100405931473 0.0029941783286631107
0.56316399574279785 0.024313682690262794 0.0046881581656634808
0.65699833631515503 0.030802827328443527 0.0071221892721951008
0.75064730644226074 0.03978462889790535 0.01153329573571682
0.84599763154983521 0.052878480404615402 0.01794535294175148
0.00034538717591203749 0.067100435495376587 0.0026798921171575785
0.0013349495129659772 0.073779314756393433 0.0009238897473551333
0.013032187707722187 0.080840408802032471 0.0028895358555018902
0.060080122202634811 0.087401613593101501 0.0019824756309390068
0.1354021281003952 0.090783573687076569 0.0015836230013519526
0.21990084648132324 0.09333202987909317 0.0018309199949726462
0.30885109305381775 0.096791721880435944 0.0026001424994319677
0.3999561071395874 0.10171510279178619 0.0016685635782778263
0.49108442664146423 0.1019660085439682 0.0036404479760676622
0.58431780338287354 0.10481587052345276 0.0044119292870163918
0.67803454399108887 0.10819661617279053 0.0066222096793353558
0.77233302593231201 0.11167808622121811 0.013097441755235195
0.86671000719070435 0.12051315605640411 0.022002680227160454
0 0.16117410361766815 0.0098784500733017921
0.0032792484853416681 0.16813972592353821 0.010057860985398293
0.023103004321455956 0.1746334433555603 0.012139040045440197
0.075343266129493713 0.18173010647296906 0.0090777380391955376
0.15277709066867828 0.18883597850799561 0.0058698318898677826
0.23924154043197632 0.19324761629104614 0.0063904258422553539
0.32857170701026917 0.19602750241756439 0.0079687377437949181
0.41985520720481873 0.20041047036647797 0.009472925215959549
0.51174366474151611 0.20290681719779968 0.013003330677747726
0.60565781593322754 0.20559535920619965 0.01199919730424881
0.70018959045410156 0.20622900128364563 0.011765019968152046
0.79450529813766479 0.2064448744058609 0.01468365266919136
0.88886165618896484 0.21113894879817963 0.02001119963824749
0 0.2580811083316803 0.017794905230402946
0.004224725067615509 0.26449504494667053 0.022447219118475914
0.030193613842129707 0.27028661966323853 0.0243364367634058
0.087496452033519745 0.27710697054862976 0.017360253259539604
0.16913741827011108 0.28422266244888306 0.0096685225144028664
0.2584024965763092 0.29065945744514465 0.01122779119759798
0.34863695502281189 0.29628130793571472 0.017490895465016365
0.44032126665115356 0.3019028902053833 0.024866905063390732
0.53348290920257568 0.30657416582107544 0.031051710247993469
0.62779027223587036 0.30972295999526978 0.030625076964497566
0.7229076623916626 0.31107255816459656 0.026796916499733925
0.8174210786819458 0.31145071983337402 0.022841149941086769
0.91162419319152832 0.31379541754722595 0.022419394925236702
0.00013661103730555624 0.35562112927436829 0.019513627514243126
0.0083409929648041725 0.36130863428115845 0.028909405693411827
0.039117924869060516 0.36706551909446716 0.033365137875080109
0.10025694966316223 0.37324368953704834 0.024817418307065964
0.18541574478149414 0.380329430103302 0.013218000531196594
0.2769927978515625 0.38814079761505127 0.015307527035474777
0.36867472529411316 0.39612120389938354 0.025604996830224991
0.46170234680175781 0.40328043699264526 0.036760665476322174
0.55614387989044189 0.40908095240592957 0.044051885604858398
0.65151655673980713 0.4130668044090271 0.045736964792013168
0.7466309666633606 0.41540351510047913 0.044026482850313187
0.84101313352584839 0.41693544387817383 0.041170410811901093
0.93496298789978027 0.41838371753692627 0.043390281498432159
0.003875672584399581 0.45430818200111389 0.019429344683885574
0.020673967897891998 0.46034130454063416 0.031626127660274506
0.056286096572875977 0.46630999445915222 0.038892395794391632
0.11868848651647568 0.47296169400215149 0.033953618258237839
0.20276054739952087 0.48016771674156189 0.025376593694090843
0.29520359635353088 0.48805415630340576 0.026653453707695007
0.38892385363578796 0.49593409895896912 0.036064837127923965
0.48432987928390503 0.50315862894058228 0.046527951955795288
0.57996106147766113 0.50893664360046387 0.053331635892391205
0.6758573055267334 0.51361328363418579 0.056377783417701721
0.77132904529571533 0.51687067747116089 0.057861343026161194
0.8653145432472229 0.51875609159469604 0.061254195868968964
0.95833635330200195 0.52021270990371704 0.06900489330291748
0.011066826060414314 0.55385392904281616 0.030549995601177216
0.036893688142299652 0.56059187650680542 0.039619117975234985
0.078924991190433502 0.56753909587860107 0.045669391751289368
0.14288856089115143 0.57474464178085327 0.04434528574347496
0.22511650621891022 0.58190315961837769 0.041226211935281754
0.316435307264328 0.58871734142303467 0.043116744607686996
0.41183763742446899 0.59517520666122437 0.050202641636133194
0.50810551643371582 0.60111814737319946 0.057974379509687424
0.60468268394470215 0.60619723796844482 0.063282161951065063
0.70102465152740479 0.61068242788314819 0.066039174795150757
0.79616111516952515 0.61425000429153442 0.069683536887168884
0.88959985971450806 0.61688911914825439 0.078297451138496399
0.97760921716690063 0.61850202083587646 0.091064900159835815
0.017892232164740562 0.65324515104293823 0.0547969751060009
0.053234908729791641 0.66087323427200317 0.058230575174093246
0.10297858715057373 0.66881126165390015 0.060094662010669708
0.17004847526550293 0.67653107643127441 0.058799907565116882
0.25153267383575439 0.68305486440658569 0.058148972690105438
0.34183478355407715 0.68834036588668823 0.061764348298311234
0.43660560250282288 0.69296514987945557 0.067957557737827301
0.53304392099380493 0.69705373048782349 0.073978573083877563
0.62967550754547119 0.7010800838470459 0.077618919312953949
0.7258915901184082 0.70472705364227295 0.079895317554473877
0.82068312168121338 0.70799678564071655 0.083992213010787964
0.91329830884933472 0.71081101894378662 0.095971710979938507
0.99077242612838745 0.71310901641845703 0.11213761568069458
0.027496876195073128 0.75202971696853638 0.084808573126792908
0.070459045469760895 0.7600826621055603 0.084543831646442413
