assets/lut/jtsemple justpeachy.cube
# Created by: G'MIC (https://gmic.eu)
TITLE "justpeachy"
# LUT size
LUT_3D_SIZE 5
# Data domain
DOMAIN_MIN 0.0 0.0 0.0
DOMAIN_MAX 1.0 1.0 1.0
# LUT data points
0 0 0
0.11113029718399048 0 0
0.38048318028450012 0 0
0.65557241439819336 0 0
0.93340247869491577 0 0
0 0.10637066513299942 0
0.10119409114122391 0.098493821918964386 0
0.37812420725822449 0.078227117657661438 0.0031807245686650276
0.66385304927825928 0.065902575850486755 0
0.94176775217056274 0.074588045477867126 0.0014867595164105296
0 0.32948040962219238 0.0035683875903487206
0.099402502179145813 0.33065336942672729 9.5143041107803583e-05
0.36630183458328247 0.32225459814071655 0
0.66753029823303223 0.30599898099899292 0
0.95829355716705322 0.30957823991775513 0
0 0.59013032913208008 0
0.094140008091926575 0.59659713506698608 0
0.36701756715774536 0.59733486175537109 0
0.67743152379989624 0.59495896100997925 0
0.97374004125595093 0.60503435134887695 0
0 0.87549614906311035 0.0081535335630178452
0.13063576817512512 0.88309121131896973 0.0076868245378136635
0.40616163611412048 0.88471251726150513 0.016165250912308693
0.71751195192337036 0.88296568393707275 0.00052235921612009406
0.99573427438735962 0.89169657230377197 0.0001516903139417991
0 0 0.11361010372638702
0.11905089765787125 0 0.11355393379926682
0.38163822889328003 0 0.082276105880737305
0.65854358673095703 0 0.064960092306137085
0.93350917100906372 0.0023818670306354761 0.059145819395780563
0 0.10635353624820709 0.11143330484628677
0.10674311220645905 0.098653785884380341 0.1037106066942215
0.37844094634056091 0.078565381467342377 0.089674659073352814
0.67093896865844727 0.075471483170986176 0.064968809485435486
0.94551569223403931 0.073604673147201538 0.075540401041507721
0 0.3355620801448822 0.10681644827127457
0.095738232135772705 0.33544495701789856 0.096271738409996033
0.37009343504905701 0.32396423816680908 0.078881986439228058
0.6786874532699585 0.31194010376930237 0.06572367250919342
0.96624070405960083 0.31265747547149658 0.075043700635433197
0 0.59700232744216919 0.094664812088012695
0.078671067953109741 0.60415184497833252 0.082521162927150726
0.36907997727394104 0.60446739196777344 0.084844522178173065
0.68598949909210205 0.60476303100585938 0.081518195569515228
0.97963446378707886 0.61028915643692017 0.081861980259418488
0 0.879036545753479 0.12893681228160858
0.12922936677932739 0.88684475421905518 0.12416774034500122
0.41692069172859192 0.88789469003677368 0.14196692407131195
0.73286312818527222 0.88266301155090332 0.1259569525718689
0.99813520908355713 0.88889485597610474 0.12797585129737854
0 0 0.3557550311088562
0.10744316130876541 0 0.34660109877586365
0.37089821696281433 0 0.31843793392181396
0.65624392032623291 0 0.29778566956520081
0.93796455860137939 0.0016008114907890558 0.29048904776573181
0 0.10954140871763229 0.34970250725746155
0.094970226287841797 0.089895002543926239 0.34249857068061829
0.37408962845802307 0.077416665852069855 0.32360160350799561
0.66950708627700806 0.067890584468841553 0.30296376347541809
0.9470641016960144 0.067375794053077698 0.29731592535972595
0 0.33440473675727844 0.32721197605133057
0.091461926698684692 0.33109873533248901 0.32863789796829224
0.37271276116371155 0.32550615072250366 0.32163506746292114
0.68410623073577881 0.31570026278495789 0.31526648998260498
0.97041445970535278 0.31435316801071167 0.31194984912872314
0 0.59927600622177124 0.31993803381919861
0.090505979955196381 0.60731083154678345 0.32581111788749695
0.37318336963653564 0.60952842235565186 0.32478278875350952
0.68633437156677246 0.60912990570068359 0.32496124505996704
0.98260498046875 0.61446899175643921 0.33194130659103394
0 0.87964779138565063 0.35957306623458862
0.1388542503118515 0.88866060972213745 0.36326590180397034
0.41683396697044373 0.89146894216537476 0.36608988046646118
0.72574400901794434 0.88482463359832764 0.36175677180290222
0.99766772985458374 0.88541799783706665 0.36911794543266296
0 0 0.60456091165542603
0.099521487951278687 0 0.59503793716430664
0.36032605171203613 0 0.57597684860229492
0.65046840906143188 0 0.56028521060943604
0.93786764144897461 0 0.54887217283248901
0 0.10071410983800888 0.60642135143280029
0.077192611992359161 0.091442540287971497 0.60242944955825806
0.35786855220794678 0.082327857613563538 0.58434587717056274
0.65936762094497681 0.051693487912416458 0.56931716203689575
0.94779390096664429 0.066288366913795471 0.55594545602798462
0.0002066219603875652 0.32800161838531494 0.58425432443618774
0.087722167372703552 0.3284417986869812 0.59369808435440063
0.36910489201545715 0.32478675246238708 0.59087920188903809
0.68457353115081787 0.31600263714790344 0.58113497495651245
0.97109568119049072 0.31844112277030945 0.57452851533889771
0.00042425416177138686 0.59723520278930664 0.5793689489364624
0.092654630541801453 0.60591226816177368 0.59644907712936401
0.37669456005096436 0.61196935176849365 0.59899616241455078
0.69530296325683594 0.61305445432662964 0.60054504871368408
0.98539334535598755 0.62030428647994995 0.60051250457763672
0 0.88149356842041016 0.62495803833007812
0.11946640163660049 0.88994801044464111 0.63162696361541748
0.40298187732696533 0.89488726854324341 0.62391197681427002
0.72172755002975464 0.88797378540039062 0.62267649173736572
0.99766254425048828 0.88669764995574951 0.63060492277145386
0 0 0.84076535701751709
0.11143700033426285 0 0.83131861686706543
0.3682197630405426 0.0027701733633875847 0.82250648736953735
0.65578114986419678 9.3347887741401792e-05 0.81056994199752808
0.94454532861709595 0 0.80175197124481201
0 0.099115349352359772 0.83974909782409668
0.087407179176807404 0.093098372220993042 0.83823627233505249
0.35344892740249634 0.1051785945892334 0.83003681898117065
0.65556114912033081 0.085449457168579102 0.81741690635681152
0.945953369140625 0.068047694861888885 0.80617892742156982
0.0014534894144162536 0.326739102602005 0.82933896780014038
0.10278930515050888 0.32864576578140259 0.83680874109268188
0.36480915546417236 0.33122080564498901 0.83870035409927368
0.67975199222564697 0.3262212872505188 0.83018344640731812
0.96861129999160767 0.3242853581905365 0.8243439793586731
2.1003274014219642e-05 0.59877336025238037 0.82610428333282471
0.10169632732868195 0.60623514652252197 0.83888417482376099
0.3773343563079834 0.61311072111129761 0.84874796867370605
0.70033115148544312 0.61653441190719604 0.84648740291595459
0.98885965347290039 0.62108397483825684 0.84778380393981934
0 0.88802045583724976 0.87072491645812988
0.12507365643978119 0.89326959848403931 0.874642014503479
0.40566226840019226 0.89698415994644165 0.87226229906082153
0.72895509004592896 0.89210373163223267 0.86799561977386475
0.99948620796203613 0.89528894424438477 0.87741869688034058
