assets/lut/jtsemple winterlighthouse.cube
# Created by: G'MIC (https://gmic.eu)
TITLE "winterlighthouse"
# LUT size
LUT_3D_SIZE 5
# Data domain
DOMAIN_MIN 0.0 0.0 0.0
DOMAIN_MAX 1.0 1.0 1.0
# LUT data points
0 2.5850184101727791e-05 0.00098535872530192137
0.13168436288833618 0 0.012080023996531963
0.43065688014030457 0 0.013160182163119316
0.72437167167663574 0.0023600859567523003 0.012585554271936417
0.91501510143280029 0 0.02744700200855732
0 0.13302706182003021 0.00042204014607705176
0.15015940368175507 0.12591749429702759 0.0076049207709729671
0.45119345188140869 0.10514690726995468 0.0087984874844551086
0.75521576404571533 0.10839726775884628 0.027271704748272896
0.95843744277954102 0.12300006300210953 0.06431097537279129
0 0.38108602166175842 0
0.1656142920255661 0.39959532022476196 0.0064128055237233639
0.50579655170440674 0.40515583753585815 0.011498649604618549
0.8420943021774292 0.45287775993347168 0.048305481672286987
0.99769628047943115 0.52300864458084106 0.11160711944103241
0.044201210141181946 0.75214260816574097 0.010375737212598324
0.31758856773376465 0.80813366174697876 0.033500835299491882
0.68337821960449219 0.82393544912338257 0.071460947394371033
0.95190316438674927 0.84524303674697876 0.10407453030347824
1 0.86060440540313721 0.13787522912025452
0.17942067980766296 1 0.048407595604658127
0.4467618465423584 1 0.068494461476802826
0.72931420803070068 1 0.072096943855285645
0.9189218282699585 0.98807662725448608 0.055270548909902573
0.99854040145874023 0.9716002345085144 0.051037613302469254
0 0.0047630760818719864 0.15674594044685364
0.10632448643445969 7.7191521995700896e-05 0.17811353504657745
0.40606012940406799 0 0.17721337080001831
0.70091509819030762 0 0.1756870448589325
0.89558839797973633 0 0.2048286497592926
0 0.14090335369110107 0.14135809242725372
0.12784186005592346 0.13517244160175323 0.15959875285625458
0.44039240479469299 0.10233909636735916 0.17151500284671783
0.73897010087966919 0.092751674354076385 0.19232138991355896
0.94972765445709229 0.11509937793016434 0.23869957029819489
0.0014645146438851953 0.39909753203392029 0.095045067369937897
0.15496237576007843 0.42229673266410828 0.13457709550857544
0.50727999210357666 0.43643936514854431 0.17758633196353912
0.8308681845664978 0.4723564088344574 0.24227018654346466
0.99978435039520264 0.54270917177200317 0.32531630992889404
0.04543488472700119 0.78371763229370117 0.15126197040081024
0.30429503321647644 0.83165997266769409 0.23296953737735748
0.663596510887146 0.8452332615852356 0.28164288401603699
0.92720800638198853 0.85658246278762817 0.3337666392326355
1 0.86418807506561279 0.36148196458816528
0.1598258763551712 1 0.30693095922470093
0.42327642440795898 1 0.3217892050743103
0.69686508178710938 1 0.29725146293640137
0.89378225803375244 0.99220794439315796 0.24588435888290405
1 0.96693503856658936 0.23277968168258667
0 0 0.40559947490692139
0.086104631423950195 9.6040610515046865e-05 0.42794880270957947
0.36670556664466858 0.0013663647696375847 0.42558580636978149
0.66374820470809937 0 0.42918714880943298
0.86167651414871216 0.0044417884200811386 0.46264377236366272
0.00029171214555390179 0.14619548618793488 0.39908882975578308
0.092405460774898529 0.14011397957801819 0.41363769769668579
0.40802571177482605 0.12608501315116882 0.43146863579750061
0.71283197402954102 0.099550358951091766 0.46054184436798096
0.93086832761764526 0.14987814426422119 0.50433933734893799
0 0.408824622631073 0.35514473915100098
0.12498559057712555 0.44399136304855347 0.41564562916755676
0.48103901743888855 0.45300239324569702 0.46139547228813171
0.80706137418746948 0.50106203556060791 0.53243887424468994
0.99351209402084351 0.57445311546325684 0.6060907244682312
0.036985598504543304 0.8139607310295105 0.4566657543182373
0.28410181403160095 0.86052191257476807 0.53193658590316772
0.63428658246994019 0.8616030216217041 0.57296168804168701
0.8978811502456665 0.86432003974914551 0.60785353183746338
1 0.86296039819717407 0.61952930688858032
0.10618282854557037 1 0.58513623476028442
0.36348351836204529 1 0.57432490587234497
0.63886189460754395 0.99996554851531982 0.54132860898971558
0.84734290838241577 0.98625057935714722 0.4969165027141571
0.98419284820556641 0.9562411904335022 0.47681123018264771
0 0 0.66275215148925781
0.048468273133039474 0 0.67901253700256348
0.32852303981781006 0.0024653715081512928 0.68428510427474976
0.63383972644805908 0.00077550549758598208 0.69028341770172119
0.82111197710037231 0 0.71207058429718018
0 0.15386666357517242 0.65559333562850952
0.058919750154018402 0.1516062319278717 0.67332929372787476
0.37387546896934509 0.14066678285598755 0.69593089818954468
0.68765956163406372 0.12387774884700775 0.72802788019180298
0.9026903510093689 0.15953469276428223 0.77666276693344116
0.00068805168848484755 0.43148133158683777 0.63013869524002075
0.090128593146800995 0.46473482251167297 0.66985684633255005
0.46583053469657898 0.48679205775260925 0.72132652997970581
0.78810954093933105 0.52464467287063599 0.78282666206359863
0.98734831809997559 0.60490798950195312 0.8669273853302002
0.020330945029854774 0.8498644232749939 0.71290642023086548
0.26487112045288086 0.88008898496627808 0.76601338386535645
0.6198236346244812 0.87539660930633545 0.80535531044006348
0.85999923944473267 0.87074750661849976 0.82812207937240601
0.9995952844619751 0.86556094884872437 0.83736282587051392
0.062174703925848007 1 0.79390215873718262
0.30992960929870605 1 0.77300369739532471
0.59266430139541626 0.99985259771347046 0.74759435653686523
0.80471992492675781 0.98094373941421509 0.72122484445571899
0.94802320003509521 0.95277053117752075 0.70744031667709351
0 0 0.88856148719787598
0.053214907646179199 0 0.91064417362213135
0.30549329519271851 0.00056367763318121433 0.9220396876335144
0.58807766437530518 0.0016405741916969419 0.93692880868911743
0.79832965135574341 0.011263947933912277 0.95209807157516479
0 0.15806940197944641 0.8748505711555481
0.060629121959209442 0.16358283162117004 0.90423917770385742
0.34890466928482056 0.15936452150344849 0.93340659141540527
0.66246634721755981 0.15858018398284912 0.97266691923141479
0.88414913415908813 0.1981511116027832 0.99652767181396484
0 0.45389807224273682 0.85850328207015991
0.1020917221903801 0.49456506967544556 0.90869021415710449
0.45321884751319885 0.51602864265441895 0.9515998363494873
0.78019016981124878 0.56002259254455566 0.98509949445724487
0.97908878326416016 0.62208211421966553 0.99821203947067261
0.012707160785794258 0.88020020723342896 0.93451344966888428
0.26451137661933899 0.9046207070350647 0.97945868968963623
0.59707367420196533 0.88691633939743042 0.99423599243164062
0.83555614948272705 0.87359559535980225 0.99639755487442017
0.98695987462997437 0.86798161268234253 0.99401271343231201
0.048564732074737549 0.99986851215362549 0.98136621713638306
0.28123152256011963 1 0.96929436922073364
0.54540753364562988 0.99992763996124268 0.94287824630737305
0.7619330883026123 0.97692692279815674 0.92133110761642456
0.90974050760269165 0.94847697019577026 0.91543322801589966
