assets/lut/jtsemple mysticpurplesunset.cube
# Created by: G'MIC (https://gmic.eu)
TITLE "mysticpurplesunset"
# LUT size
LUT_3D_SIZE 13
# Data domain
DOMAIN_MIN 0.0 0.0 0.0
DOMAIN_MAX 1.0 1.0 1.0
# LUT data points
5.6008731917245314e-05 0.00049959070747718215 5.3854550060350448e-05
0.014155100099742413 0.0006466136546805501 0.00086928723612800241
0.083694905042648315 0.00051359290955588222 0.00073738844366744161
0.17740681767463684 0.00049959070747718215 0.0036651161499321461
0.27501645684242249 0.00036980124423280358 0.0051677930168807507
0.37284174561500549 0.0028476789593696594 0.0010548760183155537
0.47097823023796082 0.0036505307070910931 0.0014759137993678451
0.56959062814712524 0.0017349841073155403 0.0037659290246665478
0.66846519708633423 0.0026211608201265335 0.0025869032833725214
0.76711416244506836 0.0046524195931851864 0.00057103775907307863
0.86322319507598877 0.0096216686069965363 2.154182038793806e-05
0.95259654521942139 0.021138973534107208 0
0.99963825941085815 0.03526083379983902 0
0.00029035081388428807 0.031253382563591003 0.0034505208022892475
0.019425306469202042 0.033478889614343643 0.0035559262614697218
0.099898241460323334 0.034630119800567627 0.0009396870736964047
0.1950194239616394 0.037341546267271042 0.002839705441147089
0.28883260488510132 0.038566470146179199 0.004911505151540041
0.38377737998962402 0.0437912717461586 0.0013973759487271309
0.48151674866676331 0.042309150099754333 0.0047504948452115059
0.58088314533233643 0.039637219160795212 0.0090056620538234711
0.68068403005599976 0.04475383460521698 0.005409629549831152
0.7801513671875 0.050436850637197495 0.0023491804022341967
0.8773844838142395 0.057934332638978958 0.0011580523569136858
0.96649587154388428 0.070870809257030487 0.00082720589125528932
1 0.08740590512752533 0.0009392233332619071
4.4878790504299104e-05 0.1134103387594223 0.0024005216546356678
0.021673046052455902 0.1175738200545311 0.0026093875057995319
0.10610538721084595 0.1183144822716713 0.0012177411699667573
0.20434971153736115 0.1199248805642128 0.002479613060131669
0.29887786507606506 0.12165521085262299 0.0046591367572546005
0.39357960224151611 0.12349528819322586 0.00247041299007833
0.49209186434745789 0.11959010362625122 0.0023930119350552559
0.59235495328903198 0.11625382304191589 0.0037107430398464203
0.69261771440505981 0.11938629299402237 0.0039127576164901257
0.79312711954116821 0.12297080457210541 0.0036144780460745096
0.89143151044845581 0.12681165337562561 0.0041697784326970577
0.97794514894485474 0.13595980405807495 0.006106911227107048
1 0.15146037936210632 0.007781054824590683
0.0024482428561896086 0.20481663942337036 0.0043002557940781116
0.039074692875146866 0.20799250900745392 0.0051536858081817627
0.11689586192369461 0.20903076231479645 0.0045590270310640335
0.2125047892332077 0.21064133942127228 0.0059345019981265068
0.30924093723297119 0.21318638324737549 0.010619473643600941
0.40635839104652405 0.21490491926670074 0.011717942543327808
0.50580978393554688 0.21384496986865997 0.0046004499308764935
0.60625189542770386 0.21049563586711884 0.0020515590440481901
0.70659351348876953 0.21051780879497528 0.003659670939669013
0.80762839317321777 0.21042758226394653 0.0046852109953761101
0.90728271007537842 0.21032953262329102 0.0084261726588010788
0.98779386281967163 0.21556471288204193 0.015611117705702782
1 0.22901734709739685 0.02080974169075489
0.0058966544456779957 0.29539963603019714 0.0078054093755781651
0.055646680295467377 0.29824134707450867 0.0085331033915281296
0.1326044499874115 0.30005720257759094 0.0085193263366818428
0.22567911446094513 0.30181676149368286 0.01022866927087307
0.32398101687431335 0.30521363019943237 0.015901602804660797
0.42331388592720032 0.30772435665130615 0.018362861126661301
0.52409613132476807 0.3084513247013092 0.012878148816525936
0.62512737512588501 0.30766004323959351 0.008507867343723774
0.72548449039459229 0.30716636776924133 0.0072628543712198734
0.82539927959442139 0.3061889111995697 0.0066082673147320747
0.92502105236053467 0.30409377813339233 0.012602967210114002
0.99504309892654419 0.30733877420425415 0.026476122438907623
1 0.3189454972743988 0.036254853010177612
0.0084331287071108818 0.38755637407302856 0.01190789882093668
0.067665725946426392 0.39097148180007935 0.013090276159346104
0.14928686618804932 0.39393311738967896 0.014792648144066334
0.24334745109081268 0.39672312140464783 0.018284173682332039
0.34223052859306335 0.40052878856658936 0.023919947445392609
0.44414231181144714 0.4039185643196106 0.027302177622914314
0.54709291458129883 0.40686681866645813 0.02452494390308857
0.65054553747177124 0.40828591585159302 0.019927350804209709
0.75341230630874634 0.40844649076461792 0.015392947010695934
0.8538278341293335 0.40752604603767395 0.012856995686888695
0.94940584897994995 0.40622171759605408 0.019537324085831642
0.99924302101135254 0.40945050120353699 0.035951457917690277
1 0.41907835006713867 0.049637123942375183
0.01075636874884367 0.48279526829719543 0.017960058525204659
0.079418376088142395 0.48711702227592468 0.021071609109640121
0.16707330942153931 0.49188700318336487 0.025566190481185913
0.26336082816123962 0.49624592065811157 0.031549535691738129
0.36468786001205444 0.500499427318573 0.037503980100154877
0.46878409385681152 0.50437158346176147 0.040876097977161407
0.57416069507598877 0.5078778862953186 0.04021332785487175
0.68134862184524536 0.51104915142059326 0.036871727555990219
0.78846633434295654 0.51326471567153931 0.032445631921291351
0.89150941371917725 0.51311737298965454 0.03109506331384182
0.97744530439376831 0.51302051544189453 0.038012754172086716
1 0.51732873916625977 0.051810469478368759
1 0.52546143531799316 0.065027631819248199
0.015183198265731335 0.58223503828048706 0.028272336348891258
0.094171293079853058 0.58799940347671509 0.03454875573515892
0.18776115775108337 0.59422999620437622 0.042448334395885468
0.28822499513626099 0.59992736577987671 0.050087258219718933
0.39199644327163696 0.6044432520866394 0.056066714227199554
0.4975622296333313 0.60830390453338623 0.05940207839012146
0.60545939207077026 0.61262452602386475 0.060293100774288177
0.7147861123085022 0.6176067590713501 0.059401180595159531
0.82314670085906982 0.62101316452026367 0.05838177353143692
0.92194247245788574 0.62257832288742065 0.05955670028924942
0.99017798900604248 0.62374025583267212 0.064902797341346741
1 0.62793099880218506 0.074522249400615692
1 0.63412129878997803 0.085117772221565247
0.025857528671622276 0.6867668628692627 0.045859765261411667
0.11571431159973145 0.69384700059890747 0.055193450301885605
0.21558977663516998 0.70090305805206299 0.065381653606891632
0.31900134682655334 0.70715755224227905 0.07361728698015213
0.42432555556297302 0.71173352003097534 0.079314455389976501
0.53115743398666382 0.71507400274276733 0.082397818565368652
0.63992094993591309 0.7198185920715332 0.084350436925888062
0.75071179866790771 0.72654169797897339 0.085859544575214386
0.85798990726470947 0.73086327314376831 0.087677031755447388
0.94716465473175049 0.73170965909957886 0.090178318321704865
0.99532145261764526 0.73384904861450195 0.094581544399261475
1 0.73732942342758179 0.10117541998624802
1 0.74090832471847534 0.10934454202651978
0.050732363015413284 0.79694628715515137 0.072778917849063873
0.14752838015556335 0.80315804481506348 0.083040483295917511
0.25004526972770691 0.80922609567642212 0.093282662332057953
0.35481327772140503 0.81485837697982788 0.10154109448194504
0.4610857367515564 0.81933730840682983 0.10695508867502213
0.56877619028091431 0.82254451513290405 0.10999381542205811
0.67836481332778931 0.82790613174438477 0.11222978681325912
0.7896960973739624 0.83571392297744751 0.1150834783911705
0.89699018001556396 0.83803427219390869 0.11802273988723755
0.97681021690368652 0.83602017164230347 0.12100828438997269
0.99962151050567627 0.83654284477233887 0.12474975734949112
1 0.83959370851516724 0.12957814335823059
1 0.84016060829162598 0.13607200980186462
0.089244768023490906 0.90679073333740234 0.10752195119857788
0.18626540899276733 0.91011971235275269 0.11609619855880737
0.28841659426689148 0.91284441947937012 0.12510736286640167
0.3930366039276123 0.91633564233779907 0.13235168159008026
0.49954235553741455 0.91987115144729614 0.13724741339683533
0.6075482964515686 0.92332810163497925 0.14034932851791382
0.71659260988235474 0.929027259349823 0.14311526715755463
0.82559365034103394 0.93621534109115601 0.14622721076011658
0.92944210767745972 0.9343116283416748 0.14937610924243927
0.99521785974502563 0.92669397592544556 0.15201529860496521
1 0.92437756061553955 0.15537053346633911
1 0.92615097761154175 0.15937066078186035
1 0.92565172910690308 0.16450321674346924
0.12829145789146423 0.99056023359298706 0.14287272095680237
0.22528399527072906 0.99142396450042725 0.15019503235816956
0.32638609409332275 0.99150806665420532 0.15746092796325684
0.43027254939079285 0.99192887544631958 0.16362780332565308
0.53617757558822632 0.99261367321014404 0.16828534007072449
0.64335173368453979 0.99327218532562256 0.17141538858413696
0.75028622150421143 0.99493139982223511 0.17427228391170502
0.85364377498626709 0.99662601947784424 0.17750123143196106
0.94681835174560547 0.99494075775146484 0.18055270612239838
0.99806404113769531 0.99087321758270264 0.18317185342311859
1 0.98914057016372681 0.18603546917438507
1 0.98931753635406494 0.18953850865364075
1 0.98914307355880737 0.1937686949968338
0.16299498081207275 1 0.17624491453170776
0.26055362820625305 1 0.18309289216995239
0.36117815971374512 1 0.1895972341299057
0.4640292227268219 1 0.19466154277324677
0.56844514608383179 1 0.1986912339925766
0.67366528511047363 1 0.2016054093837738
0.77700233459472656 1 0.204393669962883
0.87416934967041016 1 0.20756037533283234
0.95676606893539429 1 0.21083568036556244
0.9986986517906189 1 0.21356549859046936
1 1 0.21630853414535522
1 1 0.21932908892631531
1 1 0.22263532876968384
0.00012854782107751817 0.00064463895978406072 0.020974282175302505
0.01554209366440773 0.0023247064091265202 0.02531139925122261
0.087268874049186707 0.0006016450934112072 0.030077287927269936
0.18145431578159332 0.00037787941982969642 0.039800412952899933
0.27753821015357971 0.00067749025765806437 0.04151623323559761
0.3748323917388916 0.0031571032013744116 0.033430211246013641
0.47273045778274536 0.0027309192810207605 0.036361124366521835
0.57072675228118896 0.0014716354198753834 0.043954107910394669
0.66964870691299438 0.0014003978576511145 0.043528404086828232
0.76824700832366943 0.001128028379753232 0.038112863898277283
0.86525446176528931 0.0020511553157120943 0.031549312174320221
0.95683473348617554 0.008645959198474884 0.026555050164461136
0.99999767541885376 0.022553388029336929 0.026423390954732895
0.00021528356592170894 0.030677122995257378 0.035217463970184326
0.019893018528819084 0.03657073900103569 0.034591391682624817
0.099669419229030609 0.035980973392724991 0.036534760147333145
0.19613972306251526 0.037591822445392609 0.043197691440582275
0.29035016894340515 0.038826558738946915 0.045790113508701324
0.38459819555282593 0.041115868836641312 0.040149226784706116
0.48230686783790588 0.037589114159345627 0.046672102063894272
0.58119624853134155 0.038193915039300919 0.052042059600353241
0.68088376522064209 0.040854331105947495 0.050116639584302902
0.78068000078201294 0.040450781583786011 0.046208910644054413
0.87921333312988281 0.041214033961296082 0.043552026152610779
0.96940255165100098 0.054061185568571091 0.04265144094824791
1 0.073446430265903473 0.045008938759565353
0.00073702941881492734 0.11551305651664734 0.039818782359361649
0.024774514138698578 0.11821317672729492 0.043813250958919525
0.10584118217229843 0.11949127912521362 0.043648708611726761
0.20425355434417725 0.12229512631893158 0.048202767968177795
0.29991310834884644 0.12284107506275177 0.050821851938962936
0.39536038041114807 0.12049327045679092 0.044101085513830185
0.49321961402893066 0.11575289070606232 0.044072650372982025
0.59276288747787476 0.11514346301555634 0.047087367624044418
0.69268506765365601 0.11767757683992386 0.050186231732368469
0.79374617338180542 0.11815836280584335 0.051058318465948105
0.89344435930252075 0.11617081612348557 0.054443731904029846
0.98022305965423584 0.12299041450023651 0.059919934719800949
1 0.1400810182094574 0.065630927681922913
0.0047516617923974991 0.20760852098464966 0.052134197205305099
0.041836563497781754 0.2091885507106781 0.056331589818000793
0.11694534868001938 0.21065542101860046 0.056026473641395569
0.2125171422958374 0.21339176595211029 0.058208748698234558
0.31093677878379822 0.21464605629444122 0.062820389866828918
0.40864893794059753 0.2129959911108017 0.060128230601549149
0.50737684965133667 0.21065185964107513 0.052238211035728455
0.60714906454086304 0.21015593409538269 0.050619475543498993
0.70762819051742554 0.21047794818878174 0.055544205009937286
0.80974602699279785 0.20936699211597443 0.058648683130741119
0.91056865453720093 0.20633821189403534 0.065905898809432983
0.98955100774765015 0.20933111011981964 0.076590485870838165
1 0.22211790084838867 0.085660509765148163
0.0073353038169443607 0.29740133881568909 0.063339665532112122
0.056009165942668915 0.30008241534233093 0.065055876970291138
0.132213294506073 0.30126485228538513 0.065185010433197021
0.22597566246986389 0.3031652569770813 0.067391864955425262
0.32540398836135864 0.30554497241973877 0.074358619749546051
0.4254491925239563 0.30704531073570251 0.076917268335819244
0.52570599317550659 0.30699709057807922 0.072311475872993469
0.62608826160430908 0.30715200304985046 0.070762306451797485
0.72740274667739868 0.30739098787307739 0.071181386709213257
0.83015233278274536 0.30621355772018433 0.070123426616191864
0.93024486303329468 0.30390185117721558 0.077771209180355072
0.99637037515640259 0.30587366223335266 0.092083677649497986
1 0.31614050269126892 0.10391422361135483
0.0090914256870746613 0.38852852582931519 0.073596134781837463
0.067412421107292175 0.39176145195960999 0.075414605438709259
0.14892509579658508 0.39496183395385742 0.07805284857749939
0.24370524287223816 0.39753565192222595 0.082307480275630951
0.34324124455451965 0.40064486861228943 0.08932146430015564
0.44560065865516663 0.40366342663764954 0.094180762767791748
0.54814422130584717 0.40552625060081482 0.094144411385059357
0.65084302425384521 0.40786880254745483 0.091763228178024292
0.75468593835830688 0.40892583131790161 0.089064277708530426
0.85904985666275024 0.4084089994430542 0.086505413055419922
0.95556896924972534 0.40710544586181641 0.093526624143123627
0.99971413612365723 0.4098173975944519 0.10795868188142776
1 0.41843929886817932 0.12114127725362778
0.010836866684257984 0.4830230176448822 0.086387172341346741
0.079221360385417938 0.48741376399993896 0.089903675019741058
0.16699123382568359 0.49226817488670349 0.095433525741100311
0.26387327909469604 0.49683144688606262 0.10150327533483505
0.3655485212802887 0.50098246335983276 0.10832487791776657
0.46941128373146057 0.50428897142410278 0.11333974450826645
0.57387042045593262 0.5075039267539978 0.11460417509078979
0.68022418022155762 0.51110297441482544 0.11408758908510208
0.78875565528869629 0.51370418071746826 0.11238253861665726
0.89584988355636597 0.51413214206695557 0.11204265803098679
0.98176664113998413 0.51432234048843384 0.11742503196001053
1 0.51813280582427979 0.12846961617469788
1 0.52607327699661255 0.14053285121917725
0.015544353052973747 0.58264541625976562 0.10369484126567841
0.094784393906593323 0.58806943893432617 0.10968710482120514
0.1889432966709137 0.59468746185302734 0.11754103749990463
0.289549320936203 0.6007886528968811 0.12510292232036591
0.39311385154724121 0.60555738210678101 0.1315508633852005
0.49817445874214172 0.60909706354141235 0.13593271374702454
0.604137122631073 0.61288362741470337 0.13842453062534332
0.71190005540847778 0.61764603853225708 0.13953526318073273
0.82182735204696655 0.62115305662155151 0.14058719575405121
0.9267774224281311 0.62275129556655884 0.14256955683231354
0.99430930614471436 0.62418729066848755 0.14697660505771637
1 0.62883251905441284 0.15448743104934692
1 0.63547462224960327 0.16401670873165131
0.027187077328562737 0.68789863586425781 0.12728653848171234
0.11821915954351425 0.69444060325622559 0.13571567833423615
0.21838220953941345 0.7019047737121582 0.14517083764076233
0.32169753313064575 0.70908105373382568 0.15322007238864899
0.42681884765625 0.7142404317855835 0.15917353332042694
0.53306788206100464 0.71689540147781372 0.16276329755783081
0.63997441530227661 0.72022873163223267 0.16540634632110596
0.74670934677124023 0.72603946924209595 0.16827565431594849
0.85264325141906738 0.73015731573104858 0.17162317037582397
0.95001637935638428 0.73155540227890015 0.17502957582473755
0.99833756685256958 0.73374819755554199 0.17872831225395203
1 0.73823291063308716 0.18353603780269623
1 0.74313658475875854 0.19077140092849731
0.053832348436117172 0.79964548349380493 0.1572013795375824
0.15173493325710297 0.80511224269866943 0.16725645959377289
0.25482213497161865 0.81151032447814941 0.1773984432220459
0.3592529296875 0.81867772340774536 0.18507474660873413
0.46528869867324829 0.82405799627304077 0.19034823775291443
0.57286757230758667 0.82541263103485107 0.1933702826499939
0.6812775731086731 0.82683336734771729 0.1958741694688797
0.78859734535217285 0.83310455083847046 0.19955730438232422
0.89185351133346558 0.8358350396156311 0.20403037965297699
0.97623974084854126 0.83569866418838501 0.20774520933628082
0.99996364116668701 0.8371385931968689 0.21046625077724457
1 0.84127187728881836 0.21395541727542877
1 0.8440251350402832 0.21960838139057159
0.092719912528991699 0.91072750091552734 0.19178123772144318
0.19141380488872528 0.91384232044219971 0.20164971053600311
0.29427200555801392 0.91685926914215088 0.21126912534236908
0.39872220158576965 0.92175662517547607 0.21847178041934967
0.5050586462020874 0.92623412609100342 0.2233785092830658
0.61358612775802612 0.92706966400146484 0.22634181380271912
0.72309410572052002 0.92646592855453491 0.22849483788013458
0.83131569623947144 0.92841470241546631 0.23203694820404053
0.93169856071472168 0.92769384384155273 0.23618273437023163
0.99473899602890015 0.92459607124328613 0.23960702121257782
1 0.9262658953666687 0.24193653464317322
1 0.92960363626480103 0.24512462317943573
1 0.93057620525360107 0.25014865398406982
0.13267527520656586 0.99248689413070679 0.22787909209728241
0.23106122016906738 0.99298566579818726 0.2365761399269104
0.33272233605384827 0.99302184581756592 0.24495463073253632
0.43680498003959656 0.9937736988067627 0.25137996673583984
0.54285919666290283 0.99467188119888306 0.25581306219100952
0.65087258815765381 0.99442207813262939 0.25852325558662415
0.75976061820983887 0.99289911985397339 0.26080584526062012
0.86557716131210327 0.9910394549369812 0.26404744386672974
0.95743626356124878 0.9882616400718689 0.26789239048957825
0.99940627813339233 0.98684287071228027 0.2709009051322937
1 0.9891362190246582 0.27350765466690063
1 0.99130469560623169 0.27684926986694336
1 0.99185949563980103 0.28138458728790283
0.16852951049804688 1 0.2635979950428009
0.26701194047927856 1 0.27130594849586487
0.36829781532287598 1 0.27812358736991882
0.47155335545539856 1 0.28335458040237427
0.57655245065689087 1 0.28682279586791992
0.68307191133499146 1 0.28894060850143433
0.78920513391494751 1 0.29131835699081421
0.89036953449249268 1 0.29463866353034973
0.97291839122772217 1 0.29876521229743958
0.99999839067459106 1 0.30201408267021179
1 1 0.30492183566093445
1 1 0.30829808115959167
1 1 0.31202727556228638
0 0.00049923168262466788 0.096368007361888885
0.012670285068452358 0.002765655517578125 0.10371250659227371
0.087202407419681549 0.0016813689144328237 0.10788191109895706
0.18338131904602051 0.0010609047021716833 0.11082705110311508
0.27933186292648315 0.00055901025189086795 0.110617496073246
0.3759516179561615 0.00075647688936442137 0.10714742541313171
0.47319623827934265 0.00077155616600066423 0.10863789916038513
0.57057374715805054 0.0013187483418732882 0.11032906174659729
0.66916447877883911 0.0014127244940027595 0.10973877459764481
0.76747590303421021 0.00029691809322685003 0.10745911300182343
0.8639063835144043 5.385455096984515e-06 0.10440268367528915
0.95524132251739502 0.0016748466296121478 0.10171592235565186
0.99997663497924805 0.01115685235708952 0.10265426337718964
7.7012009569443762e-05 0.034579228609800339 0.11064664274454117
0.021540218964219093 0.038279872387647629 0.11344955861568451
0.096783235669136047 0.036129072308540344 0.11731261014938354
0.19322235882282257 0.036885131150484085 0.12070414423942566
0.29001507163047791 0.036749355494976044 0.1212669238448143
0.38604184985160828 0.035760976374149323 0.119156613945961
0.48313552141189575 0.034013621509075165 0.12116910517215729
0.58138322830200195 0.038344737142324448 0.11974463611841202
0.68081128597259521 0.040559176355600357 0.11730605363845825
0.78001272678375244 0.033721461892127991 0.11574499309062958
0.87813073396682739 0.025974662974476814 0.1155819445848465
0.96879774332046509 0.038457322865724564 0.11678986251354218
1 0.061191394925117493 0.12006708979606628
0.0022524066735059023 0.11760252714157104 0.12223666161298752
0.027945274487137794 0.1173468679189682 0.12575241923332214
0.10156306624412537 0.11613716930150986 0.12728279829025269
0.19918161630630493 0.11903264373540878 0.13016602396965027
0.29866057634353638 0.11933315545320511 0.13076561689376831
0.39656803011894226 0.11486668139696121 0.12609109282493591
0.4942728579044342 0.11162655055522919 0.12357018887996674
0.59347271919250488 0.11372345685958862 0.12293969094753265
0.6936725378036499 0.11679569631814957 0.12245948612689972
0.79488426446914673 0.11346077919006348 0.12274083495140076
0.89429366588592529 0.10721429437398911 0.12660965323448181
0.98097473382949829 0.11339892446994781 0.13216787576675415
1 0.13189050555229187 0.13890677690505981
0.0053675784729421139 0.20842565596103668 0.13194841146469116
0.040730077773332596 0.20893879234790802 0.13569216430187225
0.11302609741687775 0.20919027924537659 0.1368037611246109
0.20893947780132294 0.21189545094966888 0.13966593146324158
0.31028586626052856 0.21211822330951691 0.14239633083343506
0.41016614437103271 0.20879568159580231 0.1389315128326416
0.50906991958618164 0.20666827261447906 0.1337798684835434
0.60846060514450073 0.2067486047744751 0.1326545923948288
0.70974373817443848 0.2092159241437912 0.13420699536800385
0.81311923265457153 0.2075117826461792 0.13539186120033264
0.9141126275062561 0.20329120755195618 0.14042651653289795
0.99108147621154785 0.20600463449954987 0.14888900518417358
1 0.21839846670627594 0.15782387554645538
0.0071547864936292171 0.29801976680755615 0.14010071754455566
0.054547030478715897 0.30031231045722961 0.14261116087436676
0.12991289794445038 0.30188366770744324 0.14472341537475586
0.22432704269886017 0.30401304364204407 0.14860506355762482
0.32575362920761108 0.30631443858146667 0.15437726676464081
0.42710036039352417 0.30620262026786804 0.1557231992483139
0.52715754508972168 0.30523288249969482 0.15348981320858002
0.6275971531867981 0.30629178881645203 0.15309321880340576
0.72977858781814575 0.30771863460540771 0.15421281754970551
0.83454000949859619 0.30707317590713501 0.15351192653179169
0.93533146381378174 0.30491930246353149 0.1579197496175766
0.99743360280990601 0.30683884024620056 0.16714049875736237
1 0.31606012582778931 0.17730504274368286
0.0089074531570076942 0.38886573910713196 0.15055134892463684
0.066806584596633911 0.39223986864089966 0.15297159552574158
0.14814703166484833 0.39565387368202209 0.15671305358409882
0.2428826242685318 0.39930370450019836 0.1621599942445755
0.34408006072044373 0.40238866209983826 0.16923995316028595
0.44692257046699524 0.40388607978820801 0.17406442761421204
0.549152672290802 0.40506163239479065 0.17553642392158508
0.65114539861679077 0.40779766440391541 0.17593248188495636
0.75463271141052246 0.41043907403945923 0.17585551738739014
0.85958874225616455 0.41126486659049988 0.17572636902332306
0.95643526315689087 0.41057705879211426 0.17906460165977478
0.99983662366867065 0.41290020942687988 0.18749977648258209
