assets/lut/jtsemple springmorning.cube
# Created by: G'MIC (https://gmic.eu)
TITLE "springmorning"
# LUT size
LUT_3D_SIZE 7
# Data domain
DOMAIN_MIN 0.0 0.0 0.0
DOMAIN_MAX 1.0 1.0 1.0
# LUT data points
0.00025455249124206603 0.0024581160396337509 0.014138420112431049
0.085363201797008514 0.0012088550720363855 0.015010818839073181
0.26460212469100952 0.00010663201101124287 0.018603844568133354
0.43591514229774475 0.0024609435349702835 0.012233524583280087
0.58950281143188477 0.015837246552109718 0.0027571434620767832
0.73592281341552734 0.02218220941722393 0.0030357660725712776
0.88325017690658569 0.014125734567642212 0.011456986889243126
0 0.12450138479471207 0.0056342179886996746
0.082266546785831451 0.12362663447856903 0.0052062091417610645
0.26557916402816772 0.11563572287559509 0.0074039534665644169
0.43767634034156799 0.1165817528963089 0.0057217166759073734
0.58893829584121704 0.12830048799514771 0.0022507612593472004
0.73238116502761841 0.13132581114768982 0.0053409500978887081
0.87800168991088867 0.12663820385932922 0.017819363623857498
0 0.27071300148963928 0.0081410128623247147
0.088138163089752197 0.26918190717697144 0.0052945003844797611
0.25819948315620422 0.26572111248970032 0.0036521162837743759
0.43136104941368103 0.26081201434135437 0.0018199248006567359
0.58483612537384033 0.26013413071632385 0.00093994138296693563
0.72901082038879395 0.2581976056098938 0.0044158189557492733
0.87446713447570801 0.25465524196624756 0.017766436561942101
7.4678311648312956e-05 0.41994291543960571 0.0087622553110122681
0.094530351459980011 0.41622984409332275 0.0050478465855121613
0.25760048627853394 0.41294869780540466 0.0021128933876752853
0.43073382973670959 0.40921187400817871 0.00078376318560913205
0.5859142541885376 0.40784314274787903 0.00073529413202777505
0.72983038425445557 0.40784314274787903 0.0019200643291696906
0.87459522485733032 0.40791782736778259 0.0068759694695472717
0.0014705433277413249 0.57317227125167847 0.0099023552611470222
0.10872840136289597 0.56731885671615601 0.0058108610101044178
0.26726838946342468 0.56418043375015259 0.0025495642330497503
0.43710976839065552 0.56225490570068359 0.0011025822022929788
0.59183883666992188 0.56225490570068359 0.00078125001164153218
0.73523133993148804 0.56385898590087891 0.0014705882640555501
0.8790019154548645 0.56923097372055054 0.0025290993507951498
0.007426826748996973 0.73006808757781982 0.012440460734069347
0.1289067268371582 0.72381490468978882 0.0085026007145643234
0.28170537948608398 0.7201952338218689 0.0055071213282644749
0.44409966468811035 0.71754765510559082 0.0034782709553837776
0.59896582365036011 0.71980708837509155 0.0026290894020348787
0.7454189658164978 0.72390240430831909 0.0024077771231532097
0.89200037717819214 0.72991013526916504 0.0034507452510297298
0.020815277472138405 0.8913872241973877 0.015743166208267212
0.1510595977306366 0.88434392213821411 0.012896309606730938
0.29935196042060852 0.8799780011177063 0.010264333337545395
0.45637688040733337 0.8784974217414856 0.0083453012630343437
0.61045163869857788 0.880484938621521 0.0068884007632732391
0.75986123085021973 0.88551217317581177 0.0061906403861939907
0.9101681113243103 0.89228332042694092 0.0067077339626848698
0.0011368994601070881 0.0023275488056242466 0.13534098863601685
0.091730453073978424 0.0019416359718888998 0.13009414076805115
0.26822397112846375 0.00017197552369907498 0.12459035962820053
0.43881934881210327 0.0013267965987324715 0.11962923407554626
0.59111672639846802 0.0072013256140053272 0.11089032888412476
0.73580056428909302 0.011295244097709656 0.1125098317861557
0.88202047348022461 0.0087223127484321594 0.12621480226516724
0 0.12387837469577789 0.12715594470500946
0.085954658687114716 0.12104831635951996 0.12416263669729233
0.27089101076126099 0.11584755033254623 0.11847242712974548
0.44290962815284729 0.11319912225008011 0.11419612169265747
0.59106457233428955 0.11926572024822235 0.11046022921800613
0.73217153549194336 0.12410462647676468 0.11504132300615311
0.87690043449401855 0.12463091313838959 0.12716107070446014
0 0.27120715379714966 0.1264747828245163
0.082028843462467194 0.26932689547538757 0.12065538763999939
0.26007845997810364 0.26563048362731934 0.11478032171726227
0.43560406565666199 0.25850206613540649 0.11063031852245331
0.58584034442901611 0.25687035918235779 0.1103067621588707
0.72913312911987305 0.25832110643386841 0.11269670724868774
0.87475669384002686 0.26060712337493896 0.12119343876838684
0 0.4197058379650116 0.12757287919521332
0.075808189809322357 0.41592800617218018 0.11958302557468414
0.25121372938156128 0.41234701871871948 0.11257539689540863
0.43114480376243591 0.40798300504684448 0.10798972845077515
0.58642029762268066 0.40784314274787903 0.10823331028223038
0.73023176193237305 0.40784314274787903 0.10946767777204514
0.8749542236328125 0.41156089305877686 0.11599833518266678
0 0.57100075483322144 0.13169959187507629
0.090747669339179993 0.56617647409439087 0.12381487339735031
0.25665935873985291 0.56228077411651611 0.1160828098654747
0.43370100855827332 0.56225490570068359 0.1104428768157959
0.59128564596176147 0.56225490570068359 0.10997229069471359
0.73558926582336426 0.56389409303665161 0.11150837689638138
0.87957084178924561 0.56934648752212524 0.11566304415464401
0.001278985757380724 0.72716599702835083 0.13833287358283997
0.11165256798267365 0.72090500593185425 0.1320464164018631
0.26912632584571838 0.71708971261978149 0.12595106661319733
0.43673363327980042 0.71666663885116577 0.12139169871807098
0.59528368711471558 0.71799206733703613 0.11965116858482361
0.74369567632675171 0.72245144844055176 0.11979596316814423
0.89070659875869751 0.72853654623031616 0.12215477228164673
0.0090049440041184425 0.8873404860496521 0.14589536190032959
0.13425302505493164 0.88096636533737183 0.14150558412075043
0.28565189242362976 0.87722903490066528 0.13751006126403809
0.44641253352165222 0.87631094455718994 0.13429369032382965
0.60394948720932007 0.87852686643600464 0.13198693096637726
0.75587815046310425 0.88346773386001587 0.13087278604507446
0.90656042098999023 0.89001071453094482 0.13208901882171631
0.0048138485290110111 0.0047985301353037357 0.27449148893356323
0.10521463304758072 0.0020075181964784861 0.26948481798171997
0.27013471722602844 0.00012530157982837409 0.26150333881378174
0.43688833713531494 0.00030930462526157498 0.25344392657279968
0.5895923376083374 0.0015861960127949715 0.2487269788980484
0.73480308055877686 0.0029042114038020372 0.24973241984844208
0.88102966547012329 0.0036295573227107525 0.25686812400817871
0.00017143698642030358 0.12980248034000397 0.27025008201599121
0.089483164250850677 0.12473763525485992 0.26620179414749146
0.27223661541938782 0.11445686221122742 0.25845316052436829
0.43957445025444031 0.1095379963517189 0.25125104188919067
0.58884340524673462 0.11050364375114441 0.24918535351753235
0.73095202445983887 0.11497427523136139 0.24917058646678925
0.87618023157119751 0.12032517045736313 0.2529243528842926
0.00025078267208300531 0.27618712186813354 0.26474297046661377
0.084261156618595123 0.27165582776069641 0.25964576005935669
0.26413059234619141 0.26299828290939331 0.25330853462219238
0.43773007392883301 0.25634706020355225 0.24863538146018982
0.5866515040397644 0.25488388538360596 0.24909168481826782
0.72963213920593262 0.25806653499603271 0.24576734006404877
0.875 0.26319500803947449 0.24673844873905182
0 0.4224122166633606 0.26349535584449768
0.079080857336521149 0.41704526543617249 0.25681281089782715
0.25279977917671204 0.41165459156036377 0.25042015314102173
0.43226850032806396 0.40784314274787903 0.2471206933259964
0.58690261840820312 0.40799900889396667 0.24711968004703522
0.73150932788848877 0.41170355677604675 0.24575936794281006
0.87687337398529053 0.41525992751121521 0.24758085608482361
0 0.5723644495010376 0.26708793640136719
0.086077824234962463 0.56648945808410645 0.26080974936485291
0.25176838040351868 0.56229996681213379 0.25482070446014404
0.42876622080802917 0.56225490570068359 0.251116544008255
0.58967524766921997 0.56225681304931641 0.25106754899024963
0.73748981952667236 0.56602269411087036 0.25262969732284546
0.8827207088470459 0.5700339674949646 0.25465726852416992
1.4361213516167481e-06 0.72702020406723022 0.27422976493835449
0.10067475587129593 0.72093385457992554 0.26958373188972473
0.2593696117401123 0.7175976037979126 0.26477289199829102
0.42980992794036865 0.71670609712600708 0.26144737005233765
0.59219479560852051 0.7197994589805603 0.26075845956802368
0.74383139610290527 0.72296732664108276 0.26184040307998657
0.89233309030532837 0.72831976413726807 0.26374194025993347
0.0034229801967740059 0.88602942228317261 0.28233793377876282
0.12096497416496277 0.88017398118972778 0.27931892871856689
0.27425125241279602 0.8771623969078064 0.2761111855506897
0.43825224041938782 0.87669134140014648 0.27341428399085999
0.59935331344604492 0.87902528047561646 0.27221500873565674
0.75392615795135498 0.88349801301956177 0.27213498950004578
0.90600156784057617 0.88944262266159058 0.27327385544776917
0.0093538621440529823 0.0054189646616578102 0.41038540005683899
0.11747498065233231 0.0023301069159060717 0.40663334727287292
0.2705484926700592 0.00070800783578306437 0.40083220601081848
0.43395039439201355 0 0.39525362849235535
0.58950513601303101 0.00020033892360515893 0.39282646775245667
0.73494076728820801 0.00071267521707341075 0.39335015416145325
0.88071262836456299 0.0011052748886868358 0.39701977372169495
0.0035062902607023716 0.13267065584659576 0.40745449066162109
0.10397965461015701 0.12525227665901184 0.40413662791252136
0.26739636063575745 0.11563209444284439 0.39878234267234802
0.43467304110527039 0.11009180545806885 0.39341548085212708
0.58810245990753174 0.10947304219007492 0.39098119735717773
0.73098272085189819 0.11146900057792664 0.39066031575202942
0.8755110502243042 0.11525534838438034 0.39307200908660889
0.0012153176357969642 0.27803677320480347 0.40423408150672913
0.096982978284358978 0.27130654454231262 0.40038865804672241
0.26315581798553467 0.26252046227455139 0.39498540759086609
0.43482425808906555 0.25729089975357056 0.39012607932090759
0.5878676176071167 0.25735294818878174 0.38812702894210815
0.73046320676803589 0.26046425104141235 0.3869396448135376
0.87512296438217163 0.26208120584487915 0.38918331265449524
0 0.42452877759933472 0.40334451198577881
0.091657303273677826 0.41850471496582031 0.39870142936706543
0.25765970349311829 0.41192921996116638 0.39355948567390442
0.43362569808959961 0.4078463613986969 0.38953456282615662
0.58861619234085083 0.4117647111415863 0.38775259256362915
0.73286712169647217 0.41566222906112671 0.38772949576377869
0.87829899787902832 0.41573062539100647 0.39077019691467285
0 0.57419067621231079 0.40642353892326355
0.089587099850177765 0.56913560628890991 0.40235909819602966
0.25408110022544861 0.5645870566368103 0.39799517393112183
0.42969977855682373 0.56228041648864746 0.3948523998260498
0.58969056606292725 0.56620723009109497 0.39420124888420105
0.73724806308746338 0.56977921724319458 0.39610013365745544
0.88426440954208374 0.57288670539855957 0.39885812997817993
0 0.72841393947601318 0.41301986575126648
0.095208413898944855 0.72375702857971191 0.41048642992973328
0.25566557049751282 0.72056937217712402 0.40709415078163147
0.42855402827262878 0.72038447856903076 0.40435364842414856
0.59113001823425293 0.72233635187149048 0.40414947271347046
0.74366337060928345 0.72615629434585571 0.40638723969459534
0.89363139867782593 0.73044359683990479 0.40867564082145691
0.0014084760332480073 0.88657861948013306 0.42086437344551086
0.11249314993619919 0.88165956735610962 0.41959202289581299
0.26811733841896057 0.87883591651916504 0.41726541519165039
0.43592867255210876 0.87870973348617554 0.41509494185447693
0.59905612468719482 0.88124966621398926 0.41451320052146912
0.75430166721343994 0.88566577434539795 0.4157274067401886
0.90745919942855835 0.89111500978469849 0.41741201281547546
0.0094226012006402016 0.0049836700782179832 0.54578119516372681
0.12209484726190567 0.0021031997166574001 0.54247719049453735
0.26877045631408691 0.00075970817124471068 0.53900754451751709
0.43056443333625793 0 0.53688448667526245
0.58970588445663452 0 0.53689736127853394
0.73760908842086792 0 0.53811883926391602
0.88282620906829834 0 0.54077827930450439
0.003467619651928544 0.13215725123882294 0.54400897026062012
0.10968927294015884 0.12414154410362244 0.54112565517425537
0.26212882995605469 0.11680047959089279 0.53775203227996826
0.42859911918640137 0.11264131963253021 0.53496110439300537
0.5870509147644043 0.11170113086700439 0.53426474332809448
0.73260283470153809 0.11048099398612976 0.5355842113494873
0.87729048728942871 0.11235064268112183 0.53761416673660278
0.00053710938664153218 0.27779108285903931 0.54269903898239136
0.099735409021377563 0.27073377370834351 0.54022824764251709
0.25780728459358215 0.26362353563308716 0.53645610809326172
0.42915767431259155 0.25945231318473816 0.53279334306716919
0.58672398328781128 0.25959077477455139 0.5313909649848938
0.7322813868522644 0.26127451658248901 0.53196424245834351
0.8772885799407959 0.26179376244544983 0.53465431928634644
0 0.42601588368415833 0.54244059324264526
0.093426570296287537 0.41976073384284973 0.5398445725440979
0.25760737061500549 0.41361591219902039 0.53639394044876099
0.43451365828514099 0.4117647111415863 0.53301137685775757
0.59102451801300049 0.41303101181983948 0.53128671646118164
0.73464655876159668 0.41580972075462341 0.53239935636520386
0.88017082214355469 0.41923266649246216 0.53613591194152832
0 0.57693332433700562 0.54484730958938599
0.091962955892086029 0.57109105587005615 0.54232180118560791
0.25767764449119568 0.56629759073257446 0.53956276178359985
0.43639957904815674 0.56617647409439087 0.53728067874908447
0.59344273805618286 0.56983697414398193 0.53639370203018188
0.7374570369720459 0.57402318716049194 0.53900671005249023
0.88598155975341797 0.57568460702896118 0.54349595308303833
0 0.73053216934204102 0.55091381072998047
0.094845741987228394 0.72559905052185059 0.54980641603469849
0.25833338499069214 0.72276532649993896 0.54750162363052368
0.43493244051933289 0.72179597616195679 0.545524001121521
0.59614801406860352 0.72580534219741821 0.54578566551208496
0.74560689926147461 0.73071026802062988 0.54974675178527832
0.89624524116516113 0.73354160785675049 0.55353152751922607
0.0018592235865071416 0.88781386613845825 0.55843448638916016
0.11227764189243317 0.88323777914047241 0.55880320072174072
0.27107089757919312 0.88080829381942749 0.55707281827926636
0.44199487566947937 0.88068628311157227 0.55540305376052856
0.60451024770736694 0.88382017612457275 0.55551213026046753
0.75797063112258911 0.88882774114608765 0.55819863080978394
0.91040772199630737 0.8939518928527832 0.56070774793624878
0.006631903350353241 0.004080409649759531 0.68128061294555664
0.12012322992086411 0.0018109489465132356 0.67788469791412354
0.26464974880218506 0.00073529413202777505 0.67621266841888428
0.42538592219352722 0 0.6763986349105835
0.58718979358673096 0 0.67861098051071167
0.73895144462585449 0 0.6809239387512207
0.88689827919006348 0 0.68381667137145996
0.0016758937854319811 0.13113537430763245 0.67978566884994507
0.10704715549945831 0.12354664504528046 0.67663460969924927
0.25606963038444519 0.11741753667593002 0.6741325855255127
0.42118528485298157 0.11437150835990906 0.67417347431182861
0.58356308937072754 0.11341295391321182 0.67562085390090942
0.73443400859832764 0.11268280446529388 0.67803388833999634
0.88221496343612671 0.11368474364280701 0.68096482753753662
0 0.27796623110771179 0.67850029468536377
0.096665672957897186 0.27132344245910645 0.67641788721084595
0.25140506029129028 0.26539435982704163 0.67401963472366333
0.42178007960319519 0.2616669237613678 0.67238348722457886
0.58381849527359009 0.2613319456577301 0.67272806167602539
0.73364228010177612 0.26174628734588623 0.67497521638870239
0.88142287731170654 0.26519608497619629 0.67871826887130737
0 0.42757090926170349 0.67804133892059326
0.09196917712688446 0.42248246073722839 0.67621380090713501
0.25268164277076721 0.41665941476821899 0.67400884628295898
0.42995259165763855 0.41413572430610657 0.67229855060577393
0.59074544906616211 0.41568627953529358 0.6720619797706604
0.73713487386703491 0.41866317391395569 0.6747623085975647
0.88359451293945312 0.4197562038898468 0.67948669195175171
0 0.57908469438552856 0.68012118339538574
0.093245036900043488 0.57466787099838257 0.67709195613861084
0.25764262676239014 0.57051759958267212 0.67516845464706421
0.43969699740409851 0.56879186630249023 0.67491048574447632
0.59954720735549927 0.57121658325195312 0.67547702789306641
0.74201768636703491 0.57585197687149048 0.67934221029281616
0.88933849334716797 0.57812690734863281 0.68499135971069336
0.00030912511283531785 0.7325974702835083 0.68541949987411499
0.10494472831487656 0.7287183403968811 0.68359720706939697
0.2669714093208313 0.72596317529678345 0.6823117733001709
0.44482168555259705 0.72455835342407227 0.68205487728118896
0.60461997985839844 0.72852641344070435 0.68294006586074829
0.74974441528320312 0.73324203491210938 0.68782997131347656
0.89942085742950439 0.73697161674499512 0.69338572025299072
0.0077929925173521042 0.89015918970108032 0.69326162338256836
0.12938576936721802 0.88642627000808716 0.69301110506057739
0.28620690107345581 0.88315683603286743 0.69243180751800537
0.45599505305290222 0.88303476572036743 0.69219517707824707
0.61385846138000488 0.88703954219818115 0.6923363208770752
0.76271951198577881 0.89247804880142212 0.69539213180541992
0.91424059867858887 0.8976820707321167 0.69970786571502686
0.0053870854899287224 0.0034773433580994606 0.81810003519058228
0.11867502331733704 0.0014935662038624287 0.81429237127304077
0.26143008470535278 0.00073529413202777505 0.81310474872589111
0.41999438405036926 0 0.81500869989395142
0.58112537860870361 0 0.81817704439163208
0.73647987842559814 0 0.82196378707885742
0.89070087671279907 0 0.82623386383056641
0.0012246525147929788 0.13109911978244781 0.81567633152008057
0.10630922764539719 0.12349190562963486 0.81211680173873901
0.25293231010437012 0.11839165538549423 0.81133604049682617
0.41458189487457275 0.11578427255153656 0.81199973821640015
0.57749724388122559 0.11491438746452332 0.81480777263641357
0.73244714736938477 0.11480904370546341 0.81852120161056519
0.88668769598007202 0.11570318043231964 0.82295328378677368
0 0.27901753783226013 0.81418722867965698
0.098329596221446991 0.27293604612350464 0.81136596202850342
0.24917832016944885 0.26844027638435364 0.80906862020492554
0.41483095288276672 0.26519608497619629 0.80944925546646118
0.57813125848770142 0.26519608497619629 0.81181377172470093
0.73242485523223877 0.26519608497619629 0.81549954414367676
0.88577008247375488 0.26762098073959351 0.82072120904922485
0 0.4302554726600647 0.81331378221511841
0.094812430441379547 0.42500588297843933 0.80932152271270752
0.2501358687877655 0.42077779769897461 0.80752527713775635
0.42165270447731018 0.41857078671455383 0.8081476092338562
0.58524626493453979 0.41919776797294617 0.81025773286819458
0.73692041635513306 0.41986998915672302 0.81438148021697998
0.88738703727722168 0.42346048355102539 0.82045286893844604
4.9007641791831702e-05 0.58230268955230713 0.81442701816558838
0.099070578813552856 0.57918953895568848 0.80953818559646606
0.25637301802635193 0.57626992464065552 0.8078000545501709
0.43345603346824646 0.57384997606277466 0.80946117639541626
0.59572482109069824 0.57428485155105591 0.81164461374282837
0.74323225021362305 0.57812690734863281 0.81590020656585693
0.89322322607040405 0.58167201280593872 0.82295531034469604
0.0043160384520888329 0.73643630743026733 0.81939446926116943
0.11986161768436432 0.73305583000183105 0.81584149599075317
0.2757476270198822 0.73140454292297363 0.81492835283279419
0.44827628135681152 0.72908014059066772 0.81634640693664551
0.60549193620681763 0.73249107599258423 0.81690520048141479
0.75016415119171143 0.73749184608459473 0.81985443830490112
0.9025806188583374 0.7411118745803833 0.82802397012710571
0.02313925139605999 0.8931891918182373 0.82747870683670044
0.15157690644264221 0.8900795578956604 0.82627123594284058
0.30367916822433472 0.88741189241409302 0.82628661394119263
0.4683133065700531 0.88719964027404785 0.8271978497505188
0.62059140205383301 0.8914111852645874 0.82682102918624878
0.76659029722213745 0.89720869064331055 0.82876074314117432
0.91898715496063232 0.90225166082382202 0.83498543500900269
