assets/lut/jtsemple crushin.cube
# Created by: G'MIC (https://gmic.eu)
TITLE "crushin"
# LUT size
LUT_3D_SIZE 7
# Data domain
DOMAIN_MIN 0.0 0.0 0.0
DOMAIN_MAX 1.0 1.0 1.0
# LUT data points
0 0 0
0.050833504647016525 0 0.0029031191952526569
0.23392222821712494 0 9.3347889560391195e-06
0.44675961136817932 0 0
0.6532588005065918 0 0
0.83257550001144409 0 0
0.98105889558792114 0 0
0 0.037997063249349594 0
0.055750381201505661 0.046785585582256317 0.0022594078909605742
0.23713667690753937 0.038370724767446518 0.0012127446243539453
0.46258148550987244 0.027306694537401199 0
0.68284934759140015 0.01707763597369194 0
0.87240481376647949 0.013928252272307873 0.00019992006127722561
0.99855887889862061 0.059826750308275223 0
0 0.2054850310087204 0
0.047427713871002197 0.2090485692024231 0
0.23817585408687592 0.21452189981937408 0.00078606698662042618
0.47356611490249634 0.20957547426223755 0
0.71267974376678467 0.20900224149227142 0
0.91988402605056763 0.22279490530490875 1.2326708201726433e-05
1 0.26144784688949585 7.62939453125e-05
0 0.42422223091125488 0
0.03954252228140831 0.43525424599647522 0
0.23131398856639862 0.44841122627258301 0
0.47775506973266602 0.45502480864524841 0
0.72388017177581787 0.4644867479801178 0
0.92662507295608521 0.48278409242630005 0
1 0.50507646799087524 0
0 0.66881227493286133 0
0.042533606290817261 0.68988078832626343 0
0.23679731786251068 0.70426452159881592 0
0.48368895053863525 0.70898252725601196 0
0.72340339422225952 0.71398055553436279 0
0.91670364141464233 0.72501450777053833 0
1 0.73740804195404053 7.9345700214616954e-05
0 0.90368503332138062 0
0.069947004318237305 0.93066233396530151 1.2147193046985194e-05
0.26005208492279053 0.93918997049331665 3.2941032259259373e-05
0.49579933285713196 0.9311058521270752 0
0.72292506694793701 0.92069590091705322 0
0.89860183000564575 0.91709405183792114 0
0.99755620956420898 0.92623388767242432 0.0017465777928009629
0.021417984738945961 1 0.0023233899846673012
0.13018418848514557 1 0.016349507495760918
0.30317467451095581 1 0.016999293118715286
0.51498675346374512 1 0.0034192402381449938
0.72239375114440918 1 0
0.88988411426544189 1 0
0.99569475650787354 1 0.0022413216065615416
0.0001497455668868497 0 0.012124319560825825
0.053279638290405273 9.5292634796351194e-05 0.014072253368794918
0.23423008620738983 0.0013803818728774786 0.011802463792264462
0.45653513073921204 0 0.0043707904405891895
0.67155581712722778 0 0.0014804017264395952
0.84657162427902222 0 0.0017153272638097405
0.98901057243347168 2.3336971935350448e-05 0.0032288795337080956
0.00044865327072329819 0.044934067875146866 0.018622724339365959
0.053093824535608292 0.039601314812898636 0.020693790167570114
0.2397380918264389 0.039358176290988922 0.017563030123710632
0.4701581597328186 0.032293505966663361 0.0072304820641875267
0.69452393054962158 0.025361035019159317 0.0071687735617160797
0.88384568691253662 0.023639455437660217 0.015685033053159714
0.99956125020980835 0.067143924534320831 0.033831488341093063
0 0.20898731052875519 0.017195353284478188
0.048886138945817947 0.21232286095619202 0.031233977526426315
0.24463994801044464 0.21889883279800415 0.031261712312698364
0.48402747511863708 0.21521736681461334 0.019471246749162674
0.72249442338943481 0.21544378995895386 0.017817838117480278
0.92871725559234619 0.23295459151268005 0.038978427648544312
1 0.26708734035491943 0.060110040009021759
0 0.42633286118507385 0.003456175560131669
0.044357240200042725 0.44223952293395996 0.012203754857182503
0.23636063933372498 0.45711812376976013 0.024660013616085052
0.48550847172737122 0.46533668041229248 0.025218648836016655
0.72914308309555054 0.47542482614517212 0.027004033327102661
0.93137913942337036 0.49348446726799011 0.039395619183778763
0.99980300664901733 0.51197308301925659 0.052041474729776382
0 0.67403155565261841 0.0066604912281036377
0.041292976588010788 0.69810467958450317 0.010432508774101734
0.23810084164142609 0.71538817882537842 0.015333093702793121
0.48911312222480774 0.72207605838775635 0.018817931413650513
0.72438699007034302 0.7262721061706543 0.031350303441286087
0.91601788997650146 0.73442381620407104 0.029469164088368416
1 0.74368661642074585 0.055432546883821487
0.00026556276134215295 0.91053491830825806 0.027332769706845284
0.06895243376493454 0.93517899513244629 0.039011981338262558
0.26264205574989319 0.9463995099067688 0.040466085076332092
0.50183254480361938 0.94060415029525757 0.03917337954044342
0.73231464624404907 0.92721515893936157 0.036801882088184357
0.91406095027923584 0.91394424438476562 0.032014526426792145
1 0.92186963558197021 0.049658428877592087
0.032943036407232285 1 0.079864487051963806
0.13380159437656403 1 0.091625303030014038
0.30698886513710022 1 0.089946314692497253
0.52334463596343994 1 0.074227996170520782
0.73866480588912964 1 0.052184760570526123
0.91525441408157349 0.99980920553207397 0.036394275724887848
1 0.99973756074905396 0.048632528632879257
0 0 0.19901946187019348
0.047605536878108978 4.3173396989004686e-05 0.19498726725578308
0.22785548865795135 3.1115962428884814e-06 0.18533022701740265
0.45138147473335266 0 0.16152144968509674
0.66754943132400513 0 0.1458132266998291
0.84116750955581665 0 0.14675171673297882
0.98804110288619995 0.0019105200190097094 0.14648836851119995
0.00044184667058289051 0.039744075387716293 0.2035565972328186
0.049997411668300629 0.037347260862588882 0.20516298711299896
0.23822243511676788 0.029440995305776596 0.1992252916097641
0.46609711647033691 0.023162228986620903 0.18338188529014587
0.69037008285522461 0.016284583136439323 0.17284880578517914
0.87696331739425659 0.015351642854511738 0.17271707952022552
0.99948298931121826 0.056935761123895645 0.19771695137023926
0.0017598021076992154 0.20454002916812897 0.18916840851306915
0.050338566303253174 0.21071930229663849 0.20035058259963989
0.24483579397201538 0.21711042523384094 0.20711152255535126
0.48470354080200195 0.21254436671733856 0.20407097041606903
0.72646576166152954 0.20750224590301514 0.20421381294727325
0.9318084716796875 0.22474397718906403 0.22236333787441254
1 0.25835853815078735 0.24730239808559418
3.2312731491401792e-05 0.428362637758255 0.16677159070968628
0.054876320064067841 0.44766953587532043 0.18766219913959503
0.24244622886180878 0.46338629722595215 0.20453287661075592
0.48807930946350098 0.47180896997451782 0.21123518049716949
0.73462283611297607 0.47467920184135437 0.21832761168479919
0.9431336522102356 0.49404752254486084 0.23396709561347961
1 0.51266920566558838 0.25861293077468872
0 0.67808288335800171 0.17667406797409058
0.061892043799161911 0.7034602165222168 0.18922339379787445
0.2447800487279892 0.7213670015335083 0.20099997520446777
0.48792234063148499 0.72742319107055664 0.20711646974086761
0.72584247589111328 0.7289842963218689 0.21360675990581512
0.9289659857749939 0.73772948980331421 0.21690838038921356
1 0.74836194515228271 0.23808632791042328
0.0061829658225178719 0.91219693422317505 0.20587038993835449
0.08919244259595871 0.93586117029190063 0.21876430511474609
0.26637279987335205 0.94751757383346558 0.22379046678543091
0.49962237477302551 0.94224357604980469 0.21875159442424774
0.72805881500244141 0.93153029680252075 0.21247377991676331
0.91306078433990479 0.92295306921005249 0.20792791247367859
0.99939024448394775 0.93628126382827759 0.21831583976745605
0.039774380624294281 1 0.25380057096481323
0.13887463510036469 1 0.26463556289672852
0.30677065253257751 1 0.26386958360671997
0.52185326814651489 1 0.24775627255439758
0.73655968904495239 1 0.22683431208133698
0.91407066583633423 0.99989622831344604 0.20966126024723053
0.99988800287246704 1 0.21299685537815094
0.00032816868042573333 0 0.46300667524337769
0.055057883262634277 0 0.44424524903297424
0.22115427255630493 0 0.42305177450180054
0.43802791833877563 0 0.40336549282073975
0.65036237239837646 0 0.39265477657318115
0.83236002922058105 0 0.3988792896270752
0.98286068439483643 0 0.40031206607818604
0 0.025790166109800339 0.46435257792472839
0.050950877368450165 0.032013013958930969 0.45839440822601318
0.22686539590358734 0.029918340966105461 0.4487767219543457
0.456685870885849 0.020424442365765572 0.44022014737129211
0.68475103378295898 0.010945891961455345 0.43591809272766113
0.88249003887176514 0.016836263239383698 0.44409254193305969
0.99955767393112183 0.039632730185985565 0.45614561438560486
0 0.19319447875022888 0.44985479116439819
0.047872759401798248 0.20398075878620148 0.45932745933532715
0.23637042939662933 0.21231955289840698 0.4652780294418335
0.48309963941574097 0.21130830049514771 0.46927684545516968
0.72862976789474487 0.20599828660488129 0.47339221835136414
0.93315666913986206 0.22548456490039825 0.48958316445350647
1 0.25300553441047668 0.50194269418716431
0 0.42942517995834351 0.43448469042778015
0.049607355147600174 0.44911423325538635 0.45411476492881775
0.24322357773780823 0.46461525559425354 0.47069033980369568
0.49224936962127686 0.47248044610023499 0.48035070300102234
0.73945200443267822 0.4736291766166687 0.48713868856430054
0.93610095977783203 0.49586990475654602 0.50094491243362427
0.99941116571426392 0.51295453310012817 0.51889604330062866
0.0016065710224211216 0.68033760786056519 0.43613481521606445
0.068455837666988373 0.70580470561981201 0.45618221163749695
0.24648962914943695 0.72305667400360107 0.47053515911102295
0.48800191283226013 0.7256280779838562 0.4745272696018219
0.72860050201416016 0.72504293918609619 0.47782135009765625
0.92313301563262939 0.73725289106369019 0.48266610503196716
0.99999135732650757 0.74618595838546753 0.49341645836830139
0.011897487565875053 0.91331475973129272 0.45680966973304749
0.09187731146812439 0.93663334846496582 0.48068565130233765
0.26190346479415894 0.94639211893081665 0.48819416761398315
0.49524417519569397 0.93733036518096924 0.47779351472854614
0.72336322069168091 0.92689967155456543 0.4730810821056366
0.90915024280548096 0.92646020650863647 0.47368484735488892
1 0.91911464929580688 0.47364771366119385
0.036869421601295471 1 0.4877220094203949
0.13281480967998505 1 0.50681376457214355
0.29779273271560669 1 0.5074276328086853
0.51407867670059204 1 0.48947224020957947
0.72770017385482788 1 0.47427582740783691
0.90533202886581421 1 0.46604868769645691
1 0.99764835834503174 0.46154126524925232
0.00051380234071984887 0 0.69036424160003662
0.05475100502371788 0 0.67361587285995483
0.21466942131519318 0 0.65397524833679199
0.43352517485618591 0 0.63928180932998657
0.6456303596496582 0 0.6276358962059021
0.8260682225227356 0 0.62626200914382935
0.97861325740814209 0.00042512183426879346 0.62561684846878052
0 0.036737930029630661 0.69196927547454834
0.039467412978410721 0.032963428646326065 0.68933629989624023
0.21378204226493835 0.040637146681547165 0.6817469596862793
0.45163384079933167 0.037117857486009598 0.67701047658920288
0.68465173244476318 0.015980964526534081 0.67117470502853394
0.88312208652496338 0.022008394822478294 0.67921292781829834
0.99963235855102539 0.065450258553028107 0.68515199422836304
0 0.19743022322654724 0.68309998512268066
0.047530993819236755 0.20373797416687012 0.69379919767379761
0.23056846857070923 0.21689170598983765 0.70141696929931641
0.482990562915802 0.22244429588317871 0.71127027273178101
0.73168009519577026 0.21293994784355164 0.71552544832229614
0.93475490808486938 0.22946619987487793 0.72888261079788208
1 0.26402708888053894 0.73108029365539551
0 0.4306962788105011 0.67427641153335571
0.053749307990074158 0.44802635908126831 0.69157207012176514
0.2412600964307785 0.46557024121284485 0.7087361216545105
0.4942360520362854 0.4756278395652771 0.72039026021957397
0.74139517545700073 0.48012387752532959 0.72617244720458984
0.93203109502792358 0.49761742353439331 0.73840677738189697
1 0.51656299829483032 0.74045783281326294
0.0020774691365659237 0.68313682079315186 0.67806828022003174
0.063389003276824951 0.70593559741973877 0.6953500509262085
0.24457626044750214 0.72445958852767944 0.70980566740036011
0.48746663331985474 0.72726261615753174 0.71139305830001831
0.72486317157745361 0.72467052936553955 0.71142095327377319
0.91018664836883545 0.73374390602111816 0.71718466281890869
0.99913346767425537 0.74342238903045654 0.7194703221321106
0.0082662990316748619 0.91950434446334839 0.69611173868179321
0.085875973105430603 0.9359472393989563 0.72007268667221069
0.25872507691383362 0.94579106569290161 0.72398877143859863
0.49097990989685059 0.93115746974945068 0.71266520023345947
0.72053951025009155 0.91306692361831665 0.70652109384536743
0.90284454822540283 0.91905170679092407 0.70188987255096436
0.99987953901290894 0.91749590635299683 0.70184671878814697
0.028893878683447838 1 0.71907192468643188
0.12276654690504074 1 0.73927879333496094
0.28849661350250244 1 0.73710489273071289
0.50489425659179688 1 0.71908515691757202
0.72052329778671265 1 0.70278537273406982
0.89876860380172729 1 0.69476103782653809
0.99951672554016113 0.99889612197875977 0.69236791133880615
0.0001003489742288366 0 0.85752743482589722
0.050551068037748337 0 0.85184133052825928
0.21225298941135406 0 0.84278613328933716
0.43590748310089111 0.00040432799141854048 0.83641570806503296
0.64824497699737549 0 0.82398104667663574
0.82284992933273315 0 0.81635826826095581
0.97726380825042725 0.007625191006809473 0.81467056274414062
0 0.029762821272015572 0.8639451265335083
0.031181963160634041 0.026197904720902443 0.86355006694793701
0.20648854970932007 0.046325728297233582 0.86166191101074219
0.44847598671913147 0.054001558572053909 0.86161577701568604
0.68096846342086792 0.023610014468431473 0.85339874029159546
0.88182520866394043 0.032583199441432953 0.86091572046279907
0.99978172779083252 0.092516101896762848 0.86891180276870728
0 0.20414337515830994 0.86275279521942139
0.051961246877908707 0.20733210444450378 0.86839812994003296
0.23026640713214874 0.2228858470916748 0.87491971254348755
0.47964805364608765 0.22944539785385132 0.88730466365814209
0.72836905717849731 0.21845877170562744 0.89356917142868042
0.93705624341964722 0.23283775150775909 0.90734469890594482
1 0.27723151445388794 0.90871685743331909
0 0.44051703810691833 0.85624182224273682
0.053206082433462143 0.45409974455833435 0.87046629190444946
0.24484418332576752 0.47100028395652771 0.88499099016189575
0.49768602848052979 0.47951480746269226 0.89743077754974365
0.74503499269485474 0.48329126834869385 0.90386736392974854
0.93748825788497925 0.49763944745063782 0.91395670175552368
1 0.51907646656036377 0.9115368127822876
1.4361213516167481e-06 0.69490146636962891 0.85313349962234497
0.048909746110439301 0.71395158767700195 0.87150520086288452
0.24792766571044922 0.73240202665328979 0.88695061206817627
0.4934447705745697 0.73285192251205444 0.88732230663299561
0.73047137260437012 0.72848761081695557 0.88408678770065308
0.91091740131378174 0.73013556003570557 0.88945037126541138
0.99701625108718872 0.74159747362136841 0.88941526412963867
0.004862676840275526 0.92963325977325439 0.88292735815048218
0.079630069434642792 0.93696188926696777 0.89833360910415649
0.26213476061820984 0.94933044910430908 0.89735126495361328
0.49011749029159546 0.93024742603302002 0.89042645692825317
0.71852308511734009 0.92114752531051636 0.87476819753646851
0.89999222755432129 0.91294699907302856 0.86763882637023926
0.99877434968948364 0.9150586724281311 0.87255716323852539
0.02004457451403141 1 0.91024965047836304
0.11227913945913315 1 0.92054468393325806
0.28202208876609802 1 0.91425788402557373
0.49799790978431702 1 0.89801633358001709
0.71503037214279175 1 0.87794864177703857
0.89301550388336182 1 0.86545336246490479
0.99615705013275146 1 0.86562788486480713
0.0090976934880018234 0 0.98914355039596558
0.069192104041576385 0 0.98848700523376465
0.22301468253135681 0 0.98741996288299561
0.43737763166427612 0.001146413735114038 0.98679304122924805
0.64779472351074219 0.0013167138677090406 0.98294347524642944
0.83046203851699829 0.0018222883809357882 0.97851920127868652
0.98364347219467163 0.0156213054433465 0.97549402713775635
0.0022599911317229271 0.028915045782923698 0.99094909429550171
0.04965585470199585 0.029376070946455002 0.99086648225784302
0.21651202440261841 0.056191805750131607 0.99224209785461426
0.44958683848381042 0.07602323591709137 0.99483859539031982
0.67949795722961426 0.071329526603221893 0.99536019563674927
0.877666175365448 0.081670321524143219 0.99702233076095581
0.99969500303268433 0.12324871122837067 0.99783724546432495
0.0010635824874043465 0.21748031675815582 0.99192935228347778
0.069877594709396362 0.22036370635032654 0.99082964658737183
0.24347993731498718 0.23740823566913605 0.99364572763442993
0.47954076528549194 0.24876587092876434 0.99922972917556763
0.71940851211547852 0.24934366345405579 1
0.92121857404708862 0.26446142792701721 1
1 0.30129191279411316 1
0.00011901855759788305 0.45811858773231506 0.99292033910751343
0.068685092031955719 0.46774885058403015 0.996684730052948
0.25982511043548584 0.48085272312164307 0.99887561798095703
0.50159585475921631 0.48780164122581482 1
0.7414085865020752 0.49199199676513672 1
0.93425446748733521 0.50456839799880981 1
1 0.52433812618255615 1
0.00075442745583131909 0.71047449111938477 0.99434733390808105
0.067314952611923218 0.72640323638916016 0.99921661615371704
0.26130130887031555 0.73761314153671265 1
0.50028783082962036 0.73396080732345581 1
0.7338021993637085 0.72533279657363892 1
0.91837489604949951 0.72706848382949829 0.99997520446777344
1 0.73640346527099609 0.99945765733718872
0.007171630859375 0.93475013971328735 0.99840319156646729
0.080586180090904236 0.9460417628288269 0.99832969903945923
0.26732581853866577 0.95107495784759521 0.99877393245697021
0.49355846643447876 0.93330353498458862 0.99918413162231445
0.72013849020004272 0.91750901937484741 0.99827307462692261
0.90136963129043579 0.91049230098724365 0.99764567613601685
0.99968057870864868 0.9131772518157959 0.99359869956970215
0.017958875745534897 1 1
0.1091238409280777 1 1
0.28127649426460266 1 0.99998277425765991
0.49654683470726013 1 0.99964386224746704
0.71089982986450195 1 0.99601262807846069
0.89187228679656982 1 0.99228560924530029
0.99879777431488037 1 0.99394494295120239
