assets/lut/jtsemple lateafternoonwanderlust.cube
# Created by: G'MIC (https://gmic.eu)
TITLE "lateafternoonwanderlust"
# LUT size
LUT_3D_SIZE 5
# Data domain
DOMAIN_MIN 0.0 0.0 0.0
DOMAIN_MAX 1.0 1.0 1.0
# LUT data points
0 0 0.019506461918354034
0.11267563700675964 0 0.015396297909319401
0.39946964383125305 0.0020906785503029823 0.0031673505436629057
0.68135052919387817 0 0.0019447924569249153
0.96272146701812744 0.00017736098379828036 0
0 0.14228199422359467 0.011063369922339916
0.10171612352132797 0.14340898394584656 0.01260013971477747
0.38202860951423645 0.12594231963157654 0.0053618485108017921
0.66820746660232544 0.10530023276805878 0.0040620244108140469
0.95957553386688232 0.12252666801214218 0
0 0.36321136355400085 0.0080141108483076096
0.088134542107582092 0.36713626980781555 0.011954408138990402
0.37979653477668762 0.37309205532073975 0.0046557108871638775
0.69164079427719116 0.37809017300605774 0.0023823007941246033
0.98648154735565186 0.39062869548797607 0.0051685855723917484
0.0088404640555381775 0.63512444496154785 0.01112575177103281
0.16191630065441132 0.65210121870040894 0.019582964479923248
0.43751317262649536 0.66911882162094116 0.023716496303677559
0.76133394241333008 0.67864614725112915 0.030472893267869949
1 0.69135802984237671 0.040591325610876083
0.080546453595161438 0.92970460653305054 0.054598521441221237
0.26321423053741455 0.94831526279449463 0.064100854098796844
0.53762638568878174 0.96053910255432129 0.073954232037067413
0.86032611131668091 0.96294629573822021 0.083275318145751953
1 0.97145777940750122 0.095106683671474457
0 0.0014384550740942359 0.17865546047687531
0.11692126095294952 0.0010098026832565665 0.17017878592014313
0.39764997363090515 0 0.154703289270401
0.67726790904998779 0 0.13505120575428009
0.9544144868850708 0 0.11898790299892426
0.00016452565614599735 0.15053309500217438 0.16548037528991699
0.097604252398014069 0.14331135153770447 0.1591247022151947
0.38567337393760681 0.12382247298955917 0.14919789135456085
0.66800606250762939 0.1157020702958107 0.13819216191768646
0.95645105838775635 0.10875274240970612 0.1315980851650238
0 0.36997115612030029 0.14869904518127441
0.11489430069923401 0.37690272927284241 0.15380461513996124
0.39181315898895264 0.37903556227684021 0.15520232915878296
0.70077526569366455 0.38555040955543518 0.15552599728107452
0.9916805624961853 0.39677566289901733 0.16445018351078033
0.019111273810267448 0.64168602228164673 0.16450357437133789
0.16470053791999817 0.66693371534347534 0.18457247316837311
0.44583022594451904 0.68020474910736084 0.1971067488193512
0.77513659000396729 0.69043463468551636 0.20533129572868347
1 0.70352041721343994 0.21921128034591675
0.068313106894493103 0.93818676471710205 0.23880781233310699
0.24710437655448914 0.96284061670303345 0.25499805808067322
0.53385603427886963 0.96789979934692383 0.26627945899963379
0.86344075202941895 0.96764916181564331 0.2734675407409668
1 0.97426533699035645 0.2860005795955658
0 0 0.38208943605422974
0.12206020206212997 7.880715565988794e-05 0.37304067611694336
0.38882061839103699 0 0.36077123880386353
0.66684126853942871 0 0.33904755115509033
0.94963234663009644 0 0.32497239112854004
0 0.13922452926635742 0.36520224809646606
0.097111314535140991 0.14265009760856628 0.36130699515342712
0.38306537270545959 0.12607400119304657 0.35312139987945557
0.67122161388397217 0.11433805525302887 0.3408626914024353
0.96339917182922363 0.12030660361051559 0.33818164467811584
0 0.36994531750679016 0.3546348512172699
0.11152423173189163 0.38121196627616882 0.36078694462776184
0.3956916332244873 0.38731658458709717 0.36478340625762939
0.70995187759399414 0.39616468548774719 0.36691609025001526
0.99290037155151367 0.40648344159126282 0.37787586450576782
0.0063256206922233105 0.64899468421936035 0.38677945733070374
0.16279710829257965 0.67352712154388428 0.40530827641487122
0.45462614297866821 0.68713837862014771 0.41897866129875183
0.78685277700424194 0.6983153223991394 0.42930668592453003
1 0.71023285388946533 0.44119682908058167
0.058496095240116119 0.94487971067428589 0.46553748846054077
0.25458610057830811 0.96536409854888916 0.48732724785804749
0.54349881410598755 0.97025996446609497 0.49449390172958374
0.86937648057937622 0.96770501136779785 0.49705687165260315
1 0.97407054901123047 0.50683075189590454
0 0 0.60842704772949219
0.12387751787900925 0.00087890622671693563 0.60805267095565796
0.3918253481388092 0.0021252501755952835 0.59983652830123901
0.66414207220077515 0 0.57228273153305054
0.94571077823638916 0 0.55539733171463013
0 0.1360289603471756 0.59853494167327881
0.087343595921993256 0.14107367396354675 0.60162848234176636
0.38609278202056885 0.12959097325801849 0.59333342313766479
0.67445045709609985 0.11866597086191177 0.57593429088592529
0.96422356367111206 0.12447532266378403 0.57075530290603638
0 0.3682689368724823 0.5957985520362854
0.1101299375295639 0.38466271758079529 0.6052558422088623
0.40773105621337891 0.39261886477470398 0.61102873086929321
0.71800065040588379 0.40189126133918762 0.6086544394493103
0.9949609637260437 0.4118630588054657 0.61433345079421997
4.4699274440063164e-05 0.65665245056152344 0.63066238164901733
0.15212850272655487 0.68063020706176758 0.64873337745666504
0.46611824631690979 0.69389539957046509 0.66311901807785034
0.79534029960632324 0.7061152458190918 0.67065787315368652
1 0.71419423818588257 0.680583655834198
0.039558980613946915 0.9531484842300415 0.707020103931427
0.25674989819526672 0.96843713521957397 0.73263096809387207
0.55295807123184204 0.97266489267349243 0.73243904113769531
0.87584847211837769 0.9717942476272583 0.73432469367980957
1 0.97666072845458984 0.74443423748016357
0 0 0.839771568775177
0.1187950000166893 0 0.83776718378067017
0.38764378428459167 0.001548273372463882 0.8308722972869873
0.66210556030273438 0 0.80708795785903931
0.94904410839080811 0 0.79479682445526123
0 0.13941070437431335 0.83205491304397583
0.098531268537044525 0.13767321407794952 0.83186274766921997
0.3803497850894928 0.13536390662193298 0.82491940259933472
0.67281264066696167 0.12208159267902374 0.81065654754638672
0.96704322099685669 0.12698301672935486 0.81002187728881836
0 0.38483133912086487 0.83569127321243286
0.11737793684005737 0.39314037561416626 0.84083306789398193
0.41407111287117004 0.40263250470161438 0.84551358222961426
0.72670203447341919 0.41196465492248535 0.84535551071166992
0.99785834550857544 0.41987729072570801 0.85236227512359619
0 0.67422080039978027 0.86692196130752563
0.15253782272338867 0.69043856859207153 0.87744122743606567
0.47281023859977722 0.70234686136245728 0.89167433977127075
0.80413556098937988 0.71690160036087036 0.89959275722503662
1 0.72408574819564819 0.91188514232635498
0.021552156656980515 0.96473711729049683 0.93682175874710083
0.24893961846828461 0.97426086664199829 0.94917023181915283
0.55633485317230225 0.97749519348144531 0.95545387268066406
0.88356989622116089 0.97679042816162109 0.95781278610229492
1 0.98152428865432739 0.97096771001815796
