assets/lut/kylerholland kh10.cube
# Created by: G'MIC (https://gmic.eu)
TITLE "kh10"
# LUT size
LUT_3D_SIZE 5
# Data domain
DOMAIN_MIN 0.0 0.0 0.0
DOMAIN_MAX 1.0 1.0 1.0
# LUT data points
0.029434982687234879 0.026632197201251984 0.022109298035502434
0.27200725674629211 0.028891470283269882 0.0037056268192827702
0.49180716276168823 0.031418129801750183 0.0014645744813606143
0.61785769462585449 0.035990066826343536 0.0025040421169251204
0.71927732229232788 0.059008114039897919 0.0041061253286898136
0.095792047679424286 0.21149691939353943 0.11311086267232895
0.28546467423439026 0.19709767401218414 0.038229145109653473
0.49902495741844177 0.23139820992946625 0.0010884153889492154
0.63683229684829712 0.25506648421287537 1.4540728443535045e-05
0.75126838684082031 0.27324756979942322 0.0005122465081512928
0.16641382873058319 0.39948928356170654 0.19853949546813965
0.31555205583572388 0.39901527762413025 0.18410608172416687
0.54205840826034546 0.40824329853057861 0.042739283293485641
0.71380704641342163 0.43830060958862305 0.013990888372063637
0.85276937484741211 0.47282695770263672 0.055188901722431183
0.18320588767528534 0.54901123046875 0.21113550662994385
0.30312120914459229 0.58156317472457886 0.18670955300331116
0.54017925262451172 0.5754738450050354 0.11889630556106567
0.72408831119537354 0.58538532257080078 0.047177918255329132
0.87584871053695679 0.61979669332504272 0.11447948217391968
0.13487257063388824 0.74150151014328003 0.19897240400314331
0.29396098852157593 0.77858757972717285 0.14648154377937317
0.54008090496063232 0.74225378036499023 0.083576127886772156
0.72588860988616943 0.75303816795349121 0.039625760167837143
0.87160301208496094 0.77604365348815918 0.1288638710975647
6.4625460254319478e-06 0.0688210129737854 0.087997391819953918
0.23013217747211456 0.087720401585102081 0.19124472141265869
0.5264580249786377 0.067973420023918152 0.17317715287208557
0.69312739372253418 0.040105439722537994 0.15182176232337952
0.83129608631134033 0.037949401885271072 0.13668842613697052
0.0055816201493144035 0.21880276501178741 0.205262690782547
0.200091153383255 0.25384083390235901 0.25743865966796875
0.51786655187606812 0.27151083946228027 0.22896780073642731
0.70931655168533325 0.27318295836448669 0.19516284763813019
0.85920214653015137 0.27484694123268127 0.17610964179039001
0.080420173704624176 0.41831043362617493 0.2902122437953949
0.22798207402229309 0.45383644104003906 0.30782946944236755
0.54348063468933105 0.46553537249565125 0.27613255381584167
0.73633259534835815 0.49079009890556335 0.23352687060832977
0.87514567375183105 0.51510298252105713 0.23178313672542572
0.12102305144071579 0.58324706554412842 0.32225778698921204
0.22427074611186981 0.63014733791351318 0.32748740911483765
0.53781050443649292 0.63384222984313965 0.31025686860084534
0.74136894941329956 0.64668512344360352 0.2933235764503479
0.89680773019790649 0.66941589117050171 0.28841522336006165
0.085860997438430786 0.776111900806427 0.3288438618183136
0.21421533823013306 0.8191484808921814 0.3266545832157135
0.54671496152877808 0.8448290228843689 0.32516893744468689
0.74512052536010742 0.82124632596969604 0.3111635148525238
0.89408594369888306 0.8340294361114502 0.33776447176933289
0 0.12095241248607635 0.15262532234191895
0.11430028080940247 0.18958359956741333 0.3020765483379364
0.44943049550056458 0.14844447374343872 0.36802875995635986
0.61618459224700928 0.13040557503700256 0.37671622633934021
0.78785502910614014 0.11440428346395493 0.37291276454925537
0 0.24524715542793274 0.2745029628276825
0.11260981857776642 0.29571163654327393 0.35140347480773926
0.46348997950553894 0.32332828640937805 0.43653193116188049
0.70317846536636353 0.30572706460952759 0.43402138352394104
0.89031481742858887 0.28792420029640198 0.41717323660850525
6.4625460254319478e-06 0.41037988662719727 0.39874577522277832
0.10060981661081314 0.46498805284500122 0.45084667205810547
0.50620931386947632 0.52452272176742554 0.52670943737030029
0.75728070735931396 0.53821849822998047 0.49196138978004456
0.91950637102127075 0.54679054021835327 0.47343537211418152
0.011123761534690857 0.58507180213928223 0.44289299845695496
0.11165893822908401 0.63770127296447754 0.47194430232048035
0.5346297025680542 0.70336532592773438 0.53129369020462036
0.76108038425445557 0.70234686136245728 0.53489267826080322
0.92261910438537598 0.7233269214630127 0.51594549417495728
0.0045823641121387482 0.78561216592788696 0.46272790431976318
0.10332097113132477 0.83907949924468994 0.48345544934272766
0.52135521173477173 0.89020615816116333 0.53781014680862427
0.76523655652999878 0.89254969358444214 0.54699301719665527
0.92593371868133545 0.88664793968200684 0.57473993301391602
0 0.16719284653663635 0.20866057276725769
0.068746499717235565 0.24560046195983887 0.33619898557662964
0.42252233624458313 0.23417572677135468 0.45810845494270325
0.57301276922225952 0.19198623299598694 0.50206971168518066
0.71469646692276001 0.1714368611574173 0.52271944284439087
0 0.27861541509628296 0.32656386494636536
0.094846688210964203 0.33720985054969788 0.42167335748672485
0.41689783334732056 0.36028683185577393 0.61171269416809082
0.63333463668823242 0.34690621495246887 0.57824563980102539
0.81032079458236694 0.32570275664329529 0.59371829032897949
0 0.43296292424201965 0.47932720184326172
0.072939284145832062 0.48510992527008057 0.55777406692504883
0.46605637669563293 0.55756598711013794 0.65754842758178711
0.7330436110496521 0.55905228853225708 0.66520285606384277
0.9366338849067688 0.54874104261398315 0.6528744101524353
0 0.57913368940353394 0.5562744140625
0.074961371719837189 0.64537417888641357 0.61104285717010498
0.50074714422225952 0.71123051643371582 0.68860578536987305
0.77564364671707153 0.73903727531433105 0.70978772640228271
0.9457777738571167 0.75052392482757568 0.6900780200958252
0 0.75970458984375 0.57939505577087402
0.058748837560415268 0.83625990152359009 0.60624688863754272
0.5046316385269165 0.91287517547607422 0.69103199243545532
0.7778128981590271 0.94412624835968018 0.7224770188331604
0.95327472686767578 0.92283862829208374 0.74326443672180176
0 0.2240050882101059 0.28441101312637329
0.07534296065568924 0.29246807098388672 0.40043357014656067
0.36809021234512329 0.31374827027320862 0.64169549942016602
0.56273365020751953 0.26956415176391602 0.58752495050430298
0.69989866018295288 0.22205528616905212 0.64007526636123657
0.0014654571423307061 0.32611843943595886 0.40980559587478638
0.12220940738916397 0.38697201013565063 0.49847814440727234
0.35267472267150879 0.41882115602493286 0.75280117988586426
0.61992597579956055 0.38533779978752136 0.6840248703956604
0.76723587512969971 0.35992583632469177 0.71311861276626587
0 0.45938584208488464 0.56080359220504761
0.11666610091924667 0.53565508127212524 0.68131840229034424
0.44793576002120972 0.59258133172988892 0.79254961013793945
0.72075682878494263 0.57869994640350342 0.83389180898666382
0.86623263359069824 0.57927429676055908 0.82603913545608521
0 0.60574960708618164 0.68564438819885254
0.083080783486366272 0.67308169603347778 0.78804284334182739
0.46871224045753479 0.7383301854133606 0.84641158580780029
0.76078706979751587 0.76517671346664429 0.90417259931564331
0.9277912974357605 0.76309734582901001 0.87394392490386963
0 0.77782654762268066 0.72640985250473022
0.076474837958812714 0.84653586149215698 0.78933501243591309
0.48248228430747986 0.9109351634979248 0.85283899307250977
0.76504743099212646 0.94920170307159424 0.89726853370666504
0.97989648580551147 0.96289658546447754 0.92412561178207397
