assets/lut/kylerholland kh10.cube
# Created by: G'MIC (https://gmic.eu)
TITLE "kh10"
# LUT size
LUT_3D_SIZE 13
# Data domain
DOMAIN_MIN 0.0 0.0 0.0
DOMAIN_MAX 1.0 1.0 1.0
# LUT data points
0.029434982687234879 0.026632197201251984 0.022109298035502434
0.077079296112060547 0.026336399838328362 0.018641676753759384
0.16836221516132355 0.026540793478488922 0.0089133763685822487
0.27200725674629211 0.028891470283269882 0.0037056268192827702
0.35165271162986755 0.030222410336136818 0.0011071896879002452
0.43050822615623474 0.029787175357341766 0.00024716247571632266
0.49180716276168823 0.031418129801750183 0.0014645744813606143
0.54108572006225586 0.031516548246145248 0.001436764607205987
0.58171558380126953 0.033429030328989029 0.00093365838984027505
0.61785769462585449 0.035990066826343536 0.0025040421169251204
0.65956974029541016 0.037237100303173065 0.0020483876578509808
0.69196540117263794 0.0474381223320961 0.0036072973161935806
0.71927732229232788 0.059008114039897919 0.0041061253286898136
0.039826009422540665 0.066363394260406494 0.040515795350074768
0.079434998333454132 0.063000008463859558 0.033774580806493759
0.15313401818275452 0.062150619924068451 0.015653109177947044
0.23991641402244568 0.06961657851934433 0.0054310965351760387
0.31429779529571533 0.072324581444263458 0.00078805664088577032
0.38016912341117859 0.07128162682056427 0.00021039177954662591
0.44906902313232422 0.072610549628734589 2.0240335288690403e-05
0.50416755676269531 0.068116478621959686 0.00018884995370171964
0.54569053649902344 0.066895537078380585 4.260493369656615e-05
0.58003515005111694 0.065989762544631958 0.00073415716178715229
0.62468361854553223 0.072234943509101868 0.00073532405076548457
0.66458678245544434 0.073430396616458893 0.0012255948968231678
0.70142459869384766 0.079752348363399506 0.0021057876292616129
0.061639465391635895 0.13548524677753448 0.073413744568824768
0.098592616617679596 0.132963627576828 0.068561181426048279
0.16954326629638672 0.12715265154838562 0.04489096999168396
0.259001225233078 0.12944649159908295 0.011264112778007984
0.33242926001548767 0.13879892230033875 0.0028527502436190844
0.40016895532608032 0.14618876576423645 0.00045323092490434647
0.46362245082855225 0.15478089451789856 0
0.51920199394226074 0.15562605857849121 0
0.5621827244758606 0.15622618794441223 0
0.59554624557495117 0.16054464876651764 0
0.63646537065505981 0.16966867446899414 0
0.6760019063949585 0.16924038529396057 0
0.71255552768707275 0.16551543772220612 1.4002182979311328e-05
0.095792047679424286 0.21149691939353943 0.11311086267232895
0.1179276704788208 0.21082228422164917 0.10969871282577515
0.19263319671154022 0.20163194835186005 0.099499739706516266
0.28546467423439026 0.19709767401218414 0.038229145109653473
0.3669133186340332 0.2043185830116272 0.0082181142643094063
0.44095239043235779 0.21993555128574371 0.0028666476719081402
0.49902495741844177 0.23139820992946625 0.0010884153889492154
0.55452972650527954 0.24093036353588104 0.00063995661912485957
0.60043913125991821 0.24924011528491974 0.00068760290741920471
0.63683229684829712 0.25506648421287537 1.4540728443535045e-05
0.67282181978225708 0.26227167248725891 0
0.71224892139434814 0.26839587092399597 0
0.75126838684082031 0.27324756979942322 0.0005122465081512928
0.12848837673664093 0.28251120448112488 0.152110755443573
0.14355503022670746 0.28160557150840759 0.14564734697341919
0.20766815543174744 0.27302855253219604 0.14334593713283539
0.29930511116981506 0.26767554879188538 0.10458182543516159
0.38415136933326721 0.26667428016662598 0.030233494937419891
0.46386080980300903 0.28072443604469299 0.0099482964724302292
0.52801376581192017 0.29485782980918884 0.0055542290210723877
0.58341795206069946 0.30640596151351929 0.0036201926413923502
0.6335214376449585 0.3159233033657074 0.0019648682791739702
0.67391490936279297 0.32453012466430664 2.7465819584904239e-05
0.70934975147247314 0.33243277668952942 2.9320810426725075e-05
0.75059658288955688 0.34062528610229492 0.0024904438760131598
0.79249846935272217 0.34979346394538879 0.0073858075775206089
0.15108741819858551 0.34699574112892151 0.18479904532432556
0.16691818833351135 0.34673109650611877 0.17306289076805115
0.21505871415138245 0.34280833601951599 0.16845332086086273
0.31101852655410767 0.33522287011146545 0.15962126851081848
0.39315369725227356 0.33701813220977783 0.10338909924030304
0.47183829545974731 0.33763983845710754 0.031064216047525406
0.53723758459091187 0.35174912214279175 0.018832441419363022
0.5965302586555481 0.36418446898460388 0.013868758454918861
0.65255433320999146 0.37498259544372559 0.0076611689291894436
0.69873958826065063 0.38455313444137573 0.004674829076975584
0.7373960018157959 0.39248734712600708 0.0031684576533734798
0.78321021795272827 0.40214404463768005 0.0089226812124252319
0.83319246768951416 0.41305887699127197 0.020900577306747437
0.16641382873058319 0.39948928356170654 0.19853949546813965
0.17954714596271515 0.40374845266342163 0.19081111252307892
0.22065971791744232 0.40719634294509888 0.18600925803184509
0.31555205583572388 0.39901527762413025 0.18410608172416687
0.39801174402236938 0.39894017577171326 0.14933775365352631
0.47333025932312012 0.40050935745239258 0.079953946173191071
0.54205840826034546 0.40824329853057861 0.042739283293485641
0.60520678758621216 0.41464722156524658 0.023957585915923119
0.6627734899520874 0.42728835344314575 0.018100304529070854
0.71380704641342163 0.43830060958862305 0.013990888372063637
0.75726169347763062 0.445545494556427 0.0088781770318746567
0.80476295948028564 0.45622164011001587 0.01309616956859827
0.85276937484741211 0.47282695770263672 0.055188901722431183
0.17973402142524719 0.44861429929733276 0.20687052607536316
0.18869835138320923 0.45654931664466858 0.2013624906539917
0.23233707249164581 0.46922266483306885 0.19682067632675171
0.3178507387638092 0.46436935663223267 0.19544497132301331
0.39973309636116028 0.45760247111320496 0.17624944448471069
0.47281241416931152 0.46181154251098633 0.12408987432718277
0.54086089134216309 0.46758013963699341 0.074144326150417328
0.60849100351333618 0.46663695573806763 0.041100684553384781
0.66657847166061401 0.47566738724708557 0.029039286077022552
0.72140777111053467 0.48703029751777649 0.02293713204562664
0.7676587700843811 0.49497944116592407 0.018678987398743629
0.81495845317840576 0.50603073835372925 0.02038237638771534
0.86648786067962646 0.52802878618240356 0.092005938291549683
0.1852215975522995 0.49748867750167847 0.21100999414920807
0.19597458839416504 0.50760823488235474 0.20430132746696472
0.23025037348270416 0.5234186053276062 0.19718758761882782
0.31583526730537415 0.52545154094696045 0.19326120615005493
0.40026751160621643 0.51746344566345215 0.18173094093799591
0.4748387336730957 0.51619929075241089 0.14823818206787109
0.54072755575180054 0.52061104774475098 0.10260502249002457
0.60284614562988281 0.52232939004898071 0.063055448234081268
0.66375774145126343 0.52731448411941528 0.043014600872993469
0.72543251514434814 0.53634810447692871 0.035889510065317154
0.77516549825668335 0.54277890920639038 0.030824489891529083
0.82254612445831299 0.5523185133934021 0.033480085432529449
0.87086284160614014 0.57357263565063477 0.10037874430418015
0.18320588767528534 0.54901123046875 0.21113550662994385
0.19258935749530792 0.56180000305175781 0.2051415890455246
0.21624752879142761 0.57840240001678467 0.19613978266716003
0.30312120914459229 0.58156317472457886 0.18670955300331116
0.39830344915390015 0.57720077037811279 0.174854576587677
0.47530171275138855 0.57305938005447388 0.1537090539932251
0.54017925262451172 0.5754738450050354 0.11889630556106567
0.60098189115524292 0.57783573865890503 0.078325457870960236
0.66120612621307373 0.57938379049301147 0.05648529902100563
0.72408831119537354 0.58538532257080078 0.047177918255329132
0.77872031927108765 0.59167230129241943 0.042821846902370453
0.83009046316146851 0.59811520576477051 0.042748454958200455
0.87584871053695679 0.61979669332504272 0.11447948217391968
0.17607006430625916 0.60635387897491455 0.20587441325187683
0.18159124255180359 0.62284958362579346 0.19863373041152954
0.21160838007926941 0.63998556137084961 0.18791276216506958
0.29825356602668762 0.64638155698776245 0.17622603476047516
0.39501535892486572 0.64075213670730591 0.16435129940509796
0.47420346736907959 0.63279557228088379 0.14026147127151489
0.53970944881439209 0.63119238615036011 0.11175550520420074
0.59967148303985596 0.63305723667144775 0.082428969442844391
0.66029113531112671 0.63507407903671265 0.064313463866710663
0.72498852014541626 0.63913810253143311 0.054823737591505051
0.78183478116989136 0.64270526170730591 0.049691773951053619
0.83318150043487549 0.64860188961029053 0.056086670607328415
0.87392216920852661 0.66667383909225464 0.13640697300434113
0.15918987989425659 0.6737668514251709 0.19807323813438416
0.16296501457691193 0.69099295139312744 0.18517245352268219
0.20875628292560577 0.70711076259613037 0.17191952466964722
0.29523593187332153 0.720497727394104 0.15670892596244812
0.39226290583610535 0.70918768644332886 0.14232088625431061
0.47201895713806152 0.69445168972015381 0.11952675879001617
0.5381702184677124 0.68532449007034302 0.099241159856319427
0.59880733489990234 0.68704682588577271 0.077042736113071442
0.66154491901397705 0.6921730637550354 0.060364052653312683
0.72326421737670898 0.69764524698257446 0.049250151962041855
0.78252571821212769 0.70278942584991455 0.04701569676399231
0.83588415384292603 0.70817482471466064 0.060515489429235458
0.87097138166427612 0.72209519147872925 0.13431993126869202
0.13487257063388824 0.74150151014328003 0.19897240400314331
0.14165884256362915 0.75287210941314697 0.17253948748111725
0.20333664119243622 0.76476317644119263 0.1587538868188858
0.29396098852157593 0.77858757972717285 0.14648154377937317
0.38845998048782349 0.77251940965652466 0.12289494276046753
0.47152093052864075 0.75403696298599243 0.10198532044887543
0.54008090496063232 0.74225378036499023 0.083576127886772156
0.60059046745300293 0.73939085006713867 0.066981419920921326
0.66190433502197266 0.74468165636062622 0.052490998059511185
0.72588860988616943 0.75303816795349121 0.039625760167837143
0.78509294986724854 0.76001077890396118 0.042139705270528793
0.83856505155563354 0.76708030700683594 0.06044069305062294
0.87160301208496094 0.77604365348815918 0.1288638710975647
0.010611530393362045 0.034216232597827911 0.043076608330011368
0.058829918503761292 0.036128833889961243 0.056160241365432739
0.16670277714729309 0.03339863196015358 0.048675373196601868
0.28938513994216919 0.029685391113162041 0.037405531853437424
0.38556033372879028 0.024758193641901016 0.026407727971673012
0.46115300059318542 0.022802779451012611 0.018606957048177719
0.52689826488494873 0.022688966244459152 0.013373430818319321
0.57752752304077148 0.01873118057847023 0.0095237428322434425
0.61742758750915527 0.020386774092912674 0.0087787257507443428
0.65442883968353271 0.023915713652968407 0.012068759649991989
0.70219403505325317 0.020478237420320511 0.0075966781005263329
0.74341422319412231 0.023465175181627274 0.0049797357060015202
0.77822178602218628 0.029143419116735458 0.0053388709202408791
0.019002173095941544 0.070119895040988922 0.065493643283843994
0.054287616163492203 0.071358263492584229 0.067279770970344543
0.13679942488670349 0.072510741651058197 0.058559522032737732
0.24479924142360687 0.073460310697555542 0.042235326021909714
0.33890673518180847 0.069289982318878174 0.027962299063801765
0.40708813071250916 0.065303266048431396 0.020007399842143059
0.47586700320243835 0.06490509957075119 0.011987797915935516
0.53078216314315796 0.054065480828285217 0.0081254094839096069
0.57501673698425293 0.052105367183685303 0.008740818127989769
0.61586791276931763 0.056454721838235855 0.0079274494200944901
0.6658366322517395 0.053993582725524902 0.0048380536027252674
0.70454579591751099 0.056251496076583862 0.0043470347300171852
0.74498498439788818 0.06314355880022049 0.0057254568673670292
0.03207894042134285 0.13211330771446228 0.093439437448978424
0.07301611453294754 0.13569837808609009 0.096233159303665161
0.15351748466491699 0.13236121833324432 0.084414586424827576
0.25525709986686707 0.13338613510131836 0.050743971019983292
0.34177336096763611 0.1371421217918396 0.025928093120455742
0.41338622570037842 0.13841454684734344 0.014921704307198524
0.46923795342445374 0.14426033198833466 0.0061357533559203148
0.52428030967712402 0.14390729367733002 0.0067014209926128387
0.57115000486373901 0.1461336761713028 0.0080503281205892563
0.60197079181671143 0.14593975245952606 0.0027508903294801712
0.64170831441879272 0.14803722500801086 0.0016657661180943251
0.68473231792449951 0.14803346991539001 0.001703165122307837
0.73281592130661011 0.1532474160194397 0.0039422279223799706
0.067925818264484406 0.20847524702548981 0.13195416331291199
0.10023718327283859 0.21351790428161621 0.13410785794258118
0.17909950017929077 0.20953372120857239 0.12620428204536438
0.27793201804161072 0.20377492904663086 0.083276592195034027
0.36485409736633301 0.20588847994804382 0.032484196126461029
0.43991962075233459 0.21500979363918304 0.011904009617865086
0.50095313787460327 0.22501137852668762 0.0052972231060266495
0.55071938037872314 0.23545068502426147 0.0063230926170945168
0.60046589374542236 0.24419471621513367 0.0050907507538795471
0.63805598020553589 0.24892304837703705 0.0015218846965581179
0.67710006237030029 0.2547067403793335 0.00043581792851909995
0.7163245677947998 0.26226532459259033 0.00021311441378202289
0.75810462236404419 0.26829668879508972 0.00077475752914324403
0.10920342803001404 0.28102850914001465 0.16707588732242584
0.13068222999572754 0.28374916315078735 0.16716033220291138
0.19163115322589874 0.28338539600372314 0.16206058859825134
0.29079639911651611 0.27470088005065918 0.13760478794574738
0.37971076369285583 0.27392721176147461 0.071283482015132904
0.46240398287773132 0.27966290712356567 0.021189147606492043
0.52866953611373901 0.29261624813079834 0.0097707407549023628
0.58283370733261108 0.30495911836624146 0.0085737491026520729
0.6336822509765625 0.31416302919387817 0.0057562883011996746
0.67499357461929321 0.32197386026382446 0.0036839803215116262
0.71261495351791382 0.33008080720901489 0.0018387140007689595
0.75377130508422852 0.33805602788925171 0.0036132512614130974
0.79526811838150024 0.34656724333763123 0.0041348026134073734
0.14297512173652649 0.34656247496604919 0.19529403746128082
0.16017442941665649 0.35164967179298401 0.19259607791900635
0.2005591094493866 0.35451486706733704 0.18812589347362518
0.29873734712600708 0.34560108184814453 0.18078188598155975
0.38698583841323853 0.34555754065513611 0.13676333427429199
0.4700874388217926 0.34346666932106018 0.059995103627443314
0.53870201110839844 0.35439053177833557 0.031111564487218857
0.59746682643890381 0.36593919992446899 0.017201142385601997
0.65226066112518311 0.37651523947715759 0.012022743932902813
0.70094317197799683 0.38562017679214478 0.0096973646432161331
0.74197602272033691 0.39391562342643738 0.0046764151193201542
0.78388023376464844 0.40122500061988831 0.0061317742802202702
0.83223515748977661 0.41082870960235596 0.021850526332855225
0.16059231758117676 0.40428620576858521 0.21442750096321106
0.17530493438243866 0.41075935959815979 0.21173751354217529
0.21067850291728973 0.41837576031684875 0.20560003817081451
0.30593600869178772 0.41263353824615479 0.20404796302318573
0.39192864298820496 0.4082467257976532 0.17564882338047028
0.46844884753227234 0.41030094027519226 0.12081294506788254
0.54145759344100952 0.41193041205406189 0.062544591724872589
0.6033165454864502 0.41849276423454285 0.033444423228502274
0.66261833906173706 0.43193119764328003 0.026917969807982445
0.71467500925064087 0.44317182898521423 0.024488711729645729
0.76026177406311035 0.44978305697441101 0.013316898606717587
0.80739331245422363 0.45708677172660828 0.01019337959587574
0.85367816686630249 0.47260233759880066 0.058670192956924438
0.17552952468395233 0.45854756236076355 0.22721393406391144
0.1926746666431427 0.4667743444442749 0.2235935777425766
0.22749143838882446 0.48048549890518188 0.2165902853012085
0.30605173110961914 0.48128896951675415 0.21144458651542664
0.3942202627658844 0.47177499532699585 0.19839142262935638
0.46980693936347961 0.47301402688026428 0.15814404189586639
0.53850138187408447 0.47747209668159485 0.10918813943862915
0.603271484375 0.47560194134712219 0.066508457064628601
0.66435474157333374 0.48475468158721924 0.049165178090333939
0.7222449779510498 0.4945690929889679 0.033802330493927002
0.77125084400177002 0.50197285413742065 0.023846659809350967
0.82020032405853271 0.51064461469650269 0.028940927237272263
0.86907386779785156 0.53263312578201294 0.10200121998786926
0.18006737530231476 0.50822454690933228 0.23275284469127655
0.19497001171112061 0.51821553707122803 0.22778666019439697
0.22145691514015198 0.53407591581344604 0.22015106678009033
0.30078113079071045 0.53945440053939819 0.21202477812767029
0.39275932312011719 0.53131479024887085 0.20223644375801086
0.47094929218292236 0.52881062030792236 0.1728682816028595
0.53798085451126099 0.53204220533370972 0.13272152841091156
0.60017937421798706 0.53386759757995605 0.096248194575309753
0.66208559274673462 0.5380699634552002 0.066947132349014282
0.72169768810272217 0.54573589563369751 0.06066996231675148
0.7757146954536438 0.55282843112945557 0.05339667946100235
0.82668977975845337 0.56025213003158569 0.048639722168445587
0.87499111890792847 0.582011878490448 0.11630017310380936
0.17799444496631622 0.55948126316070557 0.23437726497650146
0.19022677838802338 0.57182878255844116 0.22959347069263458
0.21812251210212708 0.59039491415023804 0.2211497575044632
0.29474052786827087 0.59907627105712891 0.20914055407047272
0.38776814937591553 0.59275639057159424 0.19914844632148743
0.47022593021392822 0.58504998683929443 0.17696477472782135
0.53815209865570068 0.58521443605422974 0.14544576406478882
0.59891045093536377 0.58793473243713379 0.11117320507764816
0.66028547286987305 0.59176886081695557 0.091449528932571411
0.72194164991378784 0.59833842515945435 0.087335459887981415
0.77892875671386719 0.60494059324264526 0.080645062029361725
0.83274847269058228 0.60918480157852173 0.067860588431358337
0.87775290012359619 0.62646925449371338 0.12874923646450043
0.16846385598182678 0.61789345741271973 0.23326288163661957
0.17694394290447235 0.63365828990936279 0.22721530497074127
0.20546089112758636 0.65179073810577393 0.21680754423141479
0.28614932298660278 0.66544944047927856 0.20211926102638245
0.38083577156066895 0.66265755891799927 0.18864189088344574
0.46701285243034363 0.64931964874267578 0.16676878929138184
0.53786575794219971 0.64284980297088623 0.14091561734676361
0.59842294454574585 0.64381963014602661 0.11591736972332001
0.66075164079666138 0.64812958240509033 0.1083570271730423
0.72409451007843018 0.65278130769729614 0.10123226791620255
0.78320622444152832 0.65684390068054199 0.084464654326438904
0.83592736721038818 0.66032546758651733 0.088123857975006104
0.87592613697052002 0.67331176996231079 0.14875440299510956
0.15008309483528137 0.68718260526657104 0.22869563102722168
0.15696893632411957 0.70164525508880615 0.22162403166294098
0.18307302892208099 0.71812939643859863 0.20780453085899353
0.27449557185173035 0.73409318923950195 0.19442074000835419
0.37947586178779602 0.73267728090286255 0.18027526140213013
0.46497008204460144 0.71770173311233521 0.15692934393882751
0.53715544939041138 0.70543885231018066 0.13475628197193146
0.5978705883026123 0.70172667503356934 0.11470528692007065
0.66201460361480713 0.70596957206726074 0.10212762653827667
0.72451108694076538 0.71035242080688477 0.091596402227878571
0.78546029329299927 0.7146836519241333 0.084155306220054626
0.83773285150527954 0.71786946058273315 0.091751962900161743
0.87286734580993652 0.72879493236541748 0.14955851435661316
0.1259915828704834 0.75393766164779663 0.22215810418128967
0.13352036476135254 0.76452553272247314 0.21386754512786865
0.18793381750583649 0.77840143442153931 0.20110809803009033
0.27015805244445801 0.79747867584228516 0.18670012056827545
0.37782621383666992 0.79874825477600098 0.17328973114490509
0.46894508600234985 0.78160208463668823 0.15645700693130493
0.54347699880599976 0.76816022396087646 0.13936063647270203
0.60197842121124268 0.7592170238494873 0.12055303901433945
0.66377508640289307 0.76259851455688477 0.10749275237321854
0.72772347927093506 0.76888900995254517 0.090601004660129547
0.78846406936645508 0.77372598648071289 0.090858027338981628
0.84191995859146118 0.77883273363113403 0.10114240646362305
0.87469398975372314 0.78765642642974854 0.16070911288261414
0.0011286118533462286 0.049604304134845734 0.064888328313827515
0.020453240722417831 0.058380741626024246 0.089064881205558777
0.12636654078960419 0.060696516185998917 0.11897131055593491
0.26727131009101868 0.05239473283290863 0.11747898906469345
0.38505223393440247 0.04161403700709343 0.10009940713644028
0.46523261070251465 0.031729456037282944 0.081652365624904633
0.53832417726516724 0.03716176375746727 0.078602001070976257
0.59885072708129883 0.025663457810878754 0.070360980927944183
0.64480686187744141 0.019024629145860672 0.063273981213569641
0.68974816799163818 0.020433103665709496 0.05729370191693306
0.73339629173278809 0.016048161312937737 0.049522817134857178
0.78100824356079102 0.014132226817309856 0.044297162443399429
0.82411569356918335 0.01616363599896431 0.042381435632705688
0.004454249981790781 0.077144220471382141 0.087832748889923096
0.023331437259912491 0.084357194602489471 0.10001199692487717
0.10167363286018372 0.092932909727096558 0.12243897467851639
0.22825145721435547 0.097299717366695404 0.12515875697135925
0.34174668788909912 0.093835629522800446 0.11233281344175339
0.43330729007720947 0.08177407830953598 0.09038621187210083
0.51319926977157593 0.077449098229408264 0.077508561313152313
0.58455199003219604 0.064354225993156433 0.068368904292583466
0.63858813047409058 0.0549483522772789 0.06183980405330658
0.68233269453048706 0.049856148660182953 0.05418642982840538
0.72873920202255249 0.043490123003721237 0.047383684664964676
0.78305906057357788 0.034464519470930099 0.038561757653951645
0.8295438289642334 0.032576676458120346 0.035680808126926422
0.0089781517162919044 0.13756264746189117 0.12631358206272125
0.027840573340654373 0.14184220135211945 0.13220348954200745
0.11472447961568832 0.1521478146314621 0.14762361347675323
0.23692929744720459 0.15781302750110626 0.14359307289123535
0.33918663859367371 0.15970447659492493 0.1229826956987381
0.43279430270195007 0.15825933218002319 0.10242140293121338
0.50588816404342651 0.15838687121868134 0.088800139725208282
0.5743221640586853 0.15692020952701569 0.076447613537311554
0.63128495216369629 0.15018458664417267 0.069550260901451111
0.66501933336257935 0.14782264828681946 0.06053568422794342
0.70739972591400146 0.14661087095737457 0.056883957237005234
0.76034700870513916 0.14052386581897736 0.050760921090841293
0.81362378597259521 0.13862854242324829 0.051619242876768112
0.029233925044536591 0.21451577544212341 0.16882084310054779
0.060848280787467957 0.2181546688079834 0.17209315299987793
0.13542528450489044 0.22383476793766022 0.17714649438858032
0.25502562522888184 0.22833700478076935 0.1691872626543045
0.35617679357528687 0.232860267162323 0.1407322883605957
0.44262903928756714 0.23878142237663269 0.11671332269906998
0.51626682281494141 0.24013006687164307 0.092199690639972687
0.58122795820236206 0.24611425399780273 0.087403424084186554
0.63686001300811768 0.24640142917633057 0.068061709403991699
0.67195117473602295 0.25195321440696716 0.06068197637796402
0.7121589183807373 0.25458240509033203 0.054180849343538284
0.75837218761444092 0.25675353407859802 0.045411009341478348
0.81167954206466675 0.25920519232749939 0.041914980858564377
0.059402197599411011 0.28678065538406372 0.20434190332889557
0.092263601720333099 0.29128244519233704 0.20640130341053009
0.1535412073135376 0.29701370000839233 0.20572282373905182
0.26852020621299744 0.29686734080314636 0.20162031054496765
