assets/lut/kylerholland kh02.cube
# Created by: G'MIC (https://gmic.eu)
TITLE "kh2"
# LUT size
LUT_3D_SIZE 5
# Data domain
DOMAIN_MIN 0.0 0.0 0.0
DOMAIN_MAX 1.0 1.0 1.0
# LUT data points
0.13575077056884766 0.13662649691104889 0.13556854426860809
0.28918853402137756 0.12079167366027832 0.12314213812351227
0.4778343141078949 0.084768213331699371 0.097034379839897156
0.66735005378723145 0.042344652116298676 0.062302727252244949
0.87402248382568359 0.00090116611681878567 0.030993293970823288
0.11320839822292328 0.28382024168968201 0.10700181126594543
0.2931467592716217 0.29020276665687561 0.090846359729766846
0.49640765786170959 0.28670576214790344 0.06064147874712944
0.70727914571762085 0.28088203072547913 0.019224474206566811
0.92462658882141113 0.25229957699775696 0.0016287410398945212
0.063164792954921722 0.48372602462768555 0.042129576206207275
0.29805022478103638 0.50106608867645264 0.027397440746426582
0.52671337127685547 0.5171959400177002 0.030817518010735512
0.75680059194564819 0.53293663263320923 0.00074162200326099992
0.98098480701446533 0.5381932258605957 0.0013191222678869963
0.013199435546994209 0.70835226774215698 0
0.2628268301486969 0.74511176347732544 0
0.55122429132461548 0.77115041017532349 0
0.80444812774658203 0.79295027256011963 0
0.999359130859375 0.81646913290023804 0.016741180792450905
0.06778118759393692 0.94819945096969604 0
0.25818362832069397 0.98338276147842407 4.3756823288276792e-05
0.56428676843643188 0.98638403415679932 0
0.84601455926895142 0.99504274129867554 0
1 0.99977344274520874 0.031917750835418701
0.1330500990152359 0.13167095184326172 0.27830365300178528
0.28655031323432922 0.1259952187538147 0.28332787752151489
0.47956562042236328 0.09130965918302536 0.28315246105194092
0.67920351028442383 0.036608122289180756 0.28503522276878357
0.8506438136100769 0.0090614315122365952 0.2849934995174408
0.11574039608240128 0.28728124499320984 0.28661486506462097
0.29686254262924194 0.2934776246547699 0.29127022624015808
0.51232045888900757 0.281046062707901 0.28446865081787109
0.7433362603187561 0.25531509518623352 0.26843774318695068
0.96673810482025146 0.23061054944992065 0.2501523494720459
0.065702579915523529 0.48828330636024475 0.28379246592521667
0.28918212652206421 0.51285964250564575 0.28366374969482422
0.53513753414154053 0.52675151824951172 0.28255757689476013
0.78107994794845581 0.53208017349243164 0.25694897770881653
0.99201333522796631 0.53857672214508057 0.25558379292488098
0.042793586850166321 0.71322512626647949 0.24443461000919342
0.26734164357185364 0.75471961498260498 0.23300489783287048
0.55589455366134644 0.78445547819137573 0.24345622956752777
0.81420886516571045 0.80695384740829468 0.2197665274143219
0.99703168869018555 0.82176202535629272 0.21963545680046082
0.06133105605840683 0.95140409469604492 0.16437360644340515
0.22890773415565491 0.98351573944091797 0.14129772782325745
0.56794273853302002 0.99450361728668213 0.14418677985668182
0.84883022308349609 0.99996066093444824 0.16123966872692108
1 0.99593567848205566 0.20270790159702301
0.13562552630901337 0.1278301328420639 0.43552464246749878
0.28872919082641602 0.12200329452753067 0.4512140154838562
0.47513076663017273 0.099036090075969696 0.46535235643386841
0.68118536472320557 0.04721253365278244 0.48228272795677185
0.8659101128578186 0.016978634521365166 0.50205761194229126
0.11518970876932144 0.28430825471878052 0.4602389931678772
0.29432162642478943 0.28940770030021667 0.4841398298740387
0.50995701551437378 0.28694090247154236 0.49952217936515808
0.73966062068939209 0.27107754349708557 0.50802755355834961
0.94961237907409668 0.25616538524627686 0.5194096565246582
0.088914461433887482 0.49323603510856628 0.48847097158432007
0.29745587706565857 0.51804220676422119 0.5115668773651123
0.54317170381546021 0.53536027669906616 0.53103506565093994
0.7943798303604126 0.53546059131622314 0.53541958332061768
0.9967760443687439 0.5402374267578125 0.54849135875701904
0.040485367178916931 0.72205817699432373 0.50352805852890015
0.25398379564285278 0.76302295923233032 0.52612948417663574
0.55538886785507202 0.79632848501205444 0.54134529829025269
0.82739239931106567 0.81521701812744141 0.55248928070068359
1 0.83447152376174927 0.57148224115371704
0.071657605469226837 0.95791500806808472 0.50796002149581909
0.23630966246128082 0.98945420980453491 0.53629618883132935
0.56686913967132568 0.99999356269836426 0.54223763942718506
0.8582456111907959 1 0.55268001556396484
1 0.99993103742599487 0.62560367584228516
0.14035090804100037 0.12114460021257401 0.59938323497772217
0.29696148633956909 0.11400662362575531 0.62476223707199097
0.48175358772277832 0.095680534839630127 0.65206021070480347
0.68654930591583252 0.060943484306335449 0.68001902103424072
0.88118857145309448 0.030879480764269829 0.70446550846099854
0.11770424991846085 0.28323191404342651 0.64145255088806152
0.29908639192581177 0.28573012351989746 0.67714029550552368
0.51119625568389893 0.28830769658088684 0.70844835042953491
0.73721837997436523 0.28723251819610596 0.73234951496124268
0.94709956645965576 0.27853316068649292 0.75411343574523926
0.093037351965904236 0.49477881193161011 0.68787020444869995
0.30455884337425232 0.51988893747329712 0.72774660587310791
0.54528278112411499 0.53450006246566772 0.75861996412277222
0.79629063606262207 0.54511237144470215 0.78037762641906738
0.99654960632324219 0.55145418643951416 0.80474096536636353
0.047026060521602631 0.72901433706283569 0.72477549314498901
0.26872768998146057 0.76990598440170288 0.76430857181549072
0.56604057550430298 0.80407118797302246 0.79692262411117554
0.83040881156921387 0.82009023427963257 0.81592440605163574
1 0.84073847532272339 0.84195590019226074
0.092864260077476501 0.96281784772872925 0.75331836938858032
0.25453543663024902 0.98819190263748169 0.79846298694610596
0.57792830467224121 0.9995269775390625 0.82947975397109985
0.8672860860824585 1 0.83929663896560669
1 0.99825203418731689 0.9166141152381897
0.15008078515529633 0.12327952682971954 0.76030534505844116
0.30588123202323914 0.11475791037082672 0.79123926162719727
0.49268889427185059 0.09366627037525177 0.8271782398223877
0.7012593150138855 0.06251651793718338 0.86068040132522583
0.89806008338928223 0.036201789975166321 0.88296210765838623
0.11929762363433838 0.28646102547645569 0.81111758947372437
0.30308318138122559 0.29104334115982056 0.85413944721221924
0.51793193817138672 0.29012769460678101 0.89498275518417358
0.74871665239334106 0.28647509217262268 0.92821329832077026
0.95493155717849731 0.28564673662185669 0.94580197334289551
0.089914582669734955 0.48672348260879517 0.86468535661697388
0.30686077475547791 0.52122139930725098 0.91350650787353516
0.55180472135543823 0.53410828113555908 0.95118826627731323
0.80911546945571899 0.54570931196212769 0.97836112976074219
0.99849170446395874 0.55835485458374023 0.99331569671630859
0.078267775475978851 0.72638881206512451 0.91900825500488281
0.28987079858779907 0.78161227703094482 0.97155362367630005
0.57136684656143188 0.80756455659866333 0.99260526895523071
0.8435053825378418 0.82988309860229492 0.99784374237060547
1 0.85357868671417236 0.99897140264511108
0.098703168332576752 0.958304762840271 0.9408562183380127
0.25603768229484558 0.98624777793884277 0.98668718338012695
0.58920806646347046 0.99939405918121338 0.99631577730178833
0.8725285530090332 1 0.99857664108276367
1 1 0.99979466199874878
