assets/lut/kylerholland kh05.cube
# Created by: G'MIC (https://gmic.eu)
TITLE "kh5"
# LUT size
LUT_3D_SIZE 5
# Data domain
DOMAIN_MIN 0.0 0.0 0.0
DOMAIN_MAX 1.0 1.0 1.0
# LUT data points
0.021499618887901306 0.013189727440476418 0.009257851168513298
0.22919975221157074 0.037953514605760574 0.036130119115114212
0.5141061544418335 0.068688429892063141 0.067170180380344391
0.74890732765197754 0.09395916759967804 0.097423911094665527
0.92285984754562378 0.12696404755115509 0.11139152199029922
0.080103762447834015 0.20406354963779449 0.068009138107299805
0.2394607812166214 0.23735128343105316 0.087167985737323761
0.50705826282501221 0.28049126267433167 0.10679491609334946
0.75002390146255493 0.31309837102890015 0.12286366522312164
0.92567366361618042 0.33588752150535583 0.13838420808315277
0.187570720911026 0.45541206002235413 0.15549105405807495
0.3420623242855072 0.48890694975852966 0.17799735069274902
0.53133195638656616 0.53009730577468872 0.19571733474731445
0.73675858974456787 0.56907784938812256 0.21220850944519043
0.9152991771697998 0.5947909951210022 0.22625598311424255
0.27800858020782471 0.67027801275253296 0.23321552574634552
0.43331795930862427 0.69553810358047485 0.25624081492424011
0.60193419456481934 0.74595284461975098 0.25964432954788208
0.770191490650177 0.76761907339096069 0.2722562849521637
0.92287856340408325 0.79741364717483521 0.30572101473808289
0.31232172250747681 0.83042007684707642 0.26695659756660461
0.47772973775863647 0.85119539499282837 0.29767787456512451
0.64888113737106323 0.89673435688018799 0.31269249320030212
0.80562311410903931 0.92974507808685303 0.31956148147583008
0.95096933841705322 0.95342785120010376 0.33684471249580383
0.049789115786552429 0.015235945582389832 0.15350820124149323
0.22069258987903595 0.071982398629188538 0.21144677698612213
0.49524638056755066 0.095201440155506134 0.26110106706619263
0.74412888288497925 0.11731594055891037 0.28805047273635864
0.91673421859741211 0.14490976929664612 0.31363943219184875
0.082024984061717987 0.21851804852485657 0.2072787880897522
0.24984344840049744 0.24484829604625702 0.23654498159885406
0.52111530303955078 0.28343179821968079 0.2728002667427063
0.76277327537536621 0.30812743306159973 0.29575499892234802
0.92906218767166138 0.33123299479484558 0.31517201662063599
0.17489229142665863 0.46216782927513123 0.27596119046211243
0.34940430521965027 0.49051567912101746 0.32088705897331238
0.54136568307876587 0.53634417057037354 0.34576886892318726
0.75538653135299683 0.57370835542678833 0.35893446207046509
0.93309515714645386 0.59627807140350342 0.36567184329032898
0.25362023711204529 0.6763845682144165 0.33512413501739502
0.42616158723831177 0.70184695720672607 0.38116085529327393
0.61395251750946045 0.74738281965255737 0.40980857610702515
0.78106808662414551 0.77516740560531616 0.42501577734947205
0.93832534551620483 0.80188143253326416 0.43690383434295654
0.29107275605201721 0.83718425035476685 0.3788456916809082
0.46152469515800476 0.85955774784088135 0.41052275896072388
0.66219598054885864 0.90227431058883667 0.45871379971504211
0.82016128301620483 0.93693006038665771 0.46765175461769104
0.96161961555480957 0.95439624786376953 0.47594588994979858
0.098294094204902649 0.013154332526028156 0.32038679718971252
0.26214161515235901 0.091812878847122192 0.35860711336135864
0.47744673490524292 0.14377287030220032 0.45957669615745544
0.698047935962677 0.17849212884902954 0.50119125843048096
0.87946677207946777 0.18739305436611176 0.53608262538909912
0.086631700396537781 0.17833547294139862 0.4405825138092041
0.29237288236618042 0.24302689731121063 0.41018787026405334
0.50551509857177734 0.32518297433853149 0.49210727214813232
0.73646026849746704 0.34213820099830627 0.52557504177093506
0.91274219751358032 0.3600119948387146 0.55307948589324951
0.17828959226608276 0.47188231348991394 0.45605221390724182
0.33973923325538635 0.50017118453979492 0.48448121547698975
0.54855406284332275 0.54370957612991333 0.52318978309631348
0.77994716167449951 0.57346659898757935 0.55144393444061279
0.95613294839859009 0.59265792369842529 0.57134759426116943
0.24781502783298492 0.68017005920410156 0.51374208927154541
0.41408851742744446 0.71256059408187866 0.5358586311340332
0.62328970432281494 0.75106346607208252 0.58339637517929077
0.79157137870788574 0.78938978910446167 0.60917574167251587
0.95475560426712036 0.8113904595375061 0.61071789264678955
0.29147082567214966 0.84311562776565552 0.54948008060455322
0.46373113989830017 0.87038803100585938 0.57725363969802856
0.67644065618515015 0.90877574682235718 0.6327705979347229
0.83585864305496216 0.94693315029144287 0.64913272857666016
0.97319275140762329 0.96708023548126221 0.65352857112884521
0.14136460423469543 0.012373276986181736 0.46860459446907043
0.30758881568908691 0.10607168078422546 0.48428377509117126
0.51376223564147949 0.16982807219028473 0.62279975414276123
0.69805514812469482 0.20694796741008759 0.68186336755752563
0.85880213975906372 0.21702870726585388 0.69648236036300659
0.11346499621868134 0.14248773455619812 0.62253332138061523
0.32449841499328613 0.23994612693786621 0.56230342388153076
0.53962486982345581 0.34219840168952942 0.62709629535675049
0.71955913305282593 0.37814420461654663 0.70092809200286865
0.88711714744567871 0.40475150942802429 0.72364920377731323
0.17635667324066162 0.482237309217453 0.63695728778839111
0.33268702030181885 0.48941656947135925 0.6848905086517334
0.57654547691345215 0.53808629512786865 0.68249475955963135
0.76596665382385254 0.60581833124160767 0.74120450019836426
0.93824028968811035 0.61828708648681641 0.75397300720214844
0.25794371962547302 0.69071382284164429 0.66430866718292236
0.41764464974403381 0.71692347526550293 0.6922944188117981
0.62135887145996094 0.76206928491592407 0.73377722501754761
0.80214500427246094 0.79333972930908203 0.76540815830230713
0.96530991792678833 0.8132861852645874 0.78196430206298828
0.29485869407653809 0.84942162036895752 0.70846396684646606
0.45858773589134216 0.8770328164100647 0.72979015111923218
0.66860371828079224 0.91943186521530151 0.76902037858963013
0.84450072050094604 0.95189177989959717 0.79992377758026123
0.98076307773590088 0.97306394577026367 0.81543892621994019
0.1552012711763382 0.007561657577753067 0.58876210451126099
0.33154308795928955 0.10964860767126083 0.59184950590133667
0.53669345378875732 0.18758335709571838 0.72079741954803467
0.72185945510864258 0.22552256286144257 0.81608468294143677
0.86445713043212891 0.2234492301940918 0.8237949013710022
0.13830247521400452 0.14311240613460541 0.74065148830413818
0.35457912087440491 0.24104417860507965 0.67829275131225586
0.56816732883453369 0.35023924708366394 0.73315715789794922
0.74751394987106323 0.39674264192581177 0.83268678188323975
0.89311283826828003 0.41200560331344604 0.85506951808929443
0.1753014475107193 0.46292155981063843 0.80041635036468506
0.33938387036323547 0.45622745156288147 0.83732026815414429
0.6032225489616394 0.53620952367782593 0.79745405912399292
0.79033011198043823 0.61747223138809204 0.85808253288269043
0.93589562177658081 0.63843709230422974 0.90173214673995972
0.25242817401885986 0.69930410385131836 0.79900878667831421
0.41938397288322449 0.72742754220962524 0.82362562417984009
0.62441223859786987 0.75568020343780518 0.87251251935958862
0.81426453590393066 0.79056096076965332 0.89249515533447266
0.96596956253051758 0.83184915781021118 0.92191410064697266
0.29154974222183228 0.86361813545227051 0.8346288800239563
0.46604171395301819 0.89084166288375854 0.85559403896331787
0.67031264305114746 0.92680913209915161 0.89247363805770874
0.84643292427062988 0.95627093315124512 0.92131829261779785
0.98582255840301514 0.97920823097229004 0.93811476230621338
