assets/lut/kylerholland kh02.cube
# Created by: G'MIC (https://gmic.eu)
TITLE "kh2"
# LUT size
LUT_3D_SIZE 7
# Data domain
DOMAIN_MIN 0.0 0.0 0.0
DOMAIN_MAX 1.0 1.0 1.0
# LUT data points
0.13575077056884766 0.13662649691104889 0.13556854426860809
0.23500426113605499 0.12819279730319977 0.12859492003917694
0.34739798307418823 0.11137577146291733 0.11596821993589401
0.4778343141078949 0.084768213331699371 0.097034379839897156
0.60720670223236084 0.056792136281728745 0.075692899525165558
0.73752588033676147 0.019277356564998627 0.043298158794641495
0.87402248382568359 0.00090116611681878567 0.030993293970823288
0.12296357750892639 0.23109669983386993 0.12046346068382263
0.23396573960781097 0.23147180676460266 0.11179324984550476
0.35581162571907043 0.22648479044437408 0.098693758249282837
0.49090695381164551 0.21722207963466644 0.072269067168235779
0.62585508823394775 0.20860445499420166 0.038172449916601181
0.76164937019348145 0.19305506348609924 0.01406516321003437
0.92081648111343384 0.14720475673675537 0.001901529380120337
0.10084312409162521 0.34576499462127686 0.088013336062431335
0.22910510003566742 0.35227596759796143 0.075344935059547424
0.35977545380592346 0.35777196288108826 0.067308060824871063
0.50430190563201904 0.35950899124145508 0.051934335380792618
0.6523134708404541 0.3597990870475769 0.025274733081459999
0.79469990730285645 0.36014896631240845 0.002794542582705617
0.93799787759780884 0.35245880484580994 0.0014635871630162001
0.063164792954921722 0.48372602462768555 0.042129576206207275
0.21993866562843323 0.49357110261917114 0.021856823936104774
0.37338888645172119 0.50812500715255737 0.033433817327022552
0.52671337127685547 0.5171959400177002 0.030817518010735512
0.68041777610778809 0.52714473009109497 0.0077653774060308933
0.83532536029815674 0.53609359264373779 0.0012812146451324224
0.98098480701446533 0.5381932258605957 0.0013191222678869963
0.02066720649600029 0.63127797842025757 0.0034110276028513908
0.17537018656730652 0.64946949481964111 0.00014648438082076609
0.37418445944786072 0.67329204082489014 0.0009787166491150856
0.545418381690979 0.68707799911499023 0.0023637211415916681
0.70673191547393799 0.69968587160110474 9.7656251455191523e-05
0.86878985166549683 0.71298867464065552 0.0062977508641779423
0.9962581992149353 0.7249903678894043 0.014213726855814457
0.020832585170865059 0.78892940282821655 0
0.14903683960437775 0.813179612159729 0
0.35878092050552368 0.84138548374176025 0
0.55473238229751587 0.85154986381530762 0
0.73262894153594971 0.8657645583152771 0
0.90034973621368408 0.88594943284988403 2.1003274014219642e-05
0.99894344806671143 0.90545147657394409 0.019415387883782387
0.06778118759393692 0.94819945096969604 0
0.17366111278533936 0.97270298004150391 0
0.35680878162384033 0.98766613006591797 8.2651771663222462e-05
0.56428676843643188 0.98638403415679932 0
0.75680500268936157 0.99152177572250366 0
0.92908132076263428 0.99544823169708252 0.00099882239010185003
1 0.99977344274520874 0.031917750835418701
0.13331575691699982 0.13250090181827545 0.22967959940433502
0.23465684056282043 0.12825894355773926 0.2316371351480484
0.34727159142494202 0.11634506285190582 0.22930501401424408
0.4819328784942627 0.08734612911939621 0.223772794008255
0.61507052183151245 0.054379735141992569 0.21849742531776428
0.72846448421478271 0.028722755610942841 0.21470311284065247
0.85085797309875488 0.0099396500736474991 0.20833900570869446
0.12307871133089066 0.23096635937690735 0.22939355671405792
0.23344562947750092 0.23310555517673492 0.22947990894317627
0.35947754979133606 0.22808818519115448 0.22942627966403961
0.50332814455032349 0.21201105415821075 0.21711684763431549
0.65139251947402954 0.18916492164134979 0.19906115531921387
0.79371422529220581 0.16959506273269653 0.17852745950222015
0.94115239381790161 0.1418287456035614 0.15765546262264252
0.099679745733737946 0.34865105152130127 0.22283969819545746
0.22765742242336273 0.35744008421897888 0.22148849070072174
0.36494424939155579 0.36219114065170288 0.22180485725402832
0.51846605539321899 0.35759025812149048 0.21012234687805176
0.67362260818481445 0.35123524069786072 0.19189086556434631
0.82639449834823608 0.34260565042495728 0.15645582973957062
0.97636467218399048 0.32932376861572266 0.132426917552948
0.054672721773386002 0.48702579736709595 0.21034663915634155
0.20495417714118958 0.50197821855545044 0.20535142719745636
0.37174081802368164 0.51530653238296509 0.20599211752414703
0.53290379047393799 0.52338522672653198 0.19321584701538086
0.69349557161331177 0.5318068265914917 0.16000117361545563
0.85563576221466064 0.53504472970962524 0.13515859842300415
0.99179273843765259 0.54106646776199341 0.10835758596658707
0.020222727209329605 0.63301068544387817 0.16357697546482086
0.1683792769908905 0.65482860803604126 0.14357209205627441
0.37669512629508972 0.68009108304977417 0.14622844755649567
0.54917794466018677 0.69408285617828369 0.15239553153514862
0.71539533138275146 0.70684558153152466 0.12564980983734131
0.88032281398773193 0.71967005729675293 0.11216340959072113
0.99578237533569336 0.73087698221206665 0.11752733588218689
0.033463183790445328 0.79044526815414429 0.10400240868330002
0.14187149703502655 0.81360471248626709 0.079644523561000824
0.3641570508480072 0.84507459402084351 0.080014728009700775
0.56083256006240845 0.85991775989532471 0.085091628134250641
0.7369493842124939 0.87680470943450928 0.03858063742518425
0.9056888222694397 0.89827340841293335 0.03853568434715271
1 0.90521931648254395 0.04582316055893898
0.068316832184791565 0.95092380046844482 0.045169442892074585
0.14638721942901611 0.96960926055908203 0.04233214259147644
0.35060927271842957 0.98707407712936401 0.016740940511226654
0.56727415323257446 0.98847037553787231 0.016146626323461533
0.75782263278961182 0.99711042642593384 0.027901429682970047
0.92908638715744019 0.99883365631103516 0.034275457262992859
1 0.99660032987594604 0.064355172216892242
0.13390190899372101 0.13006065785884857 0.32961353659629822
0.23348207771778107 0.12806066870689392 0.33578389883041382
0.34380388259887695 0.12094415724277496 0.34024465084075928
0.47645130753517151 0.09557729959487915 0.3433525562286377
0.61968713998794556 0.05337626114487648 0.3461662232875824
0.73995071649551392 0.022323967888951302 0.35312625765800476
0.85554522275924683 0.0094646979123353958 0.35859671235084534
0.12507669627666473 0.23016843199729919 0.34004247188568115
0.23476295173168182 0.22963927686214447 0.34675189852714539
0.35692235827445984 0.22921399772167206 0.35290646553039551
0.49811753630638123 0.21739058196544647 0.3510679304599762
0.65184551477432251 0.19093203544616699 0.34767395257949829
0.79691880941390991 0.1689411848783493 0.35110846161842346
0.93159961700439453 0.1541869193315506 0.351888507604599
0.10594672709703445 0.35021409392356873 0.34742280840873718
0.22983342409133911 0.3594258725643158 0.35414254665374756
0.36927059292793274 0.36501637101173401 0.36088579893112183
0.52208942174911499 0.35976478457450867 0.36090928316116333
0.68031853437423706 0.35054543614387512 0.35700637102127075
0.83800184726715088 0.33692076802253723 0.34330132603645325
0.98097002506256104 0.32930746674537659 0.33933085203170776
0.077519424259662628 0.48953035473823547 0.35241693258285522
0.21319350600242615 0.50788313150405884 0.3583330512046814
0.37305879592895508 0.52145373821258545 0.35817864537239075
0.53801769018173218 0.53029710054397583 0.36758473515510559
0.70384210348129272 0.53340959548950195 0.36422878503799438
0.86678880453109741 0.53194355964660645 0.35345220565795898
0.99274080991744995 0.53863769769668579 0.36345633864402771
0.055443931370973587 0.63692039251327515 0.34527313709259033
0.18523772060871124 0.66314554214477539 0.35094040632247925
0.37365150451660156 0.68706983327865601 0.35405930876731873
0.54980134963989258 0.7030375599861145 0.36322006583213806
0.72342705726623535 0.71572929620742798 0.36639559268951416
0.89414697885513306 0.72421979904174805 0.36060455441474915
0.99946051836013794 0.73411089181900024 0.36472561955451965
0.04895445704460144 0.79699647426605225 0.33752155303955078
0.14167334139347076 0.8243945837020874 0.33977365493774414
0.35984089970588684 0.85795217752456665 0.34437257051467896
0.55864536762237549 0.87613523006439209 0.35030937194824219
0.74124783277511597 0.89460980892181396 0.34348481893539429
0.90914714336395264 0.90236979722976685 0.3401525616645813
0.99835848808288574 0.91816419363021851 0.34535780549049377
0.052969824522733688 0.95234304666519165 0.29558846354484558
0.11165168881416321 0.97419428825378418 0.30916619300842285
0.34428808093070984 0.99595135450363159 0.29775124788284302
0.56744194030761719 0.99897140264511108 0.30876946449279785
0.7626224160194397 0.99996626377105713 0.29828545451164246
0.93165647983551025 0.99699705839157104 0.32783794403076172
1 0.99877756834030151 0.38332018256187439
0.13562552630901337 0.1278301328420639 0.43552464246749878
0.23518607020378113 0.12427575886249542 0.44611430168151855
0.34605401754379272 0.11825895309448242 0.45600530505180359
0.47513076663017273 0.099036090075969696 0.46535235643386841
0.61437219381332397 0.06406896561384201 0.47611281275749207
0.74471741914749146 0.032806187868118286 0.48897960782051086
0.8659101128578186 0.016978634521365166 0.50205761194229126
0.12336983531713486 0.22824013233184814 0.45201116800308228
0.23274467885494232 0.22912268340587616 0.46561300754547119
0.3559754490852356 0.2280823141336441 0.47886401414871216
0.49617478251457214 0.22059614956378937 0.48717781901359558
0.64630687236785889 0.20242096483707428 0.49407416582107544
0.79114419221878052 0.18333134055137634 0.50280648469924927
0.92333984375 0.17081770300865173 0.51300573348999023
0.10697748512029648 0.34836962819099426 0.46918734908103943
0.2284894734621048 0.35699713230133057 0.48611268401145935
0.3692162036895752 0.35989087820053101 0.50194191932678223
0.52303934097290039 0.3620026707649231 0.51154595613479614
0.6823660135269165 0.35796838998794556 0.51741313934326172
0.83642315864562988 0.34949579834938049 0.52082544565200806
0.97240746021270752 0.34649533033370972 0.52784454822540283
0.088914461433887482 0.49323603510856628 0.48847097158432007
0.22028298676013947 0.5115848183631897 0.50447601079940796
0.37764227390289307 0.52433717250823975 0.5180739164352417
0.54317170381546021 0.53536027669906616 0.53103506565093994
0.71178460121154785 0.53601759672164917 0.53548425436019897
0.87561649084091187 0.53493189811706543 0.5379328727722168
0.9967760443687439 0.5402374267578125 0.54849135875701904
0.05803641676902771 0.6448667049407959 0.50042092800140381
0.18548426032066345 0.6693304181098938 0.51548421382904053
0.37332412600517273 0.69335794448852539 0.52866166830062866
0.55315238237380981 0.71078068017959595 0.53916460275650024
0.73054444789886475 0.71858447790145874 0.54461681842803955
0.90365678071975708 0.72709757089614868 0.54553115367889404
1 0.73852026462554932 0.56219708919525146
0.031485553830862045 0.80074501037597656 0.50557237863540649
0.11874165385961533 0.82563787698745728 0.51503533124923706
0.34794557094573975 0.86113882064819336 0.53867846727371216
0.55696338415145874 0.88373857736587524 0.54502695798873901
0.74368822574615479 0.89750641584396362 0.55394011735916138
0.91910046339035034 0.90748369693756104 0.55965882539749146
1 0.92158210277557373 0.58691936731338501
0.071657605469226837 0.95791500806808472 0.50796002149581909
0.13639011979103088 0.9769318699836731 0.52585184574127197
0.34969577193260193 0.99554944038391113 0.5436713695526123
0.56686913967132568 0.99999356269836426 0.54223763942718506
0.76489150524139404 1 0.5438382625579834
0.9445299506187439 0.9993443489074707 0.56912398338317871
1 0.99993103742599487 0.62560367584228516
0.13785439729690552 0.12247765064239502 0.54463434219360352
0.23939953744411469 0.11852659285068512 0.5593949556350708
0.35204967856407166 0.11225330084562302 0.57441681623458862
0.47894209623336792 0.097260311245918274 0.58996295928955078
0.61494630575180054 0.071665793657302856 0.60672324895858765
0.74949884414672852 0.045700732618570328 0.62335139513015747
0.87547838687896729 0.027162125334143639 0.63899689912796021
0.12443184852600098 0.22550798952579498 0.56833040714263916
0.23486040532588959 0.22434912621974945 0.58757311105728149
0.35966220498085022 0.22411249577999115 0.60628330707550049
0.49808084964752197 0.22054475545883179 0.62245726585388184
0.64394193887710571 0.21172274649143219 0.63655197620391846
0.78811770677566528 0.19953733682632446 0.65032744407653809
0.92196959257125854 0.18772664666175842 0.66490334272384644
0.10929521918296814 0.34793886542320251 0.5949561595916748
0.2317640632390976 0.35422760248184204 0.61798083782196045
0.37131041288375854 0.35779556632041931 0.64006799459457397
0.52248072624206543 0.36318641901016235 0.65710145235061646
0.67855393886566162 0.36707168817520142 0.66975188255310059
0.83203428983688354 0.36583790183067322 0.68154323101043701
0.96867567300796509 0.3616868257522583 0.69519627094268799
0.092390529811382294 0.49512562155723572 0.62308657169342041
0.2245856374502182 0.51271045207977295 0.64694613218307495
0.37989905476570129 0.52279448509216309 0.66896963119506836
0.5438036322593689 0.53477656841278076 0.68624246120452881
0.711761474609375 0.5410536527633667 0.69759094715118408
0.87870442867279053 0.54211020469665527 0.70813548564910889
0.99748748540878296 0.54677563905715942 0.72270774841308594
0.059103813022375107 0.65096896886825562 0.64491373300552368
0.18832243978977203 0.67502433061599731 0.66707319021224976
0.37718883156776428 0.69526040554046631 0.68985414505004883
0.55784964561462402 0.71285665035247803 0.70750528573989868
0.73271870613098145 0.72268694639205933 0.7192421555519104
0.90507489442825317 0.73104411363601685 0.72437179088592529
1 0.74062973260879517 0.74283099174499512
0.036139648407697678 0.80526000261306763 0.6596265435218811
0.12972977757453918 0.82505512237548828 0.67749005556106567
0.35971984267234802 0.85967260599136353 0.70717144012451172
0.56528991460800171 0.88558554649353027 0.72356295585632324
0.75074279308319092 0.89912748336791992 0.73422986268997192
0.92529863119125366 0.91398465633392334 0.73845690488815308
1 0.92674785852432251 0.77653008699417114
0.085334986448287964 0.95989996194839478 0.67643731832504272
0.15982449054718018 0.97173130512237549 0.70141118764877319
0.35706868767738342 0.98967647552490234 0.72820365428924561
0.57356184720993042 0.99927401542663574 0.73782140016555786
0.77232038974761963 1 0.74051582813262939
0.95019251108169556 0.99946463108062744 0.75425690412521362
1 0.99991673231124878 0.82903099060058594
0.14354921877384186 0.12176188826560974 0.65375643968582153
0.24540026485919952 0.11660084128379822 0.67212861776351929
0.35759276151657104 0.10945742577314377 0.69128859043121338
0.48498612642288208 0.094726249575614929 0.7124752402305603
0.62201976776123047 0.073508813977241516 0.73352032899856567
0.75954550504684448 0.051152218133211136 0.75184673070907593
0.88767528533935547 0.033281795680522919 0.76725584268569946
0.12743973731994629 0.22575709223747253 0.68385779857635498
0.23874753713607788 0.22407156229019165 0.70708173513412476
0.36355623602867126 0.22445324063301086 0.73063057661056519
0.50201839208602905 0.22059999406337738 0.75292861461639404
0.64915966987609863 0.21351572871208191 0.77325248718261719
0.79556959867477417 0.20403613150119781 0.79063373804092407
0.92839694023132324 0.19609545171260834 0.80426156520843506
0.10944963246583939 0.34687203168869019 0.71649074554443359
0.23427498340606689 0.35456043481826782 0.74403053522109985
0.37445634603500366 0.3593146800994873 0.77211672067642212
0.52490812540054321 0.36347377300262451 0.79448962211608887
0.68269091844558716 0.36807292699813843 0.81330335140228271
0.83889436721801758 0.36854320764541626 0.83117794990539551
0.97169458866119385 0.3695257306098938 0.84444522857666016
0.092186719179153442 0.49259448051452637 0.75003665685653687
0.23020792007446289 0.5145753026008606 0.77902716398239136
0.38652372360229492 0.5259404182434082 0.80748188495635986
0.54752433300018311 0.53380447626113892 0.82781857252120972
0.71536469459533691 0.54186046123504639 0.84498453140258789
0.8808819055557251 0.54755377769470215 0.86404693126678467
0.99683791399002075 0.55435240268707275 0.8806452751159668
0.068960465490818024 0.65065819025039673 0.78148829936981201
0.20408399403095245 0.68188107013702393 0.81015902757644653
0.38862863183021545 0.70354324579238892 0.8406258225440979
0.56198793649673462 0.71608114242553711 0.85766863822937012
0.73693764209747314 0.72365158796310425 0.87707877159118652
0.90356165170669556 0.73744183778762817 0.88760161399841309
0.99965029954910278 0.74867218732833862 0.90866827964782715
0.062623254954814911 0.81264334917068481 0.80816411972045898
0.15659649670124054 0.84206324815750122 0.8361060619354248
0.37378156185150146 0.87863337993621826 0.87091976404190063
0.57040280103683472 0.89591521024703979 0.88878977298736572
0.75632894039154053 0.90626353025436401 0.90162545442581177
0.9302559494972229 0.91966807842254639 0.91137528419494629
0.99985432624816895 0.93475008010864258 0.93357729911804199
0.10168065130710602 0.96580344438552856 0.82472771406173706
0.16772101819515228 0.98056495189666748 0.8587067723274231
0.36504703760147095 0.99771440029144287 0.89362925291061401
0.58246207237243652 0.99915039539337158 0.91173189878463745
0.77573102712631226 0.99999856948852539 0.92005831003189087
0.95089519023895264 0.99964851140975952 0.94339382648468018
1 0.99787181615829468 0.97759711742401123
0.15008078515529633 0.12327952682971954 0.76030534505844116
0.25143963098526001 0.11802366375923157 0.78071922063827515
0.36370018124580383 0.11035230755805969 0.80223417282104492
0.49268889427185059 0.09366627037525177 0.8271782398223877
0.63130843639373779 0.072900868952274323 0.8506615161895752
0.76996999979019165 0.052673488855361938 0.86946851015090942
0.89806008338928223 0.036201789975166321 0.88296210765838623
0.13059259951114655 0.22977462410926819 0.79345524311065674
0.24255615472793579 0.22937047481536865 0.81875276565551758
0.36778947710990906 0.22817780077457428 0.84552407264709473
0.50819504261016846 0.2220766544342041 0.87162917852401733
0.65710920095443726 0.21397837996482849 0.89523005485534668
0.8041495680809021 0.20545674860477448 0.9135933518409729
0.93463635444641113 0.20015014708042145 0.92444771528244019
0.10802654176950455 0.34682303667068481 0.82876461744308472
0.23470373451709747 0.35690447688102722 0.85911756753921509
0.37594535946846008 0.36012008786201477 0.89117234945297241
0.5290226936340332 0.3640647828578949 0.91640257835388184
0.68939781188964844 0.36807608604431152 0.93824595212936401
0.84533590078353882 0.36924165487289429 0.95699453353881836
0.97468751668930054 0.3737432062625885 0.96591871976852417
0.089914582669734955 0.48672348260879517 0.86468535661697388
0.2283095121383667 0.51204162836074829 0.89672172069549561
0.38709184527397156 0.52646690607070923 0.92853879928588867
0.55180472135543823 0.53410828113555908 0.95118826627731323
0.72355502843856812 0.54211694002151489 0.96958935260772705
0.8909066915512085 0.54874038696289062 0.98598098754882812
0.99849170446395874 0.55835485458374023 0.99331569671630859
0.077685095369815826 0.64482080936431885 0.90097033977508545
0.21115849912166595 0.67973035573959351 0.93507117033004761
0.38957244157791138 0.70616036653518677 0.96533596515655518
0.56701123714447021 0.71676623821258545 0.98227608203887939
0.74606329202651978 0.72671079635620117 0.99267572164535522
0.91632741689682007 0.74049907922744751 0.99548912048339844
1 0.75603336095809937 0.99919146299362183
0.090029053390026093 0.81056672334671021 0.93549054861068726
0.17535547912120819 0.84491634368896484 0.96344262361526489
0.37871870398521423 0.88179081678390503 0.98876363039016724
0.57436561584472656 0.89811855554580688 0.99245661497116089
0.76024842262268066 0.91516971588134766 0.9966963529586792
0.93718695640563965 0.92771691083908081 0.99380308389663696
1 0.94183677434921265 0.99305164813995361
0.098703168332576752 0.958304762840271 0.9408562183380127
0.15540674328804016 0.97366505861282349 0.96554005146026611
0.37251418828964233 0.99744200706481934 0.99210572242736816
0.58920806646347046 0.99939405918121338 0.99631577730178833
0.7816658616065979 1 0.99722516536712646
0.9579741358757019 0.99926292896270752 0.99452555179595947
1 1 0.99979466199874878
