assets/lut/kylerholland kh03.cube
# Created by: G'MIC (https://gmic.eu)
TITLE "kh3"
# LUT size
LUT_3D_SIZE 5
# Data domain
DOMAIN_MIN 0.0 0.0 0.0
DOMAIN_MAX 1.0 1.0 1.0
# LUT data points
0.050296589732170105 0.078347526490688324 0.081515878438949585
0.20395419001579285 0.1097719818353653 0.081670604646205902
0.4073488712310791 0.14708855748176575 0.09324086457490921
0.64220023155212402 0.18950836360454559 0.14684911072254181
0.84538990259170532 0.24570414423942566 0.17163634300231934
0.044533509761095047 0.20986615121364594 0.06886553019285202
0.24904966354370117 0.20230245590209961 0.070135675370693207
0.50245273113250732 0.21783982217311859 0.071743369102478027
0.72138291597366333 0.28325352072715759 0.09861098974943161
0.89965426921844482 0.36379483342170715 0.10152776539325714
0.049021434038877487 0.32999584078788757 0.06632956862449646
0.28799304366111755 0.36869820952415466 0.067123338580131531
0.58639037609100342 0.39263802766799927 0.043336246162652969
0.81407147645950317 0.39526817202568054 0.054194655269384384
0.94551032781600952 0.47890135645866394 0.046616002917289734
0.083071932196617126 0.4600776731967926 0.0761093869805336
0.33777931332588196 0.49945011734962463 0.086809448897838593
0.61294460296630859 0.60673332214355469 0.045347057282924652
0.82354521751403809 0.6605408787727356 0.045233499258756638
0.9477534294128418 0.60206276178359985 0.046995814889669418
0.049672503024339676 0.72729778289794922 0.04394100233912468
0.33112043142318726 0.78600215911865234 0.043453022837638855
0.61445486545562744 0.83330351114273071 0.043137256056070328
0.81486696004867554 0.86118727922439575 0.043137256056070328
0.95095193386077881 0.86158090829849243 0.043137256056070328
0.050509944558143616 0.13806009292602539 0.16826875507831573
0.2596992552280426 0.15253786742687225 0.18355156481266022
0.50391310453414917 0.17390160262584686 0.16467610001564026
0.69936645030975342 0.20177103579044342 0.16723127663135529
0.86092811822891235 0.2429451197385788 0.18245184421539307
0.043206728994846344 0.22150185704231262 0.21475239098072052
0.1965593695640564 0.24693566560745239 0.23926684260368347
0.49425187706947327 0.24915838241577148 0.20210482180118561
0.71630632877349854 0.26324102282524109 0.17134656012058258
0.90119212865829468 0.31601771712303162 0.15651838481426239
0.043137256056070328 0.38036230206489563 0.24321337044239044
0.18555046617984772 0.41068661212921143 0.1747988760471344
0.56787621974945068 0.43427655100822449 0.16198621690273285
0.7929617166519165 0.43643486499786377 0.11159370094537735
0.93978744745254517 0.51234078407287598 0.090453207492828369
0.043176792562007904 0.42656844854354858 0.24495680630207062
0.24548496305942535 0.51290655136108398 0.17087176442146301
0.59078001976013184 0.6155015230178833 0.15719103813171387
0.8179054856300354 0.66803866624832153 0.061721369624137878
0.94797623157501221 0.61932104825973511 0.073411591351032257
0.043137256056070328 0.73344546556472778 0.12649904191493988
0.21600981056690216 0.80805712938308716 0.054197721183300018
0.57784563302993774 0.85404056310653687 0.057390190660953522
0.80347901582717896 0.87240403890609741 0.13941080868244171
0.94904059171676636 0.88582676649093628 0.10373087972402573
0.047504544258117676 0.21914683282375336 0.27053192257881165
0.20445246994495392 0.22148798406124115 0.28799533843994141
0.56193262338638306 0.24324570596218109 0.23878961801528931
0.76283103227615356 0.26863691210746765 0.2306622713804245
0.89835995435714722 0.31423661112785339 0.26060634851455688
0.045090019702911377 0.26331189274787903 0.30821508169174194
0.13320536911487579 0.29584115743637085 0.35434985160827637
0.53912580013275146 0.30506613850593567 0.31737780570983887
0.7496650218963623 0.32176950573921204 0.30767494440078735
0.89673280715942383 0.3509896993637085 0.31504103541374207
0.043137256056070328 0.39951857924461365 0.40382909774780273
0.072702117264270782 0.46101170778274536 0.45580503344535828
0.4738345742225647 0.48581412434577942 0.4737820029258728
0.74981051683425903 0.50791066884994507 0.4579768180847168
0.91212660074234009 0.51808452606201172 0.42542508244514465
0.043137256056070328 0.61772072315216064 0.52752828598022461
0.052222039550542831 0.58560562133789062 0.4670683741569519
0.47460028529167175 0.62548607587814331 0.40909019112586975
0.79752981662750244 0.69915473461151123 0.38931813836097717
0.94728261232376099 0.68108564615249634 0.39086687564849854
0.043137256056070328 0.81184852123260498 0.47003015875816345
0.043354064226150513 0.82013547420501709 0.36941331624984741
0.43811583518981934 0.92909163236618042 0.2688843309879303
0.77498984336853027 0.90167665481567383 0.37994971871376038
0.94902944564819336 0.88607919216156006 0.37690433859825134
0.048251327127218246 0.30265381932258606 0.37285557389259338
0.16713543236255646 0.30285531282424927 0.37025749683380127
0.50399917364120483 0.32911303639411926 0.33589255809783936
0.7815127968788147 0.34010025858879089 0.32483771443367004
0.88402801752090454 0.38948351144790649 0.40400421619415283
0.043137256056070328 0.3278384804725647 0.3979068398475647
0.092266291379928589 0.35331636667251587 0.44403842091560364
0.46387562155723572 0.35910320281982422 0.44496208429336548
0.76454049348831177 0.39459905028343201 0.44543671607971191
0.88469463586807251 0.44770717620849609 0.5073360800743103
0.043137256056070328 0.41704830527305603 0.49262258410453796
0.062401071190834045 0.47258570790290833 0.5581355094909668
0.37557423114776611 0.49833869934082031 0.62812089920043945
0.7643553614616394 0.52132463455200195 0.61708223819732666
0.89558929204940796 0.57081121206283569 0.63152891397476196
0.043137256056070328 0.58996659517288208 0.63342833518981934
0.045804340392351151 0.63238269090652466 0.67005515098571777
0.27904650568962097 0.6799924373626709 0.71333271265029907
0.74869680404663086 0.72663992643356323 0.71253478527069092
0.92425793409347534 0.74524891376495361 0.70948761701583862
0.043137256056070328 0.81437212228775024 0.77995145320892334
0.043137256056070328 0.8681148886680603 0.77843117713928223
0.11871722340583801 0.90256398916244507 0.68767273426055908
0.69729989767074585 0.93100613355636597 0.60191744565963745
0.9474179744720459 0.90315431356430054 0.64279395341873169
0.043550692498683929 0.39844617247581482 0.49796772003173828
0.12101183086633682 0.39288762211799622 0.46861320734024048
0.42754170298576355 0.40359652042388916 0.49108275771141052
0.74301093816757202 0.44220998883247375 0.5525583028793335
0.90809839963912964 0.48497834801673889 0.64260697364807129
0.043137256056070328 0.41880935430526733 0.5387759804725647
0.060271229594945908 0.4340546727180481 0.57274782657623291
0.33683294057846069 0.41731107234954834 0.58761954307556152
0.74016410112380981 0.44231879711151123 0.65891540050506592
0.92762047052383423 0.49779641628265381 0.72638982534408569
0.043137256056070328 0.49798193573951721 0.62880992889404297
0.045557208359241486 0.52349287271499634 0.66873085498809814
0.2695564329624176 0.54547297954559326 0.73912906646728516
0.67959511280059814 0.5285191535949707 0.77324205636978149
0.9362645149230957 0.57588738203048706 0.81172740459442139
0.043137256056070328 0.59777003526687622 0.73143333196640015
0.044836711138486862 0.63435345888137817 0.76440882682800293
0.24356023967266083 0.65866285562515259 0.79869818687438965
0.67624896764755249 0.70654463768005371 0.83688831329345703
0.93367570638656616 0.72654801607131958 0.84943693876266479
0.043137256056070328 0.73778063058853149 0.83779919147491455
0.043137256056070328 0.77679973840713501 0.85971558094024658
0.10519739985466003 0.81474500894546509 0.87944185733795166
0.61569839715957642 0.86796575784683228 0.88733601570129395
0.93314385414123535 0.92576295137405396 0.88595139980316162
