assets/lut/kylerholland kh07.cube
# Created by: G'MIC (https://gmic.eu)
TITLE "kh7"
# LUT size
LUT_3D_SIZE 7
# Data domain
DOMAIN_MIN 0.0 0.0 0.0
DOMAIN_MAX 1.0 1.0 1.0
# LUT data points
0.013450173661112785 0.012469437904655933 0.026246104389429092
0.065761968493461609 0.021455070003867149 0.047438334673643112
0.15972347557544708 0.02793801948428154 0.058126982301473618
0.28243130445480347 0.037833016365766525 0.071858473122119904
0.42779341340065002 0.044337358325719833 0.090781956911087036
0.57398802042007446 0.049894414842128754 0.10801591724157333
0.72139078378677368 0.060289211571216583 0.12385480105876923
0.028517764061689377 0.079605534672737122 0.058572880923748016
0.088752642273902893 0.089213185012340546 0.066963046789169312
0.18420802056789398 0.09976641833782196 0.080815352499485016
0.30956962704658508 0.11456342041492462 0.097715847194194794
0.45241329073905945 0.12776963412761688 0.11762590706348419
0.59922677278518677 0.13777078688144684 0.13875171542167664
0.74907928705215454 0.15032872557640076 0.16237883269786835
0.04416390135884285 0.18619398772716522 0.089659914374351501
0.1082109659910202 0.19575947523117065 0.098504222929477692
0.2092839777469635 0.21080447733402252 0.10907335579395294
0.33828991651535034 0.22700119018554688 0.12685759365558624
0.47997844219207764 0.24253299832344055 0.14603833854198456
0.62838852405548096 0.25736191868782043 0.16682952642440796
0.78202706575393677 0.27473029494285583 0.19130302965641022
0.063876792788505554 0.32315853238105774 0.13212132453918457
0.13218240439891815 0.34083610773086548 0.1416584849357605
0.23914285004138947 0.35434240102767944 0.15750229358673096
0.37063270807266235 0.3715212345123291 0.17435269057750702
0.5146452784538269 0.38913401961326599 0.19359250366687775
0.66332614421844482 0.40599939227104187 0.21228237450122833
0.81710541248321533 0.42478105425834656 0.23561273515224457
0.083808928728103638 0.47818496823310852 0.18274033069610596
0.15764856338500977 0.49812644720077515 0.19801934063434601
0.27267932891845703 0.51181954145431519 0.21500365436077118
0.40769216418266296 0.52990376949310303 0.2305835485458374
0.55140620470046997 0.55009263753890991 0.24735012650489807
0.700245201587677 0.56850969791412354 0.26826015114784241
0.85376882553100586 0.58672183752059937 0.29627948999404907
0.10390092432498932 0.64174342155456543 0.24263772368431091
0.17885106801986694 0.66380566358566284 0.2625434398651123
0.30065923929214478 0.67755436897277832 0.27702876925468445
0.44292417168617249 0.69548177719116211 0.29012981057167053
0.58941006660461426 0.71591627597808838 0.30394366383552551
0.73989969491958618 0.735923171043396 0.32301568984985352
0.89488279819488525 0.75605416297912598 0.34817853569984436
0.13442257046699524 0.80747663974761963 0.30263599753379822
0.20608876645565033 0.83265954256057739 0.32741853594779968
0.32839533686637878 0.849251389503479 0.33791899681091309
0.47571286559104919 0.8654600977897644 0.35028389096260071
0.62852990627288818 0.8844749927520752 0.36524412035942078
0.78218364715576172 0.9052431583404541 0.38280278444290161
0.93908369541168213 0.92661583423614502 0.40554797649383545
0.014949035830795765 0.017317423596978188 0.070049598813056946
0.06271013617515564 0.026040380820631981 0.10927887260913849
0.16421683132648468 0.031244600191712379 0.12213906645774841
0.28317177295684814 0.043468877673149109 0.1375737190246582
0.42480835318565369 0.052661985158920288 0.15715368092060089
0.57110297679901123 0.062107071280479431 0.17724107205867767
0.71970862150192261 0.075695037841796875 0.19555005431175232
0.039754185825586319 0.076943673193454742 0.11906983703374863
0.088287770748138428 0.096408218145370483 0.12927669286727905
0.18670116364955902 0.10599894821643829 0.14616116881370544
0.31171533465385437 0.11978563666343689 0.16145797073841095
0.45322129130363464 0.13448978960514069 0.18261101841926575
0.60117512941360474 0.14780175685882568 0.20615848898887634
0.75213068723678589 0.16365930438041687 0.23084305226802826
0.061864830553531647 0.17617006599903107 0.16563312709331512
0.11354582756757736 0.20137983560562134 0.16960978507995605
0.21401979029178619 0.21600070595741272 0.17721526324748993
0.34233611822128296 0.2330586314201355 0.19028216600418091
0.48631352186203003 0.24875865876674652 0.21104441583156586
0.63574975728988647 0.26553282141685486 0.23438830673694611
0.78747212886810303 0.28406912088394165 0.26128977537155151
0.079699620604515076 0.32026109099388123 0.21031513810157776
0.13556393980979919 0.347441166639328 0.21023999154567719
0.24445182085037231 0.36276543140411377 0.21909330785274506
0.37886977195739746 0.37754344940185547 0.23484079539775848
0.52477920055389404 0.39663714170455933 0.25371652841567993
0.6728057861328125 0.41548067331314087 0.27484261989593506
0.82562136650085449 0.43396085500717163 0.30164226889610291
0.099029302597045898 0.48106130957603455 0.25686651468276978
0.15983547270298004 0.51105082035064697 0.2562466561794281
0.27862399816513062 0.52435171604156494 0.26548084616661072
0.41465482115745544 0.54077565670013428 0.28397312760353088
0.56087708473205566 0.56155633926391602 0.30390000343322754
0.71030235290527344 0.58038926124572754 0.32599174976348877
0.86366420984268188 0.59913545846939087 0.35236334800720215
0.11820506304502487 0.64664888381958008 0.31746885180473328
0.18162178993225098 0.6775517463684082 0.32553586363792419
0.30586346983909607 0.69045573472976685 0.32311636209487915
0.44850191473960876 0.70850807428359985 0.3397974967956543
0.5978928804397583 0.72873884439468384 0.36089938879013062
0.74950367212295532 0.74869734048843384 0.38157945871353149
0.90312701463699341 0.76955533027648926 0.40552905201911926
0.14592424035072327 0.81484568119049072 0.37243562936782837
0.2068648636341095 0.85010230541229248 0.37844946980476379
0.32987549901008606 0.8652796745300293 0.37972903251647949
0.48090103268623352 0.87894737720489502 0.4027632474899292
0.63538748025894165 0.89731478691101074 0.42626297473907471
0.7891356348991394 0.91811680793762207 0.44612604379653931
0.94432848691940308 0.93956238031387329 0.47098100185394287
0.014823973178863525 0.031175157055258751 0.10332903265953064
0.037287063896656036 0.044744543731212616 0.19186314940452576
0.14934580028057098 0.040998674929141998 0.22428649663925171
0.28535526990890503 0.044116541743278503 0.23841378092765808
0.42703413963317871 0.052967146039009094 0.25873306393623352
0.57159483432769775 0.066093176603317261 0.27888914942741394
0.7222561240196228 0.081158429384231567 0.29774564504623413
0.03125641867518425 0.091932840645313263 0.18329708278179169
0.065573550760746002 0.11625867336988449 0.20949691534042358
0.17230606079101562 0.11543221771717072 0.25144830346107483
0.31382116675376892 0.12395351380109787 0.26706358790397644
0.45686158537864685 0.13840234279632568 0.28545048832893372
0.60347539186477661 0.15299814939498901 0.30889421701431274
0.75626939535140991 0.16847510635852814 0.33363768458366394
0.083877399563789368 0.17116402089595795 0.2439836710691452
0.12974269688129425 0.20051510632038116 0.26446902751922607
0.21036949753761292 0.22762882709503174 0.27441108226776123
0.3468344509601593 0.23847079277038574 0.30001714825630188
0.49130871891975403 0.25617879629135132 0.31842675805091858
0.64084118604660034 0.27300086617469788 0.34045255184173584
0.79259514808654785 0.29034435749053955 0.36817640066146851
0.1122465580701828 0.3040783703327179 0.30906617641448975
0.15559598803520203 0.3397553563117981 0.33465868234634399
0.25684121251106262 0.36462900042533875 0.33104044198989868
0.38043266534805298 0.38746264576911926 0.34114715456962585
0.5299144983291626 0.40617197751998901 0.35993129014968872
0.67924171686172485 0.42504823207855225 0.38008257746696472
0.83126342296600342 0.44188174605369568 0.40826719999313354
0.1335955411195755 0.46370172500610352 0.37853071093559265
0.17899230122566223 0.4993126392364502 0.39885735511779785
0.28422582149505615 0.52914911508560181 0.37919074296951294
0.41166803240776062 0.55438417196273804 0.38601085543632507
0.56357026100158691 0.57491075992584229 0.40559318661689758
0.71729099750518799 0.59022527933120728 0.4284701943397522
0.86852884292602539 0.60837626457214355 0.45267945528030396
0.154576376080513 0.63241291046142578 0.43883919715881348
0.20092836022377014 0.67116963863372803 0.46278506517410278
0.31122222542762756 0.70116853713989258 0.42792108654975891
0.44874367117881775 0.72339934110641479 0.43652653694152832
0.60312801599502563 0.74190610647201538 0.45974525809288025
0.75800716876983643 0.75811314582824707 0.48114383220672607
0.90724605321884155 0.77940821647644043 0.50239259004592896
0.17981229722499847 0.80424779653549194 0.48975285887718201
0.23250661790370941 0.84367358684539795 0.5024874210357666
0.34130182862281799 0.87269246578216553 0.4800536036491394
0.48309513926506042 0.89579683542251587 0.49034065008163452
0.63810086250305176 0.91325384378433228 0.51571661233901978
0.79641866683959961 0.92985260486602783 0.53898721933364868
0.94956386089324951 0.95118516683578491 0.5631260871887207
0.014486559666693211 0.041354835033416748 0.14574404060840607
0.016971424221992493 0.070039086043834686 0.24042540788650513
0.10749471187591553 0.065714307129383087 0.34513163566589355
0.27316835522651672 0.053848534822463989 0.37324506044387817
0.42526322603225708 0.056909941136837006 0.39109000563621521
0.57367926836013794 0.066137395799160004 0.41303062438964844
0.72859293222427368 0.077274203300476074 0.43286299705505371
0.023215798661112785 0.11193563789129257 0.24323241412639618
0.036512412130832672 0.14356867969036102 0.30401545763015747
0.13713639974594116 0.14452362060546875 0.35911661386489868
0.29822078347206116 0.13601234555244446 0.40176156163215637
0.4597628116607666 0.14147567749023438 0.42026048898696899
0.60612565279006958 0.15578566491603851 0.44307991862297058
0.76050317287445068 0.16939154267311096 0.46562978625297546
0.070659145712852478 0.1934698075056076 0.33740681409835815
0.10692106932401657 0.22544614970684052 0.36591696739196777
0.18254604935646057 0.25504210591316223 0.37605765461921692
0.32311156392097473 0.25640600919723511 0.43440848588943481
0.49378898739814758 0.26025456190109253 0.46127215027809143
0.64177680015563965 0.28023779392242432 0.47771981358528137
0.79522061347961426 0.29719334840774536 0.50070375204086304
0.14099092781543732 0.30436867475509644 0.40189945697784424
0.17317719757556915 0.34163147211074829 0.44532647728919983
0.27346399426460266 0.3676396906375885 0.4490077793598175
0.37392866611480713 0.40339580178260803 0.4653555154800415
0.52890586853027344 0.41526892781257629 0.50050538778305054
0.68148344755172729 0.4334007203578949 0.51874691247940063
0.83382350206375122 0.45105430483818054 0.54142814874649048
0.17742083966732025 0.44989565014839172 0.48419076204299927
0.20996661484241486 0.49088850617408752 0.5239328145980835
0.31640422344207764 0.51739042997360229 0.52973693609237671
0.43584051728248596 0.54942673444747925 0.52997219562530518
0.5673520565032959 0.58201903104782104 0.542510986328125
0.71873784065246582 0.60023361444473267 0.56402778625488281
0.87257391214370728 0.61751508712768555 0.58339661359786987
0.20033778250217438 0.61291825771331787 0.56465864181518555
0.23818284273147583 0.6562003493309021 0.60692298412322998
0.33385291695594788 0.68926173448562622 0.60803115367889404
0.46710988879203796 0.71873253583908081 0.59258389472961426
0.60009431838989258 0.75332427024841309 0.59104466438293457
0.75996679067611694 0.76915121078491211 0.61111021041870117
0.91473782062530518 0.78799521923065186 0.63063663244247437
0.22420910000801086 0.78369855880737305 0.6353796124458313
0.27068337798118591 0.82801169157028198 0.66264146566390991
0.36672815680503845 0.8651466965675354 0.65591609477996826
0.49751672148704529 0.89794421195983887 0.63854682445526123
0.63471043109893799 0.9273262619972229 0.64054018259048462
0.79970824718475342 0.94073522090911865 0.66336232423782349
0.95355391502380371 0.96246957778930664 0.68578100204467773
0.018675785511732101 0.05535145103931427 0.18909193575382233
0.019756168127059937 0.085768744349479675 0.28558623790740967
0.059792269021272659 0.098560601472854614 0.44357070326805115
0.21989442408084869 0.077012471854686737 0.52973461151123047
0.39633655548095703 0.075029946863651276 0.53504353761672974
0.56916648149490356 0.074908897280693054 0.5603833794593811
0.73165035247802734 0.08082282543182373 0.58047699928283691
0.026322638615965843 0.12833037972450256 0.30360138416290283
0.030801301822066307 0.16285182535648346 0.38504573702812195
0.08366076648235321 0.18759351968765259 0.45928376913070679
0.2494560182094574 0.16409848630428314 0.54354429244995117
0.43223637342453003 0.16056331992149353 0.56609588861465454
0.59999722242355347 0.16667522490024567 0.58997941017150879
0.75924229621887207 0.17841221392154694 0.61131858825683594
0.054521553218364716 0.22044745087623596 0.42977803945541382
0.078202657401561737 0.25788134336471558 0.47417029738426208
0.14475615322589874 0.28950947523117065 0.49900379776954651
0.28482571244239807 0.28775161504745483 0.55381065607070923
0.46163132786750793 0.28274238109588623 0.60835713148117065
0.63635027408599854 0.29125890135765076 0.62826114892959595
0.79538959264755249 0.30599716305732727 0.64770609140396118
0.13389803469181061 0.32352247834205627 0.5100482702255249
0.16263212263584137 0.36279761791229248 0.55785667896270752
0.22619043290615082 0.40495899319648743 0.57832682132720947
0.3443513810634613 0.43284428119659424 0.57075363397598267
0.49458801746368408 0.43716424703598022 0.64347285032272339
0.68010890483856201 0.4420718252658844 0.66934901475906372
0.8355410099029541 0.46129372715950012 0.68626677989959717
0.20785671472549438 0.44770675897598267 0.58923649787902832
0.24015621840953827 0.48939454555511475 0.63127398490905762
0.31507414579391479 0.52998906373977661 0.66108417510986328
0.44799360632896423 0.55771893262863159 0.64964538812637329
0.55513143539428711 0.60124003887176514 0.66814720630645752
0.7146906852722168 0.60719156265258789 0.71402806043624878
0.872417151927948 0.62658596038818359 0.72819328308105469
0.24995604157447815 0.60294753313064575 0.65933626890182495
0.28658914566040039 0.64536392688751221 0.70177382230758667
0.34781673550605774 0.69446766376495361 0.74878716468811035
0.50674688816070557 0.70907062292098999 0.73707389831542969
0.63364690542221069 0.74375319480895996 0.74631351232528687
0.75899666547775269 0.77953213453292847 0.75943797826766968
0.91248089075088501 0.79849159717559814 0.77941060066223145
0.27541360259056091 0.76803451776504517 0.75672072172164917
0.31435582041740417 0.81460237503051758 0.79796212911605835
0.40510931611061096 0.84973162412643433 0.82176965475082397
0.53857916593551636 0.87795478105545044 0.81364476680755615
0.66083419322967529 0.9162595272064209 0.81381732225418091
0.79601377248764038 0.95331615209579468 0.80890363454818726
0.94953960180282593 0.97353339195251465 0.83121192455291748
0.018747277557849884 0.068310707807540894 0.23395875096321106
0.026055131107568741 0.10009118169546127 0.33018207550048828
0.033638238906860352 0.13737370073795319 0.4636877179145813
0.15084441006183624 0.11942782253026962 0.63317269086837769
0.33785244822502136 0.10592974722385406 0.67487794160842896
0.54718506336212158 0.093423180282115936 0.70576512813568115
0.72144633531570435 0.093213357031345367 0.72072720527648926
0.028845902532339096 0.14253833889961243 0.35641279816627502
0.034236550331115723 0.17999376356601715 0.45108801126480103
0.051163181662559509 0.2237631231546402 0.5534900426864624
0.19423414766788483 0.20034052431583405 0.66423505544662476
0.36987727880477905 0.19432747364044189 0.71968752145767212
0.56861287355422974 0.18650107085704803 0.73982840776443481
0.74593037366867065 0.18952105939388275 0.76223838329315186
0.042868565768003464 0.2438029944896698 0.51347994804382324
0.059075567871332169 0.28529062867164612 0.57110476493835449
0.10053425282239914 0.32940468192100525 0.60725158452987671
0.24754519760608673 0.32201880216598511 0.65501159429550171
0.40767118334770203 0.31868806481361389 0.74674767255783081
0.60929268598556519 0.30964043736457825 0.78347057104110718
0.78723150491714478 0.31580385565757751 0.79993945360183716
0.11146636307239532 0.3523203432559967 0.61189192533493042
0.13577622175216675 0.39417475461959839 0.66371279954910278
0.18415449559688568 0.44130030274391174 0.69609135389328003
0.30630981922149658 0.46788302063941956 0.68662816286087036
0.46054059267044067 0.47213530540466309 0.75919318199157715
0.63912194967269897 0.47206887602806091 0.82368487119674683
0.82752358913421631 0.47251719236373901 0.83934468030929565
0.19895137846469879 0.4676288366317749 0.69904434680938721
0.23883271217346191 0.50725859403610229 0.74160325527191162
0.29194545745849609 0.55799299478530884 0.78720307350158691
0.40626975893974304 0.59407728910446167 0.77111303806304932
0.52399325370788574 0.63135617971420288 0.78351706266403198
0.68183684349060059 0.63874757289886475 0.85367405414581299
0.87089169025421143 0.63651865720748901 0.89488255977630615
0.27598077058792114 0.60470235347747803 0.77614778280258179
0.32077145576477051 0.64389753341674805 0.8185049295425415
0.37836059927940369 0.69376963376998901 0.85835105180740356
0.519317626953125 0.71768093109130859 0.85622584819793701
0.6359068751335144 0.75823235511779785 0.86432462930679321
0.74469578266143799 0.8023916482925415 0.87873166799545288
0.90864783525466919 0.81231999397277832 0.93195492029190063
0.34256407618522644 0.75276404619216919 0.8391953706741333
0.37734302878379822 0.80030912160873413 0.8860776424407959
0.47913450002670288 0.83063340187072754 0.90563690662384033
0.59696149826049805 0.86581242084503174 0.917510986328125
0.71226400136947632 0.90585160255432129 0.93920987844467163
0.83960282802581787 0.94005542993545532 0.95540499687194824
0.95990228652954102 0.97711855173110962 0.97442734241485596
0.01847890205681324 0.08192133903503418 0.2844717800617218
0.028000520542263985 0.11730207502841949 0.37929704785346985
0.031700927764177322 0.15735939145088196 0.50929123163223267
0.1017640233039856 0.1667247861623764 0.66430246829986572
0.28893998265266418 0.13694532215595245 0.76568782329559326
0.50035518407821655 0.1239856630563736 0.7896578311920166
0.69145578145980835 0.12103437632322311 0.81022214889526367
0.031508456915616989 0.16024342179298401 0.41939657926559448
0.039015855640172958 0.197712242603302 0.51562470197677612
0.057435624301433563 0.24590486288070679 0.59329724311828613
0.15426141023635864 0.25288248062133789 0.67689353227615356
0.32140985131263733 0.23380643129348755 0.78441035747528076
0.51882141828536987 0.22419853508472443 0.8193734884262085
0.7122310996055603 0.22155386209487915 0.85732108354568481
0.049571946263313293 0.26607716083526611 0.5579180121421814
0.064033597707748413 0.30839711427688599 0.62534493207931519
0.10740863531827927 0.35325232148170471 0.64857953786849976
0.2195601761341095 0.36833095550537109 0.68178504705429077
0.36861076951026917 0.36209729313850403 0.79532432556152344
0.55452734231948853 0.35619589686393738 0.85506653785705566
0.74758648872375488 0.354970782995224 0.88656651973724365
0.11432330310344696 0.37758347392082214 0.66531026363372803
0.14329792559146881 0.41935455799102783 0.70935970544815063
0.20201200246810913 0.46185451745986938 0.72458654642105103
0.2984653115272522 0.50033879280090332 0.73141562938690186
0.4409446120262146 0.5093417763710022 0.80130875110626221
0.59554934501647949 0.51891481876373291 0.87211072444915771
0.78288406133651733 0.51710158586502075 0.91083985567092896
0.21315068006515503 0.4889582097530365 0.74916088581085205
0.25571706891059875 0.53161925077438354 0.77387082576751709
0.32390454411506653 0.5764394998550415 0.79347753524780273
0.41850301623344421 0.61628866195678711 0.8033716082572937
0.53454321622848511 0.65433543920516968 0.825023353099823
0.66079378128051758 0.67801558971405029 0.89415699243545532
0.82150542736053467 0.68801993131637573 0.9400675892829895
0.3233732283115387 0.60697716474533081 0.83041965961456299
0.37862920761108398 0.64629268646240234 0.8423500657081604
0.46063423156738281 0.68692183494567871 0.85621720552444458
0.5512160062789917 0.73184365034103394 0.87878435850143433
0.65698564052581787 0.77927118539810181 0.88863599300384521
0.75626963376998901 0.82360994815826416 0.90750491619110107
0.88302832841873169 0.85531193017959595 0.95591229200363159
0.4242156445980072 0.74071800708770752 0.87323540449142456
0.4867766797542572 0.77608835697174072 0.89380228519439697
0.57272303104400635 0.81605440378189087 0.91085553169250488
0.67979353666305542 0.85585999488830566 0.93353438377380371
0.79822677373886108 0.89795410633087158 0.95395445823669434
0.90382558107376099 0.94205278158187866 0.96769332885742188
0.98728430271148682 0.98913103342056274 0.99461781978607178
