assets/lut/kylerholland kh10.cube
# Created by: G'MIC (https://gmic.eu)
TITLE "kh10"
# LUT size
LUT_3D_SIZE 7
# Data domain
DOMAIN_MIN 0.0 0.0 0.0
DOMAIN_MAX 1.0 1.0 1.0
# LUT data points
0.029434982687234879 0.026632197201251984 0.022109298035502434
0.16836221516132355 0.026540793478488922 0.0089133763685822487
0.35165271162986755 0.030222410336136818 0.0011071896879002452
0.49180716276168823 0.031418129801750183 0.0014645744813606143
0.58171558380126953 0.033429030328989029 0.00093365838984027505
0.65956974029541016 0.037237100303173065 0.0020483876578509808
0.71927732229232788 0.059008114039897919 0.0041061253286898136
0.061639465391635895 0.13548524677753448 0.073413744568824768
0.16954326629638672 0.12715265154838562 0.04489096999168396
0.33242926001548767 0.13879892230033875 0.0028527502436190844
0.46362245082855225 0.15478089451789856 0
0.5621827244758606 0.15622618794441223 0
0.63646537065505981 0.16966867446899414 0
0.71255552768707275 0.16551543772220612 1.4002182979311328e-05
0.12848837673664093 0.28251120448112488 0.152110755443573
0.20766815543174744 0.27302855253219604 0.14334593713283539
0.38415136933326721 0.26667428016662598 0.030233494937419891
0.52801376581192017 0.29485782980918884 0.0055542290210723877
0.6335214376449585 0.3159233033657074 0.0019648682791739702
0.70934975147247314 0.33243277668952942 2.9320810426725075e-05
0.79249846935272217 0.34979346394538879 0.0073858075775206089
0.16641382873058319 0.39948928356170654 0.19853949546813965
0.22065971791744232 0.40719634294509888 0.18600925803184509
0.39801174402236938 0.39894017577171326 0.14933775365352631
0.54205840826034546 0.40824329853057861 0.042739283293485641
0.6627734899520874 0.42728835344314575 0.018100304529070854
0.75726169347763062 0.445545494556427 0.0088781770318746567
0.85276937484741211 0.47282695770263672 0.055188901722431183
0.1852215975522995 0.49748867750167847 0.21100999414920807
0.23025037348270416 0.5234186053276062 0.19718758761882782
0.40026751160621643 0.51746344566345215 0.18173094093799591
0.54072755575180054 0.52061104774475098 0.10260502249002457
0.66375774145126343 0.52731448411941528 0.043014600872993469
0.77516549825668335 0.54277890920639038 0.030824489891529083
0.87086284160614014 0.57357263565063477 0.10037874430418015
0.17607006430625916 0.60635387897491455 0.20587441325187683
0.21160838007926941 0.63998556137084961 0.18791276216506958
0.39501535892486572 0.64075213670730591 0.16435129940509796
0.53970944881439209 0.63119238615036011 0.11175550520420074
0.66029113531112671 0.63507407903671265 0.064313463866710663
0.78183478116989136 0.64270526170730591 0.049691773951053619
0.87392216920852661 0.66667383909225464 0.13640697300434113
0.13487257063388824 0.74150151014328003 0.19897240400314331
0.20333664119243622 0.76476317644119263 0.1587538868188858
0.38845998048782349 0.77251940965652466 0.12289494276046753
0.54008090496063232 0.74225378036499023 0.083576127886772156
0.66190433502197266 0.74468165636062622 0.052490998059511185
0.78509294986724854 0.76001077890396118 0.042139705270528793
0.87160301208496094 0.77604365348815918 0.1288638710975647
0.0011286118533462286 0.049604304134845734 0.064888328313827515
0.12636654078960419 0.060696516185998917 0.11897131055593491
0.38505223393440247 0.04161403700709343 0.10009940713644028
0.53832417726516724 0.03716176375746727 0.078602001070976257
0.64480686187744141 0.019024629145860672 0.063273981213569641
0.73339629173278809 0.016048161312937737 0.049522817134857178
0.82411569356918335 0.01616363599896431 0.042381435632705688
0.0089781517162919044 0.13756264746189117 0.12631358206272125
0.11472447961568832 0.1521478146314621 0.14762361347675323
0.33918663859367371 0.15970447659492493 0.1229826956987381
0.50588816404342651 0.15838687121868134 0.088800139725208282
0.63128495216369629 0.15018458664417267 0.069550260901451111
0.70739972591400146 0.14661087095737457 0.056883957237005234
0.81362378597259521 0.13862854242324829 0.051619242876768112
0.059402197599411011 0.28678065538406372 0.20434190332889557
0.1535412073135376 0.29701370000839233 0.20572282373905182
0.37021559476852417 0.30102109909057617 0.17743562161922455
0.53200876712799072 0.30958133935928345 0.10011303424835205
0.64962202310562134 0.32354086637496948 0.065812163054943085
0.73512500524520874 0.33607304096221924 0.056854575872421265
0.81296235322952271 0.35127359628677368 0.060358025133609772
0.13534177839756012 0.41142061352729797 0.2475913017988205
0.18982969224452972 0.43037661910057068 0.25178819894790649
0.38094079494476318 0.42830765247344971 0.2326170802116394
0.54277551174163818 0.43472898006439209 0.15929839015007019
0.6685105562210083 0.45060795545578003 0.10770656913518906
0.76991432905197144 0.46619760990142822 0.080755136907100677
0.85935705900192261 0.48671144247055054 0.11601641774177551
0.15375734865665436 0.52072799205780029 0.2730289101600647
0.1948285847902298 0.54436802864074707 0.2652890682220459
0.37685400247573853 0.56301361322402954 0.25249364972114563
0.53713440895080566 0.55112051963806152 0.20469391345977783
0.66604113578796387 0.56018906831741333 0.16216248273849487
0.78441041707992554 0.57541745901107788 0.14060138165950775
0.88067919015884399 0.59715861082077026 0.17233355343341827
0.1489550918340683 0.63178545236587524 0.27412217855453491
0.18790332973003387 0.66437435150146484 0.26985988020896912
0.3631531298160553 0.69115191698074341 0.25444647669792175
0.53937917947769165 0.66717267036437988 0.21798129379749298
0.66649967432022095 0.67131984233856201 0.20039565861225128
0.79132813215255737 0.67888408899307251 0.18218524754047394
0.88280743360519409 0.68989622592926025 0.20536673069000244
0.10808043926954269 0.76651030778884888 0.27833321690559387
0.16708898544311523 0.78950309753417969 0.26059037446975708
0.35935166478157043 0.82606148719787598 0.25348851084709167
0.54619777202606201 0.80883455276489258 0.23481312394142151
0.67186671495437622 0.79452401399612427 0.21502615511417389
0.7932441234588623 0.79434716701507568 0.20370180904865265
0.88116288185119629 0.80937188863754272 0.24196992814540863
0 0.085779674351215363 0.10896057635545731
0.042766720056533813 0.12475600838661194 0.18411950767040253
0.31282821297645569 0.11262031644582748 0.25410562753677368
0.49721211194992065 0.097166813910007477 0.25885015726089478
0.6239202618598938 0.087359577417373657 0.2487119734287262
0.72844356298446655 0.06425139307975769 0.23450993001461029
0.83135700225830078 0.060008764266967773 0.22582603991031647
0 0.16079491376876831 0.18046851456165314
0.051195301115512848 0.18710951507091522 0.22230121493339539
0.29096958041191101 0.20726771652698517 0.29028937220573425
0.49764469265937805 0.20514102280139923 0.28487133979797363
0.65146404504776001 0.19694969058036804 0.26571735739707947
0.76050394773483276 0.18345624208450317 0.25378751754760742
0.87543070316314697 0.16804105043411255 0.24137075245380402
0.0054146111942827702 0.28863817453384399 0.27400079369544983
0.053259052336215973 0.31549209356307983 0.30228278040885925
0.29918205738067627 0.35004743933677673 0.35476574301719666
0.52139109373092651 0.36387255787849426 0.3365684449672699
0.66863065958023071 0.37280511856079102 0.31735086441040039
0.77856236696243286 0.37456908822059631 0.30239146947860718
0.88702678680419922 0.37764403223991394 0.29308685660362244
0.029083924368023872 0.41710174083709717 0.32845458388328552
0.075802914798259735 0.44236552715301514 0.34410083293914795
0.32887399196624756 0.4790281355381012 0.37938857078552246
0.53994488716125488 0.4883677065372467 0.36756229400634766
0.67809772491455078 0.50755220651626587 0.34661093354225159
0.78999418020248413 0.51965630054473877 0.32414519786834717
0.88773649930953979 0.53324633836746216 0.32415571808815002
0.064580254256725311 0.53543770313262939 0.35672023892402649
0.11359398066997528 0.5594862699508667 0.36432287096977234
0.32081928849220276 0.60313260555267334 0.38984265923500061
0.54052734375 0.60329335927963257 0.38613647222518921
0.68096429109573364 0.61063975095748901 0.37897020578384399
0.80207830667495728 0.6267777681350708 0.36015942692756653
0.90218615531921387 0.64110589027404785 0.35563510656356812
0.079268179833889008 0.65204566717147827 0.36950597167015076
0.12290725857019424 0.67925500869750977 0.37666434049606323
0.31137862801551819 0.72108346223831177 0.39597406983375549
0.53714275360107422 0.72645717859268188 0.39209863543510437
0.68050515651702881 0.71426856517791748 0.38828784227371216
0.81120741367340088 0.72519797086715698 0.38994210958480835
0.91049355268478394 0.73680657148361206 0.38729855418205261
0.059237372130155563 0.7841341495513916 0.37305393815040588
0.087784923613071442 0.81243729591369629 0.37631919980049133
0.30336076021194458 0.851695716381073 0.40138024091720581
0.54342752695083618 0.87399125099182129 0.40073052048683167
0.68754225969314575 0.85022950172424316 0.3980286717414856
0.81433606147766113 0.84432196617126465 0.39881470799446106
0.91204571723937988 0.85682803392410278 0.43965163826942444
0 0.12095241248607635 0.15262532234191895
0.026865057647228241 0.16405735909938812 0.21930761635303497
0.27315494418144226 0.18099449574947357 0.33962497115135193
0.44943049550056458 0.14844447374343872 0.36802875995635986
0.56463706493377686 0.13605490326881409 0.37555801868438721
0.67369639873504639 0.12632061541080475 0.37634220719337463
0.78785502910614014 0.11440428346395493 0.37291276454925537
0 0.19169139862060547 0.22234490513801575
0.03093109093606472 0.21656088531017303 0.26159965991973877
0.21411457657814026 0.25552067160606384 0.38713744282722473
0.43766745924949646 0.25088426470756531 0.40149223804473877
0.5957101583480835 0.22611185908317566 0.4097461998462677
0.71501898765563965 0.21357391774654388 0.40973368287086487
0.83904361724853516 0.19142630696296692 0.39979639649391174
0 0.30144032835960388 0.32294517755508423
0.022436598315834999 0.32216635346412659 0.34996652603149414
0.23907671868801117 0.38083598017692566 0.43830662965774536
0.4890923798084259 0.39233982563018799 0.47555050253868103
0.66096031665802002 0.3912818431854248 0.46262452006340027
0.79439133405685425 0.38745546340942383 0.45113676786422729
0.90707623958587646 0.379841148853302 0.43620306253433228
6.4625460254319478e-06 0.41037988662719727 0.39874577522277832
0.011957879178225994 0.43437495827674866 0.41707274317741394
0.2535339891910553 0.49184855818748474 0.4876677393913269
0.50620931386947632 0.52452272176742554 0.52670943737030029
0.68644243478775024 0.5340726375579834 0.4988274872303009
0.81089448928833008 0.5432666540145874 0.48931774497032166
0.91950637102127075 0.54679054021835327 0.47343537211418152
0.0044683567248284817 0.52462118864059448 0.43373790383338928
0.031244508922100067 0.55848890542984009 0.45193254947662354
0.25663435459136963 0.60685896873474121 0.49637115001678467
0.53308898210525513 0.64699405431747437 0.53087639808654785
0.68844497203826904 0.64460325241088867 0.52698826789855957
0.81270647048950195 0.66148442029953003 0.51401567459106445
0.91755974292755127 0.67157787084579468 0.50004708766937256
0.014964189380407333 0.6559746265411377 0.45102432370185852
0.046643275767564774 0.68141382932662964 0.46131384372711182
0.24836978316307068 0.72556412220001221 0.50099730491638184
0.53351312875747681 0.76471906900405884 0.53567200899124146
0.68857121467590332 0.75307631492614746 0.53748458623886108
0.82338380813598633 0.75973546504974365 0.54351532459259033
0.92583608627319336 0.77225524187088013 0.5350337028503418
0.0045823641121387482 0.78561216592788696 0.46272790431976318
0.035762757062911987 0.81645393371582031 0.46854785084724426
0.24921269714832306 0.86447417736053467 0.51169180870056152
0.52135521173477173 0.89020615816116333 0.53781014680862427
0.69418823719024658 0.90297096967697144 0.54555928707122803
0.82688701152801514 0.88646912574768066 0.54687690734863281
0.92593371868133545 0.88664793968200684 0.57473993301391602
0 0.14995922148227692 0.1878850907087326
0.021628569811582565 0.19475173950195312 0.25373482704162598
0.20085263252258301 0.241899773478508 0.41760116815567017
0.43511682748794556 0.19975148141384125 0.4308832585811615
0.53238415718078613 0.18074706196784973 0.45438951253890991
0.63521981239318848 0.16496360301971436 0.46730491518974304
0.73079895973205566 0.14939115941524506 0.47308120131492615
0 0.20759923756122589 0.24661299586296082
0.034406937658786774 0.24225090444087982 0.30238324403762817
0.16292418539524078 0.2979053258895874 0.42316100001335144
0.4189668595790863 0.27707764506340027 0.47662001848220825
0.55807733535766602 0.26357641816139221 0.49747231602668762
0.66165655851364136 0.24148666858673096 0.50565826892852783
0.78736823797225952 0.23014099895954132 0.514057457447052
0 0.31936818361282349 0.36273515224456787
0.015165755525231361 0.33850383758544922 0.38921862840652466
0.21486732363700867 0.40373167395591736 0.48679649829864502
0.44887503981590271 0.41527086496353149 0.60276144742965698
0.61950170993804932 0.41706410050392151 0.56489109992980957
0.74965566396713257 0.40707847476005554 0.57045149803161621
0.88617223501205444 0.39505574107170105 0.56286990642547607
0 0.42483580112457275 0.45441427826881409
0.0069537144154310226 0.44707760214805603 0.47763019800186157
0.22423277795314789 0.50758868455886841 0.56885534524917603
0.47885149717330933 0.54660028219223022 0.61820536851882935
0.67277032136917114 0.54967617988586426 0.61746698617935181
0.81801187992095947 0.54946380853652954 0.60839563608169556
0.94722533226013184 0.54437482357025146 0.59331494569778442
0 0.52297794818878174 0.50633352994918823
0.019230188801884651 0.55517286062240601 0.53071177005767822
0.21155999600887299 0.61440587043762207 0.59105956554412842
0.50386005640029907 0.65170580148696899 0.63870483636856079
0.68897134065628052 0.67185550928115845 0.65398025512695312
0.82976162433624268 0.67912209033966064 0.63338017463684082
0.94098609685897827 0.68566811084747314 0.62334197759628296
0.00095051783137023449 0.63736242055892944 0.5285601019859314
0.022393438965082169 0.67423158884048462 0.5459667444229126
0.20995305478572845 0.72728431224822998 0.58851903676986694
0.51193273067474365 0.77155077457427979 0.64179748296737671
0.69276458024978638 0.78246146440505981 0.65760093927383423
0.83449792861938477 0.78501272201538086 0.66039866209030151
0.94097453355789185 0.79812246561050415 0.64912194013595581
0 0.76680725812911987 0.5396265983581543
0.015547748655080795 0.81038498878479004 0.55054998397827148
0.22147402167320251 0.86471349000930786 0.59417986869812012
0.51316690444946289 0.90954935550689697 0.64813059568405151
0.696830153465271 0.92897659540176392 0.66429430246353149
0.84062421321868896 0.91789364814758301 0.66894179582595825
0.94322854280471802 0.90914219617843628 0.68279129266738892
0 0.1864476352930069 0.23253025114536285
0.029349995777010918 0.23149469494819641 0.30161628127098083
0.14636120200157166 0.28571563959121704 0.44389760494232178
0.41062876582145691 0.26357242465019226 0.5014835000038147
0.5320056676864624 0.22152955830097198 0.5195128321647644
0.61303550004959106 0.20265685021877289 0.54795843362808228
0.70468819141387939 0.19374880194664001 0.57065850496292114
0.00045198926818557084 0.24472334980964661 0.29742008447647095
0.037591584026813507 0.27931725978851318 0.35226204991340637
0.13501852750778198 0.33176246285438538 0.45771136879920959
0.37885177135467529 0.32246938347816467 0.60968190431594849
0.55003815889358521 0.28753483295440674 0.56660169363021851
0.64244568347930908 0.26902440190315247 0.59018725156784058
0.73805004358291626 0.25070813298225403 0.60619890689849854
0 0.34249776601791382 0.40398263931274414
0.027170997112989426 0.37347382307052612 0.4596007764339447
0.20987606048583984 0.43222695589065552 0.54313582181930542
0.40797507762908936 0.44557356834411621 0.70269763469696045
0.60800951719284058 0.43160107731819153 0.65423476696014404
0.70837897062301636 0.43153607845306396 0.6633496880531311
0.82416790723800659 0.4176601767539978 0.67708545923233032
0 0.44157367944717407 0.51123034954071045
0.0050578545778989792 0.46480786800384521 0.54274493455886841
0.22270798683166504 0.53284049034118652 0.63737571239471436
0.45394882559776306 0.57066601514816284 0.70005601644515991
0.65221583843231201 0.56678050756454468 0.73330473899841309
0.77612674236297607 0.56899487972259521 0.72273784875869751
0.9048541784286499 0.56142699718475342 0.71959918737411499
0 0.53958570957183838 0.58149117231369019
0.0065970178693532944 0.56302189826965332 0.6057012677192688
0.21645109355449677 0.62960547208786011 0.69550079107284546
0.48335999250411987 0.6682741641998291 0.73188114166259766
0.67876255512237549 0.68866574764251709 0.76481503248214722
0.83123147487640381 0.68995970487594604 0.75005877017974854
0.95249754190444946 0.68821859359741211 0.74133622646331787
0 0.63899827003479004 0.61451607942581177
0.014806739985942841 0.67274993658065796 0.6399611234664917
0.19667153060436249 0.73743921518325806 0.70110559463500977
0.48829004168510437 0.77268236875534058 0.73915666341781616
0.68995922803878784 0.79813003540039062 0.77077507972717285
0.84799110889434814 0.80967384576797485 0.77548092603683472
0.95116508007049561 0.81574898958206177 0.76425480842590332
0 0.75888967514038086 0.62690949440002441
0.0047418181784451008 0.8005138635635376 0.64182585477828979
0.2047477662563324 0.86840558052062988 0.68852835893630981
0.49130210280418396 0.91403728723526001 0.73854696750640869
0.69010329246520996 0.9414176344871521 0.77307933568954468
0.85494983196258545 0.94785338640213013 0.78656435012817383
0.95682501792907715 0.92978489398956299 0.79441332817077637
0 0.2240050882101059 0.28441101312637329
0.035499557852745056 0.26432046294212341 0.34842664003372192
0.12342031300067902 0.3241998553276062 0.47508585453033447
0.36809021234512329 0.31374827027320862 0.64169549942016602
0.51166856288909912 0.2926889955997467 0.57168710231781006
0.61386018991470337 0.24532553553581238 0.61079990863800049
0.69989866018295288 0.22205528616905212 0.64007526636123657
0.0022424287162721157 0.28306317329406738 0.3571479320526123
0.054207790642976761 0.31765991449356079 0.40740230679512024
0.13127335906028748 0.3644716739654541 0.50980627536773682
0.33258458971977234 0.36576059460639954 0.7087973952293396
0.53817534446716309 0.33644366264343262 0.63952666521072388
0.63496774435043335 0.30354943871498108 0.65372663736343384
0.73519867658615112 0.28154417872428894 0.67492491006851196
0.00022520177299156785 0.37007960677146912 0.46174046397209167
0.057123102247714996 0.41450268030166626 0.52568906545639038
0.21360792219638824 0.46456122398376465 0.61094492673873901
0.38503086566925049 0.47472551465034485 0.78101468086242676
0.60486525297164917 0.45004123449325562 0.77409118413925171
0.70283263921737671 0.44673460721969604 0.73690551519393921
0.79021555185317993 0.43610015511512756 0.75294703245162964
0 0.45938584208488464 0.56080359220504761
0.01567738875746727 0.49872663617134094 0.63064724206924438
0.24989694356918335 0.56353485584259033 0.71183353662490845
0.44793576002120972 0.59258133172988892 0.79254961013793945
0.64903771877288818 0.57928645610809326 0.88211309909820557
0.76590430736541748 0.58279931545257568 0.81004124879837036
0.86623263359069824 0.57927429676055908 0.82603913545608521
0 0.55732220411300659 0.65975850820541382
0.0053030876442790031 0.58922064304351807 0.7103191614151001
0.24434378743171692 0.65713703632354736 0.79442828893661499
0.46250802278518677 0.69489431381225586 0.82584530115127563
0.66392189264297485 0.70574170351028442 0.88515979051589966
0.80901879072189331 0.70429843664169312 0.86210727691650391
0.90887099504470825 0.70528048276901245 0.86313962936401367
0 0.65601176023483276 0.70694887638092041
0.021914074197411537 0.68647861480712891 0.74142360687255859
0.23365430533885956 0.75228989124298096 0.82763344049453735
0.4746377170085907 0.78661584854125977 0.86096835136413574
0.66976577043533325 0.81385868787765503 0.87937939167022705
0.84397691488265991 0.82326912879943848 0.9067797064781189
0.95722335577011108 0.82514059543609619 0.89530956745147705
0 0.77782654762268066 0.72640985250473022
0.0085250707343220711 0.81360328197479248 0.76009517908096313
0.23509933054447174 0.86903458833694458 0.81548887491226196
0.48248228430747986 0.9109351634979248 0.85283899307250977
0.6719544529914856 0.93898868560791016 0.88185244798660278
0.85271584987640381 0.95952516794204712 0.91069167852401733
0.97989648580551147 0.96289658546447754 0.92412561178207397
