assets/lut/kylerholland kh01.cube
# Created by: G'MIC (https://gmic.eu)
TITLE "kh1"
# LUT size
LUT_3D_SIZE 5
# Data domain
DOMAIN_MIN 0.0 0.0 0.0
DOMAIN_MAX 1.0 1.0 1.0
# LUT data points
0.00061627558898180723 0.0041513927280902863 0.027335371822118759
0.19554366171360016 0.0062476363964378834 0.0087558375671505928
0.4133586585521698 0.003843838581815362 0.0012486925115808845
0.63352662324905396 0.0092441635206341743 0.0018449671333655715
0.79495733976364136 0.012556951493024826 0.0026345495134592056
0.070024676620960236 0.19135989248752594 0.14250822365283966
0.26366147398948669 0.17004750669002533 0.035573653876781464
0.45419815182685852 0.1925864964723587 0.0078268013894557953
0.631450355052948 0.21704639494419098 0
0.76454490423202515 0.24695245921611786 0
0.17224995791912079 0.44302076101303101 0.22796837985515594
0.32800227403640747 0.4101429283618927 0.20775347948074341
0.52030575275421143 0.39860495924949646 0.066190756857395172
0.71299219131469727 0.42391100525856018 0.014686464332044125
0.85066604614257812 0.45875087380409241 0.017908986657857895
0.19633591175079346 0.71417301893234253 0.19766217470169067
0.35433349013328552 0.69329273700714111 0.19089342653751373
0.53248268365859985 0.65592795610427856 0.15725314617156982
0.70945948362350464 0.65545368194580078 0.098366998136043549
0.85552585124969482 0.67326551675796509 0.11037148535251617
0.21814651787281036 0.89439558982849121 0.16836598515510559
0.3859250545501709 0.87656623125076294 0.16305510699748993
0.56704318523406982 0.84004992246627808 0.15822049975395203
0.73395133018493652 0.82812631130218506 0.15603011846542358
0.86089587211608887 0.83427667617797852 0.21253000199794769
0 0.038951516151428223 0.087507002055644989
0.13876338303089142 0.074497029185295105 0.18262688815593719
0.45452630519866943 0.048688896000385284 0.17855650186538696
0.71880191564559937 0.018978208303451538 0.15650351345539093
0.851226806640625 0.0068306718021631241 0.15258310735225677
0.0041082645766437054 0.20043918490409851 0.21360757946968079
0.17172105610370636 0.24191977083683014 0.26915138959884644
0.49187609553337097 0.24513104557991028 0.23600319027900696
0.75297468900680542 0.2433164119720459 0.20081335306167603
0.90883880853652954 0.25184410810470581 0.1879616379737854
0.085577867925167084 0.4564792811870575 0.32404002547264099
0.29142150282859802 0.48282775282859802 0.33387556672096252
0.53224080801010132 0.47360792756080627 0.30645105242729187
0.74673199653625488 0.49705374240875244 0.25984027981758118
0.88230448961257935 0.52658134698867798 0.25200524926185608
0.16892774403095245 0.7320520281791687 0.3497786819934845
0.33535677194595337 0.74511730670928955 0.34946563839912415
0.55679863691329956 0.71991854906082153 0.3393714427947998
0.73837578296661377 0.71365606784820557 0.34185346961021423
0.87698417901992798 0.72539931535720825 0.34080955386161804
0.20563474297523499 0.9079936146736145 0.36295032501220703
0.38920575380325317 0.91056394577026367 0.36696693301200867
0.59365940093994141 0.89522945880889893 0.36524760723114014
0.75547868013381958 0.86531543731689453 0.37336573004722595
0.88503706455230713 0.86460632085800171 0.38102445006370544
0 0.098307639360427856 0.14960958063602448
0.002650032751262188 0.16878731548786163 0.24818068742752075
0.31967085599899292 0.17149385809898376 0.35655218362808228
0.5927729606628418 0.14019058644771576 0.4018363356590271
0.8073190450668335 0.1105373278260231 0.40874847769737244
5.8701458328869194e-05 0.23250362277030945 0.27666568756103516
0.065708920359611511 0.29411220550537109 0.37121215462684631
0.37607032060623169 0.31617730855941772 0.4772925078868866
0.70208758115768433 0.30357494950294495 0.47061949968338013
0.91672950983047485 0.27879384160041809 0.45528173446655273
0.0010807261569425464 0.44043049216270447 0.43782716989517212
0.16964346170425415 0.50658398866653442 0.52010136842727661
0.45793864130973816 0.54585272073745728 0.58013862371444702
0.76646721363067627 0.55241364240646362 0.53808343410491943
0.91699165105819702 0.56454086303710938 0.51744133234024048
0.057300999760627747 0.72327327728271484 0.51590657234191895
0.27881479263305664 0.75185823440551758 0.56063336133956909
0.56007212400436401 0.7739330530166626 0.59383314847946167
0.76531577110290527 0.76154416799545288 0.59991413354873657
0.90087407827377319 0.77447640895843506 0.58766418695449829
0.15630494058132172 0.90819400548934937 0.55665069818496704
0.36361068487167358 0.92071330547332764 0.59675204753875732
0.59564441442489624 0.92981523275375366 0.61396646499633789
0.7866441011428833 0.90833532810211182 0.61714619398117065
0.91016560792922974 0.90331470966339111 0.62659972906112671
0 0.15830770134925842 0.21124838292598724
0 0.2163175493478775 0.29857519268989563
0.15435558557510376 0.28964933753013611 0.49477136135101318
0.52740895748138428 0.23462373018264771 0.56401193141937256
0.71677541732788086 0.19635148346424103 0.61625790596008301
0 0.27477934956550598 0.34080013632774353
0.024906398728489876 0.33230328559875488 0.44538745284080505
0.24874638020992279 0.39861127734184265 0.63981491327285767
0.61968255043029785 0.36889702081680298 0.66955339908599854
0.80973726511001587 0.35241395235061646 0.69374024868011475
0 0.46164730191230774 0.55611300468444824
0.10756604373455048 0.53664094209671021 0.66974550485610962
0.39280763268470764 0.59621727466583252 0.722747802734375
0.71250373125076294 0.59672003984451294 0.760123610496521
0.88537603616714478 0.59254854917526245 0.76131606101989746
0.01347980834543705 0.72666686773300171 0.71139377355575562
0.21314780414104462 0.75131863355636597 0.7456023097038269
0.50286602973937988 0.77735388278961182 0.77610105276107788
0.77712708711624146 0.79857468605041504 0.80464762449264526
0.9254041314125061 0.79988580942153931 0.78778046369552612
0.14081087708473206 0.88348400592803955 0.71858739852905273
0.32601442933082581 0.90787023305892944 0.75454956293106079
0.56342321634292603 0.92978626489639282 0.78701353073120117
0.79527276754379272 0.94180536270141602 0.81140929460525513
0.9263189435005188 0.92679935693740845 0.81740075349807739
0 0.22039234638214111 0.28323137760162354
0.002033173805102706 0.26776370406150818 0.36961543560028076
0.089960552752017975 0.35010808706283569 0.57156264781951904
0.47065553069114685 0.3259367048740387 0.75467598438262939
0.72358518838882446 0.25669535994529724 0.74570661783218384
0 0.32058513164520264 0.42201364040374756
0.034279152750968933 0.38285791873931885 0.53059512376785278
0.1842130571603775 0.46067774295806885 0.70756101608276367
0.58478504419326782 0.42186230421066284 0.85176986455917358
0.79540127515792847 0.38685262203216553 0.80979061126708984
0 0.5011143684387207 0.6697266697883606
0.075068756937980652 0.57985460758209229 0.76306271553039551
0.31216311454772949 0.63936948776245117 0.83959692716598511
0.69408154487609863 0.62042182683944702 0.92765915393829346
0.85023593902587891 0.62999004125595093 0.86956989765167236
0.0084081310778856277 0.73721486330032349 0.85020160675048828
0.18269829452037811 0.76254010200500488 0.87126666307449341
0.44334843754768372 0.79727113246917725 0.89120352268218994
0.73601043224334717 0.81807887554168701 0.91428202390670776
0.90499758720397949 0.82037985324859619 0.9086378812789917
0.14229902625083923 0.87742012739181519 0.85486108064651489
0.3250679075717926 0.89790439605712891 0.87715590000152588
0.55336928367614746 0.91463953256607056 0.89993894100189209
0.79031044244766235 0.93723213672637939 0.92257964611053467
0.94079554080963135 0.94969958066940308 0.94079107046127319
