assets/lut/kylerholland kh08.cube
# Created by: G'MIC (https://gmic.eu)
TITLE "kh8"
# LUT size
LUT_3D_SIZE 7
# Data domain
DOMAIN_MIN 0.0 0.0 0.0
DOMAIN_MAX 1.0 1.0 1.0
# LUT data points
0.020670976489782333 0.012675984762609005 0.013850388117134571
0.11386703699827194 0.023038797080516815 0.011756328865885735
0.24380159378051758 0.044108595699071884 0.0067854039371013641
0.36363965272903442 0.069609098136425018 0.0074959401972591877
0.50408756732940674 0.094876311719417572 0.011720126494765282
0.64173728227615356 0.11984258890151978 0.013121720403432846
0.78945934772491455 0.15159769356250763 0.016311256214976311
0.03785189613699913 0.097091525793075562 0.023117365315556526
0.14415851235389709 0.10707513988018036 0.025649052113294601
0.27406680583953857 0.13542540371417999 0.024619892239570618
0.40682798624038696 0.17533160746097565 0.027163352817296982
0.54206973314285278 0.20620220899581909 0.026590384542942047
0.67557352781295776 0.22871828079223633 0.029744571074843407
0.81765919923782349 0.25210851430892944 0.029960183426737785
0.068286538124084473 0.22488343715667725 0.051027830690145493
0.17225180566310883 0.25557538866996765 0.039895344525575638
0.31766888499259949 0.2572019100189209 0.039954870939254761
0.4422614574432373 0.2619832456111908 0.042901370674371719
0.58261758089065552 0.30236175656318665 0.041583027690649033
0.72885209321975708 0.34811469912528992 0.040697388350963593
0.88050550222396851 0.39390850067138672 0.042898859828710556
0.078727409243583679 0.34729313850402832 0.063305050134658813
0.17562226951122284 0.36812719702720642 0.061642501503229141
0.35602506995201111 0.4318307638168335 0.053405851125717163
0.49245598912239075 0.41246926784515381 0.056217476725578308
0.61918926239013672 0.39238718152046204 0.064144492149353027
0.76572126150131226 0.4363960325717926 0.067026324570178986
0.919045090675354 0.47878193855285645 0.055866584181785583
0.10573263466358185 0.4877677857875824 0.08288305252790451
0.1780436784029007 0.49105381965637207 0.082443073391914368
0.35348507761955261 0.55923193693161011 0.07874838262796402
0.54767435789108276 0.61837786436080933 0.07728857547044754
0.6775062084197998 0.57794982194900513 0.074424013495445251
0.80944263935089111 0.54156458377838135 0.079251155257225037
0.95568674802780151 0.56897711753845215 0.079445123672485352
0.13082526624202728 0.62548166513442993 0.096351400017738342
0.19536837935447693 0.62925952672958374 0.097276605665683746
0.34194415807723999 0.67931723594665527 0.098406575620174408
0.54722148180007935 0.76292300224304199 0.093811482191085815
0.75323241949081421 0.80451381206512451 0.091445252299308777
0.87537878751754761 0.75050419569015503 0.09403497725725174
0.9932064414024353 0.69941079616546631 0.11220347136259079
0.14654667675495148 0.7736247181892395 0.11489814519882202
0.21149013936519623 0.77885276079177856 0.11279641091823578
0.34666585922241211 0.80447185039520264 0.12607108056545258
0.52601432800292969 0.8889126181602478 0.11547882854938507
0.76230204105377197 0.9740300178527832 0.1116093173623085
0.95859885215759277 0.97500342130661011 0.11164908111095428
0.99983412027359009 0.90768325328826904 0.13628347218036652
0.020098816603422165 0.0089224269613623619 0.1048189178109169
0.10092134773731232 0.010251871310174465 0.088718920946121216
0.23121502995491028 0.01611347496509552 0.074515417218208313
0.36398723721504211 0.022940706461668015 0.05397440493106842
0.50547629594802856 0.040579404681921005 0.037256922572851181
0.64447307586669922 0.059707179665565491 0.032021824270486832
0.79108965396881104 0.084282860159873962 0.025674318894743919
0.027006620541214943 0.068189375102519989 0.082043096423149109
0.13913993537425995 0.11405766755342484 0.10820258408784866
0.27056035399436951 0.13687872886657715 0.10408901423215866
0.39221706986427307 0.15762804448604584 0.10266152024269104
0.53141540288925171 0.18913054466247559 0.10914728790521622
0.67071294784545898 0.2106488049030304 0.10655577480792999
0.81587976217269897 0.23953713476657867 0.1101982593536377
0.049532152712345123 0.20111709833145142 0.10075780749320984
0.16458366811275482 0.24519143998622894 0.12548688054084778
0.3139539361000061 0.26863744854927063 0.13021737337112427
0.44150435924530029 0.28671917319297791 0.13048164546489716
0.58283942937850952 0.32693096995353699 0.13203082978725433
0.72749823331832886 0.36504146456718445 0.1284802258014679
0.86930972337722778 0.39374759793281555 0.13369771838188171
0.072005040943622589 0.33627167344093323 0.12791387736797333
0.18212424218654633 0.36885225772857666 0.1486077755689621
0.33918002247810364 0.42024785280227661 0.1486443430185318
0.48599156737327576 0.41779938340187073 0.14571836590766907
0.61858326196670532 0.41233193874359131 0.1486223042011261
0.76567775011062622 0.45784914493560791 0.14892397820949554
0.91917866468429565 0.50203043222427368 0.14350946247577667
0.10654808580875397 0.48516634106636047 0.15389588475227356
0.18887105584144592 0.50333023071289062 0.15940883755683899
0.3371831476688385 0.54170125722885132 0.16887328028678894
0.53216946125030518 0.60966581106185913 0.16341507434844971
0.67492908239364624 0.58466047048568726 0.16253407299518585
0.80669254064559937 0.55685222148895264 0.16862152516841888
0.95644021034240723 0.59520471096038818 0.16717952489852905
0.12244594842195511 0.62705188989639282 0.17027878761291504
0.21507111191749573 0.64849197864532471 0.18311920762062073
0.34894973039627075 0.67558491230010986 0.1921905130147934
0.52236330509185791 0.74581646919250488 0.18398794531822205
0.74403434991836548 0.80691349506378174 0.17937390506267548
0.86534619331359863 0.75532048940658569 0.18592274188995361
0.9900963306427002 0.71236979961395264 0.1964741051197052
0.13528619706630707 0.77031111717224121 0.18025827407836914
0.22985728085041046 0.79252451658248901 0.19869981706142426
0.35674330592155457 0.80861610174179077 0.2114441990852356
0.52454310655593872 0.86956977844238281 0.21079953014850616
0.73881453275680542 0.96189093589782715 0.19846206903457642
0.94535368680953979 0.98403334617614746 0.20577308535575867
0.99992245435714722 0.91764551401138306 0.22867268323898315
0.017851362004876137 0.012385244481265545 0.25551936030387878
0.10867659747600555 0.0088822459802031517 0.24115675687789917
0.1912560760974884 0.010358504019677639 0.2022557258605957
0.3281731903553009 0.011880462989211082 0.20947204530239105
0.48436930775642395 0.016060562804341316 0.18105825781822205
0.64394253492355347 0.019587423652410507 0.14466205239295959
0.79627317190170288 0.032285112887620926 0.1132332906126976
0.021778255701065063 0.081146419048309326 0.2268671840429306
0.1384613960981369 0.1097971573472023 0.2567407488822937
0.24311117827892303 0.11511598527431488 0.23160213232040405
0.38174086809158325 0.11670450121164322 0.21909910440444946
0.52517449855804443 0.12800361216068268 0.18898937106132507
0.67025363445281982 0.13071697950363159 0.15939325094223022
0.81761771440505981 0.1515241414308548 0.14268220961093903
0.032775923609733582 0.14813028275966644 0.169793501496315
0.1554444283246994 0.2136157751083374 0.22162739932537079
0.30343508720397949 0.27378079295158386 0.26092609763145447
0.4345778226852417 0.29561057686805725 0.25524261593818665
0.57318496704101562 0.32207140326499939 0.25534242391586304
0.71083295345306396 0.3497767448425293 0.25825458765029907
0.85876071453094482 0.37833306193351746 0.26092755794525146
0.051362983882427216 0.26646009087562561 0.19563527405261993
0.1698739230632782 0.3372223973274231 0.23803757131099701
0.32389947772026062 0.4044988751411438 0.27832671999931335
0.48165157437324524 0.43143048882484436 0.27916428446769714
0.61938172578811646 0.45209097862243652 0.28366410732269287
0.76513510942459106 0.49417155981063843 0.28175091743469238
0.91207683086395264 0.53140008449554443 0.28110405802726746
0.078347869217395782 0.42741435766220093 0.2312382310628891
0.19738958775997162 0.49748745560646057 0.26635468006134033
0.34428673982620239 0.54371130466461182 0.29621312022209167
0.50476962327957153 0.59564602375030518 0.29971757531166077
0.67186850309371948 0.59858107566833496 0.30052837729454041
0.80568110942840576 0.59265327453613281 0.30512049794197083
0.95885962247848511 0.63413852453231812 0.30235564708709717
0.10645473748445511 0.59030997753143311 0.25951197743415833
0.21668773889541626 0.64562070369720459 0.28554514050483704
0.36134830117225647 0.68507659435272217 0.31602939963340759
0.50615483522415161 0.71943670511245728 0.32390239834785461
0.71718508005142212 0.79729241132736206 0.31738287210464478
0.86743634939193726 0.77200847864151001 0.31838512420654297
0.99006164073944092 0.73554760217666626 0.33172574639320374
0.1295807808637619 0.76798683404922485 0.2794380784034729
0.23505388200283051 0.79977554082870483 0.30289676785469055
0.37886220216751099 0.83081638813018799 0.33437559008598328
0.51581442356109619 0.85585278272628784 0.34367001056671143
0.70928680896759033 0.93424302339553833 0.3403204083442688
0.92570191621780396 0.98246842622756958 0.34278836846351624
0.99963575601577759 0.931782066822052 0.35957062244415283
0.013549624942243099 0.013078472577035427 0.41426017880439758
0.11816174536943436 0.0082259532064199448 0.40270894765853882
0.19881956279277802 0.010319414548575878 0.35896831750869751
0.27547422051429749 0.010256674140691757 0.30608671903610229
0.43375802040100098 0.011591847985982895 0.34240514039993286
0.58085829019546509 0.014447425492107868 0.31791144609451294
0.76531076431274414 0.01589546911418438 0.29439601302146912
0.016244431957602501 0.096718341112136841 0.39909395575523376
0.13720303773880005 0.10454379767179489 0.41729986667633057
0.24946443736553192 0.10828519612550735 0.39015012979507446
0.33587318658828735 0.11103899776935577 0.34856051206588745
0.49294814467430115 0.11221320927143097 0.36147788166999817
0.64797186851501465 0.12140576541423798 0.33404934406280518
0.82168638706207275 0.12689696252346039 0.29257550835609436
0.025730207562446594 0.1645594984292984 0.31738767027854919
0.14109788835048676 0.2245565801858902 0.37279295921325684
0.30213239789009094 0.27330124378204346 0.41781443357467651
0.40844389796257019 0.27483946084976196 0.38936835527420044
0.556446373462677 0.28166395425796509 0.37550258636474609
0.71186870336532593 0.28806188702583313 0.34439897537231445
0.86184382438659668 0.29796367883682251 0.31531825661659241
0.03942171111702919 0.2258802056312561 0.26010981202125549
0.16290761530399323 0.29418900609016418 0.31393176317214966
0.31752344965934753 0.373832106590271 0.38055607676506042
0.47081661224365234 0.43882870674133301 0.42357933521270752
0.6152452826499939 0.46317854523658752 0.41654932498931885
0.75623190402984619 0.48858115077018738 0.41419658064842224
0.89251011610031128 0.51461434364318848 0.41657811403274536
0.057870514690876007 0.35635790228843689 0.29862034320831299
0.17560809850692749 0.41885948181152344 0.34173122048377991
0.33838772773742676 0.51296132802963257 0.39755481481552124
0.49406209588050842 0.58199536800384521 0.43885651230812073
0.6669623851776123 0.61359518766403198 0.44457975029945374
0.80531954765319824 0.6284063458442688 0.44548624753952026
0.95157575607299805 0.67204469442367554 0.44609609246253967
0.080884702503681183 0.50387924909591675 0.33293783664703369
0.19926624000072479 0.57471948862075806 0.37406575679779053
0.3647523820400238 0.67228442430496216 0.4263312816619873
0.50892370939254761 0.71909141540527344 0.45697945356369019
0.69175875186920166 0.7801632285118103 0.46282204985618591
0.86606347560882568 0.789806067943573 0.46234536170959473
0.98780584335327148 0.76890802383422852 0.47336935997009277
0.10818827152252197 0.68451160192489624 0.37000033259391785
0.23168912529945374 0.76025557518005371 0.40740400552749634
0.38588684797286987 0.83606600761413574 0.44553256034851074
0.53157830238342285 0.8690948486328125 0.47740587592124939
0.68677294254302979 0.91023737192153931 0.48494431376457214
0.90330374240875244 0.98271375894546509 0.48836913704872131
0.99779999256134033 0.94737708568572998 0.49592435359954834
0.012343013659119606 0.0066904854029417038 0.5835234522819519
0.12786427140235901 0.004138557706028223 0.57930630445480347
0.22366558015346527 0.0069392337463796139 0.53823035955429077
0.28279772400856018 0.0046982709318399429 0.48021054267883301
0.37231403589248657 0.011899207718670368 0.42608362436294556
0.54773396253585815 0.0064705642871558666 0.48546123504638672
0.68033313751220703 0.010002600029110909 0.47511094808578491
0.012949565425515175 0.10000795871019363 0.57571560144424438
0.13469842076301575 0.096773751080036163 0.59569710493087769
0.27042815089225769 0.10256769508123398 0.57884311676025391
0.34453010559082031 0.10987818241119385 0.52387410402297974
0.43229237198829651 0.10283568501472473 0.46967640519142151
0.60476136207580566 0.098948657512664795 0.51437902450561523
0.75752943754196167 0.10903926193714142 0.48637440800666809
0.018574748188257217 0.19292037189006805 0.50470232963562012
0.12495271116495132 0.23639655113220215 0.55938518047332764
0.29980206489562988 0.26911741495132446 0.5955348014831543
0.41903015971183777 0.27223071455955505 0.56315398216247559
0.51054137945175171 0.26831111311912537 0.51779747009277344
0.67174601554870605 0.26824492216110229 0.53643691539764404
0.83328849077224731 0.27613019943237305 0.50546681880950928
0.036540176719427109 0.24715882539749146 0.41772449016571045
0.14788545668125153 0.3089655339717865 0.47416824102401733
0.30622157454490662 0.38981980085372925 0.55006492137908936
0.46624258160591125 0.43535155057907104 0.59483879804611206
0.58548414707183838 0.43869489431381226 0.56174147129058838
0.73852771520614624 0.44417917728424072 0.55025553703308105
0.89960825443267822 0.44875341653823853 0.51968133449554443
0.049953058362007141 0.31123197078704834 0.36137723922729492
0.16184940934181213 0.37393644452095032 0.41037338972091675
0.32346394658088684 0.46368062496185303 0.48598679900169373
0.48356375098228455 0.54477757215499878 0.54755496978759766
0.65476810932159424 0.61904865503311157 0.60039752721786499
0.80155760049819946 0.64499318599700928 0.59679359197616577
0.94555538892745972 0.66170978546142578 0.58248889446258545
0.062664002180099487 0.45475983619689941 0.41579094529151917
0.17928960919380188 0.51241445541381836 0.45678660273551941
0.33952182531356812 0.59213924407958984 0.50968474149703979
0.50683772563934326 0.68501937389373779 0.56699240207672119
0.67655414342880249 0.76266765594482422 0.61474627256393433
0.85621017217636108 0.80059206485748291 0.62433069944381714
0.98808807134628296 0.81199270486831665 0.62877625226974487
0.08257950097322464 0.58696788549423218 0.43704509735107422
0.20567420125007629 0.66048038005828857 0.48674994707107544
0.37024205923080444 0.76341384649276733 0.5476377010345459
0.53361266851425171 0.8560185432434082 0.59632271528244019
0.69448184967041016 0.91306209564208984 0.63549560308456421
0.87762486934661865 0.97322368621826172 0.64385920763015747
0.99862098693847656 0.95671743154525757 0.6513969898223877
0.014485901221632957 0.0054520699195563793 0.75598084926605225
0.13015240430831909 0.0036943622399121523 0.74849635362625122
0.24619930982589722 0.0043991836719214916 0.72231566905975342
0.31518468260765076 0.0088271796703338623 0.67109137773513794
0.37647378444671631 0.0054839188233017921 0.60705065727233887
0.46367189288139343 0.0081028062850236893 0.53947907686233521
0.65862005949020386 0.0080063315108418465 0.61901068687438965
0.0097232144325971603 0.097837604582309723 0.76109188795089722
0.1319238543510437 0.10106009989976883 0.77900642156600952
0.28260213136672974 0.096616320312023163 0.77052479982376099
0.36979186534881592 0.10537026822566986 0.7208181619644165
0.43582680821418762 0.099184043705463409 0.65379691123962402
0.52655494213104248 0.10468471795320511 0.58813655376434326
0.72299903631210327 0.10621336102485657 0.65851002931594849
0.01408939715474844 0.21548376977443695 0.70179194211959839
0.11729692667722702 0.24912704527378082 0.75882017612457275
0.29339113831520081 0.26369050145149231 0.77730506658554077
0.43727898597717285 0.26434120535850525 0.76185351610183716
0.51856547594070435 0.26741078495979309 0.70097023248672485
0.60368090867996216 0.2636665403842926 0.63827037811279297
0.78436911106109619 0.2683645486831665 0.68328392505645752
0.024451985955238342 0.27857518196105957 0.61749535799026489
0.12878856062889099 0.33470553159713745 0.67371904850006104
0.29226258397102356 0.40585729479789734 0.75213253498077393
0.46403062343597412 0.43142950534820557 0.77882951498031616
0.59450483322143555 0.43521681427955627 0.74758195877075195
0.68748015165328979 0.43180710077285767 0.69334119558334351
0.85052013397216797 0.43428593873977661 0.71245956420898438
0.054254703223705292 0.33395165205001831 0.52445310354232788
0.15259607136249542 0.39087483286857605 0.57467746734619141
0.3122226893901825 0.47950533032417297 0.65244477987289429
0.47158485651016235 0.5608629584312439 0.72368216514587402
0.64934837818145752 0.61559784412384033 0.77686113119125366
0.77166354656219482 0.62100666761398315 0.74456185102462769
0.92643409967422485 0.62346696853637695 0.72953242063522339
0.050324011594057083 0.39488509297370911 0.45945388078689575
0.17027208209037781 0.46069499850273132 0.51283067464828491
0.32793545722961426 0.54542738199234009 0.58268386125564575
0.49066901206970215 0.63387972116470337 0.65315842628479004
0.66854971647262573 0.72775352001190186 0.72748649120330811
0.83819520473480225 0.79703891277313232 0.77437299489974976
0.97915470600128174 0.82195758819580078 0.77378708124160767
0.073551565408706665 0.56376445293426514 0.53632593154907227
0.18317025899887085 0.61694598197937012 0.57368850708007812
0.34221929311752319 0.68759196996688843 0.62990528345108032
0.50874096155166626 0.77332741022109985 0.68696707487106323
0.68979299068450928 0.87544840574264526 0.75312620401382446
0.86915147304534912 0.95813667774200439 0.79839646816253662
0.99776023626327515 0.98024100065231323 0.81217378377914429
0.013501141220331192 0.020750368013978004 0.88763308525085449
0.12760850787162781 0.0081744324415922165 0.9226488471031189
0.26758038997650146 0.0019167133141309023 0.92075985670089722
0.35176363587379456 0.011176135390996933 0.8509068489074707
0.40520989894866943 0.0035335766151547432 0.78821694850921631
0.47284170985221863 0.0091138500720262527 0.73030012845993042
0.57072454690933228 0.0070454017259180546 0.65125834941864014
0.012196783907711506 0.095817252993583679 0.93147510290145874
0.12627977132797241 0.099400646984577179 0.94542795419692993
0.28295555710792542 0.089751027524471283 0.94065499305725098
0.392374187707901 0.097206160426139832 0.90249013900756836
0.46211966872215271 0.095606967806816101 0.84569072723388672
0.529274582862854 0.1068975105881691 0.77850663661956787
0.60801351070404053 0.10378500074148178 0.69417619705200195
0.016050480306148529 0.23648907244205475 0.88370674848556519
0.12582346796989441 0.2520635724067688 0.93314558267593384
0.28724274039268494 0.25741446018218994 0.93823128938674927
0.43884032964706421 0.26172643899917603 0.91122746467590332
0.54209935665130615 0.26122093200683594 0.89075803756713867
0.61158293485641479 0.26377376914024353 0.81916826963424683
0.69569182395935059 0.26627925038337708 0.75167453289031982
0.012747895903885365 0.30751019716262817 0.83066117763519287
0.12925538420677185 0.36011287569999695 0.88381248712539673
0.29281547665596008 0.41263958811759949 0.92192506790161133
0.46310132741928101 0.42972734570503235 0.94964998960494995
0.611064612865448 0.42960172891616821 0.93328750133514404
0.69165956974029541 0.43210047483444214 0.87418627738952637
0.77876263856887817 0.43339896202087402 0.80863505601882935
0.027103109285235405 0.36652073264122009 0.7348523736000061
0.13627806305885315 0.4259495735168457 0.7871055006980896
0.29981157183647156 0.50735217332839966 0.86006838083267212
0.46456819772720337 0.58003580570220947 0.92313599586486816
0.64575916528701782 0.61252623796463013 0.95577573776245117
0.7754015326499939 0.61458295583724976 0.92828923463821411
0.87422829866409302 0.61767429113388062 0.85705786943435669
0.054973512887954712 0.4200800359249115 0.63488572835922241
0.16331379115581512 0.47874954342842102 0.68742311000823975
0.32031846046447754 0.56524622440338135 0.76176613569259644
0.48183277249336243 0.65218156576156616 0.83374869823455811
0.65659403800964355 0.74525481462478638 0.91371339559555054
0.84036713838577271 0.80284523963928223 0.96519923210144043
0.95166635513305664 0.80719363689422607 0.92796128988265991
0.058450467884540558 0.47660288214683533 0.55509769916534424
0.17168112099170685 0.54089063405990601 0.6057746410369873
0.33383268117904663 0.62309825420379639 0.67328441143035889
0.49426934123039246 0.71537792682647705 0.74883741140365601
0.67640149593353271 0.81144678592681885 0.82787078619003296
0.85587692260742188 0.90875709056854248 0.90733069181442261
0.99742192029953003 0.98594212532043457 0.9758225679397583
