assets/lut/kylerholland kh04.cube
# Created by: G'MIC (https://gmic.eu)
TITLE "kh4"
# LUT size
LUT_3D_SIZE 13
# Data domain
DOMAIN_MIN 0.0 0.0 0.0
DOMAIN_MAX 1.0 1.0 1.0
# LUT data points
0.030644316226243973 0.022577965632081032 0.07491736114025116
0.10233284533023834 0.021242702379822731 0.077390916645526886
0.16548338532447815 0.020246213302016258 0.072833240032196045
0.22922545671463013 0.020057767629623413 0.072058945894241333
0.30150008201599121 0.020374178886413574 0.069581456482410431
0.38245680928230286 0.020559318363666534 0.073195517063140869
0.46961867809295654 0.020126612856984138 0.074758507311344147
0.55908054113388062 0.020036764442920685 0.076459266245365143
0.64885455369949341 0.020137114450335503 0.081324934959411621
0.7372245192527771 0.02025185339152813 0.080985680222511292
0.82361555099487305 0.020060101523995399 0.074349120259284973
0.90905588865280151 0.021266443654894829 0.069217756390571594
0.98707109689712524 0.023536128923296928 0.064347527921199799
0.030571388080716133 0.078391388058662415 0.080649308860301971
0.1008540615439415 0.077204897999763489 0.076240018010139465
0.16169491410255432 0.077144607901573181 0.068181984126567841
0.22530759871006012 0.077144607901573181 0.072144903242588043
0.29887828230857849 0.077144607901573181 0.069585733115673065
0.38154590129852295 0.077144607901573181 0.067880116403102875
0.46953389048576355 0.077144607901573181 0.066935986280441284
0.55924546718597412 0.077144607901573181 0.070460870862007141
0.64872699975967407 0.077144607901573181 0.073220223188400269
0.73649293184280396 0.077144607901573181 0.0661453977227211
0.82254672050476074 0.077180974185466766 0.065492622554302216
0.90826761722564697 0.079366303980350494 0.07195543497800827
0.98580116033554077 0.083882950246334076 0.073956266045570374
0.032791662961244583 0.14129526913166046 0.0897255539894104
0.1033259853720665 0.13952963054180145 0.084515698254108429
0.16367186605930328 0.13917918503284454 0.07456207275390625
0.22645629942417145 0.13996797800064087 0.075710147619247437
0.30025342106819153 0.14032113552093506 0.077081896364688873
0.38403379917144775 0.13971710205078125 0.075792647898197174
0.47178417444229126 0.13921166956424713 0.072109177708625793
0.56046199798583984 0.13904966413974762 0.072906732559204102
0.64902883768081665 0.13895067572593689 0.072229169309139252
0.73595523834228516 0.13838338851928711 0.063551388680934906
0.82176512479782104 0.13914787769317627 0.069001339375972748
0.90706837177276611 0.14242382347583771 0.083143793046474457
0.98553919792175293 0.14819326996803284 0.086145259439945221
0.035474859178066254 0.21452696621417999 0.095327265560626984
0.10451814532279968 0.21265262365341187 0.088559918105602264
0.16616952419281006 0.21162229776382446 0.080006681382656097
0.22812803089618683 0.21158495545387268 0.081584915518760681
0.30182364583015442 0.21158961951732635 0.085678502917289734
0.38569444417953491 0.21154527366161346 0.086465217173099518
0.47350022196769714 0.21151961386203766 0.084775112569332123
0.56139665842056274 0.21151961386203766 0.08383236825466156
0.64901232719421387 0.21151961386203766 0.079480037093162537
0.73555690050125122 0.21140758693218231 0.073475807905197144
0.82133573293685913 0.21115711331367493 0.08046315610408783
0.90698528289794922 0.21351201832294464 0.094038493931293488
0.98553919792175293 0.21928107738494873 0.095876030623912811
0.037076357752084732 0.29570192098617554 0.092438176274299622
0.1038716658949852 0.29388570785522461 0.08073609322309494
0.16521531343460083 0.2924378514289856 0.073753312230110168
0.22824372351169586 0.29186531901359558 0.083008848130702972
0.30164411664009094 0.29181727766990662 0.090702712535858154
0.3851219117641449 0.29191452264785767 0.08878760039806366
0.47302275896072388 0.29247614741325378 0.086748175323009491
0.56143611669540405 0.2936546802520752 0.087947100400924683
0.64911472797393799 0.29316189885139465 0.084313787519931793
0.73568350076675415 0.29173284769058228 0.07799607515335083
0.82186418771743774 0.29140487313270569 0.082209959626197815
0.90729457139968872 0.29316374659538269 0.093129642307758331
0.98557513952255249 0.29761484265327454 0.098020039498806
0.034714747220277786 0.38032415509223938 0.083995535969734192
0.10172890871763229 0.37868919968605042 0.066034160554409027
0.1635923832654953 0.37781861424446106 0.061992749571800232
0.22757218778133392 0.37781861424446106 0.07960808277130127
0.30102384090423584 0.37781861424446106 0.088425606489181519
0.38446721434593201 0.37781861424446106 0.082259759306907654
0.47229504585266113 0.37815696001052856 0.077701643109321594
0.56133580207824707 0.37968394160270691 0.079185038805007935
0.64921396970748901 0.37886950373649597 0.078641258180141449
0.73607403039932251 0.37787193059921265 0.073040485382080078
0.8221358060836792 0.37742006778717041 0.074947208166122437
0.90854984521865845 0.3783373236656189 0.087389923632144928
0.98694348335266113 0.38132733106613159 0.096446767449378967
0.0315372534096241 0.46677792072296143 0.084718070924282074
0.098462335765361786 0.4660150408744812 0.065403342247009277
0.1626821905374527 0.46519654989242554 0.059020966291427612
0.22889305651187897 0.46531537175178528 0.069426186382770538
0.30268004536628723 0.46560201048851013 0.074636243283748627
0.38524991273880005 0.46619537472724915 0.068263694643974304
0.4724547266960144 0.46652600169181824 0.063290104269981384
0.56124591827392578 0.46666666865348816 0.065984509885311127
0.64910387992858887 0.46663901209831238 0.067843899130821228
0.73609930276870728 0.46624982357025146 0.062414504587650299
0.82233339548110962 0.4654548168182373 0.066705711185932159
0.90863972902297974 0.46571135520935059 0.082819260656833649
0.98707109689712524 0.46752223372459412 0.094852298498153687
0.02897663414478302 0.55479735136032104 0.09120960533618927
0.096635602414608002 0.55402082204818726 0.070281609892845154
0.16276410222053528 0.55354630947113037 0.058658182621002197
0.23116828501224518 0.55387461185455322 0.059654504060745239
0.30555063486099243 0.55427908897399902 0.061565548181533813
0.38671621680259705 0.55469489097595215 0.057317964732646942
0.47282245755195618 0.55508577823638916 0.053770806640386581
0.56067925691604614 0.55504786968231201 0.058305330574512482
0.64841282367706299 0.55398762226104736 0.06191546842455864
0.73571491241455078 0.55349266529083252 0.06239788606762886
0.822856605052948 0.55332732200622559 0.07032553106546402
0.90955609083175659 0.5532153844833374 0.084477096796035767
0.98739123344421387 0.55423706769943237 0.092725895345211029
0.028117340058088303 0.64237803220748901 0.086683847010135651
0.096468843519687653 0.64227938652038574 0.066802725195884705
0.16389235854148865 0.64227938652038574 0.05467141792178154
0.23330065608024597 0.64243948459625244 0.055060233920812607
0.30714213848114014 0.64302289485931396 0.059216219931840897
0.38731208443641663 0.64307600259780884 0.060261175036430359
0.47203207015991211 0.64280658960342407 0.059812821447849274
0.5592532753944397 0.64227938652038574 0.06228281557559967
0.64753508567810059 0.64205449819564819 0.066366724669933319
0.73512017726898193 0.64047789573669434 0.072049506008625031
0.823222815990448 0.64022922515869141 0.081700295209884644
0.91088974475860596 0.64013755321502686 0.09029717743396759
0.98786765336990356 0.64114826917648315 0.09088134765625
0.028293145820498466 0.73106616735458374 0.071809567511081696
0.097265414893627167 0.73106616735458374 0.05631217360496521
0.16560757160186768 0.73106616735458374 0.048891957849264145
0.23512381315231323 0.73106616735458374 0.054959613829851151
0.30857729911804199 0.73106616735458374 0.065788418054580688
0.38723054528236389 0.73106616735458374 0.073096916079521179
0.47102290391921997 0.73106616735458374 0.074323199689388275
0.55792218446731567 0.72996723651885986 0.073535874485969543
0.6461188793182373 0.7292594313621521 0.074795261025428772
0.73462682962417603 0.72767496109008789 0.079671241343021393
0.82236719131469727 0.72714459896087646 0.086606010794639587
0.91034704446792603 0.72718507051467896 0.089861087501049042
0.98786765336990356 0.72858649492263794 0.085755370557308197
0.028906548395752907 0.81839126348495483 0.058702729642391205
0.098277822136878967 0.81872284412384033 0.049774710088968277
0.16718536615371704 0.81910496950149536 0.048246704041957855
0.23697163164615631 0.81983017921447754 0.058733474463224411
0.31008893251419067 0.81985294818878174 0.073836274445056915
0.387766033411026 0.81978213787078857 0.084817253053188324
0.47073352336883545 0.81869810819625854 0.085937634110450745
0.55707800388336182 0.81800925731658936 0.082254655659198761
0.64538711309432983 0.81647086143493652 0.080146849155426025
0.73350632190704346 0.81574231386184692 0.080875381827354431
0.82191520929336548 0.81507200002670288 0.082601137459278107
0.90868830680847168 0.81538450717926025 0.081705264747142792
0.98719555139541626 0.81667208671569824 0.075218528509140015
0.02920113317668438 0.90699034929275513 0.050501804798841476
0.099066488444805145 0.90699928998947144 0.047713290899991989
0.16867251694202423 0.90704584121704102 0.050485216081142426
0.23925459384918213 0.90738868713378906 0.061178170144557953
0.31254243850708008 0.90784311294555664 0.075245276093482971
0.39001303911209106 0.90730595588684082 0.085677370429039001
0.47220385074615479 0.90696614980697632 0.087162554264068604
0.55783116817474365 0.90587037801742554 0.082975201308727264
0.64516907930374146 0.90482765436172485 0.078475445508956909
0.73321080207824707 0.90405106544494629 0.075649723410606384
0.82094335556030273 0.90367358922958374 0.073351703584194183
0.90863972902297974 0.9041411280632019 0.068994618952274323
0.98707109689712524 0.90557247400283813 0.060968123376369476
0.028773872181773186 0.9863964319229126 0.042618993669748306
0.099515862762928009 0.98650383949279785 0.04411022737622261
0.17030628025531769 0.98706209659576416 0.0484786257147789
0.24185411632061005 0.98707109689712524 0.057588674128055573
0.31589415669441223 0.98707109689712524 0.068772949278354645
0.39354154467582703 0.98707109689712524 0.076758429408073425
0.47501474618911743 0.98652726411819458 0.078406587243080139
0.55960285663604736 0.9856908917427063 0.075148575007915497
0.64604133367538452 0.9854590892791748 0.070209279656410217
0.73321080207824707 0.98501569032669067 0.065339736640453339
0.82004505395889282 0.98494237661361694 0.060067750513553619
0.90860939025878906 0.98533403873443604 0.053581252694129944
0.98707109689712524 0.98618137836456299 0.04441649466753006
0.030882352963089943 0.021670352667570114 0.20393237471580505
0.10477408766746521 0.021597424522042274 0.20396967232227325
0.16723677515983582 0.020848307758569717 0.19904205203056335
0.2280721515417099 0.020756904035806656 0.19750423729419708
0.29911917448043823 0.021559307351708412 0.19898994266986847
0.38102498650550842 0.022220522165298462 0.20335239171981812
0.4698413610458374 0.021781008690595627 0.19906890392303467
0.56050044298171997 0.021418312564492226 0.1963704526424408
0.6508718729019165 0.021509133279323578 0.20021559298038483
0.7388731837272644 0.021520024165511131 0.20010247826576233
0.82461577653884888 0.020320503041148186 0.19133953750133514
0.90975421667098999 0.021016154438257217 0.19068191945552826
0.98707109689712524 0.023224774748086929 0.19375956058502197
0.030882352963089943 0.076198354363441467 0.19878695905208588
0.10330580174922943 0.075470700860023499 0.20013774931430817
0.16314901411533356 0.077040761709213257 0.19826006889343262
0.22390025854110718 0.077144607901573181 0.20184777677059174
0.29674983024597168 0.077144607901573181 0.20054870843887329
0.38040849566459656 0.077144607901573181 0.19878807663917542
0.47021165490150452 0.077144607901573181 0.19893190264701843
0.56121593713760376 0.077144607901573181 0.20208606123924255
0.65103328227996826 0.077144607901573181 0.19981966912746429
0.73830437660217285 0.077144607901573181 0.18888340890407562
0.82373672723770142 0.077144607901573181 0.18245570361614227
0.9087827205657959 0.078184477984905243 0.18656489253044128
0.98627877235412598 0.082588717341423035 0.19128809869289398
0.0317649245262146 0.13706061244010925 0.20310643315315247
0.10512593388557434 0.13682834804058075 0.20422452688217163
0.16447065770626068 0.13764944672584534 0.19869114458560944
0.22440546751022339 0.13848355412483215 0.19947393238544464
0.29771843552589417 0.13964729011058807 0.20108422636985779
0.38322249054908752 0.1396544873714447 0.20199838280677795
0.47280669212341309 0.13972872495651245 0.20274847745895386
0.56267833709716797 0.13976018130779266 0.20548611879348755
0.65118181705474854 0.13917192816734314 0.19858856499195099
0.73775899410247803 0.13795672357082367 0.18524304032325745
0.82289063930511475 0.13789544999599457 0.18513590097427368
0.90785276889801025 0.14014340937137604 0.19478803873062134
0.98554319143295288 0.14584693312644958 0.19577686488628387
0.034531880170106888 0.21111229062080383 0.20414194464683533
0.10411074757575989 0.21022526919841766 0.20209696888923645
0.16345779597759247 0.21096573770046234 0.19486990571022034
0.22497271001338959 0.21151961386203766 0.19799147546291351
0.29901525378227234 0.21151961386203766 0.20225115120410919
0.38510581851005554 0.21151961386203766 0.20377475023269653
0.47447308897972107 0.21155071258544922 0.20388022065162659
0.56325685977935791 0.21169926226139069 0.20402270555496216
0.65099596977233887 0.21152356266975403 0.19752632081508636
0.73736608028411865 0.21021023392677307 0.18751312792301178
0.82251936197280884 0.20805807411670685 0.19149363040924072
0.90739423036575317 0.21074806153774261 0.20296680927276611
0.98553919792175293 0.21640783548355103 0.20142087340354919
0.036251038312911987 0.29362979531288147 0.20058225095272064
0.10323712229728699 0.29267960786819458 0.19469314813613892
0.16251987218856812 0.29166135191917419 0.18912124633789062
0.22426776587963104 0.2916128933429718 0.19690875709056854
0.29804641008377075 0.29211288690567017 0.20182925462722778
0.38361808657646179 0.29250183701515198 0.19772890210151672
0.47343859076499939 0.29315319657325745 0.19589710235595703
0.56271570920944214 0.29377424716949463 0.2007673978805542
0.65067213773727417 0.2928524911403656 0.1986411064863205
0.73735195398330688 0.29075226187705994 0.18978157639503479
0.82269823551177979 0.28978070616722107 0.19063936173915863
0.90829771757125854 0.29072722792625427 0.19883163273334503
0.98598974943161011 0.2949276864528656 0.20082978904247284
0.034011360257863998 0.37984165549278259 0.19110767543315887
0.10015761107206345 0.3782401978969574 0.18257288634777069
0.16124828159809113 0.37783244252204895 0.18150843679904938
0.22340238094329834 0.37792229652404785 0.19575865566730499
0.29717040061950684 0.37824451923370361 0.20039127767086029
0.38219413161277771 0.37861484289169312 0.19027808308601379
0.47180211544036865 0.37948122620582581 0.18565288186073303
0.56215327978134155 0.3798406720161438 0.19165492057800293
0.65080595016479492 0.37906059622764587 0.19708529114723206
0.73766350746154785 0.37752178311347961 0.19206447899341583
0.82330232858657837 0.37611472606658936 0.1874939352273941
0.90863972902297974 0.37667262554168701 0.19359855353832245
0.98707109689712524 0.37926802039146423 0.19960269331932068
0.030445307493209839 0.46666666865348816 0.18982492387294769
0.096623577177524567 0.46634829044342041 0.17766073346138
0.15973120927810669 0.46597480773925781 0.17451606690883636
0.22498805820941925 0.46616306900978088 0.18351222574710846
0.2988763153553009 0.4664858877658844 0.18679609894752502
0.38239434361457825 0.46659550070762634 0.17955757677555084
0.47116184234619141 0.46685650944709778 0.17603345215320587
0.56115007400512695 0.46696069836616516 0.18259923160076141
0.65040993690490723 0.46673136949539185 0.19215860962867737
0.73753470182418823 0.4659980833530426 0.19022859632968903
0.82359516620635986 0.46485817432403564 0.18457566201686859
0.90863972902297974 0.46472108364105225 0.19051764905452728
0.98707109689712524 0.46639081835746765 0.19860893487930298
0.027613740414381027 0.55442577600479126 0.19557128846645355
0.094311699271202087 0.55428707599639893 0.17779479920864105
0.15940676629543304 0.55428123474121094 0.16851705312728882
0.22699801623821259 0.55438679456710815 0.17016245424747467
0.30124399065971375 0.55481290817260742 0.17277242243289948
0.38345372676849365 0.55509293079376221 0.17077921330928802
0.47071424126625061 0.55530792474746704 0.17008513212203979
0.56001961231231689 0.55539631843566895 0.17549240589141846
0.64914095401763916 0.55471169948577881 0.18276447057723999
0.73708868026733398 0.55351191759109497 0.18478445708751678
0.8237382173538208 0.55294680595397949 0.18656603991985321
0.90957844257354736 0.55223608016967773 0.19197608530521393
0.98713523149490356 0.55349904298782349 0.19512474536895752
0.026756016537547112 0.64227938652038574 0.19004447758197784
0.093704640865325928 0.64227938652038574 0.1727767288684845
0.16008049249649048 0.64243984222412109 0.16228772699832916
0.22891062498092651 0.64302229881286621 0.16361890733242035
0.30302536487579346 0.64307600259780884 0.16934999823570251
0.38364353775978088 0.64307600259780884 0.17263655364513397
0.46957576274871826 0.64281165599822998 0.17353697121143341
0.55841755867004395 0.64227938652038574 0.17583927512168884
0.64752745628356934 0.64202797412872314 0.18012459576129913
0.73610085248947144 0.6404411792755127 0.18591092526912689
0.82377451658248901 0.63938456773757935 0.19399334490299225
0.91082459688186646 0.63902753591537476 0.19731663167476654
0.98769384622573853 0.64046728610992432 0.192654088139534
0.027148079127073288 0.73106616735458374 0.17372499406337738
0.094585418701171875 0.73106616735458374 0.16180257499217987
0.16170915961265564 0.73106616735458374 0.15666146576404572
0.23063050210475922 0.73106616735458374 0.16292266547679901
0.30419930815696716 0.73106616735458374 0.17555095255374908
0.38320419192314148 0.73106616735458374 0.18474896252155304
0.46821218729019165 0.73105335235595703 0.1850706934928894
0.55656242370605469 0.72971439361572266 0.18220983445644379
0.64601272344589233 0.72917616367340088 0.18209020793437958
0.73488879203796387 0.72719186544418335 0.1866702139377594
0.82319778203964233 0.72686147689819336 0.19338800013065338
0.91088443994522095 0.72683620452880859 0.19417430460453033
0.98786121606826782 0.72771525382995605 0.18672789633274078
0.02792867086827755 0.81825977563858032 0.15867537260055542
0.096085160970687866 0.81861919164657593 0.1528804749250412
0.16364076733589172 0.81915938854217529 0.15411190688610077
0.23284509778022766 0.819846510887146 0.1653447151184082
0.30547931790351868 0.81985294818878174 0.1826932281255722
0.38338243961334229 0.81973934173583984 0.19630779325962067
0.46778371930122375 0.81845968961715698 0.19462823867797852
0.55579596757888794 0.81763941049575806 0.18720057606697083
0.64492195844650269 0.81599611043930054 0.18268154561519623
0.73379802703857422 0.81512665748596191 0.18287615478038788
0.82205212116241455 0.81434017419815063 0.18461790680885315
0.90892618894577026 0.81461125612258911 0.18279446661472321
0.98717409372329712 0.81594866514205933 0.17518173158168793
0.028285186737775803 0.90698528289794922 0.14807118475437164
0.097233086824417114 0.90698528289794922 0.14789770543575287
0.16573415696620941 0.90703445672988892 0.15268957614898682
0.23563642799854279 0.90704828500747681 0.1648726761341095
0.30857378244400024 0.90719050168991089 0.1812664270401001
0.38625991344451904 0.90702694654464722 0.19271473586559296
0.46948486566543579 0.90666508674621582 0.1921919584274292
0.55625516176223755 0.90511506795883179 0.18501676619052887
0.64460784196853638 0.90427297353744507 0.17862431704998016
0.7332226037979126 0.90326833724975586 0.17501106858253479
0.82106846570968628 0.90312498807907104 0.1726902574300766
0.90863972902297974 0.90349900722503662 0.16844168305397034
0.98707109689712524 0.90470784902572632 0.16042569279670715
0.028306189924478531 0.98633581399917603 0.1387510746717453
0.098007932305335999 0.98633581399917603 0.14204619824886322
0.16765230894088745 0.98692673444747925 0.14832913875579834
0.23885709047317505 0.98707109689712524 0.15913039445877075
0.3126838207244873 0.98707109689712524 0.17127960920333862
0.39056360721588135 0.98682385683059692 0.17955844104290009
0.47264334559440613 0.98588806390762329 0.18010115623474121
0.55803108215332031 0.98551589250564575 0.17520806193351746
0.64510595798492432 0.98490852117538452 0.16912367939949036
0.73321080207824707 0.98474264144897461 0.16371096670627594
0.81987863779067993 0.98474264144897461 0.15880167484283447
0.90831863880157471 0.98479300737380981 0.15246842801570892
0.98707109689712524 0.98573637008666992 0.14340926706790924
0.030882352963089943 0.021250093355774879 0.26456305384635925
0.10298861563205719 0.02138914167881012 0.26833239197731018
0.16583481431007385 0.020839167758822441 0.26579821109771729
0.22706665098667145 0.020739985629916191 0.26121118664741516
0.2988353967666626 0.02140858955681324 0.26778590679168701
0.38176640868186951 0.022667154669761658 0.27446413040161133
0.47068020701408386 0.023124784231185913 0.2706717848777771
0.56188249588012695 0.022977761924266815 0.26595669984817505
0.65171569585800171 0.022266387939453125 0.26989862322807312
0.73890930414199829 0.020977633073925972 0.27050319314002991
0.8251488208770752 0.020096274092793465 0.26470893621444702
0.91019910573959351 0.02088216133415699 0.26711899042129517
0.98707109689712524 0.023161765187978745 0.27494567632675171
0.030882352963089943 0.07636898010969162 0.26033517718315125
0.10205630213022232 0.076225772500038147 0.26481586694717407
0.16251035034656525 0.07713877409696579 0.26445689797401428
0.22339099645614624 0.077144607901573181 0.26290753483772278
0.29664677381515503 0.077412337064743042 0.26873987913131714
0.38030338287353516 0.078189119696617126 0.27500772476196289
0.47053396701812744 0.079222723841667175 0.27624711394309998
0.56205111742019653 0.078798957169055939 0.27603441476821899
0.65171569585800171 0.077379696071147919 0.27333658933639526
0.73890715837478638 0.077144607901573181 0.2645881175994873
0.82458364963531494 0.077144607901573181 0.2555200457572937
0.90937525033950806 0.078208789229393005 0.25895747542381287
0.98696821928024292 0.082447722554206848 0.2684539258480072
0.030859015882015228 0.13700589537620544 0.26523301005363464
0.10157964378595352 0.13708025217056274 0.26664614677429199
0.16249610483646393 0.13798414170742035 0.26397562026977539
0.22357694804668427 0.13957849144935608 0.26581820845603943
0.29725885391235352 0.14108768105506897 0.27102586627006531
0.38223475217819214 0.141559898853302 0.27568221092224121
0.47219741344451904 0.14176550507545471 0.27884039282798767
0.56296998262405396 0.14167764782905579 0.27908885478973389
0.65205985307693481 0.14084893465042114 0.27248373627662659
0.73884254693984985 0.13931497931480408 0.2611059844493866
0.82410681247711182 0.13858895003795624 0.25724613666534424
0.90895867347717285 0.14068365097045898 0.2630651593208313
0.98649495840072632 0.14554491639137268 0.26793292164802551
0.030780836939811707 0.21033476293087006 0.2644905149936676
0.10016442090272903 0.20999191701412201 0.26372775435447693
0.16020677983760834 0.21144396066665649 0.25835028290748596
0.22370459139347076 0.21159876883029938 0.26327082514762878
0.29812642931938171 0.21258683502674103 0.26827794313430786
0.38378441333770752 0.21343319118022919 0.27083387970924377
0.47378167510032654 0.21416093409061432 0.27189689874649048
0.56343871355056763 0.21429359912872314 0.2729094922542572
0.65220588445663452 0.21206797659397125 0.26675251126289368
0.73875552415847778 0.21094408631324768 0.25710707902908325
0.82385438680648804 0.20942889153957367 0.25906252861022949
0.90885120630264282 0.21127369999885559 0.26720049977302551
0.98647695779800415 0.21545329689979553 0.26981577277183533
0.032684162259101868 0.29289722442626953 0.26321667432785034
0.10018090903759003 0.29281708598136902 0.26128581166267395
0.16134081780910492 0.29282602667808533 0.25816428661346436
0.22440348565578461 0.29329487681388855 0.2623850405216217
