assets/lut/kylerholland kh03.cube
# Created by: G'MIC (https://gmic.eu)
TITLE "kh3"
# LUT size
LUT_3D_SIZE 7
# Data domain
DOMAIN_MIN 0.0 0.0 0.0
DOMAIN_MAX 1.0 1.0 1.0
# LUT data points
0.050296589732170105 0.078347526490688324 0.081515878438949585
0.13561910390853882 0.095082648098468781 0.084074772894382477
0.27386772632598877 0.1241847351193428 0.079309158027172089
0.4073488712310791 0.14708855748176575 0.09324086457490921
0.56594908237457275 0.17176184058189392 0.13276283442974091
0.71205151081085205 0.20728202164173126 0.15903085470199585
0.84538990259170532 0.24570414423942566 0.17163634300231934
0.044674787670373917 0.16359065473079681 0.072862289845943451
0.14942729473114014 0.15392036736011505 0.080923028290271759
0.3083404004573822 0.16590909659862518 0.063090994954109192
0.45618551969528198 0.19205771386623383 0.076073363423347473
0.61256957054138184 0.22566454112529755 0.10447102040052414
0.75190490484237671 0.26699158549308777 0.12160156667232513
0.87368124723434448 0.30292898416519165 0.13696406781673431
0.044647395610809326 0.25092875957489014 0.062836878001689911
0.15188182890415192 0.26777166128158569 0.066016025841236115
0.3533138632774353 0.2538655698299408 0.058583818376064301
0.54441267251968384 0.25158864259719849 0.062060456722974777
0.6976134181022644 0.29275649785995483 0.083883814513683319
0.8199349045753479 0.34528186917304993 0.085651695728302002
0.92244690656661987 0.40859553217887878 0.073694579303264618
0.049021434038877487 0.32999584078788757 0.06632956862449646
0.17315962910652161 0.36338147521018982 0.051582217216491699
0.39590626955032349 0.38832199573516846 0.055017180740833282
0.58639037609100342 0.39263802766799927 0.043336246162652969
0.74673175811767578 0.38337299227714539 0.051364734768867493
0.86731809377670288 0.42020446062088013 0.055220287293195724
0.94551032781600952 0.47890135645866394 0.046616002917289734
0.067433394491672516 0.42295166850090027 0.061480876058340073
0.21435345709323883 0.450429767370224 0.060027163475751877
0.42380735278129578 0.48548433184623718 0.071069993078708649
0.6062658429145813 0.55737954378128052 0.043517768383026123
0.76138091087341309 0.5689316987991333 0.04561200737953186
0.89296197891235352 0.53772497177124023 0.043960060924291611
0.94744247198104858 0.55343413352966309 0.043834701180458069
0.10277892649173737 0.49159473180770874 0.093639537692070007
0.25460007786750793 0.53196346759796143 0.084498867392539978
0.43877455592155457 0.59868437051773071 0.073129601776599884
0.61508440971374512 0.67462074756622314 0.044914528727531433
0.75599563121795654 0.7361944317817688 0.043137256056070328
0.88683521747589111 0.73499375581741333 0.044864341616630554
0.94850564002990723 0.67682838439941406 0.046814728528261185
0.049672503024339676 0.72729778289794922 0.04394100233912468
0.20657500624656677 0.76472187042236328 0.043595660477876663
0.43806159496307373 0.80934822559356689 0.043853878974914551
0.61445486545562744 0.83330351114273071 0.043137256056070328
0.75548475980758667 0.85324573516845703 0.043137256056070328
0.87268567085266113 0.87365394830703735 0.043137256056070328
0.95095193386077881 0.86158090829849243 0.043137256056070328
0.051821120083332062 0.11186899244785309 0.1334652304649353
0.16124387085437775 0.1196892112493515 0.14566874504089355
0.31800186634063721 0.13252569735050201 0.13242256641387939
0.46604207158088684 0.15127260982990265 0.13040535151958466
0.60383492708206177 0.17487138509750366 0.14958836138248444
0.72605293989181519 0.20466679334640503 0.16782358288764954
0.8461296558380127 0.23453159630298615 0.18347224593162537
0.048162691295146942 0.16152812540531158 0.15606008470058441
0.13147073984146118 0.17352338135242462 0.16782680153846741
0.31016683578491211 0.18240803480148315 0.14654000103473663
0.47751155495643616 0.19012773036956787 0.12470728904008865
0.61721599102020264 0.20706465840339661 0.1331896185874939
0.73965919017791748 0.23501278460025787 0.14622202515602112
0.86691939830780029 0.27436140179634094 0.15665556490421295
0.043308079242706299 0.27039918303489685 0.16222885251045227
0.092983737587928772 0.28984135389328003 0.13255047798156738
0.34178557991981506 0.27767777442932129 0.13349734246730804
0.5291016697883606 0.27850356698036194 0.09781520813703537
0.67962837219238281 0.31003180146217346 0.082198351621627808
0.79624694585800171 0.35468992590904236 0.081904694437980652
0.91468876600265503 0.40982455015182495 0.074502773582935333
0.043139409273862839 0.33589151501655579 0.14381319284439087
0.11720938235521317 0.37765297293663025 0.099645532667636871
0.3738437294960022 0.40390229225158691 0.11949268728494644
0.57973188161849976 0.41318857669830322 0.071938216686248779
0.74540537595748901 0.39765995740890503 0.060302868485450745
0.85782653093338013 0.4418347179889679 0.052273500710725784
0.94189143180847168 0.49284705519676208 0.047849573194980621
0.044063135981559753 0.3842805027961731 0.15395812690258026
0.14803832769393921 0.4534662663936615 0.10930168628692627
0.39762085676193237 0.49623632431030273 0.12745587527751923
0.60178452730178833 0.57051616907119751 0.067506305873394012
0.75882560014724731 0.58552414178848267 0.051121190190315247
0.89142048358917236 0.54463869333267212 0.046872053295373917
0.94962000846862793 0.56536251306533813 0.04584667831659317
0.054322276264429092 0.44843065738677979 0.17811580002307892
0.18399915099143982 0.53937989473342896 0.11946263164281845
0.41582515835762024 0.58949726819992065 0.11973436921834946
0.60223484039306641 0.67973196506500244 0.07037036120891571
0.74910926818847656 0.74005955457687378 0.04951801523566246
0.88702285289764404 0.73539549112319946 0.047782927751541138
0.94643229246139526 0.67909073829650879 0.062137797474861145
0.043609499931335449 0.73103004693984985 0.065818175673484802
0.15542900562286377 0.77226823568344116 0.046073358505964279
0.40625196695327759 0.80453687906265259 0.043872952461242676
0.59646463394165039 0.84314680099487305 0.045611947774887085
0.74836355447769165 0.86030161380767822 0.062168989330530167
0.86631393432617188 0.88110238313674927 0.062925152480602264
0.95046162605285645 0.87866610288619995 0.055142346769571304
0.048151817172765732 0.16277135908603668 0.20050507783889771
0.13477429747581482 0.1687319427728653 0.21527858078479767
0.35655185580253601 0.18536511063575745 0.21007928252220154
0.53435903787612915 0.19657717645168304 0.19282501935958862
0.66970086097717285 0.20936894416809082 0.18963770568370819
0.77717643976211548 0.23308853805065155 0.19409282505512238
0.88437002897262573 0.25897333025932312 0.19266232848167419
0.045143201947212219 0.19027723371982574 0.22071996331214905
0.094870544970035553 0.2108914852142334 0.24766066670417786
0.34067651629447937 0.22005632519721985 0.24904368817806244
0.5238572359085083 0.2263338565826416 0.22616343200206757
0.66931533813476562 0.23513992130756378 0.21517783403396606
0.7874113917350769 0.24878299236297607 0.20896284282207489
0.8909226655960083 0.28364092111587524 0.20465771853923798
0.043137256056070328 0.28158900141716003 0.27281460165977478
0.055393040180206299 0.30928051471710205 0.29950860142707825
0.27416932582855225 0.32291758060455322 0.31126374006271362
0.50314635038375854 0.32747295498847961 0.29288521409034729
0.66865772008895874 0.32815483212471008 0.26599091291427612
0.79452353715896606 0.33841195702552795 0.24408720433712006
0.91419970989227295 0.37206146121025085 0.2287476509809494
0.043137256056070328 0.41671624779701233 0.33208224177360535
0.053541190922260284 0.41710597276687622 0.30494269728660583
0.26191821694374084 0.44413188099861145 0.26619139313697815
0.54857957363128662 0.45142212510108948 0.26267781853675842
0.71789520978927612 0.44830137491226196 0.24672180414199829
0.83465766906738281 0.48811382055282593 0.23256079852581024
0.9365164041519165 0.52846413850784302 0.21844278275966644
0.043137256056070328 0.4776604175567627 0.33010271191596985
0.05709412693977356 0.45824253559112549 0.28448587656021118
0.29667261242866516 0.5159076452255249 0.23965123295783997
0.56723105907440186 0.57904541492462158 0.24161516129970551
0.74379539489746094 0.60732907056808472 0.18731847405433655
0.87544888257980347 0.57045972347259521 0.1529415100812912
0.94701230525970459 0.59966152906417847 0.15299981832504272
0.043137256056070328 0.50434404611587524 0.32448923587799072
0.061235062777996063 0.49745148420333862 0.27453270554542542
0.31941330432891846 0.61841791868209839 0.20858661830425262
0.56739675998687744 0.67698115110397339 0.23050364851951599
0.73698431253433228 0.74103111028671265 0.21188722550868988
0.87740159034729004 0.74122029542922974 0.1081356555223465
0.94561886787414551 0.69126212596893311 0.16900943219661713
0.043137256056070328 0.7542223334312439 0.24990758299827576
0.048728208988904953 0.77323079109191895 0.15649278461933136
0.26506766676902771 0.88549977540969849 0.071931235492229462
0.5435720682144165 0.88359242677688599 0.11662503331899643
0.72541749477386475 0.88041043281555176 0.20157165825366974
0.8597760796546936 0.88915508985519409 0.21164496243000031
0.949199378490448 0.88535696268081665 0.19521251320838928
0.047504544258117676 0.21914683282375336 0.27053192257881165
0.11848705261945724 0.22097869217395782 0.27702882885932922
0.3211616575717926 0.23234441876411438 0.28405702114105225
0.56193262338638306 0.24324570596218109 0.23878961801528931
0.71159172058105469 0.25733911991119385 0.22775140404701233
0.80980658531188965 0.27809140086174011 0.23421257734298706
0.89835995435714722 0.31423661112785339 0.26060634851455688
0.045465685427188873 0.24323324859142303 0.29356956481933594
0.075545981526374817 0.25793725252151489 0.31444993615150452
0.28219181299209595 0.2565474808216095 0.3247750997543335
0.55375474691390991 0.26894614100456238 0.27315109968185425
0.70380032062530518 0.28289467096328735 0.26419380307197571
0.80599647760391235 0.30247578024864197 0.27324128150939941
0.89568942785263062 0.33385765552520752 0.29495513439178467
0.043185483664274216 0.29227155447006226 0.33019962906837463
0.061229150742292404 0.32802155613899231 0.36914590001106262
0.22019024193286896 0.34288164973258972 0.40109157562255859
0.52066147327423096 0.352346271276474 0.37368384003639221
0.68599182367324829 0.36429533362388611 0.35977292060852051
0.80141037702560425 0.36812227964401245 0.35297051072120667
0.89407980442047119 0.38222569227218628 0.3466019332408905
0.043137256056070328 0.39951857924461365 0.40382909774780273
0.046312820166349411 0.4413030743598938 0.4356599748134613
0.15655083954334259 0.47442829608917236 0.47273826599121094
0.4738345742225647 0.48581412434577942 0.4737820029258728
0.68144571781158447 0.50749707221984863 0.4681781530380249
0.81245523691177368 0.50551879405975342 0.44331973791122437
0.91212660074234009 0.51808452606201172 0.42542508244514465
0.043137256056070328 0.55462998151779175 0.49107125401496887
0.043776359409093857 0.57922893762588501 0.49483820796012878
0.11885371804237366 0.57587772607803345 0.46802005171775818
0.4648652970790863 0.59653240442276001 0.44075775146484375
0.71840411424636841 0.63669830560684204 0.42158132791519165
0.8501771092414856 0.62869274616241455 0.42601227760314941
0.9420933723449707 0.65248090028762817 0.42264559864997864
0.043137256056070328 0.65588247776031494 0.53267228603363037
0.04314892366528511 0.62506473064422607 0.48300108313560486
0.11999952793121338 0.62758415937423706 0.41222235560417175
0.46758079528808594 0.69681650400161743 0.3723718523979187
0.71321606636047363 0.74685680866241455 0.40598168969154358
0.86504167318344116 0.75736385583877563 0.35770770907402039
0.94859862327575684 0.72039675712585449 0.37542131543159485
0.043137256056070328 0.81184852123260498 0.47003015875816345
0.043137256056070328 0.81371426582336426 0.41322663426399231
0.063196472823619843 0.84885674715042114 0.3099227249622345
0.43811583518981934 0.92909163236618042 0.2688843309879303
0.69390881061553955 0.91019177436828613 0.35229745507240295
0.8496508002281189 0.89882594347000122 0.39043447375297546
0.94902944564819336 0.88607919216156006 0.37690433859825134
0.04811694473028183 0.2758006751537323 0.34010493755340576
0.10270382463932037 0.27639356255531311 0.33912089467048645
0.27982154488563538 0.28046828508377075 0.344827800989151
0.5230901837348938 0.30005690455436707 0.30052939057350159
0.73343592882156372 0.30597776174545288 0.26011323928833008
0.82508558034896851 0.32201310992240906 0.28733670711517334
0.88674265146255493 0.36195820569992065 0.35005798935890198
0.043150898069143295 0.28845980763435364 0.3555702269077301
0.069274500012397766 0.30188438296318054 0.37527549266815186
0.22608424723148346 0.30309447646141052 0.38225451111793518
0.50465965270996094 0.32305017113685608 0.34990951418876648
0.71801847219467163 0.32793846726417542 0.31371244788169861
0.81544792652130127 0.34645110368728638 0.34223434329032898
0.87923252582550049 0.39117905497550964 0.40207365155220032
0.043137256056070328 0.33386507630348206 0.39404147863388062
0.055697586387395859 0.35928189754486084 0.42887765169143677
0.16881804168224335 0.37456431984901428 0.46468934416770935
0.46782907843589783 0.37587738037109375 0.46162623167037964
0.69746524095535278 0.39990115165710449 0.43899548053741455
0.81071913242340088 0.42295411229133606 0.46157079935073853
0.88449442386627197 0.46343579888343811 0.49705421924591064
0.043137256056070328 0.40250962972640991 0.45921289920806885
0.046122264117002487 0.44509279727935791 0.50379717350006104
0.13427840173244476 0.479103684425354 0.54895108938217163
0.40796941518783569 0.48819524049758911 0.58548712730407715
0.6893545389175415 0.50951576232910156 0.56681352853775024
0.80826014280319214 0.53218615055084229 0.56482595205307007
0.89439773559570312 0.55079150199890137 0.57107037305831909
0.043137256056070328 0.52670103311538696 0.55234676599502563
0.045249834656715393 0.56237995624542236 0.58263880014419556
0.094384618103504181 0.60072231292724609 0.6207544207572937
0.34387850761413574 0.6328890323638916 0.6533469557762146
0.67515462636947632 0.65617716312408447 0.64434951543807983
0.82169842720031738 0.67052936553955078 0.63863903284072876
0.91592514514923096 0.67216235399246216 0.62037181854248047
0.043137256056070328 0.67094498872756958 0.65259087085723877
0.043137256056070328 0.70208960771560669 0.66540694236755371
0.05128994956612587 0.7333216667175293 0.67404192686080933
0.25284671783447266 0.74373990297317505 0.62939357757568359
0.65278863906860352 0.76485860347747803 0.59694021940231323
0.84512495994567871 0.78161346912384033 0.59259128570556641
0.9417995810508728 0.77172255516052246 0.59104835987091064
0.043137256056070328 0.84175926446914673 0.74425584077835083
0.043137256056070328 0.86092573404312134 0.70335811376571655
0.043365776538848877 0.87068146467208862 0.61799782514572144
0.17534527182579041 0.92004889249801636 0.52856940031051636
0.6081203818321228 0.92149555683135986 0.49713000655174255
0.828857421875 0.90940982103347778 0.55737566947937012
0.94729012250900269 0.89545077085494995 0.55511528253555298
0.048452220857143402 0.33035734295845032 0.41021531820297241
0.090995058417320251 0.32963714003562927 0.39912277460098267
0.23176532983779907 0.33086693286895752 0.39505496621131897
0.48274692893028259 0.3590455949306488 0.37572887539863586
0.6861875057220459 0.36757075786590576 0.37862375378608704
0.82259726524353027 0.39173522591590881 0.42910224199295044
0.88565534353256226 0.42755076289176941 0.48616358637809753
0.043238859623670578 0.34427452087402344 0.42906719446182251
0.05537872388958931 0.35142058134078979 0.44515576958656311
0.18996341526508331 0.35127249360084534 0.43941593170166016
0.45981037616729736 0.3628351092338562 0.43334653973579407
0.67664659023284912 0.38862568140029907 0.44186669588088989
0.82570528984069824 0.40760830044746399 0.48213762044906616
0.88955092430114746 0.44970875978469849 0.53653770685195923
0.043137256056070328 0.38185331225395203 0.46977826952934265
0.045485775917768478 0.3961080014705658 0.49419015645980835
0.1275927722454071 0.40682455897331238 0.52539169788360596
0.38402065634727478 0.39937791228294373 0.55161237716674805
0.67088192701339722 0.42429223656654358 0.55694079399108887
0.82785701751708984 0.45265072584152222 0.58192765712738037
0.89842194318771362 0.49728670716285706 0.61044996976852417
0.043137256056070328 0.44127798080444336 0.53624016046524048
0.043742910027503967 0.47283732891082764 0.57497149705886841
0.09255903959274292 0.49212378263473511 0.60952788591384888
0.33807945251464844 0.51023757457733154 0.66713905334472656
0.63943648338317871 0.50574332475662231 0.67409759759902954
0.83109885454177856 0.53402960300445557 0.67361009120941162
0.90705448389053345 0.57828891277313232 0.68124765157699585
0.043137256056070328 0.53370338678359985 0.62080961465835571
0.043524559587240219 0.56097239255905151 0.65380668640136719
0.075613267719745636 0.58672064542770386 0.68807303905487061
0.30469676852226257 0.60808318853378296 0.72004920244216919
0.61661136150360107 0.63757574558258057 0.73967486619949341
0.81887495517730713 0.66147315502166748 0.74021017551422119
0.91058188676834106 0.68590879440307617 0.73813909292221069
0.043137256056070328 0.64255648851394653 0.70866739749908447
0.043137256056070328 0.67060548067092896 0.72896426916122437
0.057403296232223511 0.69861906766891479 0.75223100185394287
0.20262940227985382 0.73091596364974976 0.77579492330551147
0.56724947690963745 0.76372832059860229 0.77862972021102905
0.81768310070037842 0.79344916343688965 0.76675093173980713
0.92825400829315186 0.80322027206420898 0.77124536037445068
0.043137256056070328 0.77779591083526611 0.79788053035736084
0.043137256056070328 0.8164559006690979 0.81137228012084961
0.043275482952594757 0.84829390048980713 0.81599241495132446
0.075952760875225067 0.88960075378417969 0.81076323986053467
0.46114632487297058 0.9208722710609436 0.74009084701538086
0.78339195251464844 0.93180930614471436 0.71559220552444458
0.94515669345855713 0.91485065221786499 0.72794193029403687
0.043550692498683929 0.39844617247581482 0.49796772003173828
0.054729476571083069 0.39646336436271667 0.48037755489349365
0.20333985984325409 0.39214614033699036 0.45942705869674683
0.42754170298576355 0.40359652042388916 0.49108275771141052
0.66542339324951172 0.4337598979473114 0.52716845273971558
0.81443184614181519 0.44963571429252625 0.58389252424240112
0.90809839963912964 0.48497834801673889 0.64260697364807129
0.043137256056070328 0.4105740487575531 0.53045892715454102
0.047935903072357178 0.41600832343101501 0.53879058361053467
0.15462568402290344 0.41161823272705078 0.51710885763168335
0.37099757790565491 0.401937335729599 0.53936767578125
0.6459658145904541 0.4235900342464447 0.590492844581604
0.82268595695495605 0.45146006345748901 0.63849759101867676
0.928081214427948 0.49680900573730469 0.71572887897491455
0.043137256056070328 0.43050402402877808 0.55084389448165894
0.043395500630140305 0.44383496046066284 0.57603633403778076
0.08359421044588089 0.46126285195350647 0.61829245090484619
0.30038979649543762 0.45340031385421753 0.64578932523727417
0.59651267528533936 0.44250398874282837 0.68559598922729492
0.82108801603317261 0.46964925527572632 0.72309273481369019
0.92987269163131714 0.50724887847900391 0.74696487188339233
0.043137256056070328 0.49798193573951721 0.62880992889404297
0.043137256056070328 0.51985204219818115 0.66076242923736572
0.060812078416347504 0.52277874946594238 0.67161345481872559
0.2695564329624176 0.54547297954559326 0.73912906646728516
0.54078221321105957 0.51910614967346191 0.75996017456054688
0.79660457372665405 0.53999990224838257 0.79134786128997803
0.9362645149230957 0.57588738203048706 0.81172740459442139
0.043137256056070328 0.56427443027496338 0.6990094780921936
0.043137256056070328 0.59078013896942139 0.72901129722595215
0.052917718887329102 0.60503202676773071 0.74968093633651733
0.25281229615211487 0.61916780471801758 0.77464371919631958
0.54154998064041138 0.64283227920532227 0.81442511081695557
0.78815257549285889 0.65054512023925781 0.8322148323059082
0.93753618001937866 0.66641467809677124 0.84728544950485229
0.043137256056070328 0.6355215311050415 0.76106494665145874
0.043137256056070328 0.66497302055358887 0.78843700885772705
0.05145823210477829 0.68028074502944946 0.80455666780471802
0.22888383269309998 0.69867891073226929 0.81648939847946167
0.52393454313278198 0.72813934087753296 0.84193229675292969
0.78868848085403442 0.77831417322158813 0.84952056407928467
0.933971107006073 0.78867530822753906 0.87214857339859009
0.043137256056070328 0.73778063058853149 0.83779919147491455
0.043137256056070328 0.75941359996795654 0.85188490152359009
0.044751126319169998 0.79187428951263428 0.86349457502365112
0.10519739985466003 0.81474500894546509 0.87944185733795166
0.45339259505271912 0.84347027540206909 0.88346982002258301
0.75218707323074341 0.88675320148468018 0.88666176795959473
0.93314385414123535 0.92576295137405396 0.88595139980316162
