assets/lut/kylerholland kh07.cube
# Created by: G'MIC (https://gmic.eu)
TITLE "kh7"
# LUT size
LUT_3D_SIZE 5
# Data domain
DOMAIN_MIN 0.0 0.0 0.0
DOMAIN_MAX 1.0 1.0 1.0
# LUT data points
0.013450173661112785 0.012469437904655933 0.026246104389429092
0.10934509336948395 0.0240287184715271 0.052471444010734558
0.28243130445480347 0.037833016365766525 0.071858473122119904
0.50161343812942505 0.046651773154735565 0.10036864876747131
0.72139078378677368 0.060289211571216583 0.12385480105876923
0.036592625081539154 0.12808358669281006 0.072924189269542694
0.14287573099136353 0.14295955002307892 0.084490306675434113
0.32361078262329102 0.16585701704025269 0.11032138764858246
0.53798353672027588 0.18715722858905792 0.13955366611480713
0.76454085111618042 0.20794558525085449 0.1771872490644455
0.063876792788505554 0.32315853238105774 0.13212132453918457
0.18166212737560272 0.34696158766746521 0.14914312958717346
0.37063270807266235 0.3715212345123291 0.17435269057750702
0.58841651678085327 0.39760515093803406 0.20282530784606934
0.81710541248321533 0.42478105425834656 0.23561273515224457
0.093639492988586426 0.55931746959686279 0.21196867525577545
0.22412984073162079 0.58702588081359863 0.23759660124778748
0.42575919628143311 0.61188536882400513 0.25993669033050537
0.64455682039260864 0.64262181520462036 0.28412428498268127
0.87388324737548828 0.67099112272262573 0.32274594902992249
0.13442257046699524 0.80747663974761963 0.30263599753379822
0.26179623603820801 0.84131020307540894 0.33391985297203064
0.47571286559104919 0.8654600977897644 0.35028389096260071
0.70494061708450317 0.89474368095397949 0.37349584698677063
0.93908369541168213 0.92661583423614502 0.40554797649383545
0.013215322978794575 0.024965442717075348 0.087445415556430817
0.10649846494197845 0.030678901821374893 0.16248010098934174
0.28453481197357178 0.043150328099727631 0.18374079465866089
0.49764463305473328 0.058791682124137878 0.21372736990451813
0.71996337175369263 0.081097319722175598 0.24109265208244324
0.059000052511692047 0.12006909400224686 0.17588141560554504
0.14382466673851013 0.15377096831798553 0.19283841550350189
0.32800105214118958 0.17437955737113953 0.22188381850719452
0.54466968774795532 0.19829568266868591 0.25432226061820984
0.77198702096939087 0.22306884825229645 0.29390144348144531
0.094113536179065704 0.31143611669540405 0.26458579301834106
0.19214485585689545 0.35484853386878967 0.26747772097587585
0.38086548447608948 0.38094925880432129 0.28242689371109009
0.6018068790435791 0.41133096814155579 0.31086084246635437
0.82898104190826416 0.43809089064598083 0.35029929876327515
0.1245449110865593 0.55695152282714844 0.34413763880729675
0.23052239418029785 0.60452443361282349 0.3406158983707428
0.43054473400115967 0.63272249698638916 0.35217896103858948
0.65839517116546631 0.66044443845748901 0.38729971647262573
0.88497805595397949 0.68940317630767822 0.42168861627578735
0.16046944260597229 0.81179535388946533 0.42480278015136719
0.26922249794006348 0.86092811822891235 0.42238005995750427
0.48247548937797546 0.88712805509567261 0.44060429930686951
0.71547555923461914 0.91436934471130371 0.47771582007408142
0.94659793376922607 0.94540965557098389 0.51336556673049927
0.014486559666693211 0.041354835033416748 0.14574404060840607
0.046692598611116409 0.072514474391937256 0.30261719226837158
0.27316835522651672 0.053848534822463989 0.37324506044387817
0.49856254458427429 0.061317741870880127 0.40221866965293884
0.72859293222427368 0.077274203300476074 0.43286299705505371
0.03965270146727562 0.15094348788261414 0.29637911915779114
0.10236412286758423 0.19367854297161102 0.33973845839500427
0.31167468428611755 0.19107137620449066 0.41559958457946777
0.55150324106216431 0.20428337156772614 0.44856482744216919
0.77647852897644043 0.22871778905391693 0.48246955871582031
0.14099092781543732 0.30436867475509644 0.40189945697784424
0.2177077978849411 0.35470643639564514 0.45108067989349365
0.37392866611480713 0.40339580178260803 0.4653555154800415
0.60538184642791748 0.42451134324073792 0.50886768102645874
0.83382350206375122 0.45105430483818054 0.54142814874649048
0.18779759109020233 0.53018295764923096 0.52747386693954468
0.26370975375175476 0.58974480628967285 0.57456773519515991
0.4498303234577179 0.6328774094581604 0.56470227241516113
0.66339725255966187 0.67535591125488281 0.57660931348800659
0.89425885677337646 0.70206284523010254 0.6062818169593811
0.22420910000801086 0.78369855880737305 0.6353796124458313
0.31124776601791382 0.84762877225875854 0.66407132148742676
0.49751672148704529 0.89794421195983887 0.63854682445526123
0.715748131275177 0.93501806259155273 0.65084719657897949
0.95355391502380371 0.96246957778930664 0.68578100204467773
0.020368419587612152 0.062512539327144623 0.20944911241531372
0.023273289203643799 0.11150303483009338 0.36774212121963501
0.18639096617698669 0.096733734011650085 0.58765792846679688
0.4661039412021637 0.086063921451568604 0.62029480934143066
0.72898286581039429 0.085706688463687897 0.65382939577102661
0.033577382564544678 0.18282757699489594 0.39822322130203247
0.052763365209102631 0.24436436593532562 0.50698137283325195
0.23609305918216705 0.24107608199119568 0.61358749866485596
0.51473557949066162 0.23240335285663605 0.67257481813430786
0.77355051040649414 0.24217656254768372 0.70568746328353882
0.12301122397184372 0.33698436617851257 0.5651593804359436
0.16434429585933685 0.40331694483757019 0.63991844654083252
0.3242550790309906 0.44992455840110779 0.63014525175094604
0.57115978002548218 0.4538651704788208 0.72836399078369141
0.83592343330383301 0.46497151255607605 0.76439172029495239
0.2399994432926178 0.52673238515853882 0.67915326356887817
0.29366797208786011 0.59395879507064819 0.75676757097244263
0.48128214478492737 0.63713330030441284 0.7589263916015625
0.65094470977783203 0.69981038570404053 0.77401947975158691
0.89213162660598755 0.71564584970474243 0.8360525369644165
0.30716857314109802 0.76088368892669678 0.80093973875045776
0.37657603621482849 0.8285256028175354 0.86904734373092651
0.55867445468902588 0.8743630051612854 0.87735283374786377
0.74723070859909058 0.92902427911758423 0.88995957374572754
0.95081651210784912 0.97614097595214844 0.90605276823043823
0.01847890205681324 0.08192133903503418 0.2844717800617218
0.031389407813549042 0.13576844334602356 0.44058066606521606
0.1017640233039856 0.1667247861623764 0.66430246829986572
0.39492073655128479 0.12968355417251587 0.77761942148208618
0.69145578145980835 0.12103437632322311 0.81022214889526367
0.037552449852228165 0.21083322167396545 0.48432055115699768
0.059430994093418121 0.27384871244430542 0.59896755218505859
0.18779012560844421 0.3057219386100769 0.67110621929168701
0.43457415699958801 0.2914738655090332 0.81626874208450317
0.72851026058197021 0.28358292579650879 0.87409371137619019
0.11432330310344696 0.37758347392082214 0.66531026363372803
0.16935922205448151 0.43999263644218445 0.72018289566040039
0.2984653115272522 0.50033879280090332 0.73141562938690186
0.51444399356842041 0.51404833793640137 0.8457648754119873
0.78288406133651733 0.51710158586502075 0.91083985567092896
0.26945653557777405 0.54527777433395386 0.79459047317504883
0.35651931166648865 0.60780513286590576 0.81666558980941772
0.48420369625091553 0.67341357469558716 0.8434796929359436
0.6428520679473877 0.73910611867904663 0.87317734956741333
0.84465253353118896 0.77501988410949707 0.94626432657241821
0.4242156445980072 0.74071800708770752 0.87323540449142456
0.52166813611984253 0.79808622598648071 0.90354275703430176
0.67979353666305542 0.85585999488830566 0.93353438377380371
0.85250282287597656 0.91923266649246216 0.9613528847694397
0.98728430271148682 0.98913103342056274 0.99461781978607178
