assets/lut/kylerholland kh03.cube
# Created by: G'MIC (https://gmic.eu)
TITLE "kh3"
# LUT size
LUT_3D_SIZE 13
# Data domain
DOMAIN_MIN 0.0 0.0 0.0
DOMAIN_MAX 1.0 1.0 1.0
# LUT data points
0.050296589732170105 0.078347526490688324 0.081515878438949585
0.080468855798244476 0.081538014113903046 0.083200998604297638
0.13561910390853882 0.095082648098468781 0.084074772894382477
0.20395419001579285 0.1097719818353653 0.081670604646205902
0.27386772632598877 0.1241847351193428 0.079309158027172089
0.33947944641113281 0.13704267144203186 0.080403558909893036
0.4073488712310791 0.14708855748176575 0.09324086457490921
0.48589709401130676 0.15931412577629089 0.1122024804353714
0.56594908237457275 0.17176184058189392 0.13276283442974091
0.64220023155212402 0.18950836360454559 0.14684911072254181
0.71205151081085205 0.20728202164173126 0.15903085470199585
0.7824176549911499 0.22712786495685577 0.16715317964553833
0.84538990259170532 0.24570414423942566 0.17163634300231934
0.049534890800714493 0.11281823366880417 0.081002496182918549
0.078968361020088196 0.11127766966819763 0.082504361867904663
0.14138554036617279 0.11485100537538528 0.08196704089641571
0.21419011056423187 0.12911154329776764 0.077883072197437286
0.28361907601356506 0.13927696645259857 0.072801165282726288
0.35275879502296448 0.14959760010242462 0.075238309800624847
0.42464408278465271 0.16456036269664764 0.085939578711986542
0.50410908460617065 0.17679117619991302 0.10386117547750473
0.58194845914840698 0.19020068645477295 0.12171702831983566
0.65527200698852539 0.20824995636940002 0.13401535153388977
0.72456586360931396 0.22563847899436951 0.14564453065395355
0.79206901788711548 0.23978365957736969 0.15773919224739075
0.85536485910415649 0.25712469220161438 0.16505119204521179
0.044674787670373917 0.16359065473079681 0.072862289845943451
0.075597040355205536 0.16196076571941376 0.078479379415512085
0.14942729473114014 0.15392036736011505 0.080923028290271759
0.23593761026859283 0.15572337806224823 0.06908009946346283
0.3083404004573822 0.16590909659862518 0.063090994954109192
0.38020521402359009 0.17844352126121521 0.064067453145980835
0.45618551969528198 0.19205771386623383 0.076073363423347473
0.53730964660644531 0.2052411288022995 0.093422621488571167
0.61256957054138184 0.22566454112529755 0.10447102040052414
0.68498069047927856 0.2472478449344635 0.1127065047621727
0.75190490484237671 0.26699158549308777 0.12160156667232513
0.81634318828582764 0.28479519486427307 0.13072596490383148
0.87368124723434448 0.30292898416519165 0.13696406781673431
0.044533509761095047 0.20986615121364594 0.06886553019285202
0.073771998286247253 0.21787445247173309 0.068250782787799835
0.15420728921890259 0.21133239567279816 0.081597782671451569
0.24904966354370117 0.20230245590209961 0.070135675370693207
0.33661109209060669 0.19690790772438049 0.05559888482093811
0.4211483895778656 0.20368656516075134 0.057634063065052032
0.50245273113250732 0.21783982217311859 0.071743369102478027
0.58140844106674194 0.23794139921665192 0.084002718329429626
0.65546965599060059 0.25981548428535461 0.093705072999000549
0.72138291597366333 0.28325352072715759 0.09861098974943161
0.78503876924514771 0.30806371569633484 0.10176967829465866
0.84811526536941528 0.3383086621761322 0.10166126489639282
0.89965426921844482 0.36379483342170715 0.10152776539325714
0.044647395610809326 0.25092875957489014 0.062836878001689911
0.071893833577632904 0.26543673872947693 0.057220999151468277
0.15188182890415192 0.26777166128158569 0.066016025841236115
0.25871282815933228 0.26147571206092834 0.072270743548870087
0.3533138632774353 0.2538655698299408 0.058583818376064301
0.44834667444229126 0.24338042736053467 0.050774220377206802
0.54441267251968384 0.25158864259719849 0.062060456722974777
0.62617993354797363 0.27145794034004211 0.074837855994701385
0.6976134181022644 0.29275649785995483 0.083883814513683319
0.76023983955383301 0.31713742017745972 0.08661545068025589
0.8199349045753479 0.34528186917304993 0.085651695728302002
0.8792109489440918 0.3821016252040863 0.078460976481437683
0.92244690656661987 0.40859553217887878 0.073694579303264618
0.045069750398397446 0.29027536511421204 0.063059248030185699
0.078561089932918549 0.30646678805351257 0.052357092499732971
0.15872183442115784 0.31895649433135986 0.055392082780599594
0.27134004235267639 0.3212706446647644 0.062609381973743439
0.37466138601303101 0.32787176966667175 0.05582713708281517
0.47273847460746765 0.31827166676521301 0.047191634774208069
0.57131320238113403 0.30769270658493042 0.048649568110704422
0.65646618604660034 0.31087306141853333 0.057358864694833755
0.73209077119827271 0.32980230450630188 0.068078421056270599
0.79412585496902466 0.3530571460723877 0.07141508162021637
0.85190153121948242 0.38154450058937073 0.070771895349025726
0.90785348415374756 0.42271724343299866 0.058533463627099991
0.94230788946151733 0.44662356376647949 0.051369462162256241
0.049021434038877487 0.32999584078788757 0.06632956862449646
0.083126246929168701 0.34846282005310059 0.048540271818637848
0.17315962910652161 0.36338147521018982 0.051582217216491699
0.28799304366111755 0.36869820952415466 0.067123338580131531
0.39590626955032349 0.38832199573516846 0.055017180740833282
0.49154460430145264 0.4042835533618927 0.044455941766500473
0.58639037609100342 0.39263802766799927 0.043336246162652969
0.67563450336456299 0.37859615683555603 0.046426121145486832
0.74673175811767578 0.38337299227714539 0.051364734768867493
0.81407147645950317 0.39526817202568054 0.054194655269384384
0.86731809377670288 0.42020446062088013 0.055220287293195724
0.9132658839225769 0.45509535074234009 0.050157748162746429
0.94551032781600952 0.47890135645866394 0.046616002917289734
0.054279088973999023 0.37550449371337891 0.059322744607925415
0.10332094132900238 0.39325252175331116 0.04898466169834137
0.19564111530780792 0.40803262591362 0.054160233587026596
0.3055121898651123 0.41638645529747009 0.069551937282085419
0.41205397248268127 0.43979090452194214 0.056866094470024109
0.50947248935699463 0.46907395124435425 0.044993307441473007
0.59695923328399658 0.49330532550811768 0.043350338935852051
0.6854395866394043 0.48117873072624207 0.044677749276161194
0.75854051113128662 0.46344125270843506 0.045624587684869766
0.82500600814819336 0.45649546384811401 0.04421602189540863
0.88062590360641479 0.4705808162689209 0.046666104346513748
0.92134350538253784 0.49347710609436035 0.04606303945183754
0.94754523038864136 0.51330292224884033 0.0433921217918396
0.067433394491672516 0.42295166850090027 0.061480876058340073
0.12707376480102539 0.43703415989875793 0.056798417121171951
0.21435345709323883 0.450429767370224 0.060027163475751877
0.32100829482078552 0.46008539199829102 0.075549721717834473
0.42380735278129578 0.48548433184623718 0.071069993078708649
0.52064692974090576 0.52275896072387695 0.052112996578216553
0.6062658429145813 0.55737954378128052 0.043517768383026123
0.68511611223220825 0.58295321464538574 0.043173231184482574
0.76138091087341309 0.5689316987991333 0.04561200737953186
0.82919639348983765 0.54924893379211426 0.046685595065355301
0.89296197891235352 0.53772497177124023 0.043960060924291611
0.93596345186233521 0.54003334045410156 0.043165199458599091
0.94744247198104858 0.55343413352966309 0.043834701180458069
0.083071932196617126 0.4600776731967926 0.0761093869805336
0.14669668674468994 0.47004938125610352 0.075561419129371643
0.23791100084781647 0.48492538928985596 0.078664876520633698
0.33777931332588196 0.49945011734962463 0.086809448897838593
0.43396115303039551 0.52587997913360596 0.082293972373008728
0.52847462892532349 0.56723332405090332 0.060361269861459732
0.61294460296630859 0.60673332214355469 0.045347057282924652
0.68806815147399902 0.64506256580352783 0.043137256056070328
0.75540626049041748 0.67206424474716187 0.043181058019399643
0.82354521751403809 0.6605408787727356 0.045233499258756638
0.89343106746673584 0.63098025321960449 0.046627357602119446
0.93811166286468506 0.60881584882736206 0.046026088297367096
0.9477534294128418 0.60206276178359985 0.046995814889669418
0.10277892649173737 0.49159473180770874 0.093639537692070007
0.16358199715614319 0.50919312238693237 0.087102137506008148
0.25460007786750793 0.53196346759796143 0.084498867392539978
0.34968158602714539 0.55977797508239746 0.082723639905452728
0.43877455592155457 0.59868437051773071 0.073129601776599884
0.53036975860595703 0.63889890909194946 0.057208355516195297
0.61508440971374512 0.67462074756622314 0.044914528727531433
0.69162213802337646 0.70506048202514648 0.043137256056070328
0.75599563121795654 0.7361944317817688 0.043137256056070328
0.81742304563522339 0.7601514458656311 0.043142639100551605
0.88683521747589111 0.73499375581741333 0.044864341616630554
0.94060671329498291 0.7008812427520752 0.04654674232006073
0.94850564002990723 0.67682838439941406 0.046814728528261185
0.082609198987483978 0.58503162860870361 0.063659891486167908
0.14360269904136658 0.60549557209014893 0.059521004557609558
0.23977842926979065 0.62918263673782349 0.05217888206243515
0.34451538324356079 0.66425687074661255 0.050792485475540161
0.43977093696594238 0.70971769094467163 0.053727421909570694
0.53099793195724487 0.7449372410774231 0.048601996153593063
0.61505478620529175 0.77130842208862305 0.043922919780015945
0.69027078151702881 0.79040271043777466 0.043137256056070328
0.75577020645141602 0.80781275033950806 0.043137256056070328
0.81376999616622925 0.82141929864883423 0.043137256056070328
0.87495517730712891 0.82399767637252808 0.043137256056070328
0.93257772922515869 0.79805773496627808 0.043220683932304382
0.95041435956954956 0.76362121105194092 0.043137256056070328
0.049672503024339676 0.72729778289794922 0.04394100233912468
0.092931397259235382 0.74455165863037109 0.044249635189771652
0.20657500624656677 0.76472187042236328 0.043595660477876663
0.33112043142318726 0.78600215911865234 0.043453022837638855
0.43806159496307373 0.80934822559356689 0.043853878974914551
0.52996039390563965 0.82090115547180176 0.04324137419462204
0.61445486545562744 0.83330351114273071 0.043137256056070328
0.68848472833633423 0.84470593929290771 0.043137256056070328
0.75548475980758667 0.85324573516845703 0.043137256056070328
0.81486696004867554 0.86118727922439575 0.043137256056070328
0.87268567085266113 0.87365394830703735 0.043137256056070328
0.92932271957397461 0.88686168193817139 0.043137256056070328
0.95095193386077881 0.86158090829849243 0.043137256056070328
0.050705958157777786 0.088360883295536041 0.10277003794908524
0.087634682655334473 0.092228010296821594 0.10882405191659927
0.15001258254051208 0.099710322916507721 0.1097647100687027
0.21933829784393311 0.10796909779310226 0.10430306941270828
0.28783074021339417 0.11677763611078262 0.096028722822666168
0.35299587249755859 0.12569691240787506 0.094711214303970337
0.42676365375518799 0.14340507984161377 0.10646245628595352
0.49778428673744202 0.15343970060348511 0.12488175928592682
0.57116603851318359 0.16686989367008209 0.14099451899528503
0.64138710498809814 0.18446590006351471 0.15337179601192474
0.71082568168640137 0.20229347050189972 0.16528426110744476
0.7802162766456604 0.21957562863826752 0.17537868022918701
0.84381115436553955 0.23564596474170685 0.18036042153835297
0.049312815070152283 0.11146633327007294 0.11089842766523361
0.080658823251724243 0.11619362980127335 0.11480049043893814
0.14207306504249573 0.12314519286155701 0.1151713952422142
0.21636572480201721 0.13421241939067841 0.10741705447435379
0.29079315066337585 0.14072005450725555 0.09380650520324707
0.36251479387283325 0.14959540963172913 0.087595999240875244
0.43715596199035645 0.16278605163097382 0.093938194215297699
0.51127254962921143 0.17130184173583984 0.11221136897802353
0.58502799272537231 0.18578541278839111 0.12772646546363831
0.65599781274795532 0.20232276618480682 0.14078891277313232
0.7229454517364502 0.21809878945350647 0.15251429378986359
0.79251164197921753 0.23703789710998535 0.16186687350273132
0.85210424661636353 0.25251895189285278 0.16915629804134369
0.046720750629901886 0.15891195833683014 0.11149555444717407
0.0719786137342453 0.16255195438861847 0.11239057034254074
0.14311677217483521 0.15965452790260315 0.11121570318937302
0.2314504086971283 0.16361449658870697 0.10049881041049957
0.3066260814666748 0.17222853004932404 0.0905274897813797
0.38349142670631409 0.1838449090719223 0.080748856067657471
0.45916226506233215 0.19460174441337585 0.08045661449432373
0.53651726245880127 0.20380531251430511 0.095160767436027527
0.60913413763046265 0.22224238514900208 0.10680797696113586
0.67735230922698975 0.2366098165512085 0.11917344480752945
0.74453932046890259 0.25594380497932434 0.12831863760948181
0.81170493364334106 0.27727296948432922 0.13535025715827942
0.86693298816680908 0.29100653529167175 0.14356896281242371
0.046154860407114029 0.21156057715415955 0.098866887390613556
0.061732139438390732 0.22177611291408539 0.094628416001796722
0.14019118249416351 0.22042986750602722 0.097499385476112366
0.24422429502010345 0.2108498215675354 0.097093947231769562
0.33382520079612732 0.20562107861042023 0.079707637429237366
0.41788622736930847 0.21186695992946625 0.065697208046913147
0.49843284487724304 0.22604034841060638 0.071806497871875763
0.57534486055374146 0.24190053343772888 0.082196749746799469
0.64497828483581543 0.26222708821296692 0.089858129620552063
0.70943892002105713 0.28329929709434509 0.095533765852451324
0.77443546056747437 0.30565401911735535 0.10044142603874207
0.83788532018661499 0.33180487155914307 0.10292446613311768
0.89227008819580078 0.35555419325828552 0.103908970952034
0.045168228447437286 0.25083139538764954 0.086547866463661194
0.057773754000663757 0.26668053865432739 0.077476277947425842
0.12863907217979431 0.27705302834510803 0.079994067549705505
0.25127151608467102 0.27066603302955627 0.095090456306934357
0.35098889470100403 0.263893723487854 0.079471707344055176
0.44858279824256897 0.25204175710678101 0.058174688369035721
0.54120719432830811 0.25914666056632996 0.06132526695728302
0.62197887897491455 0.27654239535331726 0.072936356067657471
0.68816977739334106 0.29980507493019104 0.076379485428333282
0.74837970733642578 0.32330742478370667 0.078962557017803192
0.80800843238830566 0.35001969337463379 0.079207658767700195
0.86889249086380005 0.3823089599609375 0.076090164482593536
0.91569894552230835 0.40717232227325439 0.072294630110263824
0.044575396925210953 0.28777578473091125 0.08693879097700119
0.06052066758275032 0.30792531371116638 0.070675253868103027
0.13060720264911652 0.32925331592559814 0.067393362522125244
0.26181066036224365 0.32900258898735046 0.08521626889705658
0.37116041779518127 0.33506312966346741 0.07301456481218338
0.46835571527481079 0.32693251967430115 0.060285486280918121
0.56892752647399902 0.31227457523345947 0.048558749258518219
0.65934687852859497 0.31951329112052917 0.05838337168097496
0.72944170236587524 0.33605608344078064 0.063885360956192017
0.7858768105506897 0.3617786169052124 0.064440816640853882
0.84125238656997681 0.39084935188293457 0.064791887998580933
0.89947319030761719 0.42707130312919617 0.056482188403606415
0.93816357851028442 0.4507567286491394 0.049862716346979141
0.044546060264110565 0.32271695137023926 0.090071670711040497
0.064430907368659973 0.34795579314231873 0.066980578005313873
0.15075819194316864 0.37308603525161743 0.06069570779800415
0.27774184942245483 0.37846606969833374 0.084758192300796509
0.39261454343795776 0.39464458823204041 0.07142377644777298
0.49003881216049194 0.41042903065681458 0.053057622164487839
0.58594876527786255 0.3999389111995697 0.045253336429595947
0.67754518985748291 0.38721743226051331 0.04629313200712204
0.74827158451080322 0.39027267694473267 0.049140751361846924
0.81445777416229248 0.40222036838531494 0.04874776303768158
0.867961585521698 0.42905282974243164 0.049553155899047852
0.91758066415786743 0.46215173602104187 0.047322127968072891
0.9463697075843811 0.48199576139450073 0.044574618339538574
0.046258363872766495 0.3638342022895813 0.090951822698116302
0.083163194358348846 0.39249974489212036 0.068429581820964813
0.17456547915935516 0.41388753056526184 0.065668456256389618
0.29731816053390503 0.42417237162590027 0.085756354033946991
0.40593701601028442 0.44530951976776123 0.077679701149463654
0.50775086879730225 0.47496378421783447 0.053685281425714493
0.59576582908630371 0.49919372797012329 0.045439191162586212
0.68444705009460449 0.490346759557724 0.045950900763273239
0.75829732418060303 0.4715610146522522 0.045211553573608398
0.82819348573684692 0.46500808000564575 0.043737746775150299
0.88334637880325317 0.47562357783317566 0.043399348855018616
0.92927104234695435 0.49950399994850159 0.043541464954614639
0.94926232099533081 0.51720970869064331 0.043138511478900909
0.051369175314903259 0.40852165222167969 0.095156729221343994
0.098464980721473694 0.43684932589530945 0.073432207107543945
0.19383636116981506 0.45331943035125732 0.073097765445709229
0.31126093864440918 0.4653589129447937 0.093145139515399933
0.41823586821556091 0.49158331751823425 0.08578956127166748
0.51824373006820679 0.52729582786560059 0.061004772782325745
0.60595488548278809 0.56157487630844116 0.047783210873603821
0.68539947271347046 0.59005999565124512 0.044023193418979645
0.75955086946487427 0.57879412174224854 0.045784536749124527
0.83106976747512817 0.55447739362716675 0.047637581825256348
0.89506059885025024 0.54126095771789551 0.044509377330541611
0.94019365310668945 0.54599958658218384 0.043372943997383118
0.95016157627105713 0.55585825443267822 0.04456845298409462
0.06661638617515564 0.44853329658508301 0.10545546561479568
0.11969225853681564 0.47160932421684265 0.092036798596382141
0.21852794289588928 0.48748967051506042 0.088485941290855408
0.3265831470489502 0.50262510776519775 0.10349231958389282
0.42618831992149353 0.52940410375595093 0.10209511965513229
0.52311527729034424 0.56750261783599854 0.079335413873195648
0.61091345548629761 0.61150217056274414 0.04995320737361908
0.68699795007705688 0.64925658702850342 0.043659046292304993
0.75465208292007446 0.6757662296295166 0.04340159147977829
0.8240814208984375 0.66230118274688721 0.04629102349281311
0.89569008350372314 0.63085484504699707 0.047406695783138275
0.94031685590744019 0.61107730865478516 0.047010086476802826
0.94974160194396973 0.60272866487503052 0.047084495425224304
0.086965166032314301 0.48734280467033386 0.11710390448570251
0.13903342187404633 0.51250028610229492 0.10047323256731033
0.2324812263250351 0.53372722864151001 0.094449080526828766
0.338113933801651 0.55629587173461914 0.095483653247356415
0.43187358975410461 0.59212660789489746 0.086193084716796875
0.52425742149353027 0.63357430696487427 0.06731751561164856
0.61067813634872437 0.67321592569351196 0.047298118472099304
0.68651169538497925 0.70999228954315186 0.043228704482316971
0.75174456834793091 0.74125707149505615 0.043137256056070328
0.81522762775421143 0.75811964273452759 0.043226651847362518
0.88546055555343628 0.73700100183486938 0.045084096491336823
0.94121861457824707 0.70327138900756836 0.046325173228979111
0.94826334714889526 0.67772501707077026 0.047306030988693237
0.059814617037773132 0.59653979539871216 0.079275734722614288
0.11769714206457138 0.61689102649688721 0.064949542284011841
0.22241131961345673 0.63124561309814453 0.058287214487791061
0.33405420184135437 0.65672916173934937 0.054290127009153366
0.43081197142601013 0.69218140840530396 0.051991704851388931
0.52407026290893555 0.73454266786575317 0.048421792685985565
0.61067491769790649 0.77174967527389526 0.044996015727519989
0.68769943714141846 0.79153382778167725 0.043137256056070328
0.7522735595703125 0.80991834402084351 0.043266654014587402
0.81111294031143188 0.81926649808883667 0.043520011007785797
0.87308484315872192 0.82551497220993042 0.043295063078403473
0.93287169933319092 0.80158740282058716 0.043209660798311234
0.95029789209365845 0.76898384094238281 0.043735984712839127
0.045292243361473083 0.73327928781509399 0.048737663775682449
0.07868029922246933 0.74335533380508423 0.045137278735637665
0.19557052850723267 0.75937074422836304 0.043452050536870956
0.3177940845489502 0.77928173542022705 0.043416939675807953
0.42672878503799438 0.80345529317855835 0.043670054525136948
0.52289426326751709 0.82291030883789062 0.04350903257727623
0.60957866907119751 0.83563429117202759 0.043149102479219437
0.68766599893569946 0.84672194719314575 0.043137256056070328
0.75247716903686523 0.85528826713562012 0.043481402099132538
0.8118862509727478 0.86468034982681274 0.04416288435459137
0.86963993310928345 0.87805497646331787 0.044014438986778259
0.92720860242843628 0.89113134145736694 0.043231379240751266
0.95189470052719116 0.86732053756713867 0.043137256056070328
0.051821120083332062 0.11186899244785309 0.1334652304649353
0.082258738577365875 0.1149815246462822 0.13976524770259857
0.16124387085437775 0.1196892112493515 0.14566874504089355
0.2470729798078537 0.1286308765411377 0.14229930937290192
0.31800186634063721 0.13252569735050201 0.13242256641387939
0.3899131715297699 0.13931296765804291 0.12687766551971436
0.46604207158088684 0.15127260982990265 0.13040535151958466
0.53758078813552856 0.16203035414218903 0.14018057286739349
0.60383492708206177 0.17487138509750366 0.14958836138248444
0.6651729941368103 0.18962559103965759 0.15866494178771973
0.72605293989181519 0.20466679334640503 0.16782358288764954
0.78799998760223389 0.22012630105018616 0.17688684165477753
0.8461296558380127 0.23453159630298615 0.18347224593162537
0.051890220493078232 0.12386386096477509 0.14091475307941437
0.081059746444225311 0.13275201618671417 0.14936114847660065
0.14728859066963196 0.13727930188179016 0.15615147352218628
0.23787963390350342 0.14477658271789551 0.149465411901474
0.31506139039993286 0.14472539722919464 0.1355714350938797
0.3917977511882782 0.14775320887565613 0.1259082555770874
0.46778330206871033 0.15788574516773224 0.12559202313423157
0.54095089435577393 0.16698409616947174 0.13195157051086426
0.60433739423751831 0.17939713597297668 0.14289698004722595
0.66471755504608154 0.19340100884437561 0.15235652029514313
0.7277950644493103 0.20986098051071167 0.16124999523162842
0.79511529207229614 0.22841185331344604 0.17054185271263123
0.84635865688323975 0.24267518520355225 0.17683646082878113
0.048162691295146942 0.16152812540531158 0.15606008470058441
0.067781530320644379 0.16792236268520355 0.16017809510231018
0.13147073984146118 0.17352338135242462 0.16782680153846741
0.227834552526474 0.18033608794212341 0.15994857251644135
0.31016683578491211 0.18240803480148315 0.14654000103473663
0.39791771769523621 0.18636384606361389 0.13364192843437195
0.47751155495643616 0.19012773036956787 0.12470728904008865
0.54945564270019531 0.19305792450904846 0.12309009581804276
0.61721599102020264 0.20706465840339661 0.1331896185874939
0.67862838506698608 0.21786794066429138 0.1416441798210144
0.73965919017791748 0.23501278460025787 0.14622202515602112
0.80542314052581787 0.25601726770401001 0.1502721756696701
0.86691939830780029 0.27436140179634094 0.15665556490421295
0.044775780290365219 0.21926535665988922 0.16669891774654388
0.055247735232114792 0.22870703041553497 0.16298338770866394
0.11368057876825333 0.23546838760375977 0.15782837569713593
0.22671884298324585 0.22833189368247986 0.15288156270980835
0.32293689250946045 0.22567674517631531 0.14839866757392883
0.41134512424468994 0.23209838569164276 0.1342024952173233
0.49216035008430481 0.24028360843658447 0.12140610814094543
0.57270592451095581 0.24625854194164276 0.10950236767530441
0.64481836557388306 0.25768929719924927 0.1068875789642334
0.70544791221618652 0.27429282665252686 0.10895440727472305
0.76550388336181641 0.29333391785621643 0.1133681982755661
0.83072149753570557 0.31596598029136658 0.11567867547273636
0.89252978563308716 0.33981397747993469 0.11844922602176666
0.043308079242706299 0.27039918303489685 0.16222885251045227
0.049096696078777313 0.27299213409423828 0.14624097943305969
0.092983737587928772 0.28984135389328003 0.13255047798156738
0.22172889113426208 0.29178646206855774 0.13582953810691833
