assets/lut/kylerholland kh09.cube
# Created by: G'MIC (https://gmic.eu)
TITLE "kh9"
# LUT size
LUT_3D_SIZE 5
# Data domain
DOMAIN_MIN 0.0 0.0 0.0
DOMAIN_MAX 1.0 1.0 1.0
# LUT data points
0.031734734773635864 0.021885247901082039 0.042683381587266922
0.22279220819473267 0.028335301205515862 0.050912894308567047
0.49498957395553589 0.031551569700241089 0.066013947129249573
0.75251483917236328 0.024964336305856705 0.070459134876728058
0.96075814962387085 0.020046085119247437 0.056575611233711243
0.030993113294243813 0.21998320519924164 0.045550163835287094
0.2406698614358902 0.22255592048168182 0.056580442935228348
0.51573234796524048 0.22400537133216858 0.056151386350393295
0.75740510225296021 0.2323610931634903 0.073704615235328674
0.96258467435836792 0.23672685027122498 0.080235287547111511
0.032744836062192917 0.51644814014434814 0.041361730545759201
0.25154352188110352 0.51589441299438477 0.045994207262992859
0.51705920696258545 0.51622891426086426 0.045875038951635361
0.77733337879180908 0.52243787050247192 0.050610292702913284
0.97981852293014526 0.5231289267539978 0.061950504779815674
0.032744836062192917 0.77859467267990112 0.043935604393482208
0.2561974823474884 0.78100073337554932 0.044507749378681183
0.51806420087814331 0.77711319923400879 0.042300954461097717
0.78441041707992554 0.77680426836013794 0.043215598911046982
0.99191904067993164 0.78539842367172241 0.039964728057384491
0.030193150043487549 0.98999083042144775 0.042602866888046265
0.25898543000221252 0.99246323108673096 0.042419284582138062
0.51459395885467529 0.99246323108673096 0.037216424942016602
0.77343267202377319 0.99381417036056519 0.031812481582164764
0.99246323108673096 0.99705880880355835 0.021055348217487335
0.024453885853290558 0.014452631585299969 0.32518011331558228
0.21659316122531891 0.034814108163118362 0.30736956000328064
0.48182988166809082 0.047710958868265152 0.31616681814193726
0.73686379194259644 0.043058447539806366 0.32871201634407043
0.95019257068634033 0.033838085830211639 0.31964650750160217
0.033639870584011078 0.22434483468532562 0.33973467350006104
0.22899486124515533 0.23015938699245453 0.33082377910614014
0.50190865993499756 0.23867982625961304 0.33128765225410461
0.74811279773712158 0.23942491412162781 0.3464820384979248
0.95970720052719116 0.2422482818365097 0.34781351685523987
0.032735247164964676 0.516895592212677 0.33171543478965759
0.24393832683563232 0.51565933227539062 0.33443942666053772
0.52089673280715942 0.51601588726043701 0.33898261189460754
0.77116590738296509 0.52322214841842651 0.34366616606712341
0.97623181343078613 0.52395474910736084 0.34938701987266541
0.029194924980401993 0.77975255250930786 0.33178198337554932
0.24472060799598694 0.77706384658813477 0.33327850699424744
0.51428079605102539 0.77455097436904907 0.33436861634254456
0.78002816438674927 0.77924662828445435 0.33634018898010254
0.9904170036315918 0.78455883264541626 0.33415216207504272
0.026262829080224037 0.99093139171600342 0.3292238712310791
0.24500750005245209 0.98887676000595093 0.32904613018035889
0.50530421733856201 0.98911464214324951 0.32476639747619629
0.77097433805465698 0.99247187376022339 0.32120350003242493
0.99246323108673096 0.99555790424346924 0.30984893441200256
0.018435250967741013 0.01119568757712841 0.57018947601318359
0.22808286547660828 0.026569336652755737 0.55147945880889893
0.48005959391593933 0.055155809968709946 0.52633875608444214
0.70875167846679688 0.066452562808990479 0.5392187237739563
0.92103427648544312 0.057836480438709259 0.54377871751785278
0.025383010506629944 0.22213292121887207 0.5822608470916748
0.23633559048175812 0.22651723027229309 0.57666409015655518
0.49796593189239502 0.24110636115074158 0.55688077211380005
0.73258596658706665 0.25204303860664368 0.56073832511901855
0.94244092702865601 0.25013238191604614 0.57168924808502197
0.023753447458148003 0.51457589864730835 0.57716101408004761
0.23193204402923584 0.51943320035934448 0.57986688613891602
0.52482140064239502 0.51923972368240356 0.57936710119247437
0.76620471477508545 0.52621495723724365 0.57559788227081299
0.96679532527923584 0.52757531404495239 0.58243638277053833
0.025363996624946594 0.77663403749465942 0.58056342601776123
0.24412205815315247 0.77671569585800171 0.58050286769866943
0.52051848173141479 0.77279412746429443 0.58425724506378174
0.78050810098648071 0.77535772323608398 0.58475100994110107
0.98661190271377563 0.77910530567169189 0.58504611253738403
0.028652235865592957 0.99053311347961426 0.58132070302963257
0.25172951817512512 0.98915880918502808 0.57953780889511108
0.51128417253494263 0.98860293626785278 0.57597178220748901
0.77191007137298584 0.98990088701248169 0.57564443349838257
0.99156975746154785 0.99194759130477905 0.57009625434875488
0.018675485625863075 0.013934221118688583 0.79728043079376221
0.23114067316055298 0.02198028564453125 0.78909164667129517
0.48596826195716858 0.050226699560880661 0.74182480573654175
0.70944219827651978 0.072180159389972687 0.7227787971496582
0.90714091062545776 0.07642066478729248 0.72771590948104858
0.023100489750504494 0.22598038613796234 0.79903644323348999
0.24223557114601135 0.2257203608751297 0.80033105611801147
0.50081074237823486 0.24155975878238678 0.77169722318649292
0.73014748096466064 0.2659112811088562 0.74210339784622192
0.92728769779205322 0.27677270770072937 0.74684661626815796
0.020388359203934669 0.51198792457580566 0.7925533652305603
0.23616473376750946 0.51569563150405884 0.79205989837646484
0.51575154066085815 0.51810359954833984 0.78538364171981812
0.76021105051040649 0.53375214338302612 0.76840567588806152
0.95246440172195435 0.54061770439147949 0.76894325017929077
0.023702628910541534 0.77533566951751709 0.79543936252593994
0.24624429643154144 0.77671569585800171 0.79405564069747925
0.52352350950241089 0.77442580461502075 0.79491418600082397
0.77872771024703979 0.77752959728240967 0.79496663808822632
0.9796556830406189 0.78260976076126099 0.79397541284561157
0.030560122802853584 0.99114900827407837 0.79594844579696655
0.26282665133476257 0.99093139171600342 0.79557162523269653
0.52227783203125 0.98937541246414185 0.79343998432159424
0.77598756551742554 0.98860293626785278 0.7933691143989563
0.99027442932128906 0.98860293626785278 0.7940177321434021
0.029145125299692154 0.023533601313829422 0.99192589521408081
0.25066408514976501 0.023614890873432159 0.98629218339920044
0.50213849544525146 0.043814130127429962 0.94221764802932739
0.72145742177963257 0.068763688206672668 0.90592700242996216
0.90511679649353027 0.087021782994270325 0.90473508834838867
0.028550870716571808 0.22440481185913086 0.9913780689239502
0.25127479434013367 0.2269977331161499 0.99316567182540894
0.50804024934768677 0.23359999060630798 0.97748333215713501
0.73504132032394409 0.26000946760177612 0.92955118417739868
0.92391437292098999 0.2883588969707489 0.91700118780136108
0.025492919608950615 0.51847398281097412 0.989338219165802
0.2362225204706192 0.51855647563934326 0.99091029167175293
0.52053350210189819 0.51395732164382935 0.991241455078125
0.76910948753356934 0.52883422374725342 0.97337913513183594
0.95009076595306396 0.54801654815673828 0.94659292697906494
0.027395645156502724 0.77983576059341431 0.99013477563858032
0.24906405806541443 0.77677226066589355 0.98934757709503174
0.52549725770950317 0.77362304925918579 0.9907761812210083
0.78393793106079102 0.77358537912368774 0.99104404449462891
0.97829067707061768 0.78860604763031006 0.97955882549285889
0.031630691140890121 0.99249356985092163 0.98990470170974731
0.26957136392593384 0.99096870422363281 0.99013477563858032
0.52754449844360352 0.99026370048522949 0.99013477563858032
0.77848947048187256 0.98817819356918335 0.99115931987762451
0.98959362506866455 0.98918241262435913 0.98974549770355225
