assets/lut/kylerholland kh05.cube
# Created by: G'MIC (https://gmic.eu)
TITLE "kh5"
# LUT size
LUT_3D_SIZE 13
# Data domain
DOMAIN_MIN 0.0 0.0 0.0
DOMAIN_MAX 1.0 1.0 1.0
# LUT data points
0.021499618887901306 0.013189727440476418 0.009257851168513298
0.071718029677867889 0.017754603177309036 0.01497885026037693
0.14046159386634827 0.026239611208438873 0.025307688862085342
0.22919975221157074 0.037953514605760574 0.036130119115114212
0.32699036598205566 0.050361230969429016 0.045807752758264542
0.42360660433769226 0.060143563896417618 0.056189831346273422
0.5141061544418335 0.068688429892063141 0.067170180380344391
0.59880030155181885 0.077269069850444794 0.077625632286071777
0.67747640609741211 0.085638426244258881 0.087742902338504791
0.74890732765197754 0.09395916759967804 0.097423911094665527
0.81278681755065918 0.1028306856751442 0.10490179806947708
0.86995446681976318 0.11407960206270218 0.10919726639986038
0.92285984754562378 0.12696404755115509 0.11139152199029922
0.030520016327500343 0.063377410173416138 0.025208910927176476
0.074760258197784424 0.068776138126850128 0.028931606560945511
0.13852293789386749 0.078291110694408417 0.034339874982833862
0.2265620231628418 0.090324342250823975 0.042159091681241989
0.32534202933311462 0.10237203538417816 0.052289415150880814
0.42379993200302124 0.11354905366897583 0.063248425722122192
0.51627123355865479 0.12537753582000732 0.073617555201053619
0.6022799015045166 0.136969193816185 0.083683490753173828
0.68169528245925903 0.14662617444992065 0.093781113624572754
0.75307166576385498 0.15439946949481964 0.10414006561040878
0.81628775596618652 0.16170437633991241 0.11363445967435837
0.87276780605316162 0.17141187191009521 0.11808301508426666
0.92519819736480713 0.18440230190753937 0.11907049268484116
0.052351348102092743 0.12577073276042938 0.046707946807146072
0.095221638679504395 0.1324952244758606 0.050744477659463882
0.15126326680183411 0.14470119774341583 0.053350381553173065
0.22861388325691223 0.15832240879535675 0.058344326913356781
0.32075577974319458 0.17085616290569305 0.067311093211174011
0.41867443919181824 0.18284943699836731 0.076962865889072418
0.51275449991226196 0.19720834493637085 0.085128575563430786
0.60058075189590454 0.21030578017234802 0.09297943115234375
0.68135660886764526 0.2204078882932663 0.10147467255592346
0.75347864627838135 0.22787004709243774 0.11090347915887833
0.81692498922348022 0.23412433266639709 0.12059137970209122
0.87319058179855347 0.24193777143955231 0.12559708952903748
0.92603927850723267 0.25329175591468811 0.12686949968338013
0.080103762447834015 0.20406354963779449 0.068009138107299805
0.12481701374053955 0.2106478214263916 0.07576441764831543
0.17633832991123199 0.22195889055728912 0.082427769899368286
0.2394607812166214 0.23735128343105316 0.087167985737323761
0.32128426432609558 0.25224879384040833 0.093890123069286346
0.41437944769859314 0.26584509015083313 0.10146545618772507
0.50705826282501221 0.28049126267433167 0.10679491609334946
0.59522056579589844 0.29394176602363586 0.11133256554603577
0.67680579423904419 0.30479073524475098 0.11639422178268433
0.75002390146255493 0.31309837102890015 0.12286366522312164
0.81392335891723633 0.31952029466629028 0.13091407716274261
0.87141460180282593 0.32670781016349792 0.1355624794960022
0.92567366361618042 0.33588752150535583 0.13838420808315277
0.11215172708034515 0.28850966691970825 0.093128219246864319
0.15798981487751007 0.29494205117225647 0.1033727154135704
0.20874398946762085 0.30571097135543823 0.11288003623485565
0.26624664664268494 0.32189455628395081 0.11825162172317505
0.33728751540184021 0.3380647599697113 0.12420283257961273
0.41924893856048584 0.35121983289718628 0.13389752805233002
0.50562101602554321 0.36508861184120178 0.13947878777980804
0.59035789966583252 0.37961271405220032 0.14101779460906982
0.67000865936279297 0.39247587323188782 0.14294840395450592
0.74245226383209229 0.40281000733375549 0.14715217053890228
0.80740505456924438 0.41093605756759644 0.15299437940120697
0.86688506603240967 0.41808801889419556 0.15657809376716614
0.92310613393783569 0.42506822943687439 0.15911968052387238
0.14890456199645996 0.37284591794013977 0.12344878166913986
0.19609230756759644 0.37917500734329224 0.13464455306529999
0.2476733922958374 0.38956597447395325 0.1443876177072525
0.30337882041931152 0.40701347589492798 0.14777223765850067
0.36643868684768677 0.42399591207504272 0.15199001133441925
0.43677392601966858 0.43564587831497192 0.16310322284698486
0.51362144947052002 0.44808456301689148 0.17114883661270142
0.59149289131164551 0.46293532848358154 0.17377869784832001
0.66627436876296997 0.47738245129585266 0.17602694034576416
0.73605877161026001 0.48986858129501343 0.17985086143016815
0.80070066452026367 0.49979475140571594 0.18503621220588684
0.86119431257247925 0.50725376605987549 0.188519686460495
0.91870105266571045 0.51282721757888794 0.19033901393413544
0.187570720911026 0.45541206002235413 0.15549105405807495
0.23619037866592407 0.46148681640625 0.16671021282672882
0.28806665539741516 0.47154718637466431 0.17548973858356476
0.3420623242855072 0.48890694975852966 0.17799735069274902
0.40082499384880066 0.50570034980773926 0.18045198917388916
0.46365451812744141 0.5183832049369812 0.18761168420314789
0.53133195638656616 0.53009730577468872 0.19571733474731445
0.60178440809249878 0.54291218519210815 0.20178216695785522
0.67080825567245483 0.55613738298416138 0.20654706656932831
0.73675858974456787 0.56907784938812256 0.21220850944519043
0.79905533790588379 0.58055794239044189 0.21854484081268311
0.85801917314529419 0.58932477235794067 0.22327412664890289
0.9152991771697998 0.5947909951210022 0.22625598311424255
0.2243184894323349 0.53410255908966064 0.18680495023727417
0.27305170893669128 0.53997433185577393 0.19672778248786926
0.32421818375587463 0.54918718338012695 0.20420166850090027
0.37826639413833618 0.56435436010360718 0.20797114074230194
0.43432414531707764 0.58142828941345215 0.20999202132225037
0.49297496676445007 0.59690552949905396 0.21352656185626984
0.55487728118896484 0.60886633396148682 0.2183845043182373
0.61945754289627075 0.61844944953918457 0.2237175852060318
0.68355071544647217 0.62836980819702148 0.23023888468742371
0.74471855163574219 0.64032059907913208 0.23818026483058929
0.80292123556137085 0.65269231796264648 0.24699908494949341
0.8590618371963501 0.66295796632766724 0.25503891706466675
0.91417521238327026 0.66985630989074707 0.26015684008598328
0.25572478771209717 0.60647523403167725 0.21420861780643463
0.30432793498039246 0.61151993274688721 0.22272694110870361
0.35520344972610474 0.61954009532928467 0.22981391847133636
0.40867036581039429 0.63340902328491211 0.23440629243850708
0.46417236328125 0.65110296010971069 0.2369273453950882
0.52070862054824829 0.66912311315536499 0.23837803304195404
0.57936322689056396 0.68245941400527954 0.24001246690750122
0.63979685306549072 0.68919211626052856 0.24276304244995117
0.69988644123077393 0.69567662477493286 0.24829950928688049
0.75689816474914551 0.70596295595169067 0.25716343522071838
0.81122642755508423 0.71822971105575562 0.26822772622108459
0.86413741111755371 0.72937589883804321 0.27987539768218994
0.91656875610351562 0.73762315511703491 0.28824254870414734
0.27800858020782471 0.67027801275253296 0.23321552574634552
0.32769027352333069 0.67524313926696777 0.24240945279598236
0.37948876619338989 0.682608962059021 0.25024881958961487
0.43331795930862427 0.69553810358047485 0.25624081492424011
0.48917555809020996 0.71161121129989624 0.25959908962249756
0.54511004686355591 0.73086631298065186 0.25985023379325867
0.60193419456481934 0.74595284461975098 0.25964432954788208
0.65924084186553955 0.7534630298614502 0.26084265112876892
0.71600013971328735 0.75922268629074097 0.26486596465110779
0.770191490650177 0.76761907339096069 0.2722562849521637
0.82189840078353882 0.77859258651733398 0.28334513306617737
0.87223511934280396 0.78895395994186401 0.29604116082191467
0.92287856340408325 0.79741364717483521 0.30572101473808289
0.29285475611686707 0.72702699899673462 0.24650636315345764
0.3442436158657074 0.73193728923797607 0.25642490386962891
0.39738166332244873 0.73879712820053101 0.2659231424331665
0.45251357555389404 0.75031530857086182 0.27366352081298828
0.50913524627685547 0.76675158739089966 0.27837967872619629
0.56495285034179688 0.78469878435134888 0.27921184897422791
0.62102323770523071 0.79977130889892578 0.27904435992240906
0.67644965648651123 0.80980819463729858 0.27899667620658875
0.73064029216766357 0.81740438938140869 0.28193089365959167
0.78297805786132812 0.82520586252212524 0.28707981109619141
0.83303976058959961 0.83445101976394653 0.29649299383163452
0.88219618797302246 0.84398734569549561 0.30748376250267029
0.93156200647354126 0.851939857006073 0.31657868623733521
0.30363792181015015 0.77962875366210938 0.25715237855911255
0.35604199767112732 0.78456717729568481 0.26731076836585999
0.41049206256866455 0.79070085287094116 0.27786535024642944
0.46688008308410645 0.80074834823608398 0.28739163279533386
0.52407640218734741 0.81606847047805786 0.29346999526023865
0.58084666728973389 0.8335229754447937 0.29643064737319946
0.6365126371383667 0.84890234470367432 0.29741254448890686
0.69094353914260864 0.86106640100479126 0.29790955781936646
0.74378836154937744 0.8705257773399353 0.2990056574344635
0.79470348358154297 0.87908828258514404 0.30333879590034485
0.84398049116134644 0.88758713006973267 0.31035321950912476
0.89237701892852783 0.89592266082763672 0.31902560591697693
0.94111961126327515 0.90337574481964111 0.3265928328037262
0.31232172250747681 0.83042007684707642 0.26695659756660461
0.36530229449272156 0.83543109893798828 0.27664968371391296
0.42053750157356262 0.8416866660118103 0.28744819760322571
0.47772973775863647 0.85119539499282837 0.29767787456512451
0.53577220439910889 0.86524462699890137 0.30525445938110352
0.59295958280563354 0.88132911920547485 0.31005877256393433
0.64888113737106323 0.89673435688018799 0.31269249320030212
0.70301389694213867 0.90971171855926514 0.31432539224624634
0.75532883405685425 0.92052191495895386 0.31626474857330322
0.80562311410903931 0.92974507808685303 0.31956148147583008
0.85423225164413452 0.93826180696487427 0.32453474402427673
0.90247625112533569 0.94620579481124878 0.33081194758415222
0.95096933841705322 0.95342785120010376 0.33684471249580383
0.023569772019982338 0.01342335157096386 0.049682572484016418
0.072245411574840546 0.020722886547446251 0.056615598499774933
0.13927380740642548 0.031472373753786087 0.073347605764865875
0.22649648785591125 0.044640768319368362 0.088886231184005737
0.32519868016242981 0.058281499892473221 0.099132552742958069
0.42259007692337036 0.067309737205505371 0.11023450642824173
0.5144469141960144 0.074127092957496643 0.12200712412595749
0.60097688436508179 0.081572361290454865 0.133244588971138
0.6813235878944397 0.089510194957256317 0.14315588772296906
0.75379860401153564 0.097844354808330536 0.15175795555114746
0.81707006692886353 0.10700519382953644 0.15875756740570068
0.87298774719238281 0.1183936595916748 0.16306541860103607
0.92466568946838379 0.1317148357629776 0.16618841886520386
0.027905452996492386 0.062924750149250031 0.063079327344894409
0.073075234889984131 0.069171816110610962 0.067081108689308167
0.13960631191730499 0.078631922602653503 0.076282009482383728
0.23040053248405457 0.090575948357582092 0.088387146592140198
0.32757669687271118 0.10449395328760147 0.1002691388130188
0.42598259449005127 0.11608027666807175 0.11251977831125259
0.51863056421279907 0.12714065611362457 0.12406468391418457
0.6063116192817688 0.13768906891345978 0.13511469960212708
0.68684965372085571 0.1466490626335144 0.14519946277141571
0.75858819484710693 0.15466886758804321 0.15431319177150726
0.82113170623779297 0.16185827553272247 0.16247919201850891
0.87513703107833862 0.17104135453701019 0.1673135906457901
0.92644917964935303 0.18357484042644501 0.16984985768795013
0.049993611872196198 0.12852923572063446 0.08051319420337677
0.093723922967910767 0.1348433643579483 0.087390944361686707
0.15166708827018738 0.14534398913383484 0.091569773852825165
0.23229607939720154 0.1589171439409256 0.097431614995002747
0.32472047209739685 0.17223617434501648 0.1088579073548317
0.42226287722587585 0.18422938883304596 0.12016655504703522
0.51748716831207275 0.19790597259998322 0.12926806509494781
0.60667306184768677 0.20999701321125031 0.13848695158958435
0.68867021799087524 0.21918494999408722 0.14733985066413879
0.76082360744476318 0.22636137902736664 0.15578462183475494
0.8219527006149292 0.2317771315574646 0.16447232663631439
0.87665122747421265 0.23838965594768524 0.16975425183773041
0.92770010232925415 0.24877732992172241 0.17295184731483459
0.078222028911113739 0.20819561183452606 0.10209307074546814
0.12562951445579529 0.21374359726905823 0.11258222162723541
0.17984211444854736 0.22391515970230103 0.12191690504550934
0.24239654839038849 0.24049754440784454 0.12647341191768646
0.3234410285949707 0.25640565156936646 0.13280943036079407
0.41720491647720337 0.26878830790519714 0.13982322812080383
0.51200258731842041 0.28351524472236633 0.14449417591094971
0.60220044851303101 0.29549136757850647 0.15087543427944183
0.6854475736618042 0.30455711483955383 0.1568835973739624
0.75920963287353516 0.31197014451026917 0.16237114369869232
0.82111519575119019 0.31720647215843201 0.17088085412979126
0.87686061859130859 0.32311806082725525 0.17625784873962402
0.92943310737609863 0.33204323053359985 0.18033856153488159
0.10929562151432037 0.29271066188812256 0.12678974866867065
0.15632389485836029 0.2983585000038147 0.13787861168384552
0.21038068830966949 0.30798131227493286 0.15056267380714417
0.26913964748382568 0.324118971824646 0.15713174641132355
0.33879509568214417 0.34088420867919922 0.1619981974363327
0.42075654864311218 0.35414853692054749 0.1701710969209671
0.50910812616348267 0.36829259991645813 0.17565299570560455
0.59616178274154663 0.38232141733169556 0.17901666462421417
0.67741894721984863 0.39404585957527161 0.18181905150413513
0.75098776817321777 0.4032493531703949 0.18517215549945831
0.81558263301849365 0.4098241925239563 0.19078901410102844
0.87412410974502563 0.41627532243728638 0.19458773732185364
0.92918050289154053 0.42372035980224609 0.19791057705879211
0.14527685940265656 0.37681782245635986 0.15642690658569336
0.19249320030212402 0.38265258073806763 0.16781413555145264
0.24645037949085236 0.39183235168457031 0.18022941052913666
0.30497080087661743 0.407033771276474 0.18632137775421143
0.36749890446662903 0.42342355847358704 0.18955670297145844
0.43789303302764893 0.43551754951477051 0.19897446036338806
0.51544082164764404 0.44923475384712219 0.20846021175384521
0.59495997428894043 0.46508491039276123 0.21458406746387482
0.67100042104721069 0.48013761639595032 0.21691985428333282
0.74237352609634399 0.49178537726402283 0.21960702538490295
0.80815750360488892 0.50038003921508789 0.22335052490234375
0.86849695444107056 0.50718384981155396 0.22607420384883881
0.9252811074256897 0.5130993127822876 0.22895921766757965
0.18321432173252106 0.45925545692443848 0.18626682460308075
0.23194035887718201 0.46435606479644775 0.19910533726215363
0.28706949949264526 0.47280776500701904 0.21165020763874054
0.34391149878501892 0.48723942041397095 0.21764321625232697
0.40259698033332825 0.50328415632247925 0.22049970924854279
0.46505936980247498 0.51676899194717407 0.2263355553150177
0.53253966569900513 0.52987003326416016 0.2360924631357193
0.60329669713973999 0.54419136047363281 0.2454681396484375
0.67388379573822021 0.55850839614868164 0.25078931450843811
0.74144059419631958 0.57169455289840698 0.25512403249740601
0.80500680208206177 0.58227479457855225 0.25940594077110291
0.8646131157875061 0.59046089649200439 0.26239588856697083
0.92126715183258057 0.59648525714874268 0.26516386866569519
0.21899734437465668 0.53728902339935303 0.21554617583751678
0.26841211318969727 0.54163509607315063 0.22838734090328217
0.32233384251594543 0.54942774772644043 0.24048525094985962
0.37929698824882507 0.56283187866210938 0.2479734867811203
0.43684196472167969 0.57946550846099854 0.25183385610580444
0.49511653184890747 0.59540170431137085 0.25502067804336548
0.5560038685798645 0.60886639356613159 0.26025941967964172
0.62060016393661499 0.61915600299835205 0.26757711172103882
0.68630707263946533 0.62958741188049316 0.27522337436676025
0.74875015020370483 0.64242774248123169 0.28339838981628418
0.80809193849563599 0.65493226051330566 0.29022133350372314
0.86487287282943726 0.66511517763137817 0.29522153735160828
0.91993546485900879 0.67187607288360596 0.29894241690635681
0.2489297091960907 0.60876768827438354 0.2414797842502594
0.29869765043258667 0.61255943775177002 0.25359189510345459
0.35193181037902832 0.61914157867431641 0.26524940133094788
0.4088444709777832 0.63240015506744385 0.2739872932434082
0.46658757328987122 0.64983063936233521 0.27899372577667236
0.52376210689544678 0.66740536689758301 0.28068080544471741
0.58156722784042358 0.68109613656997681 0.28168922662734985
0.64192724227905273 0.68910926580429077 0.28536528348922729
0.70346182584762573 0.69597703218460083 0.29186132550239563
0.76121431589126587 0.70728510618209839 0.30077952146530151
0.81626677513122559 0.71988743543624878 0.31063437461853027
0.86939674615859985 0.73115688562393188 0.31973305344581604
0.9222179651260376 0.73908722400665283 0.32610863447189331
0.27096787095069885 0.67285162210464478 0.26097854971885681
0.32134422659873962 0.67659032344818115 0.27269059419631958
0.37485575675964355 0.68317204713821411 0.28444752097129822
0.43269139528274536 0.69536334276199341 0.29431751370429993
0.49090820550918579 0.71158087253570557 0.30097681283950806
0.54850077629089355 0.73062843084335327 0.30330318212509155
0.60521596670150757 0.74487203359603882 0.30307149887084961
0.66275876760482788 0.75332218408584595 0.30374017357826233
0.72005081176757812 0.75968319177627563 0.30693700909614563
0.77503186464309692 0.76833957433700562 0.31307163834571838
0.82714360952377319 0.77926123142242432 0.32366842031478882
0.87741684913635254 0.79032492637634277 0.33561185002326965
0.92794352769851685 0.79877305030822754 0.3444368839263916
0.28593930602073669 0.72999197244644165 0.27595981955528259
0.3370760977268219 0.73413288593292236 0.28665450215339661
0.39152753353118896 0.74046856164932251 0.29854479432106018
0.44962123036384583 0.75157636404037476 0.30973157286643982
0.50942295789718628 0.76757931709289551 0.31800615787506104
0.5680965781211853 0.78502577543258667 0.32220813632011414
0.6249765157699585 0.80009877681732178 0.3228609561920166
0.68079131841659546 0.81046473979949951 0.32286003232002258
0.73536783456802368 0.81830757856369019 0.32375535368919373
0.78809118270874023 0.82603204250335693 0.32768842577934265
0.83824288845062256 0.83514630794525146 0.3366209864616394
0.88701134920120239 0.84468775987625122 0.34798827767372131
0.9360080361366272 0.85290074348449707 0.35726362466812134
0.29657444357872009 0.78251123428344727 0.28847038745880127
0.34822633862495422 0.78682780265808105 0.29804369807243347
0.40318393707275391 0.79294133186340332 0.30930235981941223
0.46243372559547424 0.80326873064041138 0.3215145468711853
0.52309203147888184 0.81794720888137817 0.331480473279953
0.58259832859039307 0.83475089073181152 0.33764708042144775
0.64043563604354858 0.8501288890838623 0.34048056602478027
0.69574415683746338 0.86236786842346191 0.34140601754188538
0.74879550933837891 0.87188947200775146 0.34229221940040588
0.79971057176589966 0.88015401363372803 0.34546384215354919
0.84867101907730103 0.88830018043518066 0.35186079144477844
0.89669781923294067 0.89627063274383545 0.3603324294090271
0.94503307342529297 0.90390658378601074 0.36824825406074524
0.30543956160545349 0.83289557695388794 0.30019772052764893
0.35739576816558838 0.83746743202209473 0.30862617492675781
0.41284024715423584 0.84368449449539185 0.31937605142593384
0.47240906953811646 0.85345977544784546 0.33177202939987183
0.53379124402999878 0.86715000867843628 0.34296372532844543
0.59456151723861694 0.8829537034034729 0.35144910216331482
0.65266174077987671 0.89816820621490479 0.35641905665397644
0.70807343721389771 0.91125273704528809 0.35885840654373169
0.76058059930801392 0.92204684019088745 0.36057069897651672
0.81072020530700684 0.93106895685195923 0.36339497566223145
0.85915654897689819 0.93899440765380859 0.36774459481239319
0.90672707557678223 0.94638347625732422 0.37366166710853577
0.95460206270217896 0.9535592794418335 0.37971672415733337
0.034389451146125793 0.013138759881258011 0.10115472972393036
0.079793341457843781 0.028277214616537094 0.10265049338340759
0.13986612856388092 0.044754430651664734 0.12631639838218689
0.22084690630435944 0.057896841317415237 0.14925383031368256
0.31507113575935364 0.069577567279338837 0.16246332228183746
0.41296148300170898 0.076445452868938446 0.17530801892280579
0.50727254152297974 0.082179218530654907 0.18772849440574646
0.5963549017906189 0.088733896613121033 0.19891044497489929
0.67847341299057007 0.096417509019374847 0.20816512405872345
0.75283241271972656 0.10495486110448837 0.21584366261959076
0.81679791212081909 0.11386271566152573 0.22290211915969849
0.87180149555206299 0.12459006160497665 0.22904390096664429
0.9227060079574585 0.13750043511390686 0.23396556079387665
0.032873190939426422 0.055180642753839493 0.12051317095756531
0.079453349113464355 0.067617438733577728 0.11838703602552414
0.14201653003692627 0.086480081081390381 0.13099850714206696
0.22961348295211792 0.097406871616840363 0.1509280651807785
0.32362866401672363 0.10976424813270569 0.16328702867031097
0.42045173048973083 0.11976930499076843 0.17588236927986145
0.51492965221405029 0.12992933392524719 0.18864664435386658
0.6038815975189209 0.13959163427352905 0.20046804845333099
0.68554365634918213 0.14876848459243774 0.20982974767684937
0.75770944356918335 0.15724743902683258 0.21774126589298248
0.81934648752212524 0.16442151367664337 0.22543066740036011
0.8731265664100647 0.17312902212142944 0.2311260849237442
0.92419373989105225 0.1858852356672287 0.23508048057556152
0.051159922033548355 0.13296769559383392 0.12903560698032379
0.092957258224487305 0.13687910139560699 0.13630107045173645
0.15047326683998108 0.14653271436691284 0.14347054064273834
0.2345733642578125 0.1600269228219986 0.1555074006319046
0.32788407802581787 0.17265342175960541 0.16760191321372986
0.42552554607391357 0.1826438307762146 0.17978395521640778
0.51912397146224976 0.19616040587425232 0.19091574847698212
0.60812830924987793 0.20818239450454712 0.2018568366765976
0.69051986932754517 0.21752092242240906 0.21053753793239594
0.76150673627853394 0.22538918256759644 0.2175620049238205
0.82169687747955322 0.23072119057178497 0.22556865215301514
0.87523972988128662 0.23736907541751862 0.23109044134616852
0.92631906270980835 0.24797683954238892 0.2352415919303894
0.079349398612976074 0.21298038959503174 0.14961308240890503
0.12355011701583862 0.21919529139995575 0.15778204798698425
0.17837956547737122 0.22788061201572418 0.16894948482513428
0.24631454050540924 0.24247950315475464 0.17821548879146576
0.33034384250640869 0.25760826468467712 0.18547649681568146
0.42344796657562256 0.2685108482837677 0.19392415881156921
0.51747661828994751 0.28184020519256592 0.20118638873100281
0.60786181688308716 0.29334402084350586 0.20930343866348267
0.69069349765777588 0.30206462740898132 0.21607130765914917
0.76282793283462524 0.30915376543998718 0.22119288146495819
0.8243403434753418 0.3143327534198761 0.22862718999385834
0.87836050987243652 0.32026344537734985 0.23447927832603455
0.93037694692611694 0.32959377765655518 0.23978529870510101
0.10874480009078979 0.29420793056488037 0.17430396378040314
0.15342506766319275 0.30021914839744568 0.18254809081554413
0.21070197224617004 0.31015738844871521 0.19493615627288818
0.27557620406150818 0.32482793927192688 0.20757190883159637
0.34473827481269836 0.34318572282791138 0.21373865008354187
0.42433026432991028 0.35698920488357544 0.22144001722335815
0.51439821720123291 0.37002214789390564 0.22690221667289734
