assets/lut/kylerholland kh08.cube
# Created by: G'MIC (https://gmic.eu)
TITLE "kh8"
# LUT size
LUT_3D_SIZE 5
# Data domain
DOMAIN_MIN 0.0 0.0 0.0
DOMAIN_MAX 1.0 1.0 1.0
# LUT data points
0.020670976489782333 0.012675984762609005 0.013850388117134571
0.17714962363243103 0.030329955741763115 0.0087201585993170738
0.36363965272903442 0.069609098136425018 0.0074959401972591877
0.57185369729995728 0.10848626494407654 0.014142817817628384
0.78945934772491455 0.15159769356250763 0.016311256214976311
0.050215374678373337 0.16031751036643982 0.038968779146671295
0.23165348172187805 0.18528273701667786 0.033158067613840103
0.42616158723831177 0.22014380991458893 0.036321260035037994
0.63528966903686523 0.27939885854721069 0.033041231334209442
0.85174751281738281 0.32641434669494629 0.032419152557849884
0.078727409243583679 0.34729313850402832 0.063305050134658813
0.25506609678268433 0.39878314733505249 0.057069860398769379
0.49245598912239075 0.41246926784515381 0.056217476725578308
0.69197481870651245 0.41422316431999207 0.067106030881404877
0.919045090675354 0.47878193855285645 0.055866584181785583
0.12080145627260208 0.55838829278945923 0.090970732271671295
0.25553762912750244 0.58165711164474487 0.090158917009830475
0.54791498184204102 0.698111891746521 0.082979537546634674
0.77528572082519531 0.66249543428421021 0.086678735911846161
0.97753465175628662 0.62019824981689453 0.087574079632759094
0.14654667675495148 0.7736247181892395 0.11489814519882202
0.2755342423915863 0.78428959846496582 0.12108022719621658
0.52601432800292969 0.8889126181602478 0.11547882854938507
0.87081378698348999 0.9792712926864624 0.11213704943656921
0.99983412027359009 0.90768325328826904 0.13628347218036652
0.018687378615140915 0.0089385686442255974 0.17766633629798889
0.14366908371448517 0.0080612935125827789 0.14146038889884949
0.35047030448913574 0.016411440446972847 0.12762564420700073
0.57642793655395508 0.030457485467195511 0.083177037537097931
0.79324132204055786 0.041420672088861465 0.041135016828775406
0.031521786004304886 0.10886899381875992 0.12604779005050659
0.22088158130645752 0.19393466413021088 0.18373966217041016
0.41233497858047485 0.22708921134471893 0.17786277830600739
0.6194794774055481 0.26708841323852539 0.18013942241668701
0.83765697479248047 0.30686944723129272 0.18176752328872681
0.063634775578975677 0.30807316303253174 0.16362766921520233
0.24894711375236511 0.38376632332801819 0.20912517607212067
0.4864787757396698 0.42621716856956482 0.20988756418228149
0.69139117002487183 0.45320224761962891 0.21487383544445038
0.91827017068862915 0.52271115779876709 0.21047393977642059
0.10491444915533066 0.54943227767944336 0.20220601558685303
0.27691230177879333 0.59434866905212402 0.2368653416633606
0.52084410190582275 0.67191112041473389 0.24121114611625671
0.76574063301086426 0.67411690950393677 0.2393767237663269
0.97770422697067261 0.66095298528671265 0.24281325936317444
0.1338752955198288 0.76965916156768799 0.23005197942256927
0.30197980999946594 0.81041920185089111 0.26355871558189392
0.51699221134185791 0.8603779673576355 0.27522093057632446
0.83804035186767578 0.98233342170715332 0.26629459857940674
0.99962878227233887 0.92334508895874023 0.29062867164611816
0.013549624942243099 0.013078472577035427 0.41426017880439758
0.16446952521800995 0.008108445443212986 0.3806816041469574
0.27547422051429749 0.010256674140691757 0.30608671903610229
0.50283092260360718 0.011888481676578522 0.32935580611228943
0.76531076431274414 0.01589546911418438 0.29439601302146912
0.019927125424146652 0.13784314692020416 0.36264771223068237
0.21640580892562866 0.1855129599571228 0.41746106743812561
0.37101039290428162 0.19102856516838074 0.36914706230163574
0.60546910762786865 0.19878637790679932 0.35616996884346008
0.84313309192657471 0.20933915674686432 0.29674002528190613
0.03942171111702919 0.2258802056312561 0.26010981202125549
0.2405414879322052 0.33419826626777649 0.34724268317222595
0.47081661224365234 0.43882870674133301 0.42357933521270752
0.68509399890899658 0.47564557194709778 0.41415509581565857
0.89251011610031128 0.51461434364318848 0.41657811403274536
0.067175708711147308 0.42268317937850952 0.31247642636299133
0.26862925291061401 0.54367446899414062 0.3862079381942749
0.49953466653823853 0.64968389272689819 0.4480556845664978
0.76607698202133179 0.70026737451553345 0.45300754904747009
0.97159117460250854 0.71932178735733032 0.45837482810020447
0.10818827152252197 0.68451160192489624 0.37000033259391785
0.30881601572036743 0.80627548694610596 0.42713859677314758
0.53157830238342285 0.8690948486328125 0.47740587592124939
0.79309362173080444 0.95479792356491089 0.48335593938827515
0.99779999256134033 0.94737708568572998 0.49592435359954834
0.016821185126900673 0.0069820028729736805 0.65866470336914062
0.19324490427970886 0.0014615077525377274 0.65901976823806763
0.29764696955680847 0.0049528982490301132 0.57286310195922852
0.41570606827735901 0.0093745067715644836 0.47947946190834045
0.68047642707824707 0.0066102421842515469 0.57014733552932739
0.0097888568416237831 0.16309016942977905 0.64543157815933228
0.21070733666419983 0.17655576765537262 0.68017786741256714
0.3946211040019989 0.185927614569664 0.64242666959762573
0.51725751161575317 0.18301039934158325 0.55440855026245117
0.77322626113891602 0.19217945635318756 0.58274096250534058
0.031184641644358635 0.26371473073959351 0.5153956413269043
0.21793900430202484 0.36205214262008667 0.60987186431884766
0.46543008089065552 0.43432521820068359 0.68512415885925293
0.63442623615264893 0.43530091643333435 0.62625241279602051
0.87879246473312378 0.44219702482223511 0.61676400899887085
0.059543967247009277 0.35602164268493652 0.41215789318084717
0.24510221183300018 0.45889696478843689 0.49580827355384827
0.48577374219894409 0.58685457706451416 0.59769034385681152
0.74857258796691895 0.71217250823974609 0.68866473436355591
0.96879523992538452 0.74267780780792236 0.67647641897201538
0.075926341116428375 0.56917709112167358 0.48438200354576111
0.27362704277038574 0.67123818397521973 0.55389463901519775
0.52146399021148682 0.81204962730407715 0.64441180229187012
0.78036022186279297 0.93655455112457275 0.71776360273361206
0.99817746877670288 0.96724158525466919 0.72991347312927246
0.013501141220331192 0.020750368013978004 0.88763308525085449
0.19864003360271454 0.0012513702968135476 0.92825233936309814
0.35176363587379456 0.011176135390996933 0.8509068489074707
0.4422355592250824 0.0052825328893959522 0.77803134918212891
0.57072454690933228 0.0070454017259180546 0.65125834941864014
0.011172455735504627 0.17420738935470581 0.915660560131073
0.20683152973651886 0.17554382979869843 0.94390064477920532
0.41766747832298279 0.17669759690761566 0.90884590148925781
0.53575479984283447 0.18018037080764771 0.83592134714126587
0.64043468236923218 0.18517223000526428 0.73208588361740112
0.012747895903885365 0.30751019716262817 0.83066117763519287
0.21042610704898834 0.38763207197189331 0.89606142044067383
0.46310132741928101 0.42972734570503235 0.94964998960494995
0.65581810474395752 0.43016347289085388 0.90821194648742676
0.77876263856887817 0.43339896202087402 0.80863505601882935
0.039035677909851074 0.39369180798530579 0.68712431192398071
0.23209525644779205 0.49485474824905396 0.77440977096557617
0.47412934899330139 0.6222648024559021 0.88037914037704468
0.74246013164520264 0.70690447092056274 0.96268284320831299
0.91365700960159302 0.71053141355514526 0.88875126838684082
0.058450467884540558 0.47660288214683533 0.55509769916534424
0.25258177518844604 0.58206486701965332 0.6419377326965332
0.49426934123039246 0.71537792682647705 0.74883741140365601
0.76222437620162964 0.85848486423492432 0.86948424577713013
0.99742192029953003 0.98594212532043457 0.9758225679397583
