assets/lut/kylerholland kh09.cube
# Created by: G'MIC (https://gmic.eu)
TITLE "kh9"
# LUT size
LUT_3D_SIZE 13
# Data domain
DOMAIN_MIN 0.0 0.0 0.0
DOMAIN_MAX 1.0 1.0 1.0
# LUT data points
0.031734734773635864 0.021885247901082039 0.042683381587266922
0.097832143306732178 0.022876843810081482 0.043080303817987442
0.15760546922683716 0.025420349091291428 0.045334611088037491
0.22279220819473267 0.028335301205515862 0.050912894308567047
0.30384311079978943 0.031115364283323288 0.057977084070444107
0.39718830585479736 0.031764909625053406 0.062874570488929749
0.49498957395553589 0.031551569700241089 0.066013947129249573
0.58986401557922363 0.030390944331884384 0.06911882758140564
0.67557716369628906 0.028277723118662834 0.070621401071548462
0.75251483917236328 0.024964336305856705 0.070459134876728058
0.82417935132980347 0.022243214771151543 0.068210005760192871
0.89315849542617798 0.020616479218006134 0.063876554369926453
0.96075814962387085 0.020046085119247437 0.056575611233711243
0.037238340824842453 0.078874655067920685 0.043449193239212036
0.10523862391710281 0.079688116908073425 0.043754130601882935
0.1627931147813797 0.08209557831287384 0.046525932848453522
0.22593612968921661 0.084949016571044922 0.051758244633674622
0.30785739421844482 0.086471453309059143 0.057083204388618469
0.40240928530693054 0.087764248251914978 0.06114528700709343
0.50047796964645386 0.087974086403846741 0.06453946977853775
0.59369832277297974 0.088096991181373596 0.068619795143604279
0.67858237028121948 0.087527826428413391 0.072564207017421722
0.75451159477233887 0.086384236812591553 0.074602894484996796
0.8258671760559082 0.084753789007663727 0.075129836797714233
0.89478969573974609 0.084085725247859955 0.07270330935716629
0.96200746297836304 0.085130251944065094 0.067514367401599884
0.035447828471660614 0.14246556162834167 0.044655878096818924
0.10558853298425674 0.14341913163661957 0.047120261937379837
0.16718406975269318 0.14549382030963898 0.050678133964538574
0.2336602658033371 0.14720055460929871 0.05480874702334404
0.31616276502609253 0.14873673021793365 0.056878961622714996
0.41079226136207581 0.14919750392436981 0.057874374091625214
0.50770086050033569 0.14977918565273285 0.060489952564239502
0.59827971458435059 0.15173134207725525 0.06559646874666214
0.67999941110610962 0.15334074199199677 0.071255974471569061
0.75518012046813965 0.15414197742938995 0.075965926051139832
0.8259812593460083 0.15435482561588287 0.078471176326274872
0.89476597309112549 0.15508435666561127 0.078946955502033234
0.96193277835845947 0.15715377032756805 0.075728729367256165
0.030993113294243813 0.21998320519924164 0.045550163835287094
0.10171051323413849 0.22102423012256622 0.049855399876832962
0.16910205781459808 0.22220015525817871 0.053773347288370132
0.2406698614358902 0.22255592048168182 0.056580442935228348
0.32502609491348267 0.22338497638702393 0.056372281163930893
0.41977348923683167 0.22372959554195404 0.05490276962518692
0.51573234796524048 0.22400537133216858 0.056151386350393295
0.60381758213043213 0.22732959687709808 0.061611399054527283
0.68367940187454224 0.23023073375225067 0.067950740456581116
0.75740510225296021 0.2323610931634903 0.073704615235328674
0.82777869701385498 0.23388892412185669 0.078279368579387665
0.89568060636520386 0.23488788306713104 0.080919183790683746
0.96258467435836792 0.23672685027122498 0.080235287547111511
0.029535435140132904 0.31256350874900818 0.045020759105682373
0.10046548396348953 0.3132990300655365 0.049299098551273346
0.17089608311653137 0.31364113092422485 0.052682913839817047
0.24623355269432068 0.31333443522453308 0.054332390427589417
0.33118146657943726 0.31331327557563782 0.053814232349395752
0.42512232065200806 0.31326758861541748 0.052637346088886261
0.51939040422439575 0.31443384289741516 0.05379079282283783
0.6082838773727417 0.31724834442138672 0.057701006531715393
0.68889409303665161 0.32085254788398743 0.062409210950136185
0.763144850730896 0.323324054479599 0.067611590027809143
0.83300876617431641 0.32483771443367004 0.073131963610649109
0.89999020099639893 0.32533982396125793 0.077798940241336823
0.96647578477859497 0.32624277472496033 0.078647598624229431
0.03066621720790863 0.41391474008560181 0.043213788419961929
0.10156573355197906 0.414815753698349 0.046773422509431839
0.17325904965400696 0.41435098648071289 0.049211375415325165
0.24975040555000305 0.41385975480079651 0.050106450915336609
0.33376672863960266 0.41390198469161987 0.04965311661362648
0.42547512054443359 0.41403192281723022 0.049381796270608902
0.51940310001373291 0.41459852457046509 0.050554059445858002
0.61031168699264526 0.41673034429550171 0.052674386650323868
0.69404244422912598 0.42015379667282104 0.055080190300941467
0.77079206705093384 0.42287936806678772 0.058623939752578735
0.84098505973815918 0.42361587285995483 0.064491003751754761
0.90752959251403809 0.42315489053726196 0.069725185632705688
0.97333288192749023 0.42329469323158264 0.071236029267311096
0.032744836062192917 0.51644814014434814 0.041361730545759201
0.1035352498292923 0.51816791296005249 0.043993737548589706
0.17567993700504303 0.517162024974823 0.045763172209262848
0.25154352188110352 0.51589441299438477 0.045994207262992859
0.33419117331504822 0.51650184392929077 0.045431789010763168
0.42304694652557373 0.51730638742446899 0.044814720749855042
0.51705920696258545 0.51622891426086426 0.045875038951635361
0.61046755313873291 0.51587295532226562 0.047339420765638351
0.69770950078964233 0.51937711238861084 0.048343837261199951
0.77733337879180908 0.52243787050247192 0.050610292702913284
0.84867507219314575 0.5234408974647522 0.055795364081859589
0.91557800769805908 0.52327609062194824 0.060537870973348618
0.97981852293014526 0.5231289267539978 0.061950504779815674
0.033527404069900513 0.61247509717941284 0.04072112962603569
0.10537863522768021 0.61500388383865356 0.042943783104419708
0.17744934558868408 0.61436134576797485 0.044181223958730698
0.25351071357727051 0.61297577619552612 0.043906431645154953
0.33460566401481628 0.61347335577011108 0.042697187513113022
0.422067791223526 0.61382901668548584 0.04190412163734436
0.5156862735748291 0.61179715394973755 0.042555805295705795
0.61046874523162842 0.61017918586730957 0.043794669210910797
0.69949495792388916 0.61129391193389893 0.044896412640810013
0.78062063455581665 0.61334228515625 0.046643815934658051
0.85415500402450562 0.61505144834518433 0.049936976283788681
0.92248725891113281 0.61663162708282471 0.052897598594427109
0.98542815446853638 0.61710256338119507 0.053386479616165161
0.033312510699033737 0.69898086786270142 0.041781019419431686
0.10559587925672531 0.70193338394165039 0.043819114565849304
0.17836232483386993 0.70214462280273438 0.044242680072784424
0.25485038757324219 0.70156127214431763 0.043732378631830215
0.33639812469482422 0.70113790035247803 0.042353358119726181
0.42418947815895081 0.70031565427780151 0.04117564857006073
0.51648426055908203 0.69812953472137451 0.041698336601257324
0.61097109317779541 0.69565844535827637 0.042684741318225861
0.70068413019180298 0.69526535272598267 0.043755713850259781
0.7832634449005127 0.69756978750228882 0.044757094234228134
0.85776835680007935 0.7005302906036377 0.046158570796251297
0.92773401737213135 0.7030525803565979 0.046954240649938583
0.98909467458724976 0.70427107810974121 0.046141576021909714
0.032744836062192917 0.77859467267990112 0.043935604393482208
0.1053091287612915 0.78066295385360718 0.04520619660615921
0.17899562418460846 0.78215432167053223 0.045241605490446091
0.2561974823474884 0.78100073337554932 0.044507749378681183
0.33836856484413147 0.78063726425170898 0.043214492499828339
0.42590567469596863 0.78051173686981201 0.042308405041694641
0.51806420087814331 0.77711319923400879 0.042300954461097717
0.61128920316696167 0.77548611164093018 0.042468216270208359
0.70103698968887329 0.7730555534362793 0.042996872216463089
0.78441041707992554 0.77680426836013794 0.043215598911046982
0.86005246639251709 0.78051924705505371 0.043037667870521545
0.93142783641815186 0.7842566967010498 0.042100343853235245
0.99191904067993164 0.78539842367172241 0.039964728057384491
0.03182341530919075 0.85351294279098511 0.0453350730240345
0.10486506670713425 0.85630720853805542 0.047200579196214676
0.17950229346752167 0.85750353336334229 0.046667810529470444
0.25721997022628784 0.8576388955116272 0.045228470116853714
0.33961284160614014 0.85716068744659424 0.044074848294258118
0.42684659361839294 0.85554879903793335 0.042319532483816147
0.51781511306762695 0.85389453172683716 0.041519150137901306
0.60997414588928223 0.85169517993927002 0.041325602680444717
0.69919365644454956 0.85032099485397339 0.041321247816085815
0.78244435787200928 0.85410189628601074 0.040645014494657516
0.85935568809509277 0.85800796747207642 0.0393829345703125
0.93281793594360352 0.86176472902297974 0.037536963820457458
0.99274760484695435 0.86471128463745117 0.034290432929992676
0.030735509470105171 0.92585253715515137 0.045495066791772842
0.10459479689598083 0.92859631776809692 0.047444093972444534
0.18003493547439575 0.92983710765838623 0.04660307988524437
0.25803539156913757 0.93024158477783203 0.044997435063123703
0.34039145708084106 0.93019610643386841 0.043191663920879364
0.42698034644126892 0.92956674098968506 0.041280411183834076
0.51651817560195923 0.9283447265625 0.04023602232336998
0.60677444934844971 0.92726361751556396 0.039382562041282654
0.69472020864486694 0.92763990163803101 0.038435723632574081
0.77821177244186401 0.93107795715332031 0.037039425224065781
0.8571850061416626 0.93445479869842529 0.034935552626848221
0.93187165260314941 0.93820548057556152 0.03197929635643959
0.99291867017745972 0.94038504362106323 0.027826676145195961
0.030193150043487549 0.98999083042144775 0.042602866888046265
0.10431777685880661 0.99132847785949707 0.044413428753614426
0.18057368695735931 0.99234473705291748 0.043984804302453995
0.25898543000221252 0.99246323108673096 0.042419284582138062
0.34098151326179504 0.99246323108673096 0.040420934557914734
0.42653203010559082 0.99246323108673096 0.038830462843179703
0.51459395885467529 0.99246323108673096 0.037216424942016602
0.60309946537017822 0.99246323108673096 0.035765163600444794
0.68998169898986816 0.99249202013015747 0.033988188952207565
0.77343267202377319 0.99381417036056519 0.031812481582164764
0.85315245389938354 0.99500679969787598 0.028809566050767899
0.929554283618927 0.99632745981216431 0.025162985548377037
0.99246323108673096 0.99705880880355835 0.021055348217487335
0.031067328527569771 0.018791962414979935 0.14363192021846771
0.095358647406101227 0.020836833864450455 0.14392110705375671
0.15501879155635834 0.025119047611951828 0.14401711523532867
0.22033725678920746 0.03060404397547245 0.14699146151542664
0.29951369762420654 0.035293161869049072 0.15264157950878143
0.39295229315757751 0.037356000393629074 0.15668267011642456
0.49261137843132019 0.03763020783662796 0.15975399315357208
0.58957564830780029 0.037025392055511475 0.16277150809764862
0.67560029029846191 0.03416149690747261 0.16453281044960022
0.75168943405151367 0.029885953292250633 0.16404086351394653
0.82294160127639771 0.025974573567509651 0.16179116070270538
0.89166158437728882 0.023385381326079369 0.15715917944908142
0.95913779735565186 0.022310324013233185 0.1503308117389679
0.037662655115127563 0.075954973697662354 0.14831575751304626
0.10237935185432434 0.077106744050979614 0.14907324314117432
0.15987235307693481 0.080907486379146576 0.14877524971961975
0.22298179566860199 0.08560141921043396 0.150229811668396
0.30307003855705261 0.089608959853649139 0.15300653874874115
0.39735871553421021 0.091674745082855225 0.15622217953205109
0.49670097231864929 0.092782251536846161 0.15984457731246948
0.5916217565536499 0.092694409191608429 0.16414587199687958
0.67670589685440063 0.091163143515586853 0.16792255640029907
0.75269496440887451 0.088851824402809143 0.16965615749359131
0.82429766654968262 0.087007991969585419 0.16946393251419067
0.89321243762969971 0.085964247584342957 0.16678537428379059
0.9608842134475708 0.086519353091716766 0.1616014838218689
0.038747482001781464 0.14061786234378815 0.15181455016136169
0.10465958714485168 0.1408933699131012 0.15489581227302551
0.16381831467151642 0.14350658655166626 0.15561367571353912
0.22853761911392212 0.14594842493534088 0.15639425814151764
0.31009280681610107 0.14959532022476196 0.15601038932800293
0.40519830584526062 0.15223419666290283 0.15677478909492493
0.50331234931945801 0.1538848876953125 0.15922024846076965
0.59522491693496704 0.1550191193819046 0.16405166685581207
0.67755782604217529 0.15478430688381195 0.16908511519432068
0.75245869159698486 0.15420962870121002 0.17295688390731812
0.82402366399765015 0.15457215905189514 0.17454811930656433
0.8927423357963562 0.15494759380817413 0.17441409826278687
0.96058177947998047 0.15663710236549377 0.17098952829837799
0.035151060670614243 0.21982938051223755 0.15194669365882874
0.10234016180038452 0.21945910155773163 0.15644508600234985
0.16542597115039825 0.22031006217002869 0.15847371518611908
0.2344670444726944 0.22080327570438385 0.16040772199630737
0.31854474544525146 0.2231503427028656 0.15852230787277222
0.41449722647666931 0.22551211714744568 0.15773043036460876
0.51194554567337036 0.22731314599514008 0.15949465334415436
0.60137540102005005 0.22939684987068176 0.1638830155134201
0.68097656965255737 0.23043675720691681 0.16855029761791229
0.75415951013565063 0.23049286007881165 0.17306055128574371
0.82510793209075928 0.23232443630695343 0.17648214101791382
0.89339888095855713 0.23323485255241394 0.17845587432384491
0.96060526371002197 0.23500730097293854 0.17772886157035828
0.032284263521432877 0.3121066689491272 0.14966696500778198
0.099995508790016174 0.31157657504081726 0.15392698347568512
0.16745203733444214 0.31140172481536865 0.15680061280727386
0.24091343581676483 0.31146612763404846 0.15766686201095581
0.3262215256690979 0.31281816959381104 0.15728868544101715
0.42176368832588196 0.31465139985084534 0.15732467174530029
0.51866155862808228 0.31573554873466492 0.15973006188869476
0.60785520076751709 0.31835079193115234 0.16245296597480774
0.6875603199005127 0.31992313265800476 0.16532778739929199
0.76068741083145142 0.32258054614067078 0.16890919208526611
0.83056247234344482 0.32268467545509338 0.17325620353221893
0.89782834053039551 0.3228505551815033 0.17726816236972809
0.96420824527740479 0.32392734289169312 0.17793193459510803
0.031801950186491013 0.41342717409133911 0.14637273550033569
0.10062366724014282 0.41375911235809326 0.14995200932025909
0.17043733596801758 0.41338801383972168 0.15216495096683502
0.24593347311019897 0.41299378871917725 0.15295228362083435
0.33112958073616028 0.41319602727890015 0.15307383239269257
0.42414632439613342 0.4134974479675293 0.15409798920154572
0.52059084177017212 0.41468849778175354 0.1564938873052597
0.61171114444732666 0.41671296954154968 0.15814732015132904
0.69397348165512085 0.41947022080421448 0.15909327566623688
0.76929235458374023 0.42144769430160522 0.16150848567485809
0.83910375833511353 0.42201238870620728 0.16605199873447418
0.90571826696395874 0.42200493812561035 0.17054378986358643
0.97158420085906982 0.42243030667304993 0.17184913158416748
0.033060859888792038 0.51539158821105957 0.14348141849040985
0.10216306895017624 0.51703423261642456 0.14630883932113647
0.17312577366828918 0.51575940847396851 0.14789879322052002
0.24909448623657227 0.51491791009902954 0.14852693676948547
0.33278584480285645 0.51490300893783569 0.14858372509479523
0.42396354675292969 0.51525616645812988 0.14923231303691864
0.51954537630081177 0.51549071073532104 0.15083789825439453
0.61199218034744263 0.51575237512588501 0.15189245343208313
0.69798904657363892 0.51907527446746826 0.15245568752288818
0.7762266993522644 0.52047902345657349 0.15417100489139557
0.84739488363265991 0.52239841222763062 0.15824928879737854
0.91441076993942261 0.52223879098892212 0.16226507723331451
0.9789503812789917 0.52120381593704224 0.16358867287635803
0.033272057771682739 0.61160469055175781 0.14231030642986298
0.10339760780334473 0.61405426263809204 0.14406441152095795
0.1747937947511673 0.61289447546005249 0.14565563201904297
0.25086691975593567 0.61176270246505737 0.14575015008449554
0.33412829041481018 0.61145889759063721 0.1453874409198761
0.42354154586791992 0.6111559271812439 0.14545424282550812
0.51813602447509766 0.61050105094909668 0.14640282094478607
0.61143791675567627 0.60999643802642822 0.14739438891410828
0.70027446746826172 0.61136800050735474 0.14822900295257568
0.78039950132369995 0.61352378129959106 0.14959020912647247
0.85362690687179565 0.61502313613891602 0.15243051946163177
0.92188209295272827 0.61608338356018066 0.15509302914142609
0.98494714498519897 0.61613196134567261 0.15546958148479462
0.032967392355203629 0.69913256168365479 0.14269360899925232
0.10335239768028259 0.70175433158874512 0.14399516582489014
0.17549774050712585 0.70159566402435303 0.14523926377296448
0.25166469812393188 0.70059144496917725 0.14475968480110168
0.3344779908657074 0.69954472780227661 0.14391565322875977
0.42370766401290894 0.698405921459198 0.1437915712594986
0.51698839664459229 0.6971360445022583 0.14445944130420685
0.61109143495559692 0.69548916816711426 0.14521028101444244
0.70087522268295288 0.69594460725784302 0.14592070877552032
0.78305375576019287 0.69834482669830322 0.14701288938522339
0.85762697458267212 0.70116013288497925 0.14843858778476715
0.92759305238723755 0.70334076881408691 0.14931145310401917
0.98897260427474976 0.70425331592559814 0.14838084578514099
0.031893067061901093 0.77934944629669189 0.14378373324871063
0.10267731547355652 0.7806394100189209 0.14620928466320038
0.17545485496520996 0.78076601028442383 0.14631888270378113
0.25212365388870239 0.78063786029815674 0.14519296586513519
0.33477780222892761 0.78039312362670898 0.14322932064533234
0.42371675372123718 0.7781825065612793 0.1429554671049118
0.51625978946685791 0.77671569585800171 0.1431867778301239
0.61059141159057617 0.77627432346343994 0.14381782710552216
0.7005123496055603 0.77566933631896973 0.14460556209087372
0.78390878438949585 0.77737987041473389 0.14484639465808868
0.85996520519256592 0.78119313716888428 0.14489246904850006
0.93147736787796021 0.78446406126022339 0.14407621324062347
0.9918820858001709 0.78581303358078003 0.1417616605758667
0.030314711853861809 0.85429918766021729 0.14557352662086487
0.10203219950199127 0.85643064975738525 0.14687271416187286
0.17517232894897461 0.85676878690719604 0.14686095714569092
0.25218421220779419 0.85627645254135132 0.14586503803730011
0.33469980955123901 0.85512101650238037 0.14311948418617249
0.42290297150611877 0.85384738445281982 0.14293377101421356
0.51517921686172485 0.85285985469818115 0.14275206625461578
0.60799908638000488 0.85088622570037842 0.1426764577627182
0.6978793740272522 0.85148197412490845 0.14239881932735443
0.7817922830581665 0.85432583093643188 0.14184148609638214
0.85928136110305786 0.8583570122718811 0.14057788252830505
0.93309253454208374 0.86175251007080078 0.13838368654251099
0.99290859699249268 0.86469686031341553 0.13463251292705536
0.029334962368011475 0.92652159929275513 0.14537210762500763
0.10169731825590134 0.92861109972000122 0.14687365293502808
0.17555096745491028 0.92909550666809082 0.14677934348583221
0.25272253155708313 0.92884451150894165 0.14461870491504669
0.33470156788825989 0.92815029621124268 0.14287513494491577
0.42219299077987671 0.92742174863815308 0.14164233207702637
0.51307672262191772 0.92696571350097656 0.14016258716583252
0.60457849502563477 0.92714518308639526 0.13949272036552429
0.69352167844772339 0.92729854583740234 0.13852547109127045
0.77785086631774902 0.93064373731613159 0.13704262673854828
0.85745549201965332 0.9340134859085083 0.13483606278896332
0.93219989538192749 0.93771415948867798 0.13140802085399628
0.99319601058959961 0.93971174955368042 0.12633202970027924
0.028384145349264145 0.9904712438583374 0.14191606640815735
0.10185831040143967 0.99112939834594727 0.14424684643745422
0.1764170229434967 0.99160546064376831 0.14367771148681641
0.25388160347938538 0.99160254001617432 0.1419946700334549
0.33585637807846069 0.99151617288589478 0.14004537463188171
0.42204892635345459 0.99133241176605225 0.13797952234745026
0.51123863458633423 0.99126923084259033 0.13650436699390411
0.60100620985031128 0.99176287651062012 0.1346118301153183
0.68889749050140381 0.99244612455368042 0.13291691243648529
0.77325987815856934 0.99335163831710815 0.13047827780246735
0.85350018739700317 0.99463731050491333 0.12721496820449829
0.9304506778717041 0.99586695432662964 0.12258005887269974
0.99257093667984009 0.99705880880355835 0.11640652269124985
0.028093645349144936 0.016316087916493416 0.23768526315689087
0.091353669762611389 0.019499221816658974 0.23653939366340637
0.15202222764492035 0.025482162833213806 0.23305028676986694
0.21759460866451263 0.033069998025894165 0.23126117885112762
0.29669493436813354 0.039248298853635788 0.23322124779224396
0.38890397548675537 0.042462501674890518 0.23761548101902008
0.48747923970222473 0.043331999331712723 0.2421061098575592
0.58319771289825439 0.04274585098028183 0.24645766615867615
0.66932350397109985 0.040160249918699265 0.24934330582618713
0.74611914157867432 0.036086227744817734 0.24982674419879913
0.81823956966400146 0.032140843570232391 0.24802237749099731
0.88802593946456909 0.0288657546043396 0.24386414885520935
0.95588409900665283 0.026934320107102394 0.23743599653244019
0.03487803041934967 0.074348434805870056 0.24493385851383209
0.097740337252616882 0.076751410961151123 0.24428431689739227
0.15618070960044861 0.082224301993846893 0.23971369862556458
0.22004808485507965 0.088723637163639069 0.23517584800720215
0.29928880929946899 0.094254016876220703 0.23507559299468994
0.39273107051849365 0.097527854144573212 0.23895649611949921
0.4911782443523407 0.098579660058021545 0.24440898001194
0.58558720350265503 0.098341956734657288 0.2499927431344986
0.67091208696365356 0.096389546990394592 0.25440105795860291
0.74794143438339233 0.093962334096431732 0.25646889209747314
0.82056903839111328 0.091686397790908813 0.25611856579780579
0.89102685451507568 0.090289965271949768 0.2532290518283844
0.95927685499191284 0.090400263667106628 0.24822080135345459
0.038022525608539581 0.14193820953369141 0.25003102421760559
0.10180608928203583 0.14252804219722748 0.25150075554847717
0.160069540143013 0.14561450481414795 0.24796073138713837
0.22501468658447266 0.1498473584651947 0.24392808973789215
0.30578061938285828 0.15469498932361603 0.2415471076965332
0.39997881650924683 0.15818016231060028 0.24275141954421997
0.49767109751701355 0.15990734100341797 0.24733562767505646
0.58987420797348022 0.1600700169801712 0.25307184457778931
0.6728663444519043 0.1593167632818222 0.2580619752407074
0.74874776601791382 0.15817318856716156 0.26148256659507751
0.82121032476425171 0.15765208005905151 0.26262074708938599
0.89194530248641968 0.15804028511047363 0.26135703921318054
0.96040916442871094 0.15976068377494812 0.25802034139633179
0.036150194704532623 0.22197458148002625 0.25035551190376282
0.10047617554664612 0.22160041332244873 0.25346437096595764
0.16217990219593048 0.22259728610515594 0.2524450421333313
0.23046098649501801 0.22452817857265472 0.25041833519935608
0.31373417377471924 0.22801315784454346 0.24774298071861267
0.40947115421295166 0.23113332688808441 0.24775028228759766
0.50712937116622925 0.23326285183429718 0.25171196460723877
0.59721970558166504 0.2342599481344223 0.25635144114494324
0.67744696140289307 0.23422436416149139 0.2605225145816803
0.75149869918823242 0.23398593068122864 0.26396468281745911
0.82318329811096191 0.23473908007144928 0.26639261841773987
0.89270472526550293 0.2358710765838623 0.2673676609992981
0.96064066886901855 0.23786020278930664 0.26568412780761719
0.033718843013048172 0.31468403339385986 0.2475801557302475
0.098881512880325317 0.31426829099655151 0.25069001317024231
0.16429570317268372 0.3141060471534729 0.25153174996376038
0.23651118576526642 0.31468111276626587 0.25087523460388184
0.32170304656028748 0.31637048721313477 0.24956554174423218
