assets/lut/kylerholland kh05.cube
# Created by: G'MIC (https://gmic.eu)
TITLE "kh5"
# LUT size
LUT_3D_SIZE 7
# Data domain
DOMAIN_MIN 0.0 0.0 0.0
DOMAIN_MAX 1.0 1.0 1.0
# LUT data points
0.021499618887901306 0.013189727440476418 0.009257851168513298
0.14046159386634827 0.026239611208438873 0.025307688862085342
0.32699036598205566 0.050361230969429016 0.045807752758264542
0.5141061544418335 0.068688429892063141 0.067170180380344391
0.67747640609741211 0.085638426244258881 0.087742902338504791
0.81278681755065918 0.1028306856751442 0.10490179806947708
0.92285984754562378 0.12696404755115509 0.11139152199029922
0.052351348102092743 0.12577073276042938 0.046707946807146072
0.15126326680183411 0.14470119774341583 0.053350381553173065
0.32075577974319458 0.17085616290569305 0.067311093211174011
0.51275449991226196 0.19720834493637085 0.085128575563430786
0.68135660886764526 0.2204078882932663 0.10147467255592346
0.81692498922348022 0.23412433266639709 0.12059137970209122
0.92603927850723267 0.25329175591468811 0.12686949968338013
0.11215172708034515 0.28850966691970825 0.093128219246864319
0.20874398946762085 0.30571097135543823 0.11288003623485565
0.33728751540184021 0.3380647599697113 0.12420283257961273
0.50562101602554321 0.36508861184120178 0.13947878777980804
0.67000865936279297 0.39247587323188782 0.14294840395450592
0.80740505456924438 0.41093605756759644 0.15299437940120697
0.92310613393783569 0.42506822943687439 0.15911968052387238
0.187570720911026 0.45541206002235413 0.15549105405807495
0.28806665539741516 0.47154718637466431 0.17548973858356476
0.40082499384880066 0.50570034980773926 0.18045198917388916
0.53133195638656616 0.53009730577468872 0.19571733474731445
0.67080825567245483 0.55613738298416138 0.20654706656932831
0.79905533790588379 0.58055794239044189 0.21854484081268311
0.9152991771697998 0.5947909951210022 0.22625598311424255
0.25572478771209717 0.60647523403167725 0.21420861780643463
0.35520344972610474 0.61954009532928467 0.22981391847133636
0.46417236328125 0.65110296010971069 0.2369273453950882
0.57936322689056396 0.68245941400527954 0.24001246690750122
0.69988644123077393 0.69567662477493286 0.24829950928688049
0.81122642755508423 0.71822971105575562 0.26822772622108459
0.91656875610351562 0.73762315511703491 0.28824254870414734
0.29285475611686707 0.72702699899673462 0.24650636315345764
0.39738166332244873 0.73879712820053101 0.2659231424331665
0.50913524627685547 0.76675158739089966 0.27837967872619629
0.62102323770523071 0.79977130889892578 0.27904435992240906
0.73064029216766357 0.81740438938140869 0.28193089365959167
0.83303976058959961 0.83445101976394653 0.29649299383163452
0.93156200647354126 0.851939857006073 0.31657868623733521
0.31232172250747681 0.83042007684707642 0.26695659756660461
0.42053750157356262 0.8416866660118103 0.28744819760322571
0.53577220439910889 0.86524462699890137 0.30525445938110352
0.64888113737106323 0.89673435688018799 0.31269249320030212
0.75532883405685425 0.92052191495895386 0.31626474857330322
0.85423225164413452 0.93826180696487427 0.32453474402427673
0.95096933841705322 0.95342785120010376 0.33684471249580383
0.034389451146125793 0.013138759881258011 0.10115472972393036
0.13986612856388092 0.044754430651664734 0.12631639838218689
0.31507113575935364 0.069577567279338837 0.16246332228183746
0.50727254152297974 0.082179218530654907 0.18772849440574646
0.67847341299057007 0.096417509019374847 0.20816512405872345
0.81679791212081909 0.11386271566152573 0.22290211915969849
0.9227060079574585 0.13750043511390686 0.23396556079387665
0.051159922033548355 0.13296769559383392 0.12903560698032379
0.15047326683998108 0.14653271436691284 0.14347054064273834
0.32788407802581787 0.17265342175960541 0.16760191321372986
0.51912397146224976 0.19616040587425232 0.19091574847698212
0.69051986932754517 0.21752092242240906 0.21053753793239594
0.82169687747955322 0.23072119057178497 0.22556865215301514
0.92631906270980835 0.24797683954238892 0.2352415919303894
0.10874480009078979 0.29420793056488037 0.17430396378040314
0.21070197224617004 0.31015738844871521 0.19493615627288818
0.34473827481269836 0.34318572282791138 0.21373865008354187
0.51439821720123291 0.37002214789390564 0.22690221667289734
0.68501007556915283 0.39240965247154236 0.23504188656806946
0.82152581214904785 0.40677088499069214 0.24357335269451141
0.93225866556167603 0.42072606086730957 0.25363633036613464
0.17816123366355896 0.46161431074142456 0.2249196469783783
0.28485992550849915 0.47564476728439331 0.25364997982978821
0.40828853845596313 0.50249576568603516 0.2742677628993988
0.53543674945831299 0.53211969137191772 0.2893989086151123
0.67865324020385742 0.56028467416763306 0.30290383100509644
0.81168341636657715 0.58306515216827393 0.30830985307693481
0.92723065614700317 0.59661495685577393 0.3111322820186615
0.24037696421146393 0.61048096418380737 0.27395090460777283
0.34666761755943298 0.62034159898757935 0.30422356724739075
0.47038301825523376 0.64933151006698608 0.32828477025032043
0.58354002237319946 0.68296259641647339 0.33074134588241577
0.70439958572387695 0.70014482736587524 0.34468945860862732
0.82045465707778931 0.72220396995544434 0.36092159152030945
0.92798870801925659 0.74038779735565186 0.36843428015708923
0.277138352394104 0.73239552974700928 0.30887842178344727
0.3836931586265564 0.74305993318557739 0.33353769779205322
0.50956243276596069 0.76905673742294312 0.36219167709350586
0.62924706935882568 0.8009641170501709 0.37236157059669495
0.73903632164001465 0.82099312543869019 0.37430241703987122
0.84231328964233398 0.83693057298660278 0.38482335209846497
0.94047993421554565 0.85367500782012939 0.4013969898223877
0.29745852947235107 0.83506494760513306 0.33592009544372559
0.40349704027175903 0.84608662128448486 0.35263082385063171
0.53183537721633911 0.86978679895401001 0.38407120108604431
0.65684503316879272 0.89998430013656616 0.40478137135505676
0.76577305793762207 0.92446959018707275 0.41059133410453796
0.86349421739578247 0.94041174650192261 0.41590690612792969
0.95808041095733643 0.95333433151245117 0.425496906042099
0.066281400620937347 0.014615227468311787 0.21051101386547089
0.16503830254077911 0.060141336172819138 0.22470447421073914
0.30943363904953003 0.094641774892807007 0.30520963668823242
0.48336660861968994 0.11313226819038391 0.33460539579391479
0.65375012159347534 0.12800033390522003 0.35360705852508545
0.79448419809341431 0.14216621220111847 0.37443166971206665
0.90631890296936035 0.15633895993232727 0.39528593420982361
0.059766236692667007 0.10639864206314087 0.27591705322265625
0.17437572777271271 0.14546003937721252 0.25949147343635559
0.32277250289916992 0.19781947135925293 0.31386765837669373
0.50094276666641235 0.22170750796794891 0.34557729959487915
0.67441695928573608 0.234175905585289 0.36449933052062988
0.80865156650543213 0.24632170796394348 0.38101005554199219
0.91584914922714233 0.26339346170425415 0.39691144227981567
0.1147773414850235 0.30768129229545593 0.29235494136810303
0.21104180812835693 0.31881648302078247 0.30755090713500977
0.3534943163394928 0.3466992974281311 0.3334934413433075
0.53197413682937622 0.37167614698410034 0.35910984873771667
0.69813388586044312 0.38980022072792053 0.37624484300613403
0.82966852188110352 0.40391623973846436 0.38892805576324463
0.9353710412979126 0.41997009515762329 0.40229523181915283
0.17443178594112396 0.46378645300865173 0.33320823311805725
0.27484434843063354 0.48197811841964722 0.35328710079193115
0.41278895735740662 0.50726318359375 0.38474509119987488
0.54702234268188477 0.5390697717666626 0.40356037020683289
0.69366538524627686 0.56463158130645752 0.41104072332382202
0.82703500986099243 0.58317810297012329 0.4221702516078949
0.9402281641960144 0.59565705060958862 0.42877000570297241
0.22716312110424042 0.61212682723999023 0.3723965585231781
0.33179208636283875 0.63139128684997559 0.39474943280220032
0.47122582793235779 0.65681695938110352 0.43142220377922058
0.59376794099807739 0.68536591529846191 0.45092880725860596
0.71207159757614136 0.70663416385650635 0.46480202674865723
0.82897114753723145 0.72932916879653931 0.474668949842453
0.93988996744155884 0.74520838260650635 0.47187882661819458
0.26400679349899292 0.73590129613876343 0.40433165431022644
0.3708379864692688 0.75242727994918823 0.42358505725860596
0.50855028629302979 0.77729743719100952 0.4606286883354187
0.63837182521820068 0.80646795034408569 0.48647567629814148
0.74630129337310791 0.83140784502029419 0.49506425857543945
0.84920257329940796 0.84477335214614868 0.50446009635925293
0.94921398162841797 0.85906565189361572 0.50773578882217407
0.28824180364608765 0.83938044309616089 0.43041613698005676
0.39477837085723877 0.85293775796890259 0.44449421763420105
0.53197938203811646 0.87644320726394653 0.48302125930786133
0.66849112510681152 0.9044870138168335 0.51738125085830688
0.77769196033477783 0.93161648511886597 0.52646660804748535
0.87194448709487915 0.94737213850021362 0.52898013591766357
0.96557343006134033 0.95802825689315796 0.53258061408996582
0.098294094204902649 0.013154332526028156 0.32038679718971252
0.19885912537574768 0.065979704260826111 0.32942473888397217
0.33049696683883667 0.11175293475389481 0.39979946613311768
0.47744673490524292 0.14377287030220032 0.45957669615745544
0.62842756509780884 0.16745030879974365 0.48810568451881409
0.76254570484161377 0.18495634198188782 0.51518958806991577
0.87946677207946777 0.18739305436611176 0.53608262538909912
0.084005631506443024 0.09007243812084198 0.41051158308982849
0.20860935747623444 0.14607931673526764 0.37307712435722351
0.35498726367950439 0.21510711312294006 0.40878957509994507
0.48949089646339417 0.25515991449356079 0.47713977098464966
0.64562308788299561 0.27008044719696045 0.5016859769821167
0.78301107883453369 0.28094014525413513 0.52852398157119751
0.89578461647033691 0.29277706146240234 0.54947316646575928
0.11769868433475494 0.29626935720443726 0.43433892726898193
0.21309319138526917 0.29778173565864563 0.45529302954673767
0.37723881006240845 0.34461775422096252 0.45242422819137573
0.52194106578826904 0.39772778749465942 0.50209087133407593
0.68186789751052856 0.41392180323600769 0.5256081223487854
0.82033425569534302 0.42107602953910828 0.54503393173217773
0.93162482976913452 0.43363016843795776 0.55796420574188232
0.17828959226608276 0.47188231348991394 0.45605221390724182
0.27627101540565491 0.49008762836456299 0.47153505682945251
0.40972647070884705 0.51769047975540161 0.49502226710319519
0.54855406284332275 0.54370957612991333 0.52318978309631348
0.70636451244354248 0.56546807289123535 0.54699349403381348
0.84396171569824219 0.58047968149185181 0.5593302845954895
0.95613294839859009 0.59265792369842529 0.57134759426116943
0.22804151475429535 0.61464494466781616 0.49495020508766174
0.32852497696876526 0.63388121128082275 0.51017707586288452
0.46181449294090271 0.66151529550552368 0.53464376926422119
0.5981866717338562 0.68571192026138306 0.56493604183197021
0.71999955177307129 0.71727263927459717 0.58112215995788574
0.84301203489303589 0.73451250791549683 0.59077262878417969
0.95485585927963257 0.74838936328887939 0.59331339597702026
0.26434364914894104 0.73918741941452026 0.52853226661682129
0.36891680955886841 0.75682151317596436 0.53956687450408936
0.50255578756332397 0.7838590145111084 0.56491315364837646
0.64363282918930054 0.80988359451293945 0.60047364234924316
0.75776523351669312 0.83738666772842407 0.61883711814880371
0.85597890615463257 0.85315436124801636 0.62784475088119507
0.95753449201583862 0.8672061562538147 0.62704133987426758
0.29147082567214966 0.84311562776565552 0.54948008060455322
0.39924392104148865 0.85921639204025269 0.56389158964157104
0.53383183479309082 0.88298243284225464 0.59498220682144165
0.67644065618515015 0.90877574682235718 0.6327705979347229
0.78941971063613892 0.93637144565582275 0.64704650640487671
0.88116836547851562 0.95404291152954102 0.65183311700820923
0.97319275140762329 0.96708023548126221 0.65352857112884521
0.13031716644763947 0.012018869630992413 0.42209824919700623
0.2297203540802002 0.07137724757194519 0.42391961812973022
0.36197713017463684 0.12596282362937927 0.48144340515136719
0.49914485216140747 0.16085578501224518 0.56999009847640991
0.63161957263946533 0.18745797872543335 0.61101841926574707
0.7496984601020813 0.20902308821678162 0.63384377956390381
0.8625679612159729 0.2123495489358902 0.64815133810043335
0.11766059696674347 0.085493706166744232 0.51551294326782227
0.2392672598361969 0.14663033187389374 0.4803909957408905
0.38274878263473511 0.22164025902748108 0.4962005615234375
0.51146668195724487 0.26443475484848022 0.58070826530456543
0.6434207558631897 0.28586408495903015 0.62131071090698242
0.7644229531288147 0.30986839532852173 0.64712625741958618
0.87873369455337524 0.3254241943359375 0.6653130054473877
0.11040535569190979 0.26002705097198486 0.59167933464050293
0.22132979333400726 0.26934978365898132 0.59434086084365845
0.4024718701839447 0.34278318285942078 0.55241179466247559
0.54700303077697754 0.41036766767501831 0.59707826375961304
0.66935431957244873 0.43977344036102295 0.65169066190719604
0.79182326793670654 0.45848542451858521 0.66940128803253174
0.91119760274887085 0.46629586815834045 0.68287181854248047
0.1785736083984375 0.48414942622184753 0.57710444927215576
0.26895955204963684 0.49644353985786438 0.60426676273345947
0.40908679366111755 0.5026555061340332 0.63519465923309326
0.56535762548446655 0.53791731595993042 0.63645315170288086
0.7036060094833374 0.58788257837295532 0.67212599515914917
0.82921582460403442 0.60206341743469238 0.68912589550018311
0.94719105958938599 0.60704696178436279 0.69987064599990845
0.23612959682941437 0.6248478889465332 0.6012502908706665
0.33192902803421021 0.64091747999191284 0.62082499265670776
0.46356880664825439 0.66818338632583618 0.64470982551574707
0.59978127479553223 0.69706630706787109 0.67225152254104614
0.72745996713638306 0.71946907043457031 0.69498062133789062
0.85256683826446533 0.73681050539016724 0.70642310380935669
0.96336537599563599 0.74618047475814819 0.71739649772644043
0.2701537013053894 0.74541324377059937 0.63772249221801758
0.37072819471359253 0.75783413648605347 0.64900344610214233
0.49928727746009827 0.78479844331741333 0.67362070083618164
0.63954246044158936 0.81297099590301514 0.70537102222442627
0.76288753747940063 0.83827662467956543 0.7253386378288269
0.86315733194351196 0.85701501369476318 0.7368243932723999
0.96399366855621338 0.87143963575363159 0.74160712957382202
0.29606428742408752 0.84611886739730835 0.66117602586746216
0.39856213331222534 0.86293381452560425 0.6731986403465271
0.52974683046340942 0.88764864206314087 0.69800400733947754
0.67050820589065552 0.9158858060836792 0.72709250450134277
0.79170912504196167 0.94163095951080322 0.74604523181915283
0.8889196515083313 0.95735913515090942 0.76180744171142578
0.97902089357376099 0.97145223617553711 0.76740044355392456
0.14939373731613159 0.010100121609866619 0.51210898160934448
0.25206094980239868 0.068838872015476227 0.51788944005966187
0.38693758845329285 0.13082431256771088 0.56665736436843872
0.52525925636291504 0.17841973900794983 0.66563159227371216
0.65215826034545898 0.20852592587471008 0.72535401582717896
0.75660187005996704 0.21613538265228271 0.7382851243019104
0.85765808820724487 0.21841871738433838 0.74086469411849976
0.14100684225559235 0.084598690271377563 0.60181403160095215
0.25851544737815857 0.14178827404975891 0.5763469934463501
0.40316915512084961 0.22471259534358978 0.57988041639328003
0.53555846214294434 0.27793475985527039 0.66266721487045288
0.66080743074417114 0.30709272623062134 0.72702288627624512
0.76764285564422607 0.32171645760536194 0.74690842628479004
0.87094354629516602 0.33458563685417175 0.75619703531265259
0.1184910461306572 0.23271733522415161 0.70786422491073608
0.23840051889419556 0.25758713483810425 0.69245880842208862
0.42234176397323608 0.34313541650772095 0.6411476731300354
0.5679931640625 0.420448899269104 0.66459041833877563
0.68709343671798706 0.45040467381477356 0.74168747663497925
0.79549336433410645 0.46409079432487488 0.76531952619552612
0.90164351463317871 0.48108470439910889 0.78022700548171997
0.17721626162528992 0.47487029433250427 0.69280141592025757
0.26747289299964905 0.47907307744026184 0.72003841400146484
0.417214035987854 0.4783555269241333 0.74895328283309937
0.5867609977722168 0.53342092037200928 0.72418254613876343
0.72203820943832397 0.60050982236862183 0.7572399377822876
0.82524627447128296 0.61771082878112793 0.79402261972427368
0.93277591466903687 0.62783467769622803 0.80522614717483521
0.24090631306171417 0.63218122720718384 0.69084757566452026
0.33471196889877319 0.64776599407196045 0.70743650197982788
0.46070918440818787 0.6783146858215332 0.74753576517105103
0.60058140754699707 0.69213652610778809 0.77622801065444946
0.73970162868499756 0.71592456102371216 0.78552716970443726
0.85003936290740967 0.75058937072753906 0.81110590696334839
0.95579797029495239 0.76196509599685669 0.82621145248413086
0.27091807126998901 0.7506706714630127 0.72366386651992798
0.37271493673324585 0.76255464553833008 0.73515516519546509
0.5040360689163208 0.79110705852508545 0.76136881113052368
0.63924872875213623 0.82339918613433838 0.78840023279190063
0.76099997758865356 0.84524840116500854 0.81331700086593628
0.86750525236129761 0.85924559831619263 0.82771319150924683
0.96927058696746826 0.87250775098800659 0.84043949842453003
0.29237821698188782 0.85423952341079712 0.75123858451843262
0.39280411601066589 0.86957812309265137 0.76224303245544434
0.52899265289306641 0.89385247230529785 0.78429436683654785
0.66890352964401245 0.92281138896942139 0.80952292680740356
0.79129338264465332 0.9454343318939209 0.83168816566467285
0.89341580867767334 0.96013981103897095 0.85076415538787842
0.98252737522125244 0.97512304782867432 0.8588452935218811
0.1552012711763382 0.007561657577753067 0.58876210451126099
0.2657378613948822 0.06842639297246933 0.58534717559814453
0.39785510301589966 0.14012306928634644 0.6232295036315918
0.53669345378875732 0.18758335709571838 0.72079741954803467
0.66664391756057739 0.21968123316764832 0.79746377468109131
0.77009379863739014 0.2246234267950058 0.82224613428115845
0.86445713043212891 0.2234492301940918 0.8237949013710022
0.15123431384563446 0.088787481188774109 0.67740094661712646
0.27714934945106506 0.14786246418952942 0.6434483528137207
0.41928371787071228 0.2286982536315918 0.64843893051147461
0.55429697036743164 0.2874695360660553 0.72784364223480225
0.68021035194396973 0.32196980714797974 0.8048895001411438
0.78381264209747314 0.33352693915367126 0.83302932977676392
0.87842750549316406 0.33928766846656799 0.84030640125274658
0.13290232419967651 0.22391901910305023 0.7903253436088562
0.25771558284759521 0.24974480271339417 0.77141809463500977
0.43676775693893433 0.33978632092475891 0.72135251760482788
0.58234554529190063 0.41776534914970398 0.74171227216720581
0.70594322681427002 0.45657169818878174 0.81683862209320068
0.81372666358947754 0.47787141799926758 0.85812658071517944
0.90898090600967407 0.48847559094429016 0.87155067920684814
0.1753014475107193 0.46292155981063843 0.80041635036468506
0.2659243643283844 0.46044856309890747 0.82425487041473389
0.43068444728851318 0.46897947788238525 0.83035540580749512
0.6032225489616394 0.53620952367782593 0.79745405912399292
0.73466020822525024 0.59923958778381348 0.82831674814224243
0.8405265212059021 0.62742316722869873 0.8833051323890686
0.93589562177658081 0.63843709230422974 0.90173214673995972
0.23234200477600098 0.63724291324615479 0.79125720262527466
0.32999321818351746 0.64917474985122681 0.80584079027175903
0.46232461929321289 0.66927778720855713 0.84020417928695679
0.61138415336608887 0.67327475547790527 0.8677104115486145
0.75047206878662109 0.71457809209823608 0.86573892831802368
0.86232233047485352 0.75972616672515869 0.88731878995895386
0.95641708374023438 0.77333438396453857 0.91982823610305786
0.26775303483009338 0.75657761096954346 0.81012874841690063
0.37565481662750244 0.77253305912017822 0.82085502147674561
0.50821590423583984 0.79958522319793701 0.84342586994171143
0.64209663867950439 0.8212401270866394 0.87603330612182617
0.76045697927474976 0.83520382642745972 0.91019606590270996
0.87566328048706055 0.85666018724441528 0.91233175992965698
0.97401148080825806 0.88167518377304077 0.92497843503952026
0.29154974222183228 0.86361813545227051 0.8346288800239563
0.40160462260246277 0.88036715984344482 0.84671056270599365
0.53459197282791138 0.90232455730438232 0.86652481555938721
0.67031264305114746 0.92680913209915161 0.89247363805770874
0.7922515869140625 0.94705319404602051 0.91565507650375366
0.89457201957702637 0.96333593130111694 0.92757886648178101
0.98582255840301514 0.97920823097229004 0.93811476230621338
