assets/lut/kylerholland kh04.cube
# Created by: G'MIC (https://gmic.eu)
TITLE "kh4"
# LUT size
LUT_3D_SIZE 7
# Data domain
DOMAIN_MIN 0.0 0.0 0.0
DOMAIN_MAX 1.0 1.0 1.0
# LUT data points
0.030644316226243973 0.022577965632081032 0.07491736114025116
0.16548338532447815 0.020246213302016258 0.072833240032196045
0.30150008201599121 0.020374178886413574 0.069581456482410431
0.46961867809295654 0.020126612856984138 0.074758507311344147
0.64885455369949341 0.020137114450335503 0.081324934959411621
0.82361555099487305 0.020060101523995399 0.074349120259284973
0.98707109689712524 0.023536128923296928 0.064347527921199799
0.032791662961244583 0.14129526913166046 0.0897255539894104
0.16367186605930328 0.13917918503284454 0.07456207275390625
0.30025342106819153 0.14032113552093506 0.077081896364688873
0.47178417444229126 0.13921166956424713 0.072109177708625793
0.64902883768081665 0.13895067572593689 0.072229169309139252
0.82176512479782104 0.13914787769317627 0.069001339375972748
0.98553919792175293 0.14819326996803284 0.086145259439945221
0.037076357752084732 0.29570192098617554 0.092438176274299622
0.16521531343460083 0.2924378514289856 0.073753312230110168
0.30164411664009094 0.29181727766990662 0.090702712535858154
0.47302275896072388 0.29247614741325378 0.086748175323009491
0.64911472797393799 0.29316189885139465 0.084313787519931793
0.82186418771743774 0.29140487313270569 0.082209959626197815
0.98557513952255249 0.29761484265327454 0.098020039498806
0.0315372534096241 0.46677792072296143 0.084718070924282074
0.1626821905374527 0.46519654989242554 0.059020966291427612
0.30268004536628723 0.46560201048851013 0.074636243283748627
0.4724547266960144 0.46652600169181824 0.063290104269981384
0.64910387992858887 0.46663901209831238 0.067843899130821228
0.82233339548110962 0.4654548168182373 0.066705711185932159
0.98707109689712524 0.46752223372459412 0.094852298498153687
0.028117340058088303 0.64237803220748901 0.086683847010135651
0.16389235854148865 0.64227938652038574 0.05467141792178154
0.30714213848114014 0.64302289485931396 0.059216219931840897
0.47203207015991211 0.64280658960342407 0.059812821447849274
0.64753508567810059 0.64205449819564819 0.066366724669933319
0.823222815990448 0.64022922515869141 0.081700295209884644
0.98786765336990356 0.64114826917648315 0.09088134765625
0.028906548395752907 0.81839126348495483 0.058702729642391205
0.16718536615371704 0.81910496950149536 0.048246704041957855
0.31008893251419067 0.81985294818878174 0.073836274445056915
0.47073352336883545 0.81869810819625854 0.085937634110450745
0.64538711309432983 0.81647086143493652 0.080146849155426025
0.82191520929336548 0.81507200002670288 0.082601137459278107
0.98719555139541626 0.81667208671569824 0.075218528509140015
0.028773872181773186 0.9863964319229126 0.042618993669748306
0.17030628025531769 0.98706209659576416 0.0484786257147789
0.31589415669441223 0.98707109689712524 0.068772949278354645
0.47501474618911743 0.98652726411819458 0.078406587243080139
0.64604133367538452 0.9854590892791748 0.070209279656410217
0.82004505395889282 0.98494237661361694 0.060067750513553619
0.98707109689712524 0.98618137836456299 0.04441649466753006
0.030882352963089943 0.021250093355774879 0.26456305384635925
0.16583481431007385 0.020839167758822441 0.26579821109771729
0.2988353967666626 0.02140858955681324 0.26778590679168701
0.47068020701408386 0.023124784231185913 0.2706717848777771
0.65171569585800171 0.022266387939453125 0.26989862322807312
0.8251488208770752 0.020096274092793465 0.26470893621444702
0.98707109689712524 0.023161765187978745 0.27494567632675171
0.030859015882015228 0.13700589537620544 0.26523301005363464
0.16249610483646393 0.13798414170742035 0.26397562026977539
0.29725885391235352 0.14108768105506897 0.27102586627006531
0.47219741344451904 0.14176550507545471 0.27884039282798767
0.65205985307693481 0.14084893465042114 0.27248373627662659
0.82410681247711182 0.13858895003795624 0.25724613666534424
0.98649495840072632 0.14554491639137268 0.26793292164802551
0.032684162259101868 0.29289722442626953 0.26321667432785034
0.16134081780910492 0.29282602667808533 0.25816428661346436
0.29839405417442322 0.29404032230377197 0.26399916410446167
0.47356858849525452 0.29457426071166992 0.25923508405685425
0.65215885639190674 0.2935064435005188 0.26434502005577087
0.82370859384536743 0.29000294208526611 0.25901836156845093
0.98695296049118042 0.29375055432319641 0.26843732595443726
0.029055383056402206 0.46666666865348816 0.25972416996955872
0.15928664803504944 0.46665734052658081 0.25459939241409302
0.29943621158599854 0.46666666865348816 0.26090356707572937
0.47118067741394043 0.46718531847000122 0.25697842240333557
0.65091407299041748 0.46807441115379333 0.27086347341537476
0.82312047481536865 0.46572360396385193 0.26108101010322571
0.98666822910308838 0.46600419282913208 0.26691314578056335
0.025648139417171478 0.64227938652038574 0.26180928945541382
0.15730026364326477 0.64298421144485474 0.24530069530010223
0.30049630999565125 0.64307600259780884 0.25460487604141235
0.46900510787963867 0.64243596792221069 0.26155012845993042
0.64797723293304443 0.64225947856903076 0.26504755020141602
0.82366091012954712 0.64044386148452759 0.27100220322608948
0.98707765340805054 0.64065659046173096 0.26732519268989563
0.027337301522493362 0.81860923767089844 0.24062803387641907
0.16089639067649841 0.81905639171600342 0.24134375154972076
0.30383285880088806 0.81951361894607544 0.2668038010597229
0.46760877966880798 0.81811696290969849 0.27577641606330872
0.64572447538375854 0.81593137979507446 0.26301282644271851
0.82211583852767944 0.81450062990188599 0.26414933800697327
0.98707109689712524 0.8161163330078125 0.2569672167301178
0.02732563391327858 0.98681241273880005 0.2230478972196579
0.16547533869743347 0.98706567287445068 0.23485949635505676
0.31065580248832703 0.98678600788116455 0.25631251931190491
0.47188287973403931 0.98554152250289917 0.26315367221832275
0.64543765783309937 0.98474264144897461 0.25155147910118103
0.82023042440414429 0.98474264144897461 0.24281072616577148
0.98707109689712524 0.9856681227684021 0.23067942261695862
0.03596046194434166 0.019679395481944084 0.37752383947372437
0.17080608010292053 0.019988175481557846 0.37288495898246765
0.30645716190338135 0.018847042694687843 0.37256193161010742
0.47207760810852051 0.019403435289859772 0.37275815010070801
0.65070146322250366 0.019397227093577385 0.37493568658828735
0.82481008768081665 0.019969865679740906 0.37571462988853455
0.98707109689712524 0.02344258688390255 0.3770388662815094
0.038522787392139435 0.13785578310489655 0.37538039684295654
0.17051474750041962 0.13896891474723816 0.37042081356048584
0.30349397659301758 0.14156493544578552 0.37109500169754028
0.4704953134059906 0.14305342733860016 0.37685731053352356
0.65058273077011108 0.14265891909599304 0.37514269351959229
0.82512784004211426 0.14206300675868988 0.36709690093994141
0.98707109689712524 0.14744414389133453 0.37284541130065918
0.035871587693691254 0.29310375452041626 0.37087246775627136
0.17066881060600281 0.2944178581237793 0.36942833662033081
0.30542495846748352 0.29410246014595032 0.37044396996498108
0.47339177131652832 0.29414075613021851 0.3741307258605957
0.65104126930236816 0.29593062400817871 0.36718133091926575
0.82422316074371338 0.29362428188323975 0.36109387874603271
0.98707109689712524 0.29387158155441284 0.36832401156425476
0.029196375980973244 0.46666666865348816 0.37065985798835754
0.16308771073818207 0.46676188707351685 0.37207651138305664
0.3048502504825592 0.46619930863380432 0.37732437252998352
0.47380709648132324 0.46649083495140076 0.38121482729911804
0.65081799030303955 0.46936166286468506 0.37605741620063782
0.82340157032012939 0.46742871403694153 0.36689585447311401
0.98646330833435059 0.46546199917793274 0.37202611565589905
0.024693626910448074 0.64273035526275635 0.3777027428150177
0.15582244098186493 0.6425091028213501 0.37223553657531738
0.30236107110977173 0.64227938652038574 0.38142707943916321
0.47209277749061584 0.64227938652038574 0.38755819201469421
0.6501583456993103 0.64227938652038574 0.38318565487861633
0.82355785369873047 0.64227938652038574 0.38001826405525208
0.9870186448097229 0.64227938652038574 0.3819105327129364
0.025604233145713806 0.81947952508926392 0.37551042437553406
0.15805360674858093 0.81905639171600342 0.37819722294807434
0.30447125434875488 0.81816983222961426 0.3906693160533905
0.471946120262146 0.81610250473022461 0.39108049869537354
0.64967209100723267 0.81511950492858887 0.37882661819458008
0.82344740629196167 0.81604868173599243 0.385213702917099
0.98707109689712524 0.8180810809135437 0.3880956768989563
0.02528800256550312 0.98707109689712524 0.36995896697044373
0.16170702874660492 0.98707109689712524 0.37812691926956177
0.30913028120994568 0.98579376935958862 0.39093658328056335
0.47340553998947144 0.98496907949447632 0.39281287789344788
0.64693063497543335 0.98474264144897461 0.38489678502082825
0.82205104827880859 0.98482918739318848 0.38291314244270325
0.98707109689712524 0.9861024022102356 0.37963351607322693
0.034619469195604324 0.01522674597799778 0.51978647708892822
0.17157584428787231 0.014310380443930626 0.51482057571411133
0.31040355563163757 0.013173331506550312 0.51244384050369263
0.47130566835403442 0.013683348894119263 0.50981378555297852
0.64670974016189575 0.014833353459835052 0.50857222080230713
0.82220816612243652 0.016994042322039604 0.50699305534362793
0.98707109689712524 0.021170252934098244 0.50710880756378174
0.034891270101070404 0.13795901834964752 0.51458609104156494
0.16844178736209869 0.13774509727954865 0.51068466901779175
0.30340772867202759 0.13738104701042175 0.51091378927230835
0.46706190705299377 0.14029453694820404 0.5094987154006958
0.64596939086914062 0.14267686009407043 0.5052947998046875
0.82260781526565552 0.14394333958625793 0.50149321556091309
0.98707109689712524 0.14814794063568115 0.50435125827789307
0.032159183174371719 0.2916049063205719 0.51242125034332275
0.16636514663696289 0.29232525825500488 0.50980466604232788
0.30548793077468872 0.29351508617401123 0.51129573583602905
0.47061920166015625 0.29442816972732544 0.51101791858673096
0.64827138185501099 0.29618579149246216 0.50414139032363892
0.82376915216445923 0.29421776533126831 0.49837353825569153
0.98707109689712524 0.29505127668380737 0.50405359268188477
0.027486508712172508 0.46629902720451355 0.51381373405456543
0.16189686954021454 0.46651157736778259 0.51183545589447021
0.30807662010192871 0.46603050827980042 0.51426988840103149
0.47442606091499329 0.46665644645690918 0.51533854007720947
0.65101772546768188 0.4669920802116394 0.51180481910705566
0.82438188791275024 0.4654870331287384 0.50618332624435425
0.98707109689712524 0.46415457129478455 0.5078691840171814
0.024693626910448074 0.64307600259780884 0.5144917368888855
0.15790213644504547 0.64278966188430786 0.5126413106918335
0.30588990449905396 0.64182668924331665 0.51530253887176514
0.47453746199607849 0.6404411792755127 0.51616829633712769
0.6509583592414856 0.64218485355377197 0.51430058479309082
0.82380664348602295 0.64227938652038574 0.5122225284576416
0.98707109689712524 0.64197725057601929 0.51394903659820557
0.023289131000638008 0.81985294818878174 0.51398903131484985
0.1573576033115387 0.81940490007400513 0.51254034042358398
0.30637252330780029 0.81781405210494995 0.51694655418395996
0.47450980544090271 0.81593137979507446 0.51598799228668213
0.64959061145782471 0.81603425741195679 0.51068747043609619
0.82227683067321777 0.81818467378616333 0.51438182592391968
0.98707109689712524 0.81931430101394653 0.51952844858169556
0.022814612835645676 0.98707109689712524 0.51300638914108276
0.15867206454277039 0.98707109689712524 0.51325350999832153
0.30879384279251099 0.98566991090774536 0.51939338445663452
0.47465643286705017 0.9848325252532959 0.52085733413696289
0.64828431606292725 0.98483073711395264 0.51789325475692749
0.82180702686309814 0.98565280437469482 0.51889193058013916
0.98636859655380249 0.98707109689712524 0.51992338895797729
0.029866430908441544 0.014387362636625767 0.67371851205825806
0.1684725433588028 0.012345542199909687 0.67139261960983276
0.31130456924438477 0.011206877417862415 0.66910272836685181
0.4711918830871582 0.011437000706791878 0.665740966796875
0.64403730630874634 0.013238539919257164 0.6626664400100708
0.81972986459732056 0.015272147953510284 0.6615450382232666
0.98590934276580811 0.019323626533150673 0.66334259510040283
0.027897734194993973 0.14141951501369476 0.66963863372802734
0.16219930350780487 0.13952091336250305 0.66822659969329834
0.30280378460884094 0.13839268684387207 0.66813772916793823
0.46619856357574463 0.14027285575866699 0.66433990001678467
0.64284729957580566 0.14355155825614929 0.66009438037872314
0.8197932243347168 0.14434729516506195 0.65919315814971924
0.98570972681045532 0.14807112514972687 0.66332226991653442
0.026080502197146416 0.29390338063240051 0.66813510656356812
0.15835250914096832 0.29501953721046448 0.6668582558631897
0.3011353611946106 0.29530790448188782 0.66747063398361206
0.46843832731246948 0.29623085260391235 0.66426688432693481
0.64687651395797729 0.29762688279151917 0.66054505109786987
0.82264548540115356 0.29424253106117249 0.66058087348937988
0.98707109689712524 0.2939332127571106 0.66584885120391846
0.024954283609986305 0.46631109714508057 0.66806870698928833
0.15712267160415649 0.46839463710784912 0.66673320531845093
0.30406075716018677 0.46768319606781006 0.6681094765663147
0.47304925322532654 0.46666666865348816 0.66647851467132568
0.65118670463562012 0.46675631403923035 0.66419273614883423
0.82505601644515991 0.46434259414672852 0.66341280937194824
0.98785829544067383 0.46287888288497925 0.66591978073120117
0.024720076471567154 0.64387255907058716 0.66461259126663208
0.15747293829917908 0.64418631792068481 0.66421568393707275
0.30527213215827942 0.64210671186447144 0.66577666997909546
0.47457101941108704 0.63929653167724609 0.66812813282012939
0.65012252330780029 0.64112818241119385 0.66540688276290894
0.82345235347747803 0.64202696084976196 0.66421568393707275
0.98707729578018188 0.64146339893341064 0.66637009382247925
0.023885585367679596 0.81985294818878174 0.6644025444984436
0.15826258063316345 0.81985294818878174 0.66421568393707275
0.3069722056388855 0.81804341077804565 0.66421568393707275
0.47369548678398132 0.81593602895736694 0.66520947217941284
0.64828431606292725 0.81698495149612427 0.66443425416946411
0.82205879688262939 0.81921982765197754 0.66422337293624878
0.98702543973922729 0.819843590259552 0.66750133037567139
0.023080265149474144 0.98707109689712524 0.66514086723327637
0.16031637787818909 0.98707109689712524 0.66421568393707275
0.30998930335044861 0.98614847660064697 0.66586881875991821
0.47483339905738831 0.98552989959716797 0.66813725233078003
0.64828431606292725 0.98553919792175293 0.66813725233078003
0.82139259576797485 0.98633390665054321 0.66813725233078003
0.98553919792175293 0.98739469051361084 0.66813725233078003
0.028553921729326248 0.018641063943505287 0.833842933177948
0.16892930865287781 0.014197330921888351 0.83299481868743896
0.31461027264595032 0.01157723180949688 0.8319021463394165
0.47364947199821472 0.011490047909319401 0.8293578028678894
0.64389538764953613 0.013409947045147419 0.82782065868377686
0.81863129138946533 0.016624839976429939 0.82788634300231934
0.98568075895309448 0.021532110869884491 0.82895666360855103
0.026288306340575218 0.14791321754455566 0.83228737115859985
0.16222162544727325 0.14397326111793518 0.83134919404983521
0.30593207478523254 0.14103728532791138 0.82994627952575684
0.46746087074279785 0.14234896004199982 0.82793653011322021
0.64227938652038574 0.14617766439914703 0.82606691122055054
0.8182944655418396 0.14909018576145172 0.82739424705505371
0.98553919792175293 0.15389746427536011 0.83081912994384766
0.025448024272918701 0.29634967446327209 0.83121460676193237
0.15748593211174011 0.29664227366447449 0.82929283380508423
0.30058613419532776 0.29560121893882751 0.82853680849075317
0.46735888719558716 0.29693388938903809 0.82697200775146484
0.64586895704269409 0.3003385066986084 0.8252071738243103
0.82175737619400024 0.29930019378662109 0.82818889617919922
0.98706966638565063 0.30079072713851929 0.8326183557510376
0.025453245267271996 0.4642547070980072 0.82823377847671509
0.15601100027561188 0.46685650944709778 0.82760107517242432
0.30089262127876282 0.46669784188270569 0.82743984460830688
0.47049027681350708 0.4665353000164032 0.8273124098777771
0.65040940046310425 0.46835899353027344 0.8264545202255249
0.82464307546615601 0.466329425573349 0.82842659950256348
0.98786765336990356 0.46626093983650208 0.83171588182449341
0.026203949004411697 0.64237898588180542 0.82504665851593018
0.15736445784568787 0.64283716678619385 0.82489418983459473
0.30142331123352051 0.64224863052368164 0.82588154077529907
0.47043192386627197 0.6404528021812439 0.82778799533843994
0.64968812465667725 0.6404411792755127 0.8281867504119873
0.82535439729690552 0.64053082466125488 0.82824921607971191
0.98786765336990356 0.64129304885864258 0.8295789361000061
0.025787966325879097 0.81928491592407227 0.82658267021179199
0.15945786237716675 0.81965357065200806 0.82477825880050659
0.30422607064247131 0.81922942399978638 0.82511341571807861
0.47039163112640381 0.81682717800140381 0.82762616872787476
0.64928674697875977 0.81570231914520264 0.82899528741836548
0.82424652576446533 0.81666696071624756 0.8283151388168335
0.9871634840965271 0.81870824098587036 0.8281901478767395
0.025758601725101471 0.98707109689712524 0.8281862735748291
0.16379746794700623 0.98707109689712524 0.82678163051605225
0.31128084659576416 0.98699605464935303 0.8270297646522522
0.47462627291679382 0.98554152250289917 0.82844418287277222
0.64828431606292725 0.98479121923446655 0.82948464155197144
0.82212883234024048 0.98550879955291748 0.82922172546386719
0.98707109689712524 0.98697572946548462 0.82824695110321045
0.028649991378188133 0.024353312328457832 0.98845124244689941
0.1715034693479538 0.017553173005580902 0.98860293626785278
0.31892263889312744 0.013237179256975651 0.98860293626785278
0.47744715213775635 0.012773940339684486 0.98792600631713867
0.64582496881484985 0.015234420076012611 0.98786765336990356
0.81961238384246826 0.020433329045772552 0.98786765336990356
0.98669981956481934 0.026593063026666641 0.98780196905136108
0.026973439380526543 0.15432891249656677 0.98860293626785278
0.16545726358890533 0.14835096895694733 0.98860293626785278
0.31032967567443848 0.14399905502796173 0.98792743682861328
0.47013622522354126 0.14455226063728333 0.9876360297203064
0.64228755235671997 0.15041063725948334 0.98727256059646606
0.81813722848892212 0.15672774612903595 0.98808896541595459
0.98553919792175293 0.16382640600204468 0.98937463760375977
0.026225490495562553 0.29708108305931091 0.98867881298065186
0.16122125089168549 0.29656863212585449 0.98792743682861328
0.3045247495174408 0.29371291399002075 0.98747730255126953
0.46670964360237122 0.29583394527435303 0.98707109689712524
0.64295458793640137 0.3022763729095459 0.98707109689712524
0.81973254680633545 0.30667871236801147 0.98851525783538818
0.98684543371200562 0.31192177534103394 0.99015641212463379
0.026225490495562553 0.46204900741577148 0.98747187852859497
0.15938426554203033 0.46274510025978088 0.98701387643814087
0.30394968390464783 0.46283853054046631 0.98683458566665649
0.46826574206352234 0.4646131694316864 0.98707109689712524
0.64539027214050293 0.46780627965927124 0.98711115121841431
0.82220315933227539 0.46986967325210571 0.98836356401443481
0.98743391036987305 0.47328910231590271 0.9897230863571167
0.026225490495562553 0.63909119367599487 0.98595315217971802
0.15920320153236389 0.63951945304870605 0.98553919792175293
0.3021884560585022 0.64047545194625854 0.98553919792175293
0.46735385060310364 0.64009934663772583 0.98683458566665649
0.6464918851852417 0.6404411792755127 0.98785519599914551
0.82372140884399414 0.64061117172241211 0.98852324485778809
0.98786765336990356 0.64373958110809326 0.98918789625167847
0.026245715096592903 0.81720340251922607 0.98696684837341309
0.16195219755172729 0.81776076555252075 0.98566359281539917
0.30494162440299988 0.81872266530990601 0.98553919792175293
0.46922546625137329 0.81739407777786255 0.98690539598464966
0.64764809608459473 0.81523925065994263 0.9881889820098877
0.82377451658248901 0.81570577621459961 0.98860293626785278
0.98784273862838745 0.81852138042449951 0.98788917064666748
0.028152346611022949 0.98633581399917603 0.98738968372344971
0.16746598482131958 0.98662573099136353 0.98694157600402832
0.31422725319862366 0.98707109689712524 0.98627448081970215
0.47594970464706421 0.9858086109161377 0.98711657524108887
0.64836019277572632 0.9848361611366272 0.98798125982284546
0.82239288091659546 0.9850279688835144 0.988322913646698
0.98707109689712524 0.98663681745529175 0.9874454140663147
