assets/lut/kylerholland kh02.cube
# Created by: G'MIC (https://gmic.eu)
TITLE "kh2"
# LUT size
LUT_3D_SIZE 13
# Data domain
DOMAIN_MIN 0.0 0.0 0.0
DOMAIN_MAX 1.0 1.0 1.0
# LUT data points
0.13575077056884766 0.13662649691104889 0.13556854426860809
0.18447931110858917 0.13334822654724121 0.13302676379680634
0.23500426113605499 0.12819279730319977 0.12859492003917694
0.28918853402137756 0.12079167366027832 0.12314213812351227
0.34739798307418823 0.11137577146291733 0.11596821993589401
0.41036230325698853 0.099452614784240723 0.10699501633644104
0.4778343141078949 0.084768213331699371 0.097034379839897156
0.54531395435333252 0.069385841488838196 0.086684331297874451
0.60720670223236084 0.056792136281728745 0.075692899525165558
0.66735005378723145 0.042344652116298676 0.062302727252244949
0.73752588033676147 0.019277356564998627 0.043298158794641495
0.812885582447052 0.0032003214582800865 0.027076929807662964
0.87402248382568359 0.00090116611681878567 0.030993293970823288
0.13045312464237213 0.1835402250289917 0.12950894236564636
0.18196555972099304 0.18219627439975739 0.12687212228775024
0.23531448841094971 0.17909583449363708 0.12249431014060974
0.2918630838394165 0.17435173690319061 0.11714097857475281
0.35247862339019775 0.16806674003601074 0.10943428426980972
0.4171505868434906 0.15996980667114258 0.098164908587932587
0.48493608832359314 0.150242879986763 0.084610432386398315
0.55257004499435425 0.14036563038825989 0.069546811282634735
0.61695295572280884 0.13179594278335571 0.054298564791679382
0.68121153116226196 0.12088413536548615 0.038116469979286194
0.75484520196914673 0.098475195467472076 0.018399601802229881
0.8373749852180481 0.066911391913890839 0.0061783734709024429
0.90690654516220093 0.051994696259498596 0.0073305913247168064
0.12296357750892639 0.23109669983386993 0.12046346068382263
0.17755524814128876 0.23165477812290192 0.11655396223068237
0.23396573960781097 0.23147180676460266 0.11179324984550476
0.29359418153762817 0.22950437664985657 0.10675132274627686
0.35581162571907043 0.22648479044437408 0.098693758249282837
0.42179495096206665 0.22235061228275299 0.086449190974235535
0.49090695381164551 0.21722207963466644 0.072269067168235779
0.55957621335983276 0.21256963908672333 0.055434014648199081
0.62585508823394775 0.20860445499420166 0.038172449916601181
0.69185751676559448 0.20363958179950714 0.026003533974289894
0.76164937019348145 0.19305506348609924 0.01406516321003437
0.84355765581130981 0.16785727441310883 0.0042582792229950428
0.92081648111343384 0.14720475673675537 0.001901529380120337
0.11320839822292328 0.28382024168968201 0.10700181126594543
0.17156115174293518 0.28709778189659119 0.1012970432639122
0.23194985091686249 0.28909707069396973 0.095863193273544312
0.2931467592716217 0.29020276665687561 0.090846359729766846
0.35696926712989807 0.28992348909378052 0.082642741501331329
0.4243171215057373 0.28886038064956665 0.071222968399524689
0.49640765786170959 0.28670576214790344 0.06064147874712944
0.56843578815460205 0.2847658097743988 0.046832140535116196
0.63808995485305786 0.2833598256111145 0.030484158545732498
0.70727914571762085 0.28088203072547913 0.019224474206566811
0.77795374393463135 0.2747560441493988 0.014807188883423805
0.85081958770751953 0.26522967219352722 0.0056177177466452122
0.92462658882141113 0.25229957699775696 0.0016287410398945212
0.10084312409162521 0.34576499462127686 0.088013336062431335
0.16366255283355713 0.34871533513069153 0.080642610788345337
0.22910510003566742 0.35227596759796143 0.075344935059547424
0.29375281929969788 0.35543549060821533 0.072207100689411163
0.35977545380592346 0.35777196288108826 0.067308060824871063
0.42943057417869568 0.35938286781311035 0.058893974870443344
0.50430190563201904 0.35950899124145508 0.051934335380792618
0.57952046394348145 0.35936349630355835 0.041920904070138931
0.6523134708404541 0.3597990870475769 0.025274733081459999
0.72304850816726685 0.36115118861198425 0.0086152320727705956
0.79469990730285645 0.36014896631240845 0.002794542582705617
0.86650592088699341 0.35802751779556274 0.003156265476718545
0.93799787759780884 0.35245880484580994 0.0014635871630162001
0.084248803555965424 0.41269341111183167 0.065938748419284821
0.15308399498462677 0.41616594791412354 0.055285464972257614
0.22624719142913818 0.42050507664680481 0.049089543521404266
0.29656052589416504 0.42553636431694031 0.051386605948209763
0.36621677875518799 0.43028277158737183 0.05281497910618782
0.43910592794418335 0.43336206674575806 0.049364607781171799
0.51519125699996948 0.43655166029930115 0.044275648891925812
0.59224575757980347 0.43748241662979126 0.035012084990739822
0.66692274808883667 0.44137221574783325 0.017821772024035454
0.74023920297622681 0.44582608342170715 0.0041020563803613186
0.81552106142044067 0.44766989350318909 0.0015500087756663561
0.89129793643951416 0.44696524739265442 0.0030400145333260298
0.96227037906646729 0.44492676854133606 0.0013396918075159192
0.063164792954921722 0.48372602462768555 0.042129576206207275
0.13675905764102936 0.48779669404029846 0.028689336031675339
0.21993866562843323 0.49357110261917114 0.021856823936104774
0.29805022478103638 0.50106608867645264 0.027397440746426582
0.37338888645172119 0.50812500715255737 0.033433817327022552
0.44947245717048645 0.51331031322479248 0.034367460757493973
0.52671337127685547 0.5171959400177002 0.030817518010735512
0.60423910617828369 0.52127599716186523 0.021180545911192894
0.68041777610778809 0.52714473009109497 0.0077653774060308933
0.75680059194564819 0.53293663263320923 0.00074162200326099992
0.83532536029815674 0.53609359264373779 0.0012812146451324224
0.91342771053314209 0.53719484806060791 0.0033929413184523582
0.98098480701446533 0.5381932258605957 0.0013191222678869963
0.039410877972841263 0.55702394247055054 0.019252687692642212
0.11165336519479752 0.562347412109375 0.01009712927043438
0.20083700120449066 0.57067334651947021 0.0061596143059432507
0.29109111428260803 0.58096349239349365 0.0087415808811783791
0.37639924883842468 0.58986979722976685 0.012934531085193157
0.45779770612716675 0.59652376174926758 0.015379573218524456
0.53701269626617432 0.60182225704193115 0.014147470705211163
0.61544990539550781 0.60730439424514771 0.008447025902569294
0.69306856393814087 0.61391490697860718 0.0022957446053624153
0.77127230167388916 0.62035244703292847 0.00068265129812061787
0.85152405500411987 0.62493914365768433 0.0049385819584131241
0.92964476346969604 0.62840825319290161 0.0065789464861154556
0.99027621746063232 0.63244491815567017 0.005682582501322031
0.02066720649600029 0.63127797842025757 0.0034110276028513908
0.085011698305606842 0.6383553147315979 0.00069831399014219642
0.17537018656730652 0.64946949481964111 0.00014648438082076609
0.27715975046157837 0.66241884231567383 0.0002983541926369071
0.37418445944786072 0.67329204082489014 0.0009787166491150856
0.46240085363388062 0.68110483884811401 0.0022033392451703548
0.545418381690979 0.68707799911499023 0.0023637211415916681
0.62650740146636963 0.69287014007568359 0.00092634314205497503
0.70673191547393799 0.69968587160110474 9.7656251455191523e-05
0.78710442781448364 0.70685100555419922 0.00033475091913715005
0.86878985166549683 0.71298867464065552 0.0062977508641779423
0.94629544019699097 0.71851432323455811 0.0092195700854063034
0.9962581992149353 0.7249903678894043 0.014213726855814457
0.013199435546994209 0.70835226774215698 0
0.067505598068237305 0.716438889503479 0
0.15537157654762268 0.72972232103347778 0
0.2628268301486969 0.74511176347732544 0
0.36780300736427307 0.75750190019607544 0
0.4626767635345459 0.7654874324798584 0
0.55122429132461548 0.77115041017532349 0
0.63655716180801392 0.77683818340301514 0
0.72058188915252686 0.78428715467453003 0
0.80444812774658203 0.79295027256011963 0
0.88794785737991333 0.80074977874755859 0.00032994887442328036
0.96262502670288086 0.80724239349365234 0.0043037864379584789
0.999359130859375 0.81646913290023804 0.016741180792450905
0.020832585170865059 0.78892940282821655 0
0.069014668464660645 0.79842311143875122 0
0.14903683960437775 0.813179612159729 0
0.25193223357200623 0.82937538623809814 0
0.35878092050552368 0.84138548374176025 0
0.45976382493972778 0.84760534763336182 0
0.55473238229751587 0.85154986381530762 0
0.64527475833892822 0.85701757669448853 0
0.73262894153594971 0.8657645583152771 0
0.81828832626342773 0.87674891948699951 0
0.90034973621368408 0.88594943284988403 2.1003274014219642e-05
0.96747744083404541 0.89425361156463623 0.0033646079245954752
0.99894344806671143 0.90545147657394409 0.019415387883782387
0.041951064020395279 0.87039786577224731 0
0.086454384028911591 0.88133972883224487 0
0.15687140822410583 0.89644151926040649 0
0.24967174232006073 0.91206139326095581 1.750272872413916e-06
0.35327315330505371 0.92174822092056274 3.3060709938581567e-06
0.45787599682807922 0.92422592639923096 0
0.55821764469146729 0.92539489269256592 0
0.65342879295349121 0.92941343784332275 0
0.74405384063720703 0.93807452917098999 0
0.83048838376998901 0.94904541969299316 0
0.91130256652832031 0.95577001571655273 0.00056280998978763819
0.97309565544128418 0.96209126710891724 0.0071758944541215897
0.99876683950424194 0.97480112314224243 0.026900751516222954
0.06778118759393692 0.94819945096969604 0
0.11023758351802826 0.95955467224121094 0
0.17366111278533936 0.97270298004150391 0
0.25818362832069397 0.98338276147842407 4.3756823288276792e-05
0.35680878162384033 0.98766613006591797 8.2651771663222462e-05
0.46141597628593445 0.98765349388122559 0
0.56428676843643188 0.98638403415679932 0
0.66299605369567871 0.98777675628662109 0
0.75680500268936157 0.99152177572250366 0
0.84601455926895142 0.99504274129867554 0
0.92908132076263428 0.99544823169708252 0.00099882239010185003
0.99041849374771118 0.99629223346710205 0.010191479697823524
1 0.99977344274520874 0.031917750835418701
0.13491784036159515 0.13428696990013123 0.1833408921957016
0.18480485677719116 0.13175904750823975 0.18304665386676788
0.23574851453304291 0.12748503684997559 0.18131440877914429
0.28985691070556641 0.12165883183479309 0.17805349826812744
0.34843236207962036 0.11308524757623672 0.17386062443256378
0.41269990801811218 0.10091812908649445 0.1681455671787262
0.48169034719467163 0.085059143602848053 0.16139277815818787
0.55000168085098267 0.068763330578804016 0.15458478033542633
0.61128658056259155 0.055989343672990799 0.1483396589756012
0.66791790723800659 0.044610865414142609 0.14165802299976349
0.73043537139892578 0.026200506836175919 0.13005594909191132
0.8020588755607605 0.0074393926188349724 0.11433134227991104
0.86304056644439697 0.0039571872912347317 0.11634126305580139
0.13015188276767731 0.18186740577220917 0.18027132749557495
0.18281307816505432 0.17988540232181549 0.17984127998352051
0.2370394766330719 0.17720597982406616 0.17832203209400177
0.29373353719711304 0.17393887042999268 0.1758822500705719
0.35470384359359741 0.16836170852184296 0.17176464200019836
0.42109140753746033 0.15952198207378387 0.16378277540206909
0.49117302894592285 0.14826413989067078 0.15337032079696655
0.56075060367584229 0.13625419139862061 0.14166818559169769
0.6266520619392395 0.12562008202075958 0.13035455346107483
0.69059967994689941 0.11479608714580536 0.11742325127124786
0.76126116514205933 0.095272764563560486 0.09742756187915802
0.84106296300888062 0.068024642765522003 0.077938318252563477
0.91059392690658569 0.054184574633836746 0.075898036360740662
0.12295930087566376 0.23081736266613007 0.1757337898015976
0.17780475318431854 0.23112063109874725 0.17405056953430176
0.23506413400173187 0.23114033043384552 0.1722053736448288
0.29523268342018127 0.22950425744056702 0.17038443684577942
0.35907468199729919 0.2262905091047287 0.1663452535867691
0.42793968319892883 0.22078780829906464 0.15807341039180756
0.49985384941101074 0.21364298462867737 0.14637802541255951
0.57099884748458862 0.20580549538135529 0.13133245706558228
0.64111137390136719 0.19775740802288055 0.1173863410949707
0.70938575267791748 0.19022080302238464 0.10303313285112381
0.77964562177658081 0.1799168735742569 0.083306498825550079
0.85957735776901245 0.15884849429130554 0.064134083688259125
0.9369921088218689 0.13926312327384949 0.055135630071163177
0.11269782483577728 0.28463858366012573 0.16796791553497314
0.17119060456752777 0.28755342960357666 0.16491976380348206
0.23165324330329895 0.29022940993309021 0.16260379552841187
0.29418089985847473 0.29117584228515625 0.16076375544071198
0.36061403155326843 0.29015606641769409 0.1567116379737854
0.43218383193016052 0.28722211718559265 0.14921644330024719
0.50683575868606567 0.28309810161590576 0.13892640173435211
0.58046936988830566 0.27851119637489319 0.12428171187639236
0.6538398265838623 0.27327892184257507 0.10846153646707535
0.7254146933555603 0.26875555515289307 0.090462595224380493
0.79465770721435547 0.26534095406532288 0.071559295058250427
0.86886709928512573 0.255575031042099 0.057541310787200928
0.94380253553390503 0.24206356704235077 0.049694735556840897
0.098931662738323212 0.34654021263122559 0.15634500980377197
0.16149243712425232 0.35006287693977356 0.1521373987197876
0.22712080180644989 0.35402879118919373 0.15015903115272522
0.29350125789642334 0.35693705081939697 0.15026217699050903
0.3621116578578949 0.3586982786655426 0.14711423218250275
0.43579974770545959 0.3592323362827301 0.13961811363697052
0.51259911060333252 0.35840818285942078 0.13050670921802521
0.58915054798126221 0.35622555017471313 0.11837274581193924
0.66421186923980713 0.35566011071205139 0.10017944127321243
0.73680490255355835 0.35545188188552856 0.073717273771762848
0.80943769216537476 0.35421153903007507 0.055081013590097427
0.88314026594161987 0.35079586505889893 0.0481552854180336
0.95600998401641846 0.3440345823764801 0.040901932865381241
0.079253144562244415 0.41389891505241394 0.14267465472221375
0.14692169427871704 0.41826680302619934 0.13625505566596985
0.22064951062202454 0.42314991354942322 0.13369549810886383
0.29298105835914612 0.4277593195438385 0.13755986094474792
0.36597630381584167 0.43187955021858215 0.13745668530464172
0.44253566861152649 0.43529382348060608 0.13014338910579681
0.52065742015838623 0.43717950582504272 0.12099697440862656
0.59875106811523438 0.43905556201934814 0.10790509730577469
0.67537087202072144 0.44239509105682373 0.085527144372463226
0.75088107585906982 0.44507589936256409 0.059559885412454605
0.82797789573669434 0.44534865021705627 0.048691723495721817
0.90539062023162842 0.44455829262733459 0.038911662995815277
0.975544273853302 0.44346967339515686 0.023202618584036827
0.053652700036764145 0.48507332801818848 0.12719777226448059
0.12530224025249481 0.49053081870079041 0.11751528084278107
0.21005840599536896 0.4972870945930481 0.11236594617366791
0.29325380921363831 0.50496852397918701 0.11830563843250275
0.3726201057434082 0.51121407747268677 0.12025794386863708
0.45146304368972778 0.51600456237792969 0.11489556729793549
0.53028601408004761 0.51999175548553467 0.10560622811317444
0.60893356800079346 0.52471023797988892 0.089119017124176025
0.68696671724319458 0.53057587146759033 0.062113996595144272
0.76544785499572754 0.53593951463699341 0.038052130490541458
0.8456805944442749 0.53772306442260742 0.037685081362724304
0.92407500743865967 0.53920316696166992 0.028265470638871193
0.98828297853469849 0.54262357950210571 0.011190332472324371
0.027738757431507111 0.55817264318466187 0.10400423407554626
0.097718887031078339 0.56482726335525513 0.091103225946426392
0.19091524183750153 0.57427173852920532 0.082767680287361145
0.28790786862373352 0.58538144826889038 0.088071264326572418
0.37740549445152283 0.59384220838546753 0.090702250599861145
0.46002012491226196 0.59976500272750854 0.089383877813816071
0.53990477323532104 0.60510730743408203 0.083169035613536835
0.61943697929382324 0.61095303297042847 0.068275019526481628
0.6988406777381897 0.61787146329879761 0.046765554696321487
0.77921015024185181 0.62435996532440186 0.032681290060281754
0.86036992073059082 0.62860321998596191 0.034519195556640625
0.93709850311279297 0.63255125284194946 0.031146658584475517
0.99348258972167969 0.6372838020324707 0.027169141918420792
0.012220569886267185 0.63130098581314087 0.066243194043636322
0.071801401674747467 0.63879716396331787 0.049278497695922852
0.16654816269874573 0.65094637870788574 0.040321245789527893
0.27634325623512268 0.66530954837799072 0.040539626032114029
0.37747091054916382 0.67660665512084961 0.046307194977998734
0.46581259369850159 0.6842423677444458 0.054660752415657043
0.54853397607803345 0.69031476974487305 0.053848102688789368
0.63010650873184204 0.69636684656143188 0.041470829397439957
0.71146130561828613 0.70335596799850464 0.027394028380513191
0.79354912042617798 0.71089094877243042 0.023481540381908417
0.87565332651138306 0.71777451038360596 0.027393534779548645
0.94996708631515503 0.72369182109832764 0.029061621055006981
0.99683713912963867 0.72999536991119385 0.037001248449087143
0.0076148239895701408 0.70723146200180054 0.029675861820578575
0.052968569099903107 0.71395230293273926 0.014171615242958069
0.14522252976894379 0.72886019945144653 0.0098279314115643501
0.26292452216148376 0.74613374471664429 0.0091928523033857346
0.37301868200302124 0.75955939292907715 0.013576552271842957
0.46732968091964722 0.76825028657913208 0.023019991815090179
0.55494815111160278 0.77437025308609009 0.023533601313829422
0.6399608850479126 0.78033888339996338 0.012950717471539974
0.724151611328125 0.78776484727859497 0.003901507705450058
0.80828177928924561 0.79767876863479614 0.003041375894099474
0.89158505201339722 0.80740892887115479 0.0061067170463502407
0.96401727199554443 0.81457948684692383 0.0084535637870430946
0.99943846464157104 0.82136034965515137 0.024482352659106255
0.018409235402941704 0.78801631927490234 0.011078823357820511
0.056920982897281647 0.79583257436752319 0.003836269024759531
0.13872537016868591 0.81127715110778809 0.0024903840385377407
0.24975386261940002 0.82883334159851074 0.0027130127418786287
0.36189445853233337 0.84207767248153687 0.0046439524739980698
0.4638792872428894 0.84960079193115234 0.0071662305854260921
0.55824887752532959 0.85464602708816528 0.0054741054773330688
0.64813005924224854 0.86115247011184692 0.0012298284564167261
0.73462110757827759 0.87118321657180786 0
0.81932264566421509 0.88502752780914307 0
0.90244656801223755 0.89592903852462769 0
0.97329986095428467 0.90099126100540161 1.6455556988148601e-06
0.99999499320983887 0.90667521953582764 0.0090268449857831001
0.041890747845172882 0.87056982517242432 0.002544597489759326
0.077272988855838776 0.88005852699279785 0.0013672922505065799
0.14616331458091736 0.89422774314880371 0.0009048910578712821
0.24442040920257568 0.90971684455871582 0.00046486948849633336
0.35339841246604919 0.92065685987472534 0.00052641326328739524
0.4601186215877533 0.92505455017089844 0.00053809670498594642
0.56079614162445068 0.9271848201751709 0.00010515101166674867
0.65535432100296021 0.93334114551544189 0
0.74420714378356934 0.94614893198013306 0
0.82799935340881348 0.96235537528991699 0.00089305802248418331
0.90991425514221191 0.96981489658355713 0.0018190869595855474
0.97971922159194946 0.96730327606201172 8.0781825317899347e-07
0.99999803304672241 0.97094869613647461 0.0096272490918636322
0.067071191966533661 0.9494137167930603 0
0.10064657032489777 0.95886838436126709 0
0.16120721399784088 0.97088170051574707 0
0.2495749443769455 0.98124456405639648 0
0.35358598828315735 0.98663771152496338 0
0.46122854948043823 0.98758780956268311 0
0.56556349992752075 0.98635947704315186 0
0.66396790742874146 0.98932963609695435 0
0.75627881288528442 0.99516183137893677 0
0.84315866231918335 0.99920874834060669 0.0019223530543968081
0.9262574315071106 0.99968403577804565 0.0026011299341917038
0.99031835794448853 0.99831306934356689 0.00043209301657043397
1 0.99921751022338867 0.022906240075826645
0.13331575691699982 0.13250090181827545 0.22967959940433502
0.18358910083770752 0.13098812103271484 0.23129598796367645
0.23465684056282043 0.12825894355773926 0.2316371351480484
0.2884158194065094 0.12409458309412003 0.23073855042457581
0.34727159142494202 0.11634506285190582 0.22930501401424408
0.41246408224105835 0.10381704568862915 0.22699663043022156
0.4819328784942627 0.08734612911939621 0.223772794008255
0.55115699768066406 0.069691449403762817 0.22049356997013092
0.61507052183151245 0.054379735141992569 0.21849742531776428
0.67191821336746216 0.04226086288690567 0.21807567775249481
0.72846448421478271 0.028722755610942841 0.21470311284065247
0.79036390781402588 0.014973150566220284 0.2077673077583313
0.85085797309875488 0.0099396500736474991 0.20833900570869446
0.12914897501468658 0.18023806810379028 0.22929924726486206
0.18149678409099579 0.18015210330486298 0.23101966083049774
0.23546731472015381 0.17880971729755402 0.23155929148197174
0.29199761152267456 0.17609916627407074 0.23185406625270844
0.35393601655960083 0.1707073450088501 0.22975450754165649
0.42131242156028748 0.1615908294916153 0.22657027840614319
0.49278447031974792 0.14872385561466217 0.22003494203090668
0.56495320796966553 0.1340315192937851 0.212747722864151
0.63397681713104248 0.12019684910774231 0.20715291798114777
0.69914156198501587 0.10788208991289139 0.2016785740852356
0.76502901315689087 0.093734800815582275 0.19199024140834808
0.83517014980316162 0.077566735446453094 0.18187394738197327
0.90229541063308716 0.06595158576965332 0.17751699686050415
0.12307871133089066 0.23096635937690735 0.22939355671405792
0.17756867408752441 0.23249988257884979 0.22957597672939301
0.23344562947750092 0.23310555517673492 0.22947990894317627
0.29481500387191772 0.23210659623146057 0.23042081296443939
0.35947754979133606 0.22808818519115448 0.22942627966403961
0.42965593934059143 0.2214791476726532 0.22534580528736115
0.50332814455032349 0.21201105415821075 0.21711684763431549
0.57744318246841431 0.20114818215370178 0.20642527937889099
0.65139251947402954 0.18916492164134979 0.19906115531921387
0.72346806526184082 0.17845477163791656 0.19148394465446472
0.79371422529220581 0.16959506273269653 0.17852745950222015
0.86868131160736084 0.1566169410943985 0.16657136380672455
0.94115239381790161 0.1418287456035614 0.15765546262264252
0.11367735266685486 0.28705006837844849 0.22749470174312592
0.17193382978439331 0.28959769010543823 0.22676970064640045
0.23222799599170685 0.2922244668006897 0.22648873925209045
0.29499402642250061 0.29355943202972412 0.22701439261436462
0.36273440718650818 0.29230919480323792 0.22604535520076752
0.43609285354614258 0.28734436631202698 0.2220863401889801
0.51189011335372925 0.28106030821800232 0.2137739509344101
0.58779168128967285 0.27406695485115051 0.20215761661529541
0.6648218035697937 0.26532623171806335 0.19379590451717377
0.74018865823745728 0.25720939040184021 0.18298526108264923
0.81245291233062744 0.25224462151527405 0.16638873517513275
0.88849222660064697 0.24296045303344727 0.1534169614315033
0.96258372068405151 0.23082640767097473 0.14593571424484253
0.099679745733737946 0.34865105152130127 0.22283969819545746
0.16221103072166443 0.35302260518074036 0.22146874666213989
0.22765742242336273 0.35744008421897888 0.22148849070072174
0.29422566294670105 0.36084079742431641 0.22309790551662445
0.36494424939155579 0.36219114065170288 0.22180485725402832
0.44071197509765625 0.36027216911315918 0.2170221358537674
0.51846605539321899 0.35759025812149048 0.21012234687805176
0.5960458517074585 0.35460996627807617 0.20145592093467712
0.67362260818481445 0.35123524069786072 0.19189086556434631
0.7502027153968811 0.34705686569213867 0.1737128347158432
0.82639449834823608 0.34260565042495728 0.15645582973957062
0.90465331077575684 0.33596280217170715 0.14234502613544464
0.97636467218399048 0.32932376861572266 0.132426917552948
0.079776138067245483 0.41610521078109741 0.21760168671607971
0.14589305222034454 0.42166227102279663 0.21556878089904785
0.21877327561378479 0.42746025323867798 0.21534167230129242
0.29176557064056396 0.43248432874679565 0.21790009737014771
0.36722347140312195 0.43634268641471863 0.21668301522731781
