assets/lut/kylerholland kh08.cube
# Created by: G'MIC (https://gmic.eu)
TITLE "kh8"
# LUT size
LUT_3D_SIZE 13
# Data domain
DOMAIN_MIN 0.0 0.0 0.0
DOMAIN_MAX 1.0 1.0 1.0
# LUT data points
0.020670976489782333 0.012675984762609005 0.013850388117134571
0.061083026230335236 0.014327210374176502 0.013715616427361965
0.11386703699827194 0.023038797080516815 0.011756328865885735
0.17714962363243103 0.030329955741763115 0.0087201585993170738
0.24380159378051758 0.044108595699071884 0.0067854039371013641
0.30474069714546204 0.057261329144239426 0.0083311339840292931
0.36363965272903442 0.069609098136425018 0.0074959401972591877
0.43481540679931641 0.082421198487281799 0.0087809544056653976
0.50408756732940674 0.094876311719417572 0.011720126494765282
0.57185369729995728 0.10848626494407654 0.014142817817628384
0.64173728227615356 0.11984258890151978 0.013121720403432846
0.71758568286895752 0.13736246526241302 0.015438842587172985
0.78945934772491455 0.15159769356250763 0.016311256214976311
0.027665335685014725 0.042804628610610962 0.013855638913810253
0.074015088379383087 0.051388490945100784 0.016330793499946594
0.12662747502326965 0.060949735343456268 0.018190570175647736
0.19366906583309174 0.077525466680526733 0.018945163115859032
0.25580564141273499 0.09077376127243042 0.016858179122209549
0.31806972622871399 0.10550913959741592 0.018249990418553352
0.38393330574035645 0.12187996506690979 0.020172493532299995
0.45197808742523193 0.13708619773387909 0.021361974999308586
0.51997429132461548 0.14972557127475739 0.023279346525669098
0.58703958988189697 0.16074682772159576 0.026345256716012955
0.65344202518463135 0.16969037055969238 0.024581100791692734
0.72645515203475952 0.18225674331188202 0.023899437859654427
0.797199547290802 0.19477890431880951 0.02600281685590744
0.03785189613699913 0.097091525793075562 0.023117365315556526
0.08635789155960083 0.1081354022026062 0.023971334099769592
0.14415851235389709 0.10707513988018036 0.025649052113294601
0.20948371291160583 0.11892151087522507 0.025625908747315407
0.27406680583953857 0.13542540371417999 0.024619892239570618
0.33899465203285217 0.15589310228824615 0.024286756291985512
0.40682798624038696 0.17533160746097565 0.027163352817296982
0.47510355710983276 0.19236572086811066 0.025441233068704605
0.54206973314285278 0.20620220899581909 0.026590384542942047
0.60968834161758423 0.21926009654998779 0.029241075739264488
0.67557352781295776 0.22871828079223633 0.029744571074843407
0.74911272525787354 0.24122276902198792 0.029699722304940224
0.81765919923782349 0.25210851430892944 0.029960183426737785
0.050215374678373337 0.16031751036643982 0.038968779146671295
0.090403750538825989 0.16883988678455353 0.032904248684644699
0.16233371198177338 0.1868467777967453 0.031869836151599884
0.23165348172187805 0.18528273701667786 0.033158067613840103
0.29194414615631104 0.18052351474761963 0.031600803136825562
0.35810384154319763 0.19827204942703247 0.03353036567568779
0.42616158723831177 0.22014380991458893 0.036321260035037994
0.4958343505859375 0.24132418632507324 0.034162245690822601
0.56466269493103027 0.25902014970779419 0.031356826424598694
0.63528966903686523 0.27939885854721069 0.033041231334209442
0.7064928412437439 0.29418554902076721 0.032300852239131927
0.78100460767745972 0.31186133623123169 0.033199850469827652
0.85174751281738281 0.32641434669494629 0.032419152557849884
0.068286538124084473 0.22488343715667725 0.051027830690145493
0.10460918396711349 0.23371317982673645 0.043629396706819534
0.17225180566310883 0.25557538866996765 0.039895344525575638
0.25484073162078857 0.27147701382637024 0.040082745254039764
0.31766888499259949 0.2572019100189209 0.039954870939254761
0.3745121955871582 0.24681255221366882 0.040448956191539764
0.4422614574432373 0.2619832456111908 0.042901370674371719
0.51280355453491211 0.28564253449440002 0.044512402266263962
0.58261758089065552 0.30236175656318665 0.041583027690649033
0.65424716472625732 0.32332855463027954 0.04094981774687767
0.72885209321975708 0.34811469912528992 0.040697388350963593
0.80555087327957153 0.37361565232276917 0.044492356479167938
0.88050550222396851 0.39390850067138672 0.042898859828710556
0.07740415632724762 0.28764864802360535 0.05985533818602562
0.1197144016623497 0.2993091344833374 0.055500417947769165
0.18119758367538452 0.31760314106941223 0.051268424838781357
0.26219016313552856 0.34327086806297302 0.047968022525310516
0.34716975688934326 0.35487982630729675 0.046214189380407333
0.40198555588722229 0.3323027491569519 0.048116870224475861
0.46166601777076721 0.32119330763816833 0.050829075276851654
0.52840149402618408 0.32911717891693115 0.054066363722085953
0.60110139846801758 0.34541189670562744 0.052216563373804092
0.67267990112304688 0.36662963032722473 0.051113232970237732
0.74594640731811523 0.39144635200500488 0.055046651512384415
0.82503038644790649 0.41733464598655701 0.055455707013607025
0.89954185485839844 0.43981653451919556 0.052283477038145065
0.078727409243583679 0.34729313850402832 0.063305050134658813
0.12183991819620132 0.35584548115730286 0.063912965357303619
0.17562226951122284 0.36812719702720642 0.061642501503229141
0.25506609678268433 0.39878314733505249 0.057069860398769379
0.35602506995201111 0.4318307638168335 0.053405851125717163
0.44035589694976807 0.43891492486000061 0.053227055817842484
0.49245598912239075 0.41246926784515381 0.056217476725578308
0.54987019300460815 0.39054462313652039 0.059203952550888062
0.61918926239013672 0.39238718152046204 0.064144492149353027
0.69197481870651245 0.41422316431999207 0.067106030881404877
0.76572126150131226 0.4363960325717926 0.067026324570178986
0.84621024131774902 0.45933908224105835 0.062672227621078491
0.919045090675354 0.47878193855285645 0.055866584181785583
0.085354715585708618 0.41107860207557678 0.069552481174468994
0.12260299175977707 0.41648980975151062 0.071747675538063049
0.16997987031936646 0.42394769191741943 0.0711798295378685
0.25196993350982666 0.45486551523208618 0.069420382380485535
0.35430431365966797 0.49799048900604248 0.064717598259449005
0.45254570245742798 0.52892488241195679 0.06386120617389679
0.53363186120986938 0.52719825506210327 0.064274206757545471
0.58556580543518066 0.49613609910011292 0.06648910790681839
0.64227694272994995 0.46733659505844116 0.072819173336029053
0.71325010061264038 0.46545955538749695 0.073224820196628571
0.78615456819534302 0.48144090175628662 0.072559818625450134
0.86609011888504028 0.50375473499298096 0.072077013552188873
0.94043409824371338 0.52378219366073608 0.068532757461071014
0.10573263466358185 0.4877677857875824 0.08288305252790451
0.13466975092887878 0.48865288496017456 0.082947075366973877
0.1780436784029007 0.49105381965637207 0.082443073391914368
0.25438806414604187 0.51713806390762329 0.082839652895927429
0.35348507761955261 0.55923193693161011 0.07874838262796402
0.45222717523574829 0.59773212671279907 0.080223888158798218
0.54767435789108276 0.61837786436080933 0.07728857547044754
0.63318759202957153 0.61707776784896851 0.07141481339931488
0.6775062084197998 0.57794982194900513 0.074424013495445251
0.73772329092025757 0.55170273780822754 0.078061230480670929
0.80944263935089111 0.54156458377838135 0.079251155257225037
0.88441205024719238 0.5495680570602417 0.078807294368743896
0.95568674802780151 0.56897711753845215 0.079445123672485352
0.12080145627260208 0.55838829278945923 0.090970732271671295
0.14373531937599182 0.55826830863952637 0.090384781360626221
0.18471260368824005 0.56015443801879883 0.089026369154453278
0.25553762912750244 0.58165711164474487 0.090158917009830475
0.34571388363838196 0.61903423070907593 0.089030757546424866
0.44354766607284546 0.66042953729629517 0.086377374827861786
0.54791498184204102 0.698111891746521 0.082979537546634674
0.6492190957069397 0.71329087018966675 0.080439217388629913
0.72917306423187256 0.70240551233291626 0.081088028848171234
0.77528572082519531 0.66249543428421021 0.086678735911846161
0.84271770715713501 0.64042532444000244 0.087345331907272339
0.91116708517074585 0.62231576442718506 0.087869204580783844
0.97753465175628662 0.62019824981689453 0.087574079632759094
0.13082526624202728 0.62548166513442993 0.096351400017738342
0.14837808907032013 0.62634825706481934 0.095061250030994415
0.19536837935447693 0.62925952672958374 0.097276605665683746
0.25786173343658447 0.64224272966384888 0.10023240000009537
0.34194415807723999 0.67931723594665527 0.098406575620174408
0.43960008025169373 0.7216377854347229 0.096102938055992126
0.54722148180007935 0.76292300224304199 0.093811482191085815
0.65547710657119751 0.79706037044525146 0.090815044939517975
0.75323241949081421 0.80451381206512451 0.091445252299308777
0.83384758234024048 0.79773992300033569 0.093743838369846344
0.87537878751754761 0.75050419569015503 0.09403497725725174
0.94070565700531006 0.72427356243133545 0.095547333359718323
0.9932064414024353 0.69941079616546631 0.11220347136259079
0.13987568020820618 0.70295113325119019 0.10502958297729492
0.15727429091930389 0.70362842082977295 0.1031670942902565
0.20643988251686096 0.70703369379043579 0.10680139809846878
0.26821103692054749 0.71537697315216064 0.11110734939575195
0.3430638313293457 0.74409794807434082 0.11024150252342224
0.43687701225280762 0.78684043884277344 0.10812745988368988
0.54127961397171021 0.82942742109298706 0.1064031720161438
0.65402770042419434 0.87168186902999878 0.10270928591489792
0.76395422220230103 0.89962035417556763 0.10161853581666946
0.86361634731292725 0.91147637367248535 0.1013629212975502
0.93630248308181763 0.88942497968673706 0.099461376667022705
0.96779495477676392 0.83428019285202026 0.10532877594232559
0.99620163440704346 0.79707354307174683 0.12502489984035492
0.14654667675495148 0.7736247181892395 0.11489814519882202
0.16487060487270355 0.77572041749954224 0.10983148962259293
0.21149013936519623 0.77885276079177856 0.11279641091823578
0.2755342423915863 0.78428959846496582 0.12108022719621658
0.34666585922241211 0.80447185039520264 0.12607108056545258
0.43083944916725159 0.84676975011825562 0.11790322512388229
0.52601432800292969 0.8889126181602478 0.11547882854938507
0.63487100601196289 0.93073290586471558 0.11247217655181885
0.76230204105377197 0.9740300178527832 0.1116093173623085
0.87081378698348999 0.9792712926864624 0.11213704943656921
0.95859885215759277 0.97500342130661011 0.11164908111095428
0.99300068616867065 0.96032589673995972 0.12726505100727081
0.99983412027359009 0.90768325328826904 0.13628347218036652
0.019298538565635681 0.0085957096889615059 0.047546699643135071
0.058197502046823502 0.011930114589631557 0.046296481043100357
0.11337076872587204 0.015939570963382721 0.041983719915151596
0.17921096086502075 0.021484943106770515 0.03474649041891098
0.24001803994178772 0.027021115645766258 0.027221530675888062
0.30157041549682617 0.033449538052082062 0.022818157449364662
0.36536076664924622 0.041024047881364822 0.017383096739649773
0.43526211380958557 0.052959293127059937 0.01611601933836937
0.50372004508972168 0.066393844783306122 0.018348708748817444
0.57248473167419434 0.082935065031051636 0.022343773394823074
0.6430060863494873 0.096436537802219391 0.021914942190051079
0.7189822793006897 0.1168864518404007 0.025392390787601471
0.78856772184371948 0.127057746052742 0.02450714074075222
0.024680238217115402 0.03665020689368248 0.042447634041309357
0.072369411587715149 0.052899513393640518 0.053014237433671951
0.12433581054210663 0.060507353395223618 0.05257001519203186
0.19093859195709229 0.072574526071548462 0.048887573182582855
0.25437021255493164 0.084108792245388031 0.046638369560241699
0.31624272465705872 0.098062314093112946 0.049955613911151886
0.3820444643497467 0.10957824438810349 0.049125850200653076
0.44895598292350769 0.1219659224152565 0.049217686057090759
0.51563268899917603 0.13215984404087067 0.049432732164859772
0.5846976637840271 0.14655986428260803 0.053000461310148239
0.65422779321670532 0.16138975322246552 0.053241536021232605
0.7294999361038208 0.17680865526199341 0.054329473525285721
0.80022299289703369 0.18963195383548737 0.056158371269702911
0.035398624837398529 0.089663319289684296 0.049107436090707779
0.083606883883476257 0.10564354062080383 0.05805002897977829
0.14349409937858582 0.11443397402763367 0.060626011341810226
0.20704592764377594 0.12472596764564514 0.061656862497329712
0.27241387963294983 0.14220857620239258 0.060761112719774246
0.33754017949104309 0.16098706424236298 0.060628298670053482
0.40284538269042969 0.17417742311954498 0.062125410884618759
0.46960321068763733 0.18840637803077698 0.064511902630329132
0.53606104850769043 0.19992640614509583 0.065529659390449524
0.60515326261520386 0.21155291795730591 0.06640065461397171
0.67404073476791382 0.22330272197723389 0.066346310079097748
0.74892085790634155 0.23892174661159515 0.06698087602853775
0.8185613751411438 0.25501739978790283 0.069958239793777466
0.044461749494075775 0.15365816652774811 0.05808074027299881
0.091074831783771515 0.16636523604393005 0.066274009644985199
0.1586151123046875 0.18359138071537018 0.069243334233760834
0.22984001040458679 0.18778683245182037 0.069505147635936737
0.29116696119308472 0.1893204003572464 0.06919918954372406
0.3576083779335022 0.20981089770793915 0.070658095180988312
0.42484328150749207 0.22984911501407623 0.071701139211654663
0.49308359622955322 0.24875552952289581 0.07152663916349411
0.56246811151504517 0.26604500412940979 0.07185797393321991
0.63243108987808228 0.28189995884895325 0.072023652493953705
0.7020498514175415 0.29526996612548828 0.072554662823677063
0.77608948945999146 0.31050646305084229 0.072552412748336792
0.84543442726135254 0.32331597805023193 0.074046775698661804
0.057624414563179016 0.21839739382266998 0.069767959415912628
0.10677468031644821 0.23382431268692017 0.076600201427936554
0.16861827671527863 0.24949224293231964 0.077808350324630737
0.2509094774723053 0.27042889595031738 0.076801523566246033
0.31705206632614136 0.26427251100540161 0.07686740905046463
0.37564104795455933 0.25705727934837341 0.078465916216373444
0.44325867295265198 0.27383899688720703 0.08112829178571701
0.5122796893119812 0.29366606473922729 0.082072779536247253
0.58292508125305176 0.31342419981956482 0.079947434365749359
0.65501207113265991 0.3348710834980011 0.078217372298240662
0.72784274816513062 0.35702931880950928 0.077412821352481842
0.8053937554359436 0.37911629676818848 0.077060922980308533
0.87820529937744141 0.39733487367630005 0.077563159167766571
0.070066072046756744 0.28335809707641602 0.082147948443889618
0.11753387749195099 0.29653555154800415 0.087938137352466583
0.17664358019828796 0.30981853604316711 0.088727854192256927
0.25805956125259399 0.33796656131744385 0.085474945604801178
0.34347566962242126 0.35666409134864807 0.083849333226680756
0.40649893879890442 0.34227246046066284 0.085841536521911621
0.46129080653190613 0.3262408971786499 0.087413415312767029
0.52941542863845825 0.33388456702232361 0.088346444070339203
0.60118848085403442 0.35499632358551025 0.087606973946094513
0.67431187629699707 0.3772338330745697 0.08496934175491333
0.74604755640029907 0.40047416090965271 0.085707902908325195
0.82388496398925781 0.42508825659751892 0.085714615881443024
0.89816153049468994 0.44857263565063477 0.086136683821678162
0.077089928090572357 0.34509697556495667 0.093718267977237701
0.12202645093202591 0.35552340745925903 0.097838200628757477
0.17526771128177643 0.36263883113861084 0.098059169948101044
0.25203067064285278 0.39250525832176208 0.096822671592235565
0.3464626669883728 0.42725452780723572 0.092583872377872467
0.43514630198478699 0.43908554315567017 0.091935835778713226
0.48792335391044617 0.4139573872089386 0.093574687838554382
0.54686897993087769 0.39388313889503479 0.094909980893135071
0.61875718832015991 0.3999960720539093 0.096041932702064514
0.69155222177505493 0.42162445187568665 0.096717119216918945
0.76550590991973877 0.44386956095695496 0.096549332141876221
0.84345549345016479 0.46673199534416199 0.094176225364208221
0.91638404130935669 0.48927026987075806 0.094781853258609772
0.091001264750957489 0.41346946358680725 0.10402887314558029
0.12863554060459137 0.4205089807510376 0.1051512211561203
0.17865888774394989 0.42783674597740173 0.10636195540428162
0.25047507882118225 0.4510638415813446 0.1081293597817421
0.34768390655517578 0.49184492230415344 0.10459686070680618
0.44414868950843811 0.52502530813217163 0.10081594437360764
0.52652043104171753 0.52557092905044556 0.099399849772453308
0.58231133222579956 0.50025588274002075 0.10205338150262833
0.64198148250579834 0.46998998522758484 0.10452460497617722
0.71135002374649048 0.47192513942718506 0.1072678342461586
0.78504687547683716 0.49003130197525024 0.10765127837657928
0.86411643028259277 0.51207458972930908 0.10523491352796555
0.93852746486663818 0.5317499041557312 0.10270647704601288
0.1085391491651535 0.4882780909538269 0.11560137569904327
0.14175420999526978 0.49351701140403748 0.11501616239547729
0.18459370732307434 0.49855077266693115 0.11509339511394501
0.25388553738594055 0.51424610614776611 0.11998675763607025
0.34667101502418518 0.55138880014419556 0.11869093775749207
0.44510981440544128 0.59245258569717407 0.11298529058694839
0.54015719890594482 0.61789512634277344 0.11040725558996201
0.62928503751754761 0.61865562200546265 0.10974600166082382
0.67914623022079468 0.58232372999191284 0.11183981597423553
0.73482561111450195 0.55505841970443726 0.11603870987892151
0.8058515191078186 0.54665142297744751 0.1175980344414711
0.88424623012542725 0.5607028603553772 0.11575952917337418
0.95788824558258057 0.57961034774780273 0.11349837481975555
0.12169893831014633 0.55885118246078491 0.12524057924747467
0.15101110935211182 0.56274312734603882 0.12404455989599228
0.19123196601867676 0.56791216135025024 0.12370005249977112
0.25996732711791992 0.5819886326789856 0.13034515082836151
0.34255573153495789 0.61158990859985352 0.13163740932941437
0.4389641284942627 0.6529916524887085 0.12554620206356049
0.54050278663635254 0.69168108701705933 0.1209377646446228
0.64358747005462646 0.70909678936004639 0.11901205033063889
0.72633743286132812 0.70326554775238037 0.11882271617650986
0.77176010608673096 0.66468977928161621 0.12372295558452606
0.83553707599639893 0.64134901762008667 0.12601438164710999
0.90851902961730957 0.62589865922927856 0.12557914853096008
0.97658622264862061 0.62978661060333252 0.12510322034358978
0.12884578108787537 0.62760555744171143 0.13190244138240814
0.15679100155830383 0.63243460655212402 0.13189427554607391
0.20145983994007111 0.63842833042144775 0.13300143182277679
0.26736930012702942 0.64941215515136719 0.13860878348350525
0.34465783834457397 0.67675423622131348 0.13900543749332428
0.43281641602516174 0.71437227725982666 0.13479925692081451
0.53426980972290039 0.75429195165634155 0.13226328790187836
0.64892244338989258 0.79163902997970581 0.12847337126731873
0.74796468019485474 0.80350798368453979 0.12751910090446472
0.8301512598991394 0.79772323369979858 0.12914779782295227
0.87416774034500122 0.75590074062347412 0.13270621001720428
0.93769842386245728 0.7268950343132019 0.1340554803609848
0.99180883169174194 0.70471453666687012 0.14515319466590881
0.13515318930149078 0.70606005191802979 0.13535153865814209
0.16488823294639587 0.71109706163406372 0.13900195062160492
0.21298988163471222 0.71554654836654663 0.14233660697937012
0.27566713094711304 0.72023707628250122 0.14633375406265259
0.34485426545143127 0.7389453649520874 0.14768816530704498
0.42945477366447449 0.77840089797973633 0.14582370221614838
0.52855271100997925 0.82133716344833374 0.14394561946392059
0.64263099431991577 0.86402732133865356 0.13942362368106842
0.75776708126068115 0.89480119943618774 0.13609898090362549
0.85694712400436401 0.9054228663444519 0.13664557039737701
0.92698246240615845 0.88577675819396973 0.1379341185092926
0.96377259492874146 0.83633899688720703 0.14344906806945801
0.99554669857025146 0.806141197681427 0.16192129254341125
0.1382482498884201 0.77516067028045654 0.13783212006092072
0.17110061645507812 0.78144735097885132 0.14408260583877563
0.22072720527648926 0.78535109758377075 0.14997939765453339
0.28236526250839233 0.78960847854614258 0.15297394990921021
0.34791874885559082 0.80231189727783203 0.15583807229995728
0.4284328818321228 0.83840692043304443 0.15591704845428467
0.52044558525085449 0.88141334056854248 0.15475694835186005
0.63050955533981323 0.92491841316223145 0.15071257948875427
0.7536730170249939 0.969013512134552 0.14825969934463501
0.86147302389144897 0.98202717304229736 0.15353670716285706
0.9445679783821106 0.97739660739898682 0.15727408230304718
0.99012106657028198 0.96175926923751831 0.16635569930076599
0.99990218877792358 0.91730070114135742 0.17378449440002441
0.020098816603422165 0.0089224269613623619 0.1048189178109169
0.058825414627790451 0.010887624695897102 0.10053564608097076
0.10092134773731232 0.010251871310174465 0.088718920946121216
0.16493913531303406 0.012532058171927929 0.088485449552536011
0.23121502995491028 0.01611347496509552 0.074515417218208313
0.29690387845039368 0.020857971161603928 0.066176459193229675
0.36398723721504211 0.022940706461668015 0.05397440493106842
0.43467703461647034 0.028967075049877167 0.04496416449546814
0.50547629594802856 0.040579404681921005 0.037256922572851181
0.57406896352767944 0.052533138543367386 0.037601113319396973
0.64447307586669922 0.059707179665565491 0.032021824270486832
0.72035044431686401 0.074207842350006104 0.030657749623060226
0.79108965396881104 0.084282860159873962 0.025674318894743919
0.022402983158826828 0.037887588143348694 0.094562530517578125
0.069502964615821838 0.050959821790456772 0.10352377593517303
0.117035873234272 0.054723493754863739 0.099838152527809143
0.18238140642642975 0.059177055954933167 0.089721336960792542
0.2491333931684494 0.064506709575653076 0.077462323009967804
0.3145085871219635 0.072860985994338989 0.077126294374465942
0.37783899903297424 0.07912985235452652 0.071899503469467163
0.44401916861534119 0.087312571704387665 0.06742490828037262
0.5143241286277771 0.099743321537971497 0.066152982413768768
0.58415573835372925 0.1136881485581398 0.067711636424064636
0.65343576669692993 0.12651044130325317 0.067469894886016846
0.72889184951782227 0.14462073147296906 0.071454636752605438
0.80015987157821655 0.15537917613983154 0.070292092859745026
0.027006620541214943 0.068189375102519989 0.082043096423149109
0.07765495777130127 0.093218214809894562 0.10009542852640152
0.13913993537425995 0.11405766755342484 0.10820258408784866
0.20516681671142578 0.12291925400495529 0.10672492533922195
0.27056035399436951 0.13687872886657715 0.10408901423215866
0.3306046724319458 0.14852982759475708 0.10303890705108643
0.39221706986427307 0.15762804448604584 0.10266152024269104
0.46282732486724854 0.17674112319946289 0.10797949135303497
0.53141540288925171 0.18913054466247559 0.10914728790521622
0.60090196132659912 0.20011678338050842 0.10787284374237061
0.67071294784545898 0.2106488049030304 0.10655577480792999
0.7461053729057312 0.22583068907260895 0.10802989453077316
0.81587976217269897 0.23953713476657867 0.1101982593536377
0.037406519055366516 0.12780925631523132 0.08827655017375946
0.089100643992424011 0.15418533980846405 0.10429916530847549
0.15651926398277283 0.18098835647106171 0.11890865862369537
0.22661374509334564 0.19307442009449005 0.12161502987146378
0.29030272364616394 0.20055472850799561 0.12134013324975967
0.35437700152397156 0.21818263828754425 0.12060955166816711
0.4181196391582489 0.23408803343772888 0.1180715337395668
0.485738605260849 0.25149267911911011 0.1208694726228714
0.55757248401641846 0.26721611618995667 0.12394838780164719
0.62711310386657715 0.28157538175582886 0.12431920319795609
0.69638139009475708 0.29414716362953186 0.12610353529453278
0.77027451992034912 0.30692532658576965 0.1254114955663681
0.83848953247070312 0.32013958692550659 0.12970519065856934
0.049532152712345123 0.20111709833145142 0.10075780749320984
0.10135365277528763 0.22597743570804596 0.11414926499128342
0.16458366811275482 0.24519143998622894 0.12548688054084778
