assets/lut/kylerholland kh07.cube
# Created by: G'MIC (https://gmic.eu)
TITLE "kh7"
# LUT size
LUT_3D_SIZE 13
# Data domain
DOMAIN_MIN 0.0 0.0 0.0
DOMAIN_MAX 1.0 1.0 1.0
# LUT data points
0.013450173661112785 0.012469437904655933 0.026246104389429092
0.031256072223186493 0.018987782299518585 0.040226057171821594
0.065761968493461609 0.021455070003867149 0.047438334673643112
0.10934509336948395 0.0240287184715271 0.052471444010734558
0.15972347557544708 0.02793801948428154 0.058126982301473618
0.21716633439064026 0.032807741314172745 0.064972959458827972
0.28243130445480347 0.037833016365766525 0.071858473122119904
0.35373151302337646 0.041587516665458679 0.080006003379821777
0.42779341340065002 0.044337358325719833 0.090781956911087036
0.50161343812942505 0.046651773154735565 0.10036864876747131
0.57398802042007446 0.049894414842128754 0.10801591724157333
0.64685893058776855 0.054310142993927002 0.11554689705371857
0.72139078378677368 0.060289211571216583 0.12385480105876923
0.021577019244432449 0.040594886988401413 0.046591382473707199
0.043517783284187317 0.047573551535606384 0.052950512617826462
0.077549576759338379 0.05237414687871933 0.058210231363773346
0.12092850357294083 0.056074973195791245 0.064325205981731415
0.17173121869564056 0.060515385121107101 0.070728540420532227
0.23016864061355591 0.066457249224185944 0.078103020787239075
0.295733243227005 0.072989292442798615 0.085847727954387665
0.36678376793861389 0.078676812350749969 0.09517650306224823
0.44112813472747803 0.082965552806854248 0.10656426846981049
0.51465892791748047 0.086693018674850464 0.11677570641040802
0.58688801527023315 0.090856693685054779 0.12519337236881256
0.65982615947723389 0.095721855759620667 0.13424672186374664
0.73485696315765381 0.1025916188955307 0.14422491192817688
0.028517764061689377 0.079605534672737122 0.058572880923748016
0.053863227367401123 0.084583818912506104 0.062465067952871323
0.088752642273902893 0.089213185012340546 0.066963046789169312
0.13240987062454224 0.09367033839225769 0.073182828724384308
0.18420802056789398 0.09976641833782196 0.080815352499485016
0.24409377574920654 0.10655481368303299 0.089456565678119659
0.30956962704658508 0.11456342041492462 0.097715847194194794
0.37969323992729187 0.12193161994218826 0.10699503123760223
0.45241329073905945 0.12776963412761688 0.11762590706348419
0.52576255798339844 0.13293343782424927 0.12836672365665436
0.59922677278518677 0.13777078688144684 0.13875171542167664
0.67341756820678711 0.14307798445224762 0.15030261874198914
0.74907928705215454 0.15032872557640076 0.16237883269786835
0.036592625081539154 0.12808358669281006 0.072924189269542694
0.062683045864105225 0.13268144428730011 0.07645290344953537
0.098854780197143555 0.13600268959999084 0.080068923532962799
0.14287573099136353 0.14295955002307892 0.084490306675434113
0.19584311544895172 0.15060098469257355 0.091812387108802795
0.25742283463478088 0.15762555599212646 0.10135132819414139
0.32361078262329102 0.16585701704025269 0.11032138764858246
0.39304450154304504 0.17384988069534302 0.11952167749404907
0.4648338258266449 0.18076765537261963 0.12934701144695282
0.53798353672027588 0.18715722858905792 0.13955366611480713
0.6125640869140625 0.19320406019687653 0.15139506757259369
0.68817472457885742 0.19965167343616486 0.16404005885124207
0.76454085111618042 0.20794558525085449 0.1771872490644455
0.04416390135884285 0.18619398772716522 0.089659914374351501
0.071337305009365082 0.19140630960464478 0.09468802809715271
0.1082109659910202 0.19575947523117065 0.098504222929477692
0.15386055409908295 0.20299170911312103 0.1024562194943428
0.2092839777469635 0.21080447733402252 0.10907335579395294
0.27190002799034119 0.21865731477737427 0.1177789568901062
0.33828991651535034 0.22700119018554688 0.12685759365558624
0.40804511308670044 0.23509399592876434 0.13624367117881775
0.47997844219207764 0.24253299832344055 0.14603833854198456
0.55334329605102539 0.24994280934333801 0.15585608780384064
0.62838852405548096 0.25736191868782043 0.16682952642440796
0.70477819442749023 0.26520749926567078 0.17830383777618408
0.78202706575393677 0.27473029494285583 0.19130302965641022
0.053373493254184723 0.25198191404342651 0.10942851006984711
0.081766374409198761 0.25987637042999268 0.11405852437019348
0.11965493857860565 0.26542586088180542 0.11887932568788528
0.16736014187335968 0.27190724015235901 0.12441859394311905
0.22391112148761749 0.27933493256568909 0.13168936967849731
0.28666034340858459 0.28773659467697144 0.13984420895576477
0.35386931896209717 0.29644140601158142 0.14857952296733856
0.42442202568054199 0.3046271800994873 0.15818221867084503
0.49695158004760742 0.3126431405544281 0.16777142882347107
0.57061785459518433 0.32076060771942139 0.17733536660671234
0.64577656984329224 0.3289528489112854 0.18716371059417725
0.72216403484344482 0.33779117465019226 0.19740407168865204
0.79967284202575684 0.34772279858589172 0.20982061326503754
0.063876792788505554 0.32315853238105774 0.13212132453918457
0.093020930886268616 0.33363538980484009 0.13603103160858154
0.13218240439891815 0.34083610773086548 0.1416584849357605
0.18166212737560272 0.34696158766746521 0.14914312958717346
0.23914285004138947 0.35434240102767944 0.15750229358673096
0.30247396230697632 0.36294397711753845 0.16585823893547058
0.37063270807266235 0.3715212345123291 0.17435269057750702
0.44182762503623962 0.38023591041564941 0.18375448882579803
0.5146452784538269 0.38913401961326599 0.19359250366687775
0.58841651678085327 0.39760515093803406 0.20282530784606934
0.66332614421844482 0.40599939227104187 0.21228237450122833
0.73962414264678955 0.41486173868179321 0.22293910384178162
0.81710541248321533 0.42478105425834656 0.23561273515224457
0.074002347886562347 0.39909088611602783 0.15633538365364075
0.10428877919912338 0.41018599271774292 0.16200542449951172
0.14509804546833038 0.41815167665481567 0.16893914341926575
0.19675405323505402 0.42486187815666199 0.17728851735591888
0.25607579946517944 0.43221944570541382 0.18549458682537079
0.32029694318771362 0.44068741798400879 0.19395223259925842
0.38894450664520264 0.44970467686653137 0.20215876400470734
0.46007600426673889 0.45932552218437195 0.21082799136638641
0.53278130292892456 0.46897560358047485 0.22048774361610413
0.60661947727203369 0.47791370749473572 0.22992675006389618
0.68139493465423584 0.48628726601600647 0.24014164507389069
0.75776863098144531 0.49501672387123108 0.25230741500854492
0.83498930931091309 0.50465327501296997 0.26593199372291565
0.083808928728103638 0.47818496823310852 0.18274033069610596
0.1149740144610405 0.48973006010055542 0.19013187289237976
0.15764856338500977 0.49812644720077515 0.19801934063434601
0.21131885051727295 0.50465869903564453 0.20668873190879822
0.27267932891845703 0.51181954145431519 0.21500365436077118
0.33875623345375061 0.52031546831130981 0.22299845516681671
0.40769216418266296 0.52990376949310303 0.2305835485458374
0.47870239615440369 0.54019057750701904 0.23870189487934113
0.55140620470046997 0.55009263753890991 0.24735012650489807
0.62531012296676636 0.55961555242538452 0.25697723031044006
0.700245201587677 0.56850969791412354 0.26826015114784241
0.77651530504226685 0.5773545503616333 0.28178364038467407
0.85376882553100586 0.58672183752059937 0.29627948999404907
0.093639492988586426 0.55931746959686279 0.21196867525577545
0.1250489354133606 0.5714457631111145 0.2208794504404068
0.16864915192127228 0.58032238483428955 0.22930285334587097
0.22412984073162079 0.58702588081359863 0.23759660124778748
0.28779217600822449 0.59347212314605713 0.24575765430927277
0.35569187998771667 0.60207796096801758 0.25298580527305603
0.42575919628143311 0.61188536882400513 0.25993669033050537
0.49746984243392944 0.62227135896682739 0.26711586117744446
0.57041698694229126 0.63263851404190063 0.27495718002319336
0.64455682039260864 0.64262181520462036 0.28412428498268127
0.71981155872344971 0.65194791555404663 0.29548949003219604
0.79641342163085938 0.661121666431427 0.3086647093296051
0.87388324737548828 0.67099112272262573 0.32274594902992249
0.10390092432498932 0.64174342155456543 0.24263772368431091
0.13534227013587952 0.65439635515213013 0.25345006585121155
0.17885106801986694 0.66380566358566284 0.2625434398651123
0.2349429577589035 0.67089468240737915 0.27033025026321411
0.30065923929214478 0.67755436897277832 0.27702876925468445
0.37095877528190613 0.68589997291564941 0.28365778923034668
0.44292417168617249 0.69548177719116211 0.29012981057167053
0.51576215028762817 0.70557993650436401 0.2966759204864502
0.58941006660461426 0.71591627597808838 0.30394366383552551
0.66425830125808716 0.72620230913162231 0.31264212727546692
0.73989969491958618 0.735923171043396 0.32301568984985352
0.81691831350326538 0.7458997368812561 0.33510282635688782
0.89488279819488525 0.75605416297912598 0.34817853569984436
0.11674124002456665 0.72469604015350342 0.27331775426864624
0.14722353219985962 0.7381356954574585 0.28566122055053711
0.19010938704013824 0.74835085868835449 0.29588937759399414
0.24652869999408722 0.75610166788101196 0.30296337604522705
0.31312894821166992 0.76334547996520996 0.30815082788467407
0.38525137305259705 0.77124631404876709 0.31382501125335693
0.45937806367874146 0.78011572360992432 0.32043945789337158
0.53362399339675903 0.78965932130813599 0.32712438702583313
0.60863333940505981 0.79983729124069214 0.33441060781478882
0.68422716856002808 0.81012791395187378 0.34252938628196716
0.76063078641891479 0.82044047117233276 0.35224035382270813
0.83807408809661865 0.83078247308731079 0.36327144503593445
0.91654127836227417 0.84129852056503296 0.37583479285240173
0.13442257046699524 0.80747663974761963 0.30263599753379822
0.16427631676197052 0.82162326574325562 0.31592920422554016
0.20608876645565033 0.83265954256057739 0.32741853594779968
0.26179623603820801 0.84131020307540894 0.33391985297203064
0.32839533686637878 0.849251389503479 0.33791899681091309
0.40129423141479492 0.85702097415924072 0.34340909123420715
0.47571286559104919 0.8654600977897644 0.35028389096260071
0.55189764499664307 0.87458199262619019 0.3576904833316803
0.62852990627288818 0.8844749927520752 0.36524412035942078
0.70494061708450317 0.89474368095397949 0.37349584698677063
0.78218364715576172 0.9052431583404541 0.38280278444290161
0.86012709140777588 0.9158470630645752 0.39337259531021118
0.93908369541168213 0.92661583423614502 0.40554797649383545
0.014982245862483978 0.014408096671104431 0.047812234610319138
0.033681951463222504 0.019339976832270622 0.066341608762741089
0.067358218133449554 0.021585427224636078 0.07635759562253952
0.11145619302988052 0.025058461353182793 0.081988900899887085
0.16127997636795044 0.030283041298389435 0.087752126157283783
0.21733222901821136 0.036168236285448074 0.095027819275856018
0.28179359436035156 0.041911706328392029 0.1016385406255722
0.35241374373435974 0.046477358788251877 0.10972248017787933
0.42621177434921265 0.049487020820379257 0.12076136469841003
0.49983868002891541 0.052333906292915344 0.13136826455593109
0.57247567176818848 0.056326307356357574 0.14003795385360718
0.64562904834747314 0.061479005962610245 0.14831620454788208
0.72015881538391113 0.067840605974197388 0.15764841437339783
0.024898005649447441 0.041713114827871323 0.074790537357330322
0.045382078737020493 0.049295105040073395 0.080564610660076141
0.079215645790100098 0.053653925657272339 0.087745591998100281
0.12241966277360916 0.058433711528778076 0.094035141170024872
0.17284311354160309 0.063648656010627747 0.099501743912696838
0.23066571354866028 0.069779038429260254 0.10668338090181351
0.29568874835968018 0.076208986341953278 0.11458716541528702
0.36628475785255432 0.082416430115699768 0.12401726096868515
0.43992328643798828 0.087235905230045319 0.13547445833683014
0.51360911130905151 0.091529965400695801 0.14659078419208527
0.58637982606887817 0.096509523689746857 0.15608686208724976
0.65970772504806519 0.10245723277330399 0.16573302447795868
0.73459899425506592 0.10977603495121002 0.17642135918140411
0.034714102745056152 0.078291811048984528 0.092582240700721741
0.056729037314653397 0.086142599582672119 0.094465114176273346
0.089141890406608582 0.093021884560585022 0.097653754055500031
0.13355423510074615 0.097387485206127167 0.1031465083360672
0.18522998690605164 0.10355650633573532 0.10947754979133606
0.24494226276874542 0.11003977805376053 0.11723490804433823
0.31033700704574585 0.11739183217287064 0.12518769502639771
0.38020783662796021 0.12482333928346634 0.13505108654499054
0.45301184058189392 0.13115978240966797 0.14660221338272095
0.52668553590774536 0.13695436716079712 0.15819722414016724
0.60023373365402222 0.14259962737560272 0.16926495730876923
0.67461013793945312 0.14902126789093018 0.18088170886039734
0.75006604194641113 0.15719400346279144 0.19337767362594604
0.043926883488893509 0.12552200257778168 0.10728788375854492
0.065112918615341187 0.13506697118282318 0.10859807580709457
0.097938746213912964 0.14139236509799957 0.10963555425405502
0.14389042556285858 0.1463085412979126 0.1147303581237793
0.19777753949165344 0.15352138876914978 0.12128783762454987
0.25952297449111938 0.16041681170463562 0.12920784950256348
0.32525035738945007 0.16842231154441833 0.13740862905979156
0.39483216404914856 0.17631617188453674 0.14713679254055023
0.46721130609512329 0.18350155651569366 0.1581902951002121
0.54080474376678467 0.19040706753730774 0.16969829797744751
0.615337073802948 0.19736230373382568 0.18154121935367584
0.69077610969543457 0.2046835869550705 0.19395346939563751
0.76741641759872437 0.21359086036682129 0.20774276554584503
0.05067932978272438 0.18344219028949738 0.12433174252510071
0.07396233081817627 0.19368848204612732 0.12711800634860992
0.10754884034395218 0.20131228864192963 0.12734164297580719
0.15452349185943604 0.20658762753009796 0.13149569928646088
0.21229293942451477 0.21259629726409912 0.13818708062171936
0.27503842115402222 0.22064386308193207 0.14565414190292358
0.34093999862670898 0.22953419387340546 0.1535508930683136
0.410991370677948 0.2374451756477356 0.16323310136795044
0.48386877775192261 0.24483010172843933 0.17428264021873474
0.55748182535171509 0.25280192494392395 0.18511930108070374
0.63222742080688477 0.26111641526222229 0.19625754654407501
0.70825517177581787 0.26958531141281128 0.20795442163944244
0.78513807058334351 0.27936926484107971 0.22148698568344116
0.059130843728780746 0.251149982213974 0.14346227049827576
0.084435947239398956 0.26359260082244873 0.14446015655994415
0.12006300687789917 0.27116668224334717 0.14673224091529846
0.16838937997817993 0.27596855163574219 0.15194115042686462
0.22690346837043762 0.28176334500312805 0.15929907560348511
0.29039916396141052 0.29016315937042236 0.16678048670291901
0.35750278830528259 0.29919105768203735 0.17480196058750153
0.42857170104980469 0.30721855163574219 0.18450325727462769
0.50192463397979736 0.31495743989944458 0.19504517316818237
0.57548940181732178 0.3239034116268158 0.20516006648540497
0.65022915601730347 0.33281448483467102 0.21522371470928192
0.72645664215087891 0.3421732485294342 0.22587011754512787
0.80341082811355591 0.35221785306930542 0.23867902159690857
0.069662772119045258 0.32500159740447998 0.16312012076377869
0.095373459160327911 0.33880075812339783 0.16440638899803162
0.1327940821647644 0.34685385227203369 0.16665574908256531
0.18331970274448395 0.35206693410873413 0.17346061766147614
0.24278144538402557 0.35799404978752136 0.18302494287490845
0.30715757608413696 0.36573308706283569 0.19157972931861877
0.3752710223197937 0.37436926364898682 0.19976553320884705
0.44692268967628479 0.38326853513717651 0.20902372896671295
0.51988649368286133 0.39243301749229431 0.2190604954957962
0.59346193075180054 0.40167558193206787 0.22880536317825317
0.66847825050354004 0.41044077277183533 0.23890048265457153
0.74441301822662354 0.41963022947311401 0.25006383657455444
0.82150685787200928 0.42941418290138245 0.26346459984779358
0.080022431910037994 0.40224462747573853 0.18582858145236969
0.10617461800575256 0.41597643494606018 0.18850500881671906
0.14547252655029297 0.42502954602241516 0.19070620834827423
0.19868072867393494 0.43092882633209229 0.19818019866943359
0.26051995158195496 0.43681886792182922 0.20907017588615417
0.32565149664878845 0.44438210129737854 0.218068927526474
0.39407822489738464 0.4532916247844696 0.22639860212802887
0.4653678834438324 0.46318519115447998 0.23520886898040771
0.53805279731750488 0.47349375486373901 0.24474002420902252
0.61170381307601929 0.4828743040561676 0.25468558073043823
0.68654155731201172 0.4916175901889801 0.26537451148033142
0.76262879371643066 0.50053262710571289 0.27778163552284241
0.83975893259048462 0.51004087924957275 0.29193133115768433
0.089376173913478851 0.48221680521965027 0.21234592795372009
0.11695112287998199 0.49626967310905457 0.21609702706336975
0.15803386270999908 0.50604766607284546 0.21889254450798035
0.21318827569484711 0.51184642314910889 0.22622668743133545
0.27697017788887024 0.5172264575958252 0.23624442517757416
0.34335750341415405 0.52505016326904297 0.2450377494096756
0.41236060857772827 0.53463977575302124 0.25332126021385193
0.48368388414382935 0.5450635552406311 0.26201823353767395
0.5564841628074646 0.55581408739089966 0.27112814784049988
0.630531907081604 0.56552386283874512 0.28124785423278809
0.705253005027771 0.57451534271240234 0.29259747266769409
0.78180146217346191 0.58351218700408936 0.3054405152797699
0.85900735855102539 0.59305226802825928 0.31999564170837402
0.098642997443675995 0.56340605020523071 0.24236480891704559
0.12720540165901184 0.57830870151519775 0.24782221019268036
0.1692834198474884 0.58841127157211304 0.25152295827865601
0.22610434889793396 0.59388095140457153 0.25781428813934326
0.29160115122795105 0.59874862432479858 0.26594626903533936
0.3598172664642334 0.60712170600891113 0.27360174059867859
0.42987248301506042 0.6173175573348999 0.28158271312713623
0.50180524587631226 0.62808942794799805 0.28988456726074219
0.57506918907165527 0.63877636194229126 0.2987612783908844
0.64951908588409424 0.64904165267944336 0.30844157934188843
0.72475463151931763 0.65839987993240356 0.31977823376655579
0.80130457878112793 0.66796541213989258 0.33219718933105469
0.87878233194351196 0.67783915996551514 0.34612521529197693
0.10833366215229034 0.64622217416763306 0.27389299869537354
0.13687796890735626 0.66142046451568604 0.28174114227294922
0.17887471616268158 0.67214095592498779 0.28640866279602051
0.23631605505943298 0.67828285694122314 0.29089215397834778
0.30346357822418213 0.68355643749237061 0.29647982120513916
0.37407329678535461 0.6915276050567627 0.30334088206291199
0.44640251994132996 0.70123821496963501 0.31157475709915161
0.51978182792663574 0.71163773536682129 0.32000133395195007
0.59384512901306152 0.72228443622589111 0.32820782065391541
0.66895300149917603 0.73266386985778809 0.33738595247268677
0.7447471022605896 0.74254029989242554 0.34829354286193848
0.82139056921005249 0.75267618894577026 0.35994184017181396
0.89933538436889648 0.76302599906921387 0.37341657280921936
0.12024097889661789 0.72976940870285034 0.30413207411766052
0.14768797159194946 0.74583333730697632 0.31307384371757507
0.18877042829990387 0.75758153200149536 0.31825584173202515
0.24579475820064545 0.76498693227767944 0.32154038548469543
0.31389585137367249 0.77079814672470093 0.32598868012428284
0.38716995716094971 0.77786344289779663 0.33304581046104431
0.46216288208961487 0.78623884916305542 0.34236282110214233
0.53744685649871826 0.79570549726486206 0.3517862856388092
0.61269658803939819 0.80604827404022217 0.3601023256778717
0.68851667642593384 0.81657701730728149 0.36899647116661072
0.76492702960968018 0.82693928480148315 0.37892702221870422
0.84197878837585449 0.83742111921310425 0.39034149050712585
0.91985976696014404 0.84798300266265869 0.40350839495658875
0.13702987134456635 0.81315374374389648 0.33281993865966797
0.16409607231616974 0.83012902736663818 0.34140565991401672
0.20440325140953064 0.84324133396148682 0.34681600332260132
0.2604738175868988 0.85145926475524902 0.35090473294258118
0.32787513732910156 0.85780513286590576 0.35560363531112671
0.40173748135566711 0.86442720890045166 0.36332020163536072
0.47847163677215576 0.87197184562683105 0.37348651885986328
0.55521142482757568 0.88077157735824585 0.38366356492042542
0.63160300254821777 0.89072561264038086 0.3927161693572998
0.70827251672744751 0.90115886926651001 0.40160661935806274
0.78539162874221802 0.91170120239257812 0.41152679920196533
0.86319416761398315 0.92236220836639404 0.42267996072769165
0.94154030084609985 0.93311113119125366 0.43575510382652283
0.014949035830795765 0.017317423596978188 0.070049598813056946
0.028706345707178116 0.024731550365686417 0.095438756048679352
0.06271013617515564 0.026040380820631981 0.10927887260913849
0.11213989555835724 0.026545356959104538 0.11620985716581345
0.16421683132648468 0.031244600191712379 0.12213906645774841
0.21997837722301483 0.037405304610729218 0.12970292568206787
0.28317177295684814 0.043468877673149109 0.1375737190246582
0.35228052735328674 0.048685468733310699 0.14630764722824097
0.42480835318565369 0.052661985158920288 0.15715368092060089
0.49806505441665649 0.056558586657047272 0.16799680888652802
0.57110297679901123 0.062107071280479431 0.17724107205867767
0.64459192752838135 0.068855226039886475 0.18573965132236481
0.71970862150192261 0.075695037841796875 0.19555005431175232
0.022116119042038918 0.047033123672008514 0.096564918756484985
0.038895953446626663 0.056770086288452148 0.10663797706365585
0.074778176844120026 0.057973358780145645 0.11962995678186417
0.12319328635931015 0.058769825845956802 0.12914144992828369
0.17459632456302643 0.064816176891326904 0.13507209718227386
0.23274384438991547 0.071307100355625153 0.142499178647995
0.29698377847671509 0.078063711524009705 0.15065045654773712
0.36633005738258362 0.084388211369514465 0.16004563868045807
0.43881821632385254 0.090361125767230988 0.17105191946029663
0.51230639219284058 0.095855891704559326 0.18234547972679138
0.58573919534683228 0.10198192298412323 0.19263894855976105
0.65968090295791626 0.10906002670526505 0.20255157351493835
0.73479169607162476 0.11697430908679962 0.21383474767208099
0.039754185825586319 0.076943673193454742 0.11906983703374863
0.058037251234054565 0.087389267981052399 0.12400764226913452
0.088287770748138428 0.096408218145370483 0.12927669286727905
0.13326673209667206 0.10026174783706665 0.13819441199302673
0.18670116364955902 0.10599894821643829 0.14616116881370544
0.24706335365772247 0.11226063221693039 0.15397512912750244
0.31171533465385437 0.11978563666343689 0.16145797073841095
0.38091063499450684 0.12749756872653961 0.17101395130157471
0.45322129130363464 0.13448978960514069 0.18261101841926575
0.5269782543182373 0.14109936356544495 0.19458223879337311
0.60117512941360474 0.14780175685882568 0.20615848898887634
0.67572581768035889 0.15515732765197754 0.21795168519020081
0.75213068723678589 0.16365930438041687 0.23084305226802826
0.05454711988568306 0.12028015404939651 0.1395571380853653
0.074248597025871277 0.13149268925189972 0.14569671452045441
0.10409633815288544 0.14169596135616302 0.14834760129451752
0.14606010913848877 0.14925177395343781 0.15215517580509186
0.20053163170814514 0.156079962849617 0.15947416424751282
0.26170900464057922 0.16314007341861725 0.16672505438327789
0.32661959528923035 0.17145341634750366 0.1734878271818161
0.39578226208686829 0.17975276708602905 0.18298988044261932
0.46849644184112549 0.18735630810260773 0.19487413763999939
0.54308134317398071 0.19453340768814087 0.20716211199760437
0.61763113737106323 0.20204415917396545 0.21934951841831207
0.69331598281860352 0.21009960770606995 0.23205296695232391
0.76903879642486572 0.21927431225776672 0.24614867568016052
0.061864830553531647 0.17617006599903107 0.16563312709331512
0.08313751220703125 0.18913963437080383 0.17097194492816925
0.11354582756757736 0.20137983560562134 0.16960978507995605
0.15708181262016296 0.20974504947662354 0.17136406898498535
0.21401979029178619 0.21600070595741272 0.17721526324748993
0.27601343393325806 0.22441095113754272 0.18336230516433716
