assets/lut/kylerholland kh09.cube
# Created by: G'MIC (https://gmic.eu)
TITLE "kh9"
# LUT size
LUT_3D_SIZE 7
# Data domain
DOMAIN_MIN 0.0 0.0 0.0
DOMAIN_MAX 1.0 1.0 1.0
# LUT data points
0.031734734773635864 0.021885247901082039 0.042683381587266922
0.15760546922683716 0.025420349091291428 0.045334611088037491
0.30384311079978943 0.031115364283323288 0.057977084070444107
0.49498957395553589 0.031551569700241089 0.066013947129249573
0.67557716369628906 0.028277723118662834 0.070621401071548462
0.82417935132980347 0.022243214771151543 0.068210005760192871
0.96075814962387085 0.020046085119247437 0.056575611233711243
0.035447828471660614 0.14246556162834167 0.044655878096818924
0.16718406975269318 0.14549382030963898 0.050678133964538574
0.31616276502609253 0.14873673021793365 0.056878961622714996
0.50770086050033569 0.14977918565273285 0.060489952564239502
0.67999941110610962 0.15334074199199677 0.071255974471569061
0.8259812593460083 0.15435482561588287 0.078471176326274872
0.96193277835845947 0.15715377032756805 0.075728729367256165
0.029535435140132904 0.31256350874900818 0.045020759105682373
0.17089608311653137 0.31364113092422485 0.052682913839817047
0.33118146657943726 0.31331327557563782 0.053814232349395752
0.51939040422439575 0.31443384289741516 0.05379079282283783
0.68889409303665161 0.32085254788398743 0.062409210950136185
0.83300876617431641 0.32483771443367004 0.073131963610649109
0.96647578477859497 0.32624277472496033 0.078647598624229431
0.032744836062192917 0.51644814014434814 0.041361730545759201
0.17567993700504303 0.517162024974823 0.045763172209262848
0.33419117331504822 0.51650184392929077 0.045431789010763168
0.51705920696258545 0.51622891426086426 0.045875038951635361
0.69770950078964233 0.51937711238861084 0.048343837261199951
0.84867507219314575 0.5234408974647522 0.055795364081859589
0.97981852293014526 0.5231289267539978 0.061950504779815674
0.033312510699033737 0.69898086786270142 0.041781019419431686
0.17836232483386993 0.70214462280273438 0.044242680072784424
0.33639812469482422 0.70113790035247803 0.042353358119726181
0.51648426055908203 0.69812953472137451 0.041698336601257324
0.70068413019180298 0.69526535272598267 0.043755713850259781
0.85776835680007935 0.7005302906036377 0.046158570796251297
0.98909467458724976 0.70427107810974121 0.046141576021909714
0.03182341530919075 0.85351294279098511 0.0453350730240345
0.17950229346752167 0.85750353336334229 0.046667810529470444
0.33961284160614014 0.85716068744659424 0.044074848294258118
0.51781511306762695 0.85389453172683716 0.041519150137901306
0.69919365644454956 0.85032099485397339 0.041321247816085815
0.85935568809509277 0.85800796747207642 0.0393829345703125
0.99274760484695435 0.86471128463745117 0.034290432929992676
0.030193150043487549 0.98999083042144775 0.042602866888046265
0.18057368695735931 0.99234473705291748 0.043984804302453995
0.34098151326179504 0.99246323108673096 0.040420934557914734
0.51459395885467529 0.99246323108673096 0.037216424942016602
0.68998169898986816 0.99249202013015747 0.033988188952207565
0.85315245389938354 0.99500679969787598 0.028809566050767899
0.99246323108673096 0.99705880880355835 0.021055348217487335
0.028093645349144936 0.016316087916493416 0.23768526315689087
0.15202222764492035 0.025482162833213806 0.23305028676986694
0.29669493436813354 0.039248298853635788 0.23322124779224396
0.48747923970222473 0.043331999331712723 0.2421061098575592
0.66932350397109985 0.040160249918699265 0.24934330582618713
0.81823956966400146 0.032140843570232391 0.24802237749099731
0.95588409900665283 0.026934320107102394 0.23743599653244019
0.038022525608539581 0.14193820953369141 0.25003102421760559
0.160069540143013 0.14561450481414795 0.24796073138713837
0.30578061938285828 0.15469498932361603 0.2415471076965332
0.49767109751701355 0.15990734100341797 0.24733562767505646
0.6728663444519043 0.1593167632818222 0.2580619752407074
0.82121032476425171 0.15765208005905151 0.26262074708938599
0.96040916442871094 0.15976068377494812 0.25802034139633179
0.033718843013048172 0.31468403339385986 0.2475801557302475
0.16429570317268372 0.3141060471534729 0.25153174996376038
0.32170304656028748 0.31637048721313477 0.24956554174423218
0.51666635274887085 0.32015743851661682 0.25566393136978149
0.68498760461807251 0.32311764359474182 0.26015248894691467
0.82864725589752197 0.32441949844360352 0.26596188545227051
0.96393370628356934 0.32669800519943237 0.26819291710853577
0.033520717173814774 0.51542919874191284 0.24052056670188904
0.17041195929050446 0.5154719352722168 0.24424092471599579
0.33206886053085327 0.5147097110748291 0.24533528089523315
0.52045589685440063 0.51563620567321777 0.2492847740650177
0.69683408737182617 0.51936072111129761 0.25137770175933838
0.84506094455718994 0.52249419689178467 0.25586366653442383
0.97772479057312012 0.52262020111083984 0.25946801900863647
0.031974881887435913 0.69894754886627197 0.23905996978282928
0.17245462536811829 0.70060068368911743 0.24183088541030884
0.3328205943107605 0.69748991727828979 0.24198025465011597
0.51762145757675171 0.69570046663284302 0.2433515340089798
0.6995970606803894 0.69711744785308838 0.24401780962944031
0.8560670018196106 0.70164734125137329 0.24697256088256836
0.98832744359970093 0.70398283004760742 0.24652822315692902
0.028772421181201935 0.85454171895980835 0.24111463129520416
0.1707947850227356 0.85550642013549805 0.24264514446258545
0.32932204008102417 0.85257697105407715 0.2395862489938736
0.51200056076049805 0.85093337297439575 0.2394416332244873
0.69538486003875732 0.85299849510192871 0.23945914208889008
0.85790759325027466 0.85824394226074219 0.23834991455078125
0.99257832765579224 0.86299282312393188 0.23315176367759705
0.027257403358817101 0.99082267284393311 0.23741960525512695
0.17227804660797119 0.99083608388900757 0.23906010389328003
0.33035081624984741 0.98996096849441528 0.23557677865028381
0.50765329599380493 0.99061983823776245 0.23264925181865692
0.68712395429611206 0.99205756187438965 0.22978915274143219
0.85303491353988647 0.99417233467102051 0.22498732805252075
0.99246752262115479 0.99658513069152832 0.2150900661945343
0.021545739844441414 0.01310577429831028 0.4086948037147522
0.1494787335395813 0.024172749370336533 0.39562591910362244
0.29890650510787964 0.041421342641115189 0.38219329714775085
0.47836148738861084 0.050831019878387451 0.38692536950111389
0.6491013765335083 0.052202247083187103 0.39813801646232605
0.79950672388076782 0.048295069485902786 0.40434649586677551
0.94134330749511719 0.041705112904310226 0.39840942621231079
0.028999507427215576 0.14273583889007568 0.42127260565757751
0.1556738018989563 0.1507318913936615 0.41041940450668335
0.30669674277305603 0.16180594265460968 0.39491033554077148
0.48926830291748047 0.16860382258892059 0.39853304624557495
0.65910714864730835 0.1692814826965332 0.41215497255325317
0.81010180711746216 0.16902691125869751 0.4199836254119873
0.95199871063232422 0.16922134160995483 0.4180704653263092
0.030133714899420738 0.31872978806495667 0.42275330424308777
0.16002073884010315 0.31913626194000244 0.41975194215774536
0.319488525390625 0.32346260547637939 0.40909197926521301
0.50818300247192383 0.32796773314476013 0.41043049097061157
0.67676454782485962 0.3310164213180542 0.42165520787239075
0.82296073436737061 0.33211708068847656 0.42961066961288452
0.96023029088973999 0.33337539434432983 0.43226245045661926
0.031124817207455635 0.51866668462753296 0.41766339540481567
0.16390803456306458 0.51898288726806641 0.41946619749069214
0.32874676585197449 0.51569873094558716 0.41870099306106567
0.5218803882598877 0.51820307970046997 0.42230424284934998
0.6937982439994812 0.52385133504867554 0.42535537481307983
0.83994066715240479 0.52645581960678101 0.43005773425102234
0.9739452600479126 0.52739489078521729 0.43321323394775391
0.029726291075348854 0.69975006580352783 0.41741558909416199
0.16680252552032471 0.69966679811477661 0.41988897323608398
0.33060160279273987 0.69573408365249634 0.42133262753486633
0.51992064714431763 0.6948387622833252 0.42409002780914307
0.69857269525527954 0.69817322492599487 0.42552074790000916
0.85231417417526245 0.7020067572593689 0.42773109674453735
0.9858626127243042 0.70459836721420288 0.42761901021003723
0.026539372280240059 0.85391265153884888 0.42056417465209961
0.16635976731777191 0.85308414697647095 0.42148765921592712
0.32463395595550537 0.84915339946746826 0.41992449760437012
0.51026922464370728 0.84951508045196533 0.42046037316322327
0.69327175617218018 0.85213601589202881 0.42134162783622742
0.85474228858947754 0.85620397329330444 0.42159131169319153
0.99151015281677246 0.85994815826416016 0.41733014583587646
0.026390794664621353 0.99089246988296509 0.41735407710075378
0.16893130540847778 0.98946022987365723 0.41827651858329773
0.32583510875701904 0.98810762166976929 0.41487294435501099
0.50521355867385864 0.98862123489379883 0.41281786561012268
0.68534880876541138 0.99090003967285156 0.41151297092437744
0.85127842426300049 0.99266248941421509 0.40868720412254333
0.99246323108673096 0.99445569515228271 0.40063890814781189
0.018435250967741013 0.01119568757712841 0.57018947601318359
0.15317940711975098 0.019135612994432449 0.56045663356781006
0.30905437469482422 0.036013614386320114 0.54161089658737183
0.48005959391593933 0.055155809968709946 0.52633875608444214
0.63707131147384644 0.064397238194942474 0.53204631805419922
0.77873224020004272 0.0663895383477211 0.54465186595916748
0.92103427648544312 0.057836480438709259 0.54377871751785278
0.024501470848917961 0.14027784764766693 0.5803523063659668
0.15888181328773499 0.14624243974685669 0.5751766562461853
0.31739944219589233 0.15366491675376892 0.56277561187744141
0.49059462547302246 0.16872437298297882 0.5477592945098877
0.64958095550537109 0.17753614485263824 0.54933375120162964
0.79501283168792725 0.18048927187919617 0.55934196710586548
0.93506026268005371 0.17788612842559814 0.56379055976867676
0.024962615221738815 0.31492727994918823 0.58070933818817139
0.15843868255615234 0.31849563121795654 0.58036059141159058
0.32288506627082825 0.31791147589683533 0.57501792907714844
0.5068892240524292 0.3273099958896637 0.56389337778091431
0.67065584659576416 0.3360101580619812 0.56274592876434326
0.81424695253372192 0.33828693628311157 0.57010209560394287
0.95006024837493896 0.33665362000465393 0.57680028676986694
0.023753447458148003 0.51457589864730835 0.57716101408004761
0.15506051480770111 0.51886940002441406 0.57970982789993286
0.32384318113327026 0.51736694574356079 0.57926243543624878
0.52482140064239502 0.51923972368240356 0.57936710119247437
0.69336116313934326 0.5243111252784729 0.57512277364730835
0.83484411239624023 0.52703762054443359 0.57830262184143066
0.96679532527923584 0.52757531404495239 0.58243638277053833
0.024532826617360115 0.6961066722869873 0.57919526100158691
0.16172072291374207 0.69839507341384888 0.58037203550338745
0.33064982295036316 0.69631034135818481 0.58145594596862793
0.52431726455688477 0.6946340799331665 0.58425378799438477
0.70196378231048584 0.69564831256866455 0.58377611637115479
0.84991562366485596 0.69910609722137451 0.58539897203445435
0.98194938898086548 0.70134937763214111 0.58571732044219971
0.026238715276122093 0.85253220796585083 0.58350604772567749
0.16807913780212402 0.85288971662521362 0.58387273550033569
0.33154156804084778 0.85038715600967407 0.58057707548141479
0.5164300799369812 0.84918147325515747 0.58240830898284912
0.69636207818984985 0.8497498631477356 0.58413326740264893
0.85410225391387939 0.85109341144561768 0.58454108238220215
0.98946374654769897 0.85392493009567261 0.58296328783035278
0.028652235865592957 0.99053311347961426 0.58132070302963257
0.17402604222297668 0.9899182915687561 0.58082097768783569
0.33435121178627014 0.98863059282302856 0.57793110609054565
0.51128417253494263 0.98860293626785278 0.57597178220748901
0.6882891058921814 0.98898184299468994 0.57556569576263428
0.85133928060531616 0.99071574211120605 0.57510960102081299
0.99156975746154785 0.99194759130477905 0.57009625434875488
0.017657365649938583 0.012256442569196224 0.72443181276321411
0.15462715923786163 0.01734466478228569 0.72064435482025146
0.31330996751785278 0.031209399923682213 0.69988167285919189
0.48401209712028503 0.053631022572517395 0.66973286867141724
0.63734406232833862 0.068622946739196777 0.66042172908782959
0.77403175830841064 0.074047133326530457 0.66675442457199097
0.90957880020141602 0.071336351335048676 0.66955268383026123
0.022450525313615799 0.14329513907432556 0.73032420873641968
0.16158345341682434 0.14439128339290619 0.73107141256332397
0.32283857464790344 0.14959995448589325 0.7214207649230957
0.49432015419006348 0.16860106587409973 0.69381392002105713
0.6502346396446228 0.18638840317726135 0.6768028736114502
0.78919702768325806 0.1930990070104599 0.67947345972061157
0.9231305718421936 0.19515866041183472 0.68532264232635498
0.022397927939891815 0.3153482973575592 0.72722864151000977
0.16089564561843872 0.31644126772880554 0.72867095470428467
0.32605633139610291 0.31489178538322449 0.72889971733093262
0.50617331266403198 0.32744255661964417 0.7089269757270813
0.66813105344772339 0.34390953183174133 0.68895930051803589
0.80796241760253906 0.34948444366455078 0.69070589542388916
0.939430832862854 0.35163423418998718 0.69754171371459961
0.020461482927203178 0.5117495059967041 0.72334498167037964
0.1553526371717453 0.5156862735748291 0.72329598665237427
0.32490018010139465 0.51535665988922119 0.72469443082809448
0.51784098148345947 0.51799577474594116 0.71740859746932983
0.688862144947052 0.52749085426330566 0.7050437331199646
0.82784074544906616 0.53344249725341797 0.7061576247215271
0.95687597990036011 0.53485703468322754 0.70991569757461548
0.021669231355190277 0.69321393966674805 0.72470557689666748
0.16073545813560486 0.69643300771713257 0.72460675239562988
0.33048546314239502 0.69592130184173584 0.725311279296875
0.52352654933929443 0.69430148601531982 0.72513878345489502
0.7016066312789917 0.6956372857093811 0.72325301170349121
0.84431958198547363 0.70267778635025024 0.72332406044006348
0.97491073608398438 0.70447319746017456 0.72322678565979004
0.026032570749521255 0.85122936964035034 0.72842204570770264
0.17120859026908875 0.85242646932601929 0.72786611318588257
0.33752459287643433 0.85158061981201172 0.7265549898147583
0.52203607559204102 0.84992122650146484 0.72705203294754028
0.6993526816368103 0.84909409284591675 0.72816348075866699
0.85277426242828369 0.85056650638580322 0.73028147220611572
0.98673403263092041 0.85138446092605591 0.73104536533355713
0.029965808615088463 0.99093139171600342 0.7271077036857605
0.18007528781890869 0.99093139171600342 0.72754192352294922
0.3434654176235199 0.99001169204711914 0.72512167692184448
0.51908034086227417 0.98887330293655396 0.72385859489440918
0.69271820783615112 0.98860293626785278 0.72379076480865479
0.85272127389907837 0.98860293626785278 0.72464114427566528
0.99071472883224487 0.98895019292831421 0.72331386804580688
0.021256331354379654 0.016736378893256187 0.86733555793762207
0.1587846428155899 0.019287947565317154 0.86716270446777344
0.31731194257736206 0.028462996706366539 0.84707444906234741
0.49019220471382141 0.047220718115568161 0.81091296672821045
0.64542633295059204 0.065158531069755554 0.78652936220169067
0.77806633710861206 0.07506127655506134 0.7830011248588562
0.90569347143173218 0.080791458487510681 0.78569561243057251
0.023964570835232735 0.14675173163414001 0.86931580305099487
0.16508948802947998 0.14697226881980896 0.87140530347824097
0.32580137252807617 0.1508202999830246 0.86084246635437012
0.49823468923568726 0.166049525141716 0.83154797554016113
0.65532451868057251 0.18548096716403961 0.80294817686080933
0.78943347930908203 0.19751442968845367 0.79282945394515991
0.9174877405166626 0.20893585681915283 0.79627400636672974
0.023275936022400856 0.31522318720817566 0.86325192451477051
0.16361124813556671 0.31874999403953552 0.86425107717514038
0.32733029127120972 0.31583604216575623 0.86410617828369141
0.50692868232727051 0.32547727227210999 0.84674996137619019
0.67065447568893433 0.34296888113021851 0.82012748718261719
0.80602961778640747 0.35356482863426208 0.80715644359588623
0.93278855085372925 0.36487534642219543 0.80856442451477051
0.021301418542861938 0.51427370309829712 0.86053919792175293
0.1562526673078537 0.51788485050201416 0.858664870262146
0.32320377230644226 0.51579540967941284 0.86111706495285034
0.51586270332336426 0.5172920823097229 0.85582083463668823
0.69027400016784668 0.52847862243652344 0.84172523021697998
0.82568639516830444 0.53878951072692871 0.8310127854347229
0.94993025064468384 0.54538595676422119 0.82705104351043701
0.022264128550887108 0.69627147912979126 0.86159884929656982
0.15951429307460785 0.69821470975875854 0.86049878597259521
0.32738238573074341 0.6980401873588562 0.86054110527038574
0.52184939384460449 0.69570779800415039 0.86146670579910278
0.70073121786117554 0.69930964708328247 0.85925698280334473
0.84211117029190063 0.70870435237884521 0.85369420051574707
0.96901261806488037 0.71349442005157471 0.84747445583343506
0.026754491031169891 0.85247695446014404 0.86443746089935303
0.17322106659412384 0.85042744874954224 0.86282521486282349
0.34019768238067627 0.85220587253570557 0.86190766096115112
0.52425926923751831 0.85064423084259033 0.86221927404403687
0.70141756534576416 0.85000979900360107 0.86446076631546021
0.85316175222396851 0.85213202238082886 0.86332970857620239
0.98490303754806519 0.85476148128509521 0.86247080564498901
0.030860811471939087 0.99205702543258667 0.86341601610183716
0.18435861170291901 0.99093139171600342 0.86446076631546021
0.34949493408203125 0.99093139171600342 0.86225491762161255
0.52457350492477417 0.98984241485595703 0.8620450496673584
0.69632905721664429 0.98860293626785278 0.86175936460494995
0.85370802879333496 0.98860293626785278 0.86072051525115967
0.98991471529006958 0.98876863718032837 0.86174529790878296
0.029145125299692154 0.023533601313829422 0.99192589521408081
0.1736408919095993 0.022935396060347557 0.99065601825714111
0.33232295513153076 0.028098940849304199 0.97695457935333252
0.50213849544525146 0.043814130127429962 0.94221764802932739
0.65615361928939819 0.062324494123458862 0.912078857421875
0.78300660848617554 0.07514684647321701 0.90377533435821533
0.90511679649353027 0.087021782994270325 0.90473508834838867
0.029643174260854721 0.14989136159420013 0.99277812242507935
0.175122931599617 0.15033125877380371 0.9934496283531189
0.33523166179656982 0.15057916939258575 0.98878026008605957
0.50584667921066284 0.1623997688293457 0.96660566329956055
0.66169685125350952 0.18181230127811432 0.93265831470489502
0.79214024543762207 0.19645555317401886 0.91307950019836426
0.91691911220550537 0.21571344137191772 0.91199398040771484
0.02713407576084137 0.3136545717716217 0.99004852771759033
0.16949526965618134 0.31861716508865356 0.99237024784088135
0.33209255337715149 0.31323897838592529 0.99291133880615234
0.51171958446502686 0.31891709566116333 0.98458242416381836
0.67596560716629028 0.33701741695404053 0.95797973871231079
0.807547926902771 0.3480953574180603 0.93051844835281372
0.93204325437545776 0.36945536732673645 0.92496401071548462
0.025492919608950615 0.51847398281097412 0.989338219165802
0.1596752405166626 0.51925700902938843 0.99004805088043213
0.32487711310386658 0.51528114080429077 0.99202466011047363
0.52053350210189819 0.51395732164382935 0.991241455078125
0.69963616132736206 0.52458292245864868 0.98352575302124023
0.83069336414337158 0.53410851955413818 0.96164542436599731
0.95009076595306396 0.54801654815673828 0.94659292697906494
0.026246178895235062 0.70224809646606445 0.99013477563858032
0.16244453191757202 0.69950979948043823 0.989338219165802
0.32847535610198975 0.6984056830406189 0.99011129140853882
0.52355581521987915 0.69416326284408569 0.99190628528594971
0.70591109991073608 0.69597160816192627 0.99106264114379883
0.84771418571472168 0.70307397842407227 0.98327350616455078
0.96842747926712036 0.71735274791717529 0.969032883644104
0.029212847352027893 0.85415530204772949 0.99014377593994141
0.1775420755147934 0.85079002380371094 0.99013477563858032
0.34380427002906799 0.85218566656112671 0.9896235466003418
0.52696067094802856 0.85002857446670532 0.98997551202774048
0.70366305112838745 0.84753429889678955 0.99214619398117065
0.85697019100189209 0.84804242849349976 0.9909941554069519
0.98476207256317139 0.85701966285705566 0.98606783151626587
0.031630691140890121 0.99249356985092163 0.98990470170974731
0.18815270066261292 0.99142336845397949 0.99031883478164673
0.35382631421089172 0.99093139171600342 0.99013477563858032
0.52754449844360352 0.99026370048522949 0.99013477563858032
0.69822627305984497 0.98860293626785278 0.99132907390594482
0.85440421104431152 0.98799866437911987 0.99068236351013184
0.98959362506866455 0.98918241262435913 0.98974549770355225
