assets/lut/kylerholland kh01.cube
# Created by: G'MIC (https://gmic.eu)
TITLE "kh1"
# LUT size
LUT_3D_SIZE 7
# Data domain
DOMAIN_MIN 0.0 0.0 0.0
DOMAIN_MAX 1.0 1.0 1.0
# LUT data points
0.00061627558898180723 0.0041513927280902863 0.027335371822118759
0.10622872412204742 0.0054117836989462376 0.014097640290856361
0.26639643311500549 0.0033215242438018322 0.0036506203468888998
0.4133586585521698 0.003843838581815362 0.0012486925115808845
0.57120323181152344 0.0044763754121959209 0.001560645061545074
0.68864881992340088 0.010265873745083809 0.00066992070060223341
0.79495733976364136 0.012556951493024826 0.0026345495134592056
0.021035272628068924 0.11207656562328339 0.094178460538387299
0.14792200922966003 0.098945692181587219 0.039460726082324982
0.27407956123352051 0.10199175029993057 0.002701987512409687
0.39817109704017639 0.11805871874094009 0.00082816329086199403
0.52626246213912964 0.12978395819664001 0
0.64150875806808472 0.14536397159099579 0
0.73734217882156372 0.15803378820419312 0
0.11305727809667587 0.26654466986656189 0.18145725131034851
0.22020383179187775 0.25237208604812622 0.16783067584037781
0.36057373881340027 0.23897181451320648 0.038121871650218964
0.49882453680038452 0.25786179304122925 0.015463825315237045
0.62175267934799194 0.27360895276069641 0.00056807574583217502
0.71680784225463867 0.29493066668510437 0.00017089843458961695
0.80103296041488647 0.31496855616569519 0.0020199345890432596
0.17224995791912079 0.44302076101303101 0.22796837985515594
0.26777762174606323 0.42819511890411377 0.21953126788139343
0.38564184308052063 0.40858298540115356 0.17983388900756836
0.52030575275421143 0.39860495924949646 0.066190756857395172
0.65661007165908813 0.41355583071708679 0.021728156134486198
0.76057463884353638 0.4374026358127594 0.015639226883649826
0.85066604614257812 0.45875087380409241 0.017908986657857895
0.19462358951568604 0.63054770231246948 0.21441417932510376
0.2888411283493042 0.62906032800674438 0.21083007752895355
0.40398719906806946 0.59324318170547485 0.19477258622646332
0.52749651670455933 0.58257967233657837 0.14906644821166992
0.65211677551269531 0.58169358968734741 0.090187519788742065
0.76601946353912354 0.58827006816864014 0.066090166568756104
0.85414028167724609 0.60729146003723145 0.07081902027130127
0.19840452075004578 0.78476804494857788 0.18277472257614136
0.29774504899978638 0.78145962953567505 0.18027918040752411
0.41651299595832825 0.75102764368057251 0.16637337207794189
0.53871792554855347 0.72287511825561523 0.15264672040939331
0.66002875566482544 0.72049516439437866 0.1236983984708786
0.77057135105133057 0.72657686471939087 0.12043908983469009
0.85631096363067627 0.73409152030944824 0.12896654009819031
0.21814651787281036 0.89439558982849121 0.16836598515510559
0.3207567036151886 0.89222770929336548 0.16847145557403564
0.45078092813491821 0.86327874660491943 0.16254410147666931
0.56704318523406982 0.84004992246627808 0.15822049975395203
0.67854934930801392 0.82715517282485962 0.1593887060880661
0.78306001424789429 0.83050191402435303 0.15637262165546417
0.86089587211608887 0.83427667617797852 0.21253000199794769
0 0.019862350076436996 0.066050268709659576
0.062269322574138641 0.041608639061450958 0.12142685800790787
0.29228919744491577 0.028619473800063133 0.10914897173643112
0.47620448470115662 0.012581903487443924 0.084691070020198822
0.6389162540435791 0.015666857361793518 0.086149387061595917
0.7480894923210144 0.0039944220334291458 0.082232609391212463
0.84291547536849976 0.0041234632954001427 0.080624401569366455
0.0021395962685346603 0.12300658971071243 0.14417290687561035
0.087883338332176208 0.1419200599193573 0.16595225036144257
0.2920239269733429 0.14565470814704895 0.14580781757831573
0.4762192964553833 0.13749852776527405 0.11156833171844482
0.65666311979293823 0.13208010792732239 0.085789352655410767
0.78416937589645386 0.1302294135093689 0.070497088134288788
0.884288489818573 0.13218820095062256 0.069282427430152893
0.041266992688179016 0.27711367607116699 0.23164664208889008
0.18264354765415192 0.28375878930091858 0.23281891644001007
0.35440251231193542 0.27985879778862 0.18902315199375153
0.52602112293243408 0.28228789567947388 0.13083137571811676
0.67847877740859985 0.28912174701690674 0.089663080871105194
0.78196674585342407 0.30611059069633484 0.079432860016822815
0.86894804239273071 0.32037624716758728 0.082568705081939697
0.12888944149017334 0.44971561431884766 0.28678086400032043
0.24512508511543274 0.46363100409507751 0.27815914154052734
0.38205882906913757 0.44102045893669128 0.26252207159996033
0.5320010781288147 0.44260257482528687 0.2181401252746582
0.6787257194519043 0.45643126964569092 0.16505128145217896
0.78880065679550171 0.47403588891029358 0.14227677881717682
0.87383800745010376 0.49568197131156921 0.14637435972690582
0.16908100247383118 0.64458763599395752 0.29585152864456177
0.27544698119163513 0.6537175178527832 0.28763660788536072
0.40297180414199829 0.63744193315505981 0.28122428059577942
0.536823570728302 0.61518019437789917 0.25463142991065979
0.67102420330047607 0.62330645322799683 0.24435503780841827
0.78477823734283447 0.63459688425064087 0.23330129683017731
0.86508715152740479 0.64541065692901611 0.21855641901493073
0.186304971575737 0.79318821430206299 0.28230682015419006
0.28576764464378357 0.80089265108108521 0.27682816982269287
0.42075240612030029 0.78928101062774658 0.2768884003162384
0.55955308675765991 0.76364988088607788 0.26902776956558228
0.67762678861618042 0.75127774477005005 0.25957688689231873
0.78496247529983521 0.75655961036682129 0.26477831602096558
0.87700289487838745 0.76271772384643555 0.28107914328575134
0.21171742677688599 0.90389096736907959 0.28614842891693115
0.32048559188842773 0.90655988454818726 0.28476780652999878
0.45724362134933472 0.89680308103561401 0.2872125506401062
0.58613640069961548 0.87604790925979614 0.28589844703674316
0.69410836696624756 0.85407501459121704 0.2923247218132019
0.79724127054214478 0.85193926095962524 0.28864482045173645
0.88097977638244629 0.85609304904937744 0.30112347006797791
0 0.058015875518321991 0.1084439605474472
0.0013205884024500847 0.10259279608726501 0.17147749662399292
0.19700798392295837 0.11157112568616867 0.24171672761440277
0.3925052285194397 0.094319015741348267 0.25661709904670715
0.60852134227752686 0.070857599377632141 0.24842873215675354
0.77032148838043213 0.050787024199962616 0.23906880617141724
0.87546628713607788 0.029104121029376984 0.23107366263866425
0 0.14276966452598572 0.18290778994560242
0.010465539991855621 0.18138237297534943 0.23292520642280579
0.2067461758852005 0.20374394953250885 0.30228081345558167
0.44060307741165161 0.19749519228935242 0.28587418794631958
0.66629946231842041 0.17872540652751923 0.26943808794021606
0.81538647413253784 0.16680909693241119 0.25698846578598022
0.9269791841506958 0.16514293849468231 0.25021880865097046
0.010114348493516445 0.27613812685012817 0.28348609805107117
0.068421445786952972 0.30957761406898499 0.32687512040138245
0.25554373860359192 0.33495762944221497 0.36991766095161438
0.49688959121704102 0.34011098742485046 0.33923637866973877
0.6790204644203186 0.34808057546615601 0.32723471522331238
0.81625193357467651 0.35052058100700378 0.3068719208240509
0.91438347101211548 0.3587796688079834 0.29564055800437927
0.04269656166434288 0.45592081546783447 0.35755220055580139
0.15557225048542023 0.48225179314613342 0.3881734311580658
0.34872987866401672 0.50224322080612183 0.40576314926147461
0.52604907751083374 0.49619150161743164 0.38810479640960693
0.68848854303359985 0.51519548892974854 0.36568549275398254
0.8056187629699707 0.53022158145904541 0.34052428603172302
0.89181709289550781 0.54713946580886841 0.33779704570770264
0.097714461386203766 0.6470102071762085 0.39246514439582825
0.22625941038131714 0.67007464170455933 0.41394862532615662
0.3851262629032135 0.68438595533370972 0.42057517170906067
0.55060219764709473 0.6679762601852417 0.41530695557594299
0.68716537952423096 0.66610592603683472 0.41087320446968079
0.79974174499511719 0.67750829458236694 0.40573304891586304
0.88125300407409668 0.6895936131477356 0.39413592219352722
0.15445861220359802 0.79856401681900024 0.41348567605018616
0.27148067951202393 0.8095516562461853 0.42919951677322388
0.42104947566986084 0.81429010629653931 0.43173742294311523
0.57322800159454346 0.80816841125488281 0.428060382604599
0.69881254434585571 0.78849846124649048 0.42918235063552856
0.80463075637817383 0.7899477481842041 0.44128763675689697
0.88825637102127075 0.79343771934509277 0.44760808348655701
0.19981890916824341 0.91023892164230347 0.43446841835975647
0.31453362107276917 0.9146653413772583 0.44344565272331238
0.45822227001190186 0.91693437099456787 0.44931119680404663
0.59755253791809082 0.91419136524200439 0.44542637467384338
0.72116249799728394 0.89084172248840332 0.45015239715576172
0.81244605779647827 0.87523889541625977 0.45828673243522644
0.89089119434356689 0.87508702278137207 0.46556216478347778
0 0.098307639360427856 0.14960958063602448
0.00027474795933812857 0.13825070858001709 0.20359392464160919
0.056350290775299072 0.19226613640785217 0.30180901288986206
0.31967085599899292 0.17149385809898376 0.35655218362808228
0.50335514545440674 0.15216366946697235 0.39457458257675171
0.67723679542541504 0.13715203106403351 0.41030183434486389
0.8073190450668335 0.1105373278260231 0.40874847769737244
0 0.17601172626018524 0.22170469164848328
0.0050292517989873886 0.2147541344165802 0.27750727534294128
0.089894719421863556 0.25531649589538574 0.35934969782829285
0.34875282645225525 0.25162205100059509 0.41804453730583191
0.55513787269592285 0.24881389737129211 0.4371877908706665
0.73807746171951294 0.22623594105243683 0.44458940625190735
0.88144367933273315 0.20451943576335907 0.43862178921699524
0.00035481172380968928 0.29003417491912842 0.33180129528045654
0.031126208603382111 0.33669066429138184 0.39535939693450928
0.18069261312484741 0.3708551824092865 0.45867407321929932
0.40644088387489319 0.38650622963905334 0.52601760625839233
0.64906829595565796 0.37852907180786133 0.50156587362289429
0.81598889827728271 0.37065047025680542 0.48861417174339294
0.93018513917922974 0.36539733409881592 0.47372254729270935
0.0010807261569425464 0.44043049216270447 0.43782716989517212
0.068396598100662231 0.48786810040473938 0.49410998821258545
0.26967278122901917 0.51831436157226562 0.54207140207290649
0.45793864130973816 0.54585272073745728 0.58013862371444702
0.69655627012252808 0.54880201816558838 0.54462939500808716
0.82686710357666016 0.55587315559387207 0.53007036447525024
0.91699165105819702 0.56454086303710938 0.51744133234024048
0.037361700087785721 0.63642615079879761 0.50065362453460693
0.15334956347942352 0.66634738445281982 0.53167843818664551
0.33965796232223511 0.69141846895217896 0.56663912534713745
0.54524475336074829 0.7097356915473938 0.58566701412200928
0.7005695104598999 0.70089042186737061 0.58752095699310303
0.814300537109375 0.71329718828201294 0.57947337627410889
0.90135830640792847 0.72292792797088623 0.5600476861000061
0.080622367560863495 0.79404008388519287 0.52869200706481934
0.22383509576320648 0.80879116058349609 0.55660450458526611
0.39187440276145935 0.82556647062301636 0.58749973773956299
0.57127183675765991 0.8321535587310791 0.60060316324234009
0.71392261981964111 0.82199966907501221 0.60114443302154541
0.81971746683120728 0.81506592035293579 0.61305505037307739
0.90436965227127075 0.82209628820419312 0.61143159866333008
0.15630494058132172 0.90819400548934937 0.55665069818496704
0.28922432661056519 0.91333091259002686 0.58587414026260376
0.44139271974563599 0.92323952913284302 0.60301250219345093
0.59564441442489624 0.92981523275375366 0.61396646499633789
0.73432016372680664 0.92205840349197388 0.61492139101028442
0.83020031452178955 0.89828050136566162 0.61912751197814941
0.91016560792922974 0.90331470966339111 0.62659972906112671
0 0.14007304608821869 0.19219838082790375
0 0.17312684655189514 0.23799952864646912
0.0069542829878628254 0.22972628474235535 0.32793620228767395
0.20513905584812164 0.260141521692276 0.48733812570571899
0.45975801348686218 0.21776708960533142 0.4981987476348877
0.60381275415420532 0.19632388651371002 0.53987360000610352
0.73144209384918213 0.17422406375408173 0.55851978063583374
0 0.20868369936943054 0.26102542877197266
0.0037746503949165344 0.24746891856193542 0.32086649537086487
0.04140765592455864 0.28668051958084106 0.39699801802635193
0.24481856822967529 0.31976285576820374 0.56597805023193359
0.5065310001373291 0.29194110631942749 0.55941110849380493
0.6572871208190918 0.28485116362571716 0.58973497152328491
0.79853260517120361 0.26220604777336121 0.60472393035888672
0 0.32033583521842957 0.38935503363609314
0.0096891811117529869 0.3548046350479126 0.45232778787612915
0.13996395468711853 0.40511369705200195 0.52731806039810181
0.31704682111740112 0.43929195404052734 0.65093380212783813
0.58154380321502686 0.42564702033996582 0.65171575546264648
0.73697727918624878 0.42346256971359253 0.65690481662750244
0.86285465955734253 0.40633442997932434 0.66522598266601562
0 0.45197227597236633 0.51916050910949707
0.030943581834435463 0.50750744342803955 0.6039244532585144
0.21929876506328583 0.54277080297470093 0.64848428964614868
0.41520264744758606 0.58141160011291504 0.68391901254653931
0.64647924900054932 0.58392530679702759 0.7237669825553894
0.80006307363510132 0.57975417375564575 0.70619630813598633
0.92542952299118042 0.56940549612045288 0.69727349281311035
0.0043755923397839069 0.64102679491043091 0.62974351644515991
0.11022669821977615 0.67313510179519653 0.67008876800537109
0.29111501574516296 0.69339931011199951 0.69323539733886719
0.50055724382400513 0.71507757902145386 0.72572463750839233
0.69346356391906738 0.73402237892150879 0.74810725450515747
0.83242255449295044 0.73384630680084229 0.73063802719116211
0.9284435510635376 0.73996639251708984 0.71761524677276611
0.053375888615846634 0.78800618648529053 0.65147113800048828
0.18132604658603668 0.80359184741973877 0.67484307289123535
0.34692516922950745 0.81926572322845459 0.70032918453216553
0.54415732622146606 0.83302003145217896 0.72840046882629395
0.71508455276489258 0.84249776601791382 0.74524533748626709
0.83651250600814819 0.83947539329528809 0.75601178407669067
0.91635721921920776 0.84505534172058105 0.74987310171127319
0.13810062408447266 0.88707143068313599 0.66685026884078979
0.25969704985618591 0.90546959638595581 0.69399762153625488
0.41020393371582031 0.92287629842758179 0.72015702724456787
0.58268946409225464 0.9316483736038208 0.74353528022766113
0.7308579683303833 0.93068647384643555 0.75128668546676636
0.84121578931808472 0.92677640914916992 0.75898027420043945
0.92348021268844604 0.92110699415206909 0.76652050018310547
0 0.1769677996635437 0.23066911101341248
0 0.20816560089588165 0.27506598830223083
0.0024056229740381241 0.25940895080566406 0.36590179800987244
0.11253657937049866 0.3114396333694458 0.51367753744125366
0.40928852558135986 0.28837427496910095 0.62784135341644287
0.59811866283416748 0.24462537467479706 0.63055086135864258
0.71905374526977539 0.21406199038028717 0.66886055469512939
0 0.238385871052742 0.29907187819480896
0.00013619217497762293 0.27609729766845703 0.36421483755111694
0.030499223619699478 0.3220691978931427 0.44972896575927734
0.16741900146007538 0.36833381652832031 0.5964277982711792
0.46086671948432922 0.34349453449249268 0.70914500951766968
0.64410901069641113 0.3183605968952179 0.6817285418510437
0.7634463906288147 0.30099636316299438 0.70801436901092529
0 0.34119895100593567 0.43290618062019348
0.0070182648487389088 0.38311105966567993 0.51478594541549683
0.12276878952980042 0.43832355737686157 0.59248155355453491
0.27631187438964844 0.48027688264846802 0.70350641012191772
0.55147784948348999 0.4548572301864624 0.80030661821365356
0.71552807092666626 0.45331722497940063 0.74960064888000488
0.81963658332824707 0.44969561696052551 0.76441317796707153
0 0.47674879431724548 0.59356957674026489
0.030124275013804436 0.52853405475616455 0.68025994300842285
0.18964877724647522 0.56995165348052979 0.71740543842315674
0.37762731313705444 0.61020904779434204 0.75581753253936768
0.61532676219940186 0.60640233755111694 0.83731424808502197
0.77090859413146973 0.60921943187713623 0.79715287685394287
0.86328375339508057 0.60992944240570068 0.80627471208572388
0.00052092311671003699 0.6502690315246582 0.72840243577957153
0.082931652665138245 0.68390214443206787 0.77212882041931152
0.2597668468952179 0.70352131128311157 0.79527533054351807
0.4576132595539093 0.7300836443901062 0.81276130676269531
0.67033320665359497 0.75143492221832275 0.82959586381912231
0.81687802076339722 0.75351238250732422 0.83500915765762329
0.91429489850997925 0.74752545356750488 0.82917165756225586
0.026876471936702728 0.79139351844787598 0.76706206798553467
0.13666580617427826 0.806415855884552 0.78680086135864258
0.31355321407318115 0.81739729642868042 0.80299657583236694
0.50640016794204712 0.83292758464813232 0.82050389051437378
0.69642108678817749 0.84610992670059204 0.83978450298309326
0.83956962823867798 0.8543439507484436 0.85197705030441284
0.93301582336425781 0.85838061571121216 0.8465806245803833
0.13958406448364258 0.8791700005531311 0.76748114824295044
0.22856692969799042 0.8857232928276062 0.78552913665771484
0.39926284551620483 0.90898233652114868 0.80641782283782959
0.5424838662147522 0.92102587223052979 0.82313472032546997
0.72089499235153198 0.93730109930038452 0.84280157089233398
0.84773367643356323 0.9456402063369751 0.85753178596496582
0.9286191463470459 0.93154704570770264 0.85951083898544312
0 0.22039234638214111 0.28323137760162354
0 0.23866352438926697 0.31674662232398987
0.006585992407053709 0.29765757918357849 0.42568477988243103
0.089960552752017975 0.35010808706283569 0.57156264781951904
0.32527345418930054 0.3508838415145874 0.77261507511138916
0.5736272931098938 0.31361138820648193 0.71085548400878906
0.72358518838882446 0.25669535994529724 0.74570661783218384
0 0.2720949649810791 0.35083946585655212
0.0025006313808262348 0.30186700820922852 0.40883445739746094
0.032151062041521072 0.35797137022018433 0.507912278175354
0.12981471419334412 0.41105720400810242 0.64953690767288208
0.38435810804367065 0.39623460173606873 0.83788424730300903
0.63010632991790771 0.36466431617736816 0.76826119422912598
0.76549577713012695 0.33079832792282104 0.78565007448196411
0 0.37282690405845642 0.50050234794616699
0.0072390236891806126 0.41544249653816223 0.5758478045463562
0.10777891427278519 0.47092270851135254 0.65175575017929077
0.23720841109752655 0.51711004972457886 0.76100426912307739
0.49064537882804871 0.49631574749946594 0.90140461921691895
0.71127194166183472 0.47625049948692322 0.83625966310501099
0.81293028593063354 0.47169375419616699 0.83091872930526733
0 0.5011143684387207 0.6697266697883606
0.018994186073541641 0.55681109428405762 0.74368226528167725
0.14938339591026306 0.60063004493713379 0.7849922776222229
0.31216311454772949 0.63936948776245117 0.83959692716598511
0.58059895038604736 0.63020163774490356 0.91520965099334717
0.76761734485626221 0.62174946069717407 0.89722347259521484
0.85023593902587891 0.62999004125595093 0.86956989765167236
0.00021164838108234107 0.66382110118865967 0.8117746114730835
0.068889692425727844 0.69360059499740601 0.83609366416931152
0.212040975689888 0.7226594090461731 0.86163586378097534
0.40596893429756165 0.75324666500091553 0.87934595346450806
0.63773238658905029 0.76704549789428711 0.89713627099990845
0.80775648355484009 0.76383078098297119 0.93372851610183716
0.88308870792388916 0.76232844591140747 0.89286720752716064
0.018877919763326645 0.79660850763320923 0.85801076889038086
0.13141405582427979 0.80706369876861572 0.87264114618301392
0.29786613583564758 0.82485687732696533 0.89027327299118042
0.48040196299552917 0.83975386619567871 0.90278089046478271
0.66598063707351685 0.85598433017730713 0.91178488731384277
0.81937015056610107 0.86705052852630615 0.92248356342315674
0.92079263925552368 0.86986637115478516 0.92612063884735107
0.14229902625083923 0.87742012739181519 0.85486108064651489
0.24399097263813019 0.88801872730255127 0.86656594276428223
0.38572371006011963 0.9020153284072876 0.8843570351600647
0.55336928367614746 0.91463953256607056 0.89993894100189209
0.71572870016098022 0.92815709114074707 0.91182345151901245
0.8461003303527832 0.94247138500213623 0.93046337366104126
0.94079554080963135 0.94969958066940308 0.94079107046127319
