assets/lut/kylerholland kh01.cube
# Created by: G'MIC (https://gmic.eu)
TITLE "kh1"
# LUT size
LUT_3D_SIZE 13
# Data domain
DOMAIN_MIN 0.0 0.0 0.0
DOMAIN_MAX 1.0 1.0 1.0
# LUT data points
0.00061627558898180723 0.0041513927280902863 0.027335371822118759
0.024254413321614265 0.0061383415013551712 0.021843075752258301
0.10622872412204742 0.0054117836989462376 0.014097640290856361
0.19554366171360016 0.0062476363964378834 0.0087558375671505928
0.26639643311500549 0.0033215242438018322 0.0036506203468888998
0.33518970012664795 0.0030665528029203415 0.0022980633657425642
0.4133586585521698 0.003843838581815362 0.0012486925115808845
0.49599862098693848 0.0038792479317635298 0.0010478150798007846
0.57120323181152344 0.0044763754121959209 0.001560645061545074
0.63352662324905396 0.0092441635206341743 0.0018449671333655715
0.68864881992340088 0.010265873745083809 0.00066992070060223341
0.74209481477737427 0.014356291852891445 0.0015153473941609263
0.79495733976364136 0.012556951493024826 0.0026345495134592056
0.0043911952525377274 0.042434077709913254 0.052650883793830872
0.037164501845836639 0.040194433182477951 0.039999239146709442
0.10876623541116714 0.036034930497407913 0.017735021188855171
0.18391373753547668 0.03721865639090538 0.0075742234475910664
0.24039940536022186 0.038418743759393692 0.0051145367324352264
0.30179360508918762 0.040423315018415451 0.0035560906399041414
0.36749723553657532 0.038662418723106384 0.00073085114127025008
0.44083461165428162 0.040336444973945618 0.00024524764739908278
0.50976204872131348 0.041494376957416534 0.00033003863063640893
0.57161110639572144 0.044648654758930206 0.00066570210037752986
0.63556432723999023 0.051294170320034027 2.5132123482762836e-05
0.68963497877120972 0.055428598076105118 0
0.73167437314987183 0.055282413959503174 1.7697202565614134e-05
0.021035272628068924 0.11207656562328339 0.094178460538387299
0.076427310705184937 0.11081390082836151 0.088860757648944855
0.14792200922966003 0.098945692181587219 0.039460726082324982
0.22062835097312927 0.098044663667678833 0.0059187198057770729
0.27407956123352051 0.10199175029993057 0.002701987512409687
0.33350643515586853 0.11104089766740799 0.003511705668643117
0.39817109704017639 0.11805871874094009 0.00082816329086199403
0.46282526850700378 0.12014444172382355 0
0.52626246213912964 0.12978395819664001 0
0.58416301012039185 0.13506530225276947 0
0.64150875806808472 0.14536397159099579 0
0.69291877746582031 0.154597207903862 0
0.73734217882156372 0.15803378820419312 0
0.070024676620960236 0.19135989248752594 0.14250822365283966
0.11924178153276443 0.18637944757938385 0.13929310441017151
0.18633593618869781 0.177837073802948 0.11019248515367508
0.26366147398948669 0.17004750669002533 0.035573653876781464
0.32502081990242004 0.17124445736408234 0.0098909717053174973
0.3896518349647522 0.18360409140586853 0.012175003066658974
0.45419815182685852 0.1925864964723587 0.0078268013894557953
0.51937735080718994 0.19766469299793243 0.00077578972559422255
0.5767633318901062 0.20785114169120789 0
0.631450355052948 0.21704639494419098 0
0.68044084310531616 0.22784878313541412 0
0.72888839244842529 0.23800784349441528 0
0.76454490423202515 0.24695245921611786 0
0.11305727809667587 0.26654466986656189 0.18145725131034851
0.16011768579483032 0.2625640332698822 0.17876943945884705
0.22020383179187775 0.25237208604812622 0.16783067584037781
0.2895146906375885 0.24656488001346588 0.1170484647154808
0.36057373881340027 0.23897181451320648 0.038121871650218964
0.42768305540084839 0.24918964505195618 0.026506761088967323
0.49882453680038452 0.25786179304122925 0.015463825315237045
0.56636899709701538 0.26458770036697388 0.0029025657568126917
0.62175267934799194 0.27360895276069641 0.00056807574583217502
0.67182093858718872 0.28395822644233704 0
0.71680784225463867 0.29493066668510437 0.00017089843458961695
0.76281988620758057 0.30562618374824524 7.0908492489252239e-05
0.80103296041488647 0.31496855616569519 0.0020199345890432596
0.14769160747528076 0.34812575578689575 0.21031419932842255
0.19356663525104523 0.34742295742034912 0.20792217552661896
0.24896569550037384 0.33050757646560669 0.20196564495563507
0.31181234121322632 0.32566347718238831 0.18022206425666809
0.37575393915176392 0.3200041651725769 0.12296535819768906
0.44601255655288696 0.31628802418708801 0.058547839522361755
0.52003192901611328 0.32057777047157288 0.023898554965853691
0.59154760837554932 0.3289235532283783 0.0076337326318025589
0.64764326810836792 0.3418128490447998 0.0060069216415286064
0.69849491119384766 0.35177245736122131 0.0018615572480484843
0.74264794588088989 0.36340883374214172 0.0035748800728470087
0.78824317455291748 0.37399166822433472 0.0030898149125277996
0.83207440376281738 0.38517504930496216 0.0073597030714154243
0.17224995791912079 0.44302076101303101 0.22796837985515594
0.21379117667675018 0.44408494234085083 0.2229497879743576
0.26777762174606323 0.42819511890411377 0.21953126788139343
0.32800227403640747 0.4101429283618927 0.20775347948074341
0.38564184308052063 0.40858298540115356 0.17983388900756836
0.4487108588218689 0.40526974201202393 0.13346390426158905
0.52030575275421143 0.39860495924949646 0.066190756857395172
0.59630125761032104 0.40131273865699768 0.02912687323987484
0.65661007165908813 0.41355583071708679 0.021728156134486198
0.71299219131469727 0.42391100525856018 0.014686464332044125
0.76057463884353638 0.4374026358127594 0.015639226883649826
0.80564266443252563 0.44885745644569397 0.016233600676059723
0.85066604614257812 0.45875087380409241 0.017908986657857895
0.1863221675157547 0.54234451055526733 0.22685930132865906
0.2262963205575943 0.54160815477371216 0.22448806464672089
0.27802380919456482 0.53687185049057007 0.22178420424461365
0.33774018287658691 0.51502060890197754 0.21249483525753021
0.39585936069488525 0.50260835886001587 0.19598263502120972
0.45506212115287781 0.50125068426132202 0.16855151951313019
0.52013152837753296 0.49882954359054565 0.12729173898696899
0.59263664484024048 0.49785932898521423 0.084859199821949005
0.65524035692214966 0.49790123105049133 0.056416995823383331
0.71278423070907593 0.50409144163131714 0.040460024029016495
0.76881402730941772 0.51595091819763184 0.03666933998465538
0.81729602813720703 0.52586442232131958 0.030495049431920052
0.85376930236816406 0.53238385915756226 0.037234976887702942
0.19462358951568604 0.63054770231246948 0.21441417932510376
0.23538491129875183 0.63485521078109741 0.21293734014034271
0.2888411283493042 0.62906032800674438 0.21083007752895355
0.34757110476493835 0.61110973358154297 0.20496846735477448
0.40398719906806946 0.59324318170547485 0.19477258622646332
0.46314272284507751 0.58407086133956909 0.17607322335243225
0.52749651670455933 0.58257967233657837 0.14906644821166992
0.59119778871536255 0.58146613836288452 0.11708903312683105
0.65211677551269531 0.58169358968734741 0.090187519788742065
0.70987379550933838 0.58346158266067505 0.073429226875305176
0.76601946353912354 0.58827006816864014 0.066090166568756104
0.81809854507446289 0.59749120473861694 0.060756966471672058
0.85414028167724609 0.60729146003723145 0.07081902027130127
0.19633591175079346 0.71417301893234253 0.19766217470169067
0.23983800411224365 0.71407681703567505 0.19688019156455994
0.29577910900115967 0.70889288187026978 0.19530497491359711
0.35433349013328552 0.69329273700714111 0.19089342653751373
0.40975388884544373 0.67608827352523804 0.18222111463546753
0.46914362907409668 0.66307735443115234 0.17235802114009857
0.53248268365859985 0.65592795610427856 0.15725314617156982
0.59378135204315186 0.65336304903030396 0.12864667177200317
0.65330308675765991 0.6546369194984436 0.10715671628713608
0.70945948362350464 0.65545368194580078 0.098366998136043549
0.76556259393692017 0.65927708148956299 0.088244371116161346
0.81780827045440674 0.66485190391540527 0.095666892826557159
0.85552585124969482 0.67326551675796509 0.11037148535251617
0.19840452075004578 0.78476804494857788 0.18277472257614136
0.24113887548446655 0.78706938028335571 0.17884205281734467
0.29774504899978638 0.78145962953567505 0.18027918040752411
0.35779252648353577 0.76877176761627197 0.17688475549221039
0.41651299595832825 0.75102764368057251 0.16637337207794189
0.47924870252609253 0.73300045728683472 0.16192835569381714
0.53871792554855347 0.72287511825561523 0.15264672040939331
0.60018563270568848 0.72081559896469116 0.13832031190395355
0.66002875566482544 0.72049516439437866 0.1236983984708786
0.71569633483886719 0.7221340537071228 0.11722413450479507
0.77057135105133057 0.72657686471939087 0.12043908983469009
0.821338951587677 0.72934424877166748 0.1218547597527504
0.85631096363067627 0.73409152030944824 0.12896654009819031
0.20613159239292145 0.84773319959640503 0.17472045123577118
0.25148174166679382 0.84735667705535889 0.17402109503746033
0.30849909782409668 0.84190970659255981 0.1733633279800415
0.3721611499786377 0.82816368341445923 0.16906017065048218
0.43275165557861328 0.81236588954925537 0.16289539635181427
0.49268364906311035 0.79867154359817505 0.15401041507720947
0.55129480361938477 0.78664684295654297 0.15066538751125336
0.60873770713806152 0.779044508934021 0.14663612842559814
0.66802918910980225 0.77707827091217041 0.1430627852678299
0.72356945276260376 0.77966409921646118 0.13919593393802643
0.77540445327758789 0.78319054841995239 0.14241766929626465
0.82435685396194458 0.78601104021072388 0.14659452438354492
0.86188709735870361 0.79178470373153687 0.17265942692756653
0.21814651787281036 0.89439558982849121 0.16836598515510559
0.26450890302658081 0.89541620016098022 0.17126291990280151
0.3207567036151886 0.89222770929336548 0.16847145557403564
0.3859250545501709 0.87656623125076294 0.16305510699748993
0.45078092813491821 0.86327874660491943 0.16254410147666931
0.51071649789810181 0.85253101587295532 0.15802609920501709
0.56704318523406982 0.84004992246627808 0.15822049975395203
0.62134486436843872 0.83097743988037109 0.15855227410793304
0.67854934930801392 0.82715517282485962 0.1593887060880661
0.73395133018493652 0.82812631130218506 0.15603011846542358
0.78306001424789429 0.83050191402435303 0.15637262165546417
0.8270190954208374 0.83324342966079712 0.16892658174037933
0.86089587211608887 0.83427667617797852 0.21253000199794769
2.1541820842685411e-06 0.0081178108230233192 0.048235591500997543
0.013190490193665028 0.014077115803956985 0.063624739646911621
0.10440289229154587 0.01530900876969099 0.059515349566936493
0.21355696022510529 0.011925895698368549 0.046477507799863815
0.30001473426818848 0.0082819024100899696 0.03520507737994194
0.378053218126297 0.0075490912422537804 0.029078209772706032
0.46059435606002808 0.010369588620960712 0.024379430338740349
0.54337435960769653 0.0076593137346208096 0.020825630053877831
0.61748665571212769 0.0056392895057797432 0.019555199891328812
0.67835336923599243 0.0042945113964378834 0.017800604924559593
0.73283392190933228 0.0019755642861127853 0.018874777480959892
0.78558337688446045 0.005606677383184433 0.018315497785806656
0.82443612813949585 0.0046627568081021309 0.01614716462790966
0.0019676806405186653 0.048285406082868576 0.07850145548582077
0.015080290846526623 0.055628400295972824 0.085978597402572632
0.093798331916332245 0.056361868977546692 0.077164791524410248
0.19633540511131287 0.053568895906209946 0.060785643756389618
0.27854833006858826 0.050079718232154846 0.048627950251102448
0.35151541233062744 0.047147445380687714 0.037154778838157654
0.42460069060325623 0.038801785558462143 0.020765597000718117
0.51098960638046265 0.033779758960008621 0.01459033414721489
0.57394427061080933 0.034787241369485855 0.014989067800343037
0.63743221759796143 0.032192125916481018 0.012594185769557953
0.70207482576370239 0.031549014151096344 0.010137654840946198
0.76161062717437744 0.038399521261453629 0.0091133862733840942
0.80829960107803345 0.037631988525390625 0.0088619161397218704
0.0063746585510671139 0.11680175364017487 0.1181994155049324
0.050255347043275833 0.12019747495651245 0.11913395673036575
0.13694030046463013 0.11830590665340424 0.09848620742559433
0.23080936074256897 0.11471258103847504 0.059973563998937607
0.30312615633010864 0.10905709117650986 0.036544620990753174
0.37067577242851257 0.10877338796854019 0.023069374263286591
0.43886685371398926 0.11006733030080795 0.011797422543168068
0.5030360221862793 0.11329717934131622 0.0093235541135072708
0.56810015439987183 0.11660365760326385 0.0056996215134859085
0.62831288576126099 0.11895186454057693 0.0046235476620495319
0.68227440118789673 0.12862509489059448 0.0042795068584382534
0.73067003488540649 0.13481490314006805 0.002768602455034852
0.78384584188461304 0.1360158771276474 0.0026884190738201141
0.037312764674425125 0.19444851577281952 0.16346569359302521
0.098244234919548035 0.19820715487003326 0.1634322851896286
0.1754109263420105 0.19201648235321045 0.15022239089012146
0.26353663206100464 0.18618176877498627 0.095176264643669128
0.34226900339126587 0.18026793003082275 0.043305832892656326
0.41245022416114807 0.18206454813480377 0.019269650802016258
0.47809740900993347 0.18999248743057251 0.014034016989171505
0.54339277744293213 0.19737936556339264 0.0075270859524607658
0.59835338592529297 0.20340399444103241 0.0022322561126202345
0.6509442925453186 0.21333557367324829 0.0040829977951943874
0.69923561811447144 0.22491569817066193 0.0057136835530400276
0.7456437349319458 0.23309195041656494 0.0049719717353582382
0.78269970417022705 0.23851700127124786 0.0055673187598586082
0.08915131539106369 0.27176943421363831 0.20428352057933807
0.14223621785640717 0.27443960309028625 0.20059023797512054
0.21284665167331696 0.2647990882396698 0.19164857268333435
0.28706139326095581 0.26023650169372559 0.16077642142772675
0.36530324816703796 0.25452622771263123 0.096053272485733032
0.44091397523880005 0.25074690580368042 0.041782334446907043
0.51515489816665649 0.25625309348106384 0.019054142758250237
0.58231908082962036 0.26597398519515991 0.011424988508224487
0.63953667879104614 0.27337294816970825 0.005128523800522089
0.68607276678085327 0.28562301397323608 0.009888877160847187
0.73392170667648315 0.29555246233940125 0.0078865950927138329
0.77741509675979614 0.30417543649673462 0.0064695919863879681
0.80651372671127319 0.31324180960655212 0.012708282098174095
0.13139116764068604 0.35583773255348206 0.23296116292476654
0.17852635681629181 0.35994037985801697 0.22867737710475922
0.2430134117603302 0.34705942869186401 0.22116820514202118
0.30993783473968506 0.3382466733455658 0.20413714647293091
0.37602478265762329 0.33543151617050171 0.17067480087280273
0.45015951991081238 0.3287702202796936 0.10779439657926559
0.52908897399902344 0.32969841361045837 0.058756269514560699
0.60110867023468018 0.33698245882987976 0.031391367316246033
0.66017448902130127 0.34590628743171692 0.021039955317974091
0.71062105894088745 0.35758760571479797 0.021838678047060966
0.7578655481338501 0.36760121583938599 0.017807185649871826
0.8046410083770752 0.37731137871742249 0.012318450026214123
0.84151941537857056 0.39172554016113281 0.031348764896392822
0.16270993649959564 0.4427025318145752 0.25132355093955994
0.20415560901165009 0.45028406381607056 0.2455168217420578
0.2612990140914917 0.44307330250740051 0.23749105632305145
0.32460302114486694 0.42393073439598083 0.23029421269893646
0.38485890626907349 0.41882508993148804 0.21095171570777893
0.45077031850814819 0.41829210519790649 0.17623354494571686
0.52724093198776245 0.41540566086769104 0.12910470366477966
0.60556954145431519 0.41688641905784607 0.077510878443717957
0.66665548086166382 0.42417663335800171 0.056332800537347794
0.72232276201248169 0.43337905406951904 0.047533012926578522
0.7730642557144165 0.44592097401618958 0.046860430389642715
0.81951934099197388 0.45788836479187012 0.041481286287307739
0.86127573251724243 0.47068047523498535 0.057145826518535614
0.17613804340362549 0.54725199937820435 0.2532505989074707
0.21601422131061554 0.55245447158813477 0.24691860377788544
0.2735125720500946 0.5490567684173584 0.2421315610408783
0.3354182243347168 0.5294916033744812 0.23662775754928589
0.39596778154373169 0.51631015539169312 0.22388122975826263
0.45883908867835999 0.51142340898513794 0.19980673491954803
0.52564167976379395 0.51074373722076416 0.17658953368663788
0.5957103967666626 0.51548981666564941 0.14543196558952332
0.6626773476600647 0.5152435302734375 0.11579816043376923
0.72297948598861694 0.52123457193374634 0.10248903930187225
0.77703797817230225 0.53198134899139404 0.097253970801830292
0.82456064224243164 0.54440832138061523 0.086606435477733612
0.86101412773132324 0.5501282811164856 0.096615210175514221
0.18358311057090759 0.63648277521133423 0.24482810497283936
0.22415639460086823 0.64246940612792969 0.24069257080554962
0.28284701704978943 0.641215980052948 0.23676973581314087
0.34419077634811401 0.62775665521621704 0.23304696381092072
0.40395894646644592 0.61274653673171997 0.22750970721244812
0.4670003354549408 0.59875118732452393 0.21322901546955109
0.53110390901565552 0.5964430570602417 0.19504249095916748
0.59600508213043213 0.59729111194610596 0.17739643156528473
0.66012418270111084 0.60078448057174683 0.16337743401527405
0.72006905078887939 0.60553455352783203 0.15455521643161774
0.77535676956176758 0.61021298170089722 0.14469340443611145
0.82473665475845337 0.61865675449371338 0.13734109699726105
0.86427396535873413 0.62904369831085205 0.14541821181774139
0.18937934935092926 0.72006255388259888 0.23469391465187073
0.23225712776184082 0.72280222177505493 0.23309636116027832
0.28699493408203125 0.72316640615463257 0.22811639308929443
0.34896215796470642 0.71166133880615234 0.22333379089832306
0.41023871302604675 0.69575625658035278 0.21827630698680878
0.4742770791053772 0.6796194314956665 0.21107834577560425
0.53962963819503784 0.67154079675674438 0.202403724193573
0.60341525077819824 0.6682131290435791 0.1861654669046402
0.66225165128707886 0.67209619283676147 0.18218570947647095
0.72039878368377686 0.67682468891143799 0.17942678928375244
0.77546793222427368 0.68066632747650146 0.17575541138648987
0.824310302734375 0.68358504772186279 0.17513264715671539
0.86632043123245239 0.69058698415756226 0.18171793222427368
0.1944558173418045 0.78763967752456665 0.22566439211368561
0.23618015646934509 0.79122012853622437 0.22240854799747467
0.29120039939880371 0.79151183366775513 0.21726563572883606
0.35624045133590698 0.78309321403503418 0.2156975269317627
0.42030131816864014 0.76700019836425781 0.2134338915348053
0.48450732231140137 0.75404930114746094 0.20733459293842316
0.54867362976074219 0.74211025238037109 0.20334108173847198
0.61098825931549072 0.73594123125076294 0.19550295174121857
0.66666328907012939 0.73425239324569702 0.19117854535579681
0.72290885448455811 0.73667114973068237 0.18973380327224731
0.77728182077407837 0.74211329221725464 0.19231663644313812
0.8275342583656311 0.74392867088317871 0.19416242837905884
0.86806219816207886 0.74644166231155396 0.20182135701179504
0.20316705107688904 0.84957504272460938 0.22211690247058868
0.24691407382488251 0.85090857744216919 0.22048203647136688
0.30548611283302307 0.85014843940734863 0.21625874936580658
0.37196296453475952 0.84245169162750244 0.2182009220123291
0.43661758303642273 0.8288225531578064 0.21707288920879364
0.50240105390548706 0.81555008888244629 0.21144610643386841
0.56325095891952515 0.80425310134887695 0.20999857783317566
0.62131446599960327 0.79609465599060059 0.20673370361328125
0.67514997720718384 0.79058104753494263 0.20606087148189545
0.72983676195144653 0.79152131080627441 0.2051813155412674
0.78244984149932861 0.79579758644104004 0.20712724328041077
0.83008593320846558 0.79839611053466797 0.21114768087863922
0.87198173999786377 0.8020331859588623 0.22159431874752045
0.21640639007091522 0.89818942546844482 0.22178079187870026
0.26111748814582825 0.90003842115402222 0.22082361578941345
0.32102268934249878 0.90031594038009644 0.2180580198764801
0.38815450668334961 0.89087057113647461 0.21792095899581909
0.45445296168327332 0.87826895713806152 0.21791921555995941
0.51746171712875366 0.86931383609771729 0.21499894559383392
0.57690548896789551 0.85653769969940186 0.21559609472751617
0.63240033388137817 0.846699059009552 0.21682654321193695
0.68592280149459839 0.83989989757537842 0.21951313316822052
0.73929345607757568 0.83881837129592896 0.22085972130298615
0.79129207134246826 0.84136801958084106 0.21929611265659332
0.83541685342788696 0.84378480911254883 0.22252444922924042
0.87082099914550781 0.84077107906341553 0.23765280842781067
0 0.019862350076436996 0.066050268709659576
0.0016291600186377764 0.036260776221752167 0.09344819188117981
0.062269322574138641 0.041608639061450958 0.12142685800790787
0.18977086246013641 0.033404048532247543 0.11429671943187714
0.29228919744491577 0.028619473800063133 0.10914897173643112
0.38203379511833191 0.023035895079374313 0.099234685301780701
0.47620448470115662 0.012581903487443924 0.084691070020198822
0.5647737979888916 0.014143296517431736 0.083564281463623047
0.6389162540435791 0.015666857361793518 0.086149387061595917
0.69995349645614624 0.0091555872932076454 0.079994291067123413
0.7480894923210144 0.0039944220334291458 0.082232609391212463
0.80306386947631836 0.0047815809957683086 0.08233458548784256
0.84291547536849976 0.0041234632954001427 0.080624401569366455
0.00037909115781076252 0.059775333851575851 0.10000892728567123
0.0029778874013572931 0.07288854569196701 0.11957082152366638
0.055872853845357895 0.082053214311599731 0.1389014720916748
0.17682240903377533 0.083555750548839569 0.13521203398704529
0.27769479155540466 0.079835124313831329 0.12565930187702179
0.3708222508430481 0.073598034679889679 0.11525917798280716
0.46387976408004761 0.063274264335632324 0.099110893905162811
0.56702107191085815 0.053479678928852081 0.089658565819263458
0.65369153022766113 0.051204096525907516 0.086104027926921844
0.71813362836837769 0.045586872845888138 0.07789987325668335
0.78390967845916748 0.03555767610669136 0.068808570504188538
0.8437390923500061 0.032147560268640518 0.068699434399604797
0.88388752937316895 0.027678022161126137 0.065189659595489502
0.0021395962685346603 0.12300658971071243 0.14417290687561035
0.012668459676206112 0.13072177767753601 0.15710198879241943
0.087883338332176208 0.1419200599193573 0.16595225036144257
0.20005621016025543 0.14837938547134399 0.160551518201828
0.2920239269733429 0.14565470814704895 0.14580781757831573
0.38324138522148132 0.14027763903141022 0.12897907197475433
0.4762192964553833 0.13749852776527405 0.11156833171844482
0.57034337520599365 0.13357876241207123 0.099834516644477844
0.65666311979293823 0.13208010792732239 0.085789352655410767
0.72664272785186768 0.12815062701702118 0.07615971565246582
0.78416937589645386 0.1302294135093689 0.070497088134288788
0.83591794967651367 0.13007594645023346 0.070306070148944855
0.884288489818573 0.13218820095062256 0.069282427430152893
0.0081754950806498528 0.19781212508678436 0.19009178876876831
0.046854984015226364 0.20629891753196716 0.19948910176753998
0.14251336455345154 0.21262024343013763 0.20298165082931519
0.23779468238353729 0.21371921896934509 0.18398363888263702
0.32938921451568604 0.21236161887645721 0.15878300368785858
0.41574722528457642 0.21088995039463043 0.13138604164123535
0.5051727294921875 0.21053163707256317 0.11435292661190033
0.5978277325630188 0.21088103950023651 0.098936401307582855
0.66756951808929443 0.21315576136112213 0.081675209105014801
0.72843652963638306 0.21718734502792358 0.073604032397270203
0.77949726581573486 0.22282576560974121 0.067818105220794678
0.82834088802337646 0.22735390067100525 0.065194331109523773
0.87630409002304077 0.23110471665859222 0.064260073006153107
0.041266992688179016 0.27711367607116699 0.23164664208889008
0.097769811749458313 0.28215977549552917 0.23584648966789246
0.18264354765415192 0.28375878930091858 0.23281891644001007
0.27171415090560913 0.27821046113967896 0.21725259721279144
0.35440251231193542 0.27985879778862 0.18902315199375153
0.44095459580421448 0.28082525730133057 0.15522080659866333
0.52602112293243408 0.28228789567947388 0.13083137571811676
