assets/lut/kylerholland kh04.cube
# Created by: G'MIC (https://gmic.eu)
TITLE "kh4"
# LUT size
LUT_3D_SIZE 5
# Data domain
DOMAIN_MIN 0.0 0.0 0.0
DOMAIN_MAX 1.0 1.0 1.0
# LUT data points
0.030644316226243973 0.022577965632081032 0.07491736114025116
0.22922545671463013 0.020057767629623413 0.072058945894241333
0.46961867809295654 0.020126612856984138 0.074758507311344147
0.7372245192527771 0.02025185339152813 0.080985680222511292
0.98707109689712524 0.023536128923296928 0.064347527921199799
0.035474859178066254 0.21452696621417999 0.095327265560626984
0.22812803089618683 0.21158495545387268 0.081584915518760681
0.47350022196769714 0.21151961386203766 0.084775112569332123
0.73555690050125122 0.21140758693218231 0.073475807905197144
0.98553919792175293 0.21928107738494873 0.095876030623912811
0.0315372534096241 0.46677792072296143 0.084718070924282074
0.22889305651187897 0.46531537175178528 0.069426186382770538
0.4724547266960144 0.46652600169181824 0.063290104269981384
0.73609930276870728 0.46624982357025146 0.062414504587650299
0.98707109689712524 0.46752223372459412 0.094852298498153687
0.028293145820498466 0.73106616735458374 0.071809567511081696
0.23512381315231323 0.73106616735458374 0.054959613829851151
0.47102290391921997 0.73106616735458374 0.074323199689388275
0.73462682962417603 0.72767496109008789 0.079671241343021393
0.98786765336990356 0.72858649492263794 0.085755370557308197
0.028773872181773186 0.9863964319229126 0.042618993669748306
0.24185411632061005 0.98707109689712524 0.057588674128055573
0.47501474618911743 0.98652726411819458 0.078406587243080139
0.73321080207824707 0.98501569032669067 0.065339736640453339
0.98707109689712524 0.98618137836456299 0.04441649466753006
0.03301665186882019 0.020192928612232208 0.31445169448852539
0.23004882037639618 0.02004610002040863 0.31053587794303894
0.47163936495780945 0.021702874451875687 0.31877446174621582
0.73890930414199829 0.020049599930644035 0.32224753499031067
0.98707109689712524 0.023273782804608345 0.32715928554534912
0.032138407230377197 0.21149802207946777 0.31206360459327698
0.22788964211940765 0.21331025660037994 0.31080359220504761
0.47276449203491211 0.21544118225574493 0.32076355814933777
0.73890930414199829 0.21212330460548401 0.30923706293106079
0.98707109689712524 0.21596625447273254 0.31900486350059509
0.028725747019052505 0.46666666865348816 0.31199455261230469
0.22784779965877533 0.46666666865348816 0.31579646468162537
0.47239983081817627 0.46693626046180725 0.31996303796768188
0.73755693435668945 0.46862736344337463 0.31883513927459717
0.98559415340423584 0.46561974287033081 0.31765806674957275
0.025318339467048645 0.73106616735458374 0.31617939472198486
0.22610646486282349 0.73106616735458374 0.31731382012367249
0.46951937675476074 0.72944778203964233 0.33278897404670715
0.73682630062103271 0.72860598564147949 0.32702705264091492
0.98707109689712524 0.7292901873588562 0.32801327109336853
0.026388654485344887 0.98707109689712524 0.29870474338531494
0.23484551906585693 0.98672747611999512 0.31853684782981873
0.47249209880828857 0.98537194728851318 0.33139386773109436
0.7335239052772522 0.98474264144897461 0.3179967999458313
0.98707109689712524 0.98575657606124878 0.30812090635299683
0.034619469195604324 0.01522674597799778 0.51978647708892822
0.23893490433692932 0.013658531010150909 0.5135771632194519
0.47130566835403442 0.013683348894119263 0.50981378555297852
0.7348473072052002 0.015910997986793518 0.50819182395935059
0.98707109689712524 0.021170252934098244 0.50710880756378174
0.033698767423629761 0.21151961386203766 0.51345193386077881
0.23329046368598938 0.21151961386203766 0.50980395078659058
0.46829831600189209 0.21520897746086121 0.50999665260314941
0.73558622598648071 0.21557042002677917 0.50129216909408569
0.98707109689712524 0.21842913329601288 0.50389599800109863
0.027486508712172508 0.46629902720451355 0.51381373405456543
0.23199707269668579 0.46644362807273865 0.51327812671661377
0.47442606091499329 0.46665644645690918 0.51533854007720947
0.73890769481658936 0.46670201420783997 0.50923615694046021
0.98707109689712524 0.46415457129478455 0.5078691840171814
0.023957541212439537 0.73130267858505249 0.51443839073181152
0.22894550859928131 0.73064571619033813 0.51392453908920288
0.47450980544090271 0.72786027193069458 0.51552951335906982
0.73713940382003784 0.72969049215316772 0.51166915893554688
0.98707109689712524 0.73106616735458374 0.51709091663360596
0.022814612835645676 0.98707109689712524 0.51300638914108276
0.23139367997646332 0.98653358221054077 0.5160636305809021
0.47465643286705017 0.9848325252532959 0.52085733413696289
0.73498427867889404 0.98541998863220215 0.51785361766815186
0.98636859655380249 0.98707109689712524 0.51992338895797729
0.028874998912215233 0.016109362244606018 0.75316393375396729
0.23910178244113922 0.011750089935958385 0.7509346604347229
0.47224223613739014 0.011221852153539658 0.7470054030418396
0.73106616735458374 0.014234296046197414 0.74365246295928955
0.98559486865997314 0.019902771338820457 0.74569910764694214
0.02603861503303051 0.21661488711833954 0.74964290857315063
0.22833962738513947 0.21544118225574493 0.74802732467651367
0.46667394042015076 0.21581359207630157 0.7448464035987854
0.73252850770950317 0.21936489641666412 0.74197161197662354
0.98610502481460571 0.22032180428504944 0.74822688102722168
0.024863988161087036 0.46567219495773315 0.74642467498779297
0.22542880475521088 0.4687538743019104 0.745819091796875
0.47201764583587646 0.46666666865348816 0.74550586938858032
0.73890930414199829 0.46683266758918762 0.74425125122070312
0.98786765336990356 0.463937908411026 0.74826574325561523
0.025029290467500687 0.73169392347335815 0.74417012929916382
0.22866429388523102 0.73106616735458374 0.74328082799911499
0.47249037027359009 0.72740989923477173 0.74603939056396484
0.73684132099151611 0.72959893941879272 0.745106041431427
0.98710662126541138 0.73026257753372192 0.7462887167930603
0.024044860154390335 0.98707109689712524 0.74607807397842407
0.23465040326118469 0.98707109689712524 0.74448949098587036
0.47473540902137756 0.98553919792175293 0.74688982963562012
0.73498773574829102 0.98553919792175293 0.74768638610839844
0.98644840717315674 0.98721516132354736 0.74687463045120239
0.028649991378188133 0.024353312328457832 0.98845124244689941
0.24418333172798157 0.014858754351735115 0.98860293626785278
0.47744715213775635 0.012773940339684486 0.98792600631713867
0.73232430219650269 0.017560187727212906 0.98786765336990356
0.98669981956481934 0.026593063026666641 0.98780196905136108
0.026248244568705559 0.22365640103816986 0.98862570524215698
0.23318105936050415 0.21823152899742126 0.98792761564254761
0.4676564633846283 0.21798452734947205 0.98709732294082642
0.73050802946090698 0.22730103135108948 0.98780637979507446
0.98581302165985107 0.23616516590118408 0.98978632688522339
0.026225490495562553 0.46204900741577148 0.98747187852859497
0.22905129194259644 0.46281081438064575 0.98684221506118774
0.46826574206352234 0.4646131694316864 0.98707109689712524
0.73424500226974487 0.46898642182350159 0.9878116250038147
0.98743391036987305 0.47328910231590271 0.9897230863571167
0.026225490495562553 0.72815620899200439 0.98614192008972168
0.22919803857803345 0.72940850257873535 0.98553919792175293
0.46751159429550171 0.72877979278564453 0.98683458566665649
0.73640197515487671 0.72714459896087646 0.98854637145996094
0.98786765336990356 0.7307438850402832 0.98854458332061768
0.028152346611022949 0.98633581399917603 0.98738968372344971
0.23926994204521179 0.98707109689712524 0.9862821102142334
0.47594970464706421 0.9858086109161377 0.98711657524108887
0.73531675338745117 0.98474264144897461 0.98843258619308472
0.98707109689712524 0.98663681745529175 0.9874454140663147
