assets/lut/ohadperetz vintage warmth 1.cube
# Created by: G'MIC (https://gmic.eu)
TITLE "vintage_warmth_1"
# LUT size
LUT_3D_SIZE 5
# Data domain
DOMAIN_MIN 0.0 0.0 0.0
DOMAIN_MAX 1.0 1.0 1.0
# LUT data points
0.059053592383861542 0.055154778063297272 0.054820101708173752
0.069568336009979248 0.054025895893573761 0.050844542682170868
0.42549708485603333 0.071757867932319641 0.069230489432811737
0.74441051483154297 0.26137396693229675 0.19842496514320374
0.79392677545547485 0.35003882646560669 0.21047514677047729
0.053685955703258514 0.061468474566936493 0.056107241660356522
0.079703614115715027 0.07849603146314621 0.060201309621334076
0.45057499408721924 0.11148981004953384 0.073684796690940857
0.75917059183120728 0.30466058850288391 0.19799694418907166
0.80882519483566284 0.38012337684631348 0.20877626538276672
0.037764888256788254 0.27743244171142578 0.13580635190010071
0.069725945591926575 0.2839844822883606 0.13061618804931641
0.4288695752620697 0.32660269737243652 0.073377378284931183
0.77111721038818359 0.47481513023376465 0.16663557291030884
0.80825150012969971 0.51745390892028809 0.1749410480260849
0.075034737586975098 0.63221955299377441 0.26806503534317017
0.11278765648603439 0.65641087293624878 0.26685112714767456
0.38252276182174683 0.7483101487159729 0.24050429463386536
0.75199741125106812 0.74093550443649292 0.17234598100185394
0.79537010192871094 0.71894431114196777 0.15873280167579651
0.13824672996997833 0.88909578323364258 0.36367517709732056
0.16623832285404205 0.90030950307846069 0.35728269815444946
0.35922354459762573 0.92638486623764038 0.32940232753753662
0.71507114171981812 0.95561540126800537 0.31656661629676819
0.81814777851104736 0.95249319076538086 0.28755480051040649
0.05115775391459465 0.063570447266101837 0.067609511315822601
0.067958638072013855 0.068180114030838013 0.07094179093837738
0.40208786725997925 0.07583242654800415 0.086872652173042297
0.74212849140167236 0.26509267091751099 0.22080355882644653
0.80115878582000732 0.3563055694103241 0.2360481321811676
0.058185726404190063 0.073926277458667755 0.076520897448062897
0.08492172509431839 0.085346966981887817 0.080763272941112518
0.4444173276424408 0.1140371710062027 0.090884983539581299
0.75488173961639404 0.30631455779075623 0.22042699158191681
0.81002819538116455 0.37697511911392212 0.23450210690498352
0.038621116429567337 0.27322158217430115 0.16939643025398254
0.072030864655971527 0.2875639796257019 0.16452720761299133
0.43427962064743042 0.32686623930931091 0.099662065505981445
0.77481061220169067 0.47391462326049805 0.19244915246963501
0.81361716985702515 0.51406693458557129 0.20097823441028595
0.084863416850566864 0.64277786016464233 0.30347457528114319
0.11720388382673264 0.6561780571937561 0.29765310883522034
0.35520485043525696 0.74565374851226807 0.26398155093193054
0.75762641429901123 0.74141687154769897 0.19849637150764465
0.79810363054275513 0.71906936168670654 0.18384648859500885
0.14008079469203949 0.88982528448104858 0.38583624362945557
0.16953420639038086 0.89644694328308105 0.38233175873756409
0.33741456270217896 0.93079495429992676 0.35415324568748474
0.7186431884765625 0.96164155006408691 0.34313708543777466
0.83249843120574951 0.95899796485900879 0.33106294274330139
0.049676168709993362 0.30309945344924927 0.39451009035110474
0.060409050434827805 0.26395705342292786 0.33594474196434021
0.21573726832866669 0.20213013887405396 0.21327531337738037
0.72828847169876099 0.34758490324020386 0.30886465311050415
0.81815528869628906 0.40362972021102905 0.32101470232009888
0.035878799855709076 0.26990225911140442 0.3556990921497345
0.065262950956821442 0.27346140146255493 0.35037362575531006
0.24774052202701569 0.2487969845533371 0.23644824326038361
0.74408107995986938 0.3984132707118988 0.32531464099884033
0.82812368869781494 0.43606665730476379 0.33093059062957764
0.047176599502563477 0.3004683256149292 0.3376501202583313
0.074191495776176453 0.30770435929298401 0.34051033854484558
0.29787811636924744 0.33360651135444641 0.27614012360572815
0.762317955493927 0.43368729948997498 0.26399451494216919
0.8161349892616272 0.47112694382667542 0.25980421900749207
0.12722013890743256 0.68400341272354126 0.52115851640701294
0.15427020192146301 0.69272017478942871 0.52581065893173218
0.27687850594520569 0.69954675436019897 0.36532121896743774
0.74758058786392212 0.74634158611297607 0.24424873292446136
0.80401134490966797 0.73106354475021362 0.2196800708770752
0.16608081758022308 0.88309133052825928 0.59500312805175781
0.18540102243423462 0.89069098234176636 0.57254844903945923
0.30196473002433777 0.91920775175094604 0.43632388114929199
0.6967284083366394 0.95310264825820923 0.39702779054641724
0.83604919910430908 0.9583277702331543 0.36369147896766663
0.13296253979206085 0.59518152475357056 0.75687956809997559
0.14923267066478729 0.57768052816390991 0.72745859622955322
0.18087857961654663 0.51533526182174683 0.62900447845458984
0.67465710639953613 0.49858099222183228 0.51954644918441772
0.86662101745605469 0.56524896621704102 0.69365739822387695
0.13015596568584442 0.59122884273529053 0.74778193235397339
0.15281705558300018 0.59061664342880249 0.74016618728637695
0.2024092823266983 0.55379420518875122 0.66673409938812256
0.71093422174453735 0.54628431797027588 0.57272595167160034
0.87890183925628662 0.59501802921295166 0.70897889137268066
0.11200898140668869 0.55368828773498535 0.69984203577041626
0.13669069111347198 0.56266361474990845 0.70682406425476074
0.17598170042037964 0.56016814708709717 0.69281899929046631
0.70077812671661377 0.56002217531204224 0.58529353141784668
0.88595914840698242 0.63074988126754761 0.72023642063140869
0.12946824729442596 0.61807155609130859 0.73090016841888428
0.15943953394889832 0.63367122411727905 0.73974800109863281
0.21869824826717377 0.67358648777008057 0.74254840612411499
0.75481569766998291 0.76104629039764404 0.66593098640441895
0.90147793292999268 0.75272637605667114 0.60574162006378174
0.19518432021141052 0.86197382211685181 0.88485431671142578
0.2240009605884552 0.87071371078491211 0.89783281087875366
0.25992447137832642 0.88457077741622925 0.83208221197128296
0.64381414651870728 0.94747477769851685 0.62433713674545288
0.86891263723373413 0.95786720514297485 0.50111585855484009
0.17618237435817719 0.70196080207824707 0.87827718257904053
0.19481846690177917 0.6991039514541626 0.86781579256057739
0.22133642435073853 0.68771684169769287 0.85189181566238403
0.57545340061187744 0.69248503446578979 0.82731163501739502
0.89322113990783691 0.65070366859436035 0.87350064516067505
0.17647059261798859 0.71587008237838745 0.89136314392089844
0.19813308119773865 0.71678471565246582 0.8881603479385376
0.22922423481941223 0.70612484216690063 0.87262940406799316
0.65250831842422485 0.70986557006835938 0.85460072755813599
0.90543836355209351 0.67910164594650269 0.8914605975151062
0.16792237758636475 0.72362184524536133 0.89304035902023315
0.19126050174236298 0.72264498472213745 0.8901788592338562
0.22161564230918884 0.71691668033599854 0.88272470235824585
0.57659280300140381 0.73323196172714233 0.83685266971588135
0.90741348266601562 0.70206141471862793 0.88836777210235596
0.16260847449302673 0.74042487144470215 0.9066922664642334
0.1869732141494751 0.74105030298233032 0.90387970209121704
0.22853507101535797 0.74599933624267578 0.89851421117782593
0.5500791072845459 0.7831188440322876 0.86618918180465698
0.92997646331787109 0.78662312030792236 0.91501069068908691
0.16814787685871124 0.7627142071723938 0.89249938726425171
0.19756542146205902 0.78426551818847656 0.92336547374725342
0.24089759588241577 0.8086540699005127 0.92407906055450439
0.48503884673118591 0.86172252893447876 0.92281597852706909
0.94737380743026733 0.95816731452941895 0.86981081962585449
