assets/lut/ohadperetz d o 1.cube
# Created by: G'MIC (https://gmic.eu)
TITLE "d_o_1"
# LUT size
LUT_3D_SIZE 5
# Data domain
DOMAIN_MIN 0.0 0.0 0.0
DOMAIN_MAX 1.0 1.0 1.0
# LUT data points
0 0 0
0 0.00089673808543011546 0.0010964636458083987
0.84580546617507935 0.0012179805198684335 0.0012096180580556393
1 0.0045745251700282097 0
1 0.0045496770180761814 0
0.025671206414699554 0.041015967726707458 0.027884718030691147
0.065587751567363739 0.074865557253360748 0.021575793623924255
0.8066861629486084 0.095028914511203766 0
1 0.18487624824047089 0
1 0.19906862080097198 0
0 0.52989202737808228 0
0.0043347678147256374 0.49154072999954224 0
0.59862202405929565 0.49502000212669373 0
0.97164523601531982 0.549815833568573 0
1 0.56686347723007202 0
0 0.97291505336761475 1.9387638531043194e-05
0.0048117544502019882 0.95847475528717041 0.0032124388962984085
0.44792678952217102 0.94360411167144775 3.5005457448278321e-06
0.92444539070129395 0.88257700204849243 0
1 0.84786123037338257 0
0 1 0
0.02198607474565506 1 0
0.38084951043128967 0.99959295988082886 0.0022206027060747147
0.90137463808059692 0.99993348121643066 0.0013309253845363855
1 0.99996966123580933 0
0.00056224147556349635 0 0
0.0014702890766784549 0.0046324036084115505 0.0032654257956892252
0.8515591025352478 0.00083675008499994874 0.10484251379966736
0.99994343519210815 0.00027860753471031785 0.10438258200883865
1 0.0023837070912122726 0.1193247064948082
0.019993547350168228 0.047457393258810043 0.048082076013088226
0.068210378289222717 0.076400652527809143 0.069603338837623596
0.78301620483398438 0.098110780119895935 0.050119407474994659
1 0.18652026355266571 0.071823090314865112
1 0.19939367473125458 0.089143179357051849
0.0010358623694628477 0.51664251089096069 0.0076137618161737919
0.00090717989951372147 0.47486084699630737 0.0067642810754477978
0.57781350612640381 0.48492851853370667 0.019582964479923248
0.97686207294464111 0.54112792015075684 0.015989655628800392
1 0.56324422359466553 0.025199741125106812
0.0032078013755381107 0.96851062774658203 0.013879319652915001
0.0033576516434550285 0.95565378665924072 0.04190705344080925
0.4123893678188324 0.92910683155059814 0.015563052147626877
0.91245806217193604 0.85932153463363647 0.0079019879922270775
0.99927318096160889 0.82663321495056152 0.0041294321417808533
0 1 0.023232538253068924
0.034210998564958572 1 0.033182676881551743
0.39606887102127075 1 0.043473772704601288
0.85339200496673584 1 0.047412514686584473
0.99651944637298584 0.99879497289657593 0.0040657790377736092
0.0023521722760051489 0.1616230309009552 0.94465619325637817
0.19844777882099152 0.11787107586860657 0.91105568408966064
0.81738495826721191 0.042570959776639938 0.75624352693557739
0.9897230863571167 0.065109193325042725 0.7906610369682312
0.99660825729370117 0.092672668397426605 0.80948656797409058
4.5507094910135493e-05 0.30394256114959717 0.76259112358093262
0.065463826060295105 0.27133700251579285 0.73078745603561401
0.62283432483673096 0.19952255487442017 0.51899778842926025
0.99987673759460449 0.27121534943580627 0.62154793739318848
0.9994809627532959 0.30623307824134827 0.67939215898513794
2.0464729459490627e-05 0.52881532907485962 0.53350222110748291
0.0047754026018083096 0.49372535943984985 0.49097812175750732
0.45638969540596008 0.46756219863891602 0.38910102844238281
0.97463536262512207 0.52160722017288208 0.34495037794113159
1 0.53299671411514282 0.34100461006164551
0.0017082812264561653 0.9753299355506897 0.53458672761917114
0.0086119705811142921 0.94678992033004761 0.46174794435501099
0.31785279512405396 0.88828110694885254 0.29566940665245056
0.89806783199310303 0.83941423892974854 0.22325074672698975
0.99997574090957642 0.81028085947036743 0.18610405921936035
0.0011389339342713356 0.99727660417556763 0.52010393142700195
0.017469249665737152 0.99942123889923096 0.44923499226570129
0.31238141655921936 1 0.33153825998306274
0.81217306852340698 0.99999678134918213 0.26813900470733643
0.98803019523620605 0.98385065793991089 0.16801801323890686
0.0053070518188178539 0.19113653898239136 0.9899706244468689
0.17648257315158844 0.17392875254154205 0.99863559007644653
0.79446208477020264 0.11514195799827576 0.99997431039810181
1 0.10610954463481903 1
1 0.14568124711513519 1
0 0.42722252011299133 1
0.11126339435577393 0.41726976633071899 1
0.52840447425842285 0.36318197846412659 0.99903851747512817
1 0.34490230679512024 1
0.99288713932037354 0.36993509531021118 1
0 0.6756245493888855 0.97318106889724731
0.016846496611833572 0.66301077604293823 0.97384214401245117
0.30169773101806641 0.61798059940338135 0.95885121822357178
0.96505445241928101 0.58609569072723389 0.92241370677947998
0.991180419921875 0.5987398624420166 0.95157516002655029
0 0.91857421398162842 0.94396078586578369
0.00013113583554513752 0.88833856582641602 0.91792678833007812
0.21792182326316833 0.84312236309051514 0.8610682487487793
0.83861291408538818 0.83085483312606812 0.78341805934906006
0.99904924631118774 0.82197946310043335 0.74321860074996948
0.00030351526220329106 0.99995625019073486 0.97116434574127197
0.0040510739199817181 1 0.9455147385597229
0.2139258086681366 1 0.8687584400177002
0.7436985969543457 0.99465757608413696 0.6666291356086731
0.9739919900894165 0.96048605442047119 0.51335990428924561
0.038328491151332855 0.20225229859352112 0.98645251989364624
0.20780493319034576 0.18341243267059326 0.99837946891784668
0.82848376035690308 0.12007495760917664 0.99897462129592896
1 0.10928758978843689 1
1 0.14231638610363007 1
0.004175777081400156 0.43756839632987976 0.99999302625656128
0.13046534359455109 0.4246518611907959 0.99982750415802002
0.54902464151382446 0.37085422873497009 1
1 0.35233309864997864 1
1 0.3754696249961853 0.99849563837051392
0 0.68918853998184204 1
0.048292465507984161 0.6777108907699585 0.99761378765106201
0.32362076640129089 0.64048582315444946 0.9985119104385376
0.96174108982086182 0.6157073974609375 1
0.99156743288040161 0.62348395586013794 1
2.1003274014219642e-05 0.92514705657958984 1
0.01208388339728117 0.90201336145401001 1
0.22660394012928009 0.86546516418457031 0.99999678134918213
0.7618640661239624 0.83391797542572021 0.99571549892425537
0.99801838397979736 0.82345682382583618 0.99285966157913208
0 1 1
0.001862948527559638 1 1
0.18460860848426819 0.99373310804367065 0.99954599142074585
0.58755272626876831 0.9743659496307373 0.98242121934890747
0.96500211954116821 0.95878344774246216 0.92884147167205811
