assets/lut/ohadperetz cold simplicity 2.cube
# Created by: G'MIC (https://gmic.eu)
TITLE "cold_simplicity_2"
# LUT size
LUT_3D_SIZE 5
# Data domain
DOMAIN_MIN 0.0 0.0 0.0
DOMAIN_MAX 1.0 1.0 1.0
# LUT data points
0.011764706112444401 0.011764706112444401 0.011764706112444401
0.037154670804738998 0.031562760472297668 0.031495667994022369
0.5037388801574707 0.074274368584156036 0.11916842311620712
0.90248256921768188 0.2481042742729187 0.21089546382427216
0.94776177406311035 0.32648080587387085 0.21681363880634308
0.040853478014469147 0.044822182506322861 0.04113229364156723
0.061151497066020966 0.060548402369022369 0.052729707211256027
0.4352080225944519 0.10446035116910934 0.081735961139202118
0.87931877374649048 0.25321295857429504 0.19237890839576721
0.95145493745803833 0.36013448238372803 0.18964409828186035
0.019344404339790344 0.2834509015083313 0.13024583458900452
0.05455055832862854 0.27415665984153748 0.1159353032708168
0.38007771968841553 0.31864798069000244 0.065469078719615936
0.85773563385009766 0.44109973311424255 0.13233588635921478
0.8979417085647583 0.52184051275253296 0.13088031113147736
0.065070867538452148 0.6674920916557312 0.2837212085723877
0.091964513063430786 0.64823544025421143 0.26047834753990173
0.35456445813179016 0.74370783567428589 0.22704768180847168
0.76635652780532837 0.73090600967407227 0.13729998469352722
0.82559865713119507 0.71671903133392334 0.11143794655799866
0.11631004512310028 0.88509660959243774 0.36362928152084351
0.15349511802196503 0.89601296186447144 0.35316994786262512
0.35380834341049194 0.92346060276031494 0.32245737314224243
0.70901840925216675 0.95289963483810425 0.29025185108184814
0.8176388144493103 0.94323444366455078 0.26633396744728088
0.028256405144929886 0.033108174800872803 0.034384261816740036
0.048078484833240509 0.049013115465641022 0.051791757345199585
0.47124138474464417 0.085206560790538788 0.14713340997695923
0.89721560478210449 0.24499142169952393 0.25154060125350952
0.95921170711517334 0.32915690541267395 0.25652554631233215
0.048865493386983871 0.057288870215415955 0.058120802044868469
0.06227913498878479 0.066095240414142609 0.066881664097309113
0.4103093147277832 0.11005054414272308 0.12126382440328598
0.87342667579650879 0.25001436471939087 0.23437707126140594
0.94948959350585938 0.35416328907012939 0.23666466772556305
0.022890606895089149 0.27517908811569214 0.17965282499790192
0.061876319348812103 0.2707194983959198 0.16219493746757507
0.36764508485794067 0.30127570033073425 0.096385613083839417
0.85932540893554688 0.42643842101097107 0.1817452609539032
0.90751302242279053 0.5133507251739502 0.17769123613834381
0.069290310144424438 0.65563637018203735 0.32093504071235657
0.11029244214296341 0.64509445428848267 0.30107548832893372
0.32711306214332581 0.72005689144134521 0.25740164518356323
0.77378696203231812 0.72547066211700439 0.16468296945095062
0.83280497789382935 0.71867233514785767 0.14973866939544678
0.12551191449165344 0.89065194129943848 0.40924456715583801
0.15966819226741791 0.88991653919219971 0.39938881993293762
0.3342738151550293 0.92124372720718384 0.36058318614959717
0.69558209180831909 0.94878703355789185 0.32942420244216919
0.81817680597305298 0.94132488965988159 0.29570898413658142
0.013038410805165768 0.28818482160568237 0.38351142406463623
0.039852172136306763 0.27857798337936401 0.35206335783004761
0.21035371720790863 0.23781831562519073 0.26470789313316345
0.84039187431335449 0.35943183302879333 0.39181661605834961
0.95590329170227051 0.43400284647941589 0.4820292592048645
0.01350872591137886 0.27214333415031433 0.36480855941772461
0.042023677378892899 0.2590477466583252 0.33553633093833923
0.18855015933513641 0.23578964173793793 0.25475788116455078
0.8099367618560791 0.35793530941009521 0.3382188081741333
0.9568294882774353 0.43703961372375488 0.39075317978858948
0.024983469396829605 0.29600319266319275 0.35386809706687927
0.057908959686756134 0.28702390193939209 0.33488950133323669
0.22058609127998352 0.31238517165184021 0.30346229672431946
0.83020138740539551 0.39784279465675354 0.2857036292552948
0.9288402795791626 0.46698230504989624 0.27527293562889099
0.12717632949352264 0.70794159173965454 0.63092285394668579
0.15281644463539124 0.68509078025817871 0.58541053533554077
0.23274886608123779 0.67224103212356567 0.40829759836196899
0.73281145095825195 0.7292410135269165 0.24758483469486237
0.83691143989562988 0.72442746162414551 0.1978486031293869
0.16183912754058838 0.8824886679649353 0.69340091943740845
0.18687735497951508 0.88196855783462524 0.65381598472595215
0.27479168772697449 0.90954160690307617 0.48446282744407654
0.64863079786300659 0.94264262914657593 0.40690425038337708
0.82651793956756592 0.93984109163284302 0.34206870198249817
0.099145643413066864 0.59742569923400879 0.7691274881362915
0.13102291524410248 0.59350907802581787 0.75235944986343384
0.16970996558666229 0.55716204643249512 0.69382840394973755
0.72713166475296021 0.53606486320495605 0.69857466220855713
0.95067399740219116 0.56201863288879395 0.75999456644058228
0.097873464226722717 0.59219914674758911 0.75701957941055298
0.12522900104522705 0.57930839061737061 0.73431050777435303
0.17315202951431274 0.54580634832382202 0.669078528881073
0.66028326749801636 0.53633266687393188 0.61595273017883301
0.94092625379562378 0.58645457029342651 0.74306225776672363
0.089794933795928955 0.57007038593292236 0.73021805286407471
0.12123987823724747 0.56661248207092285 0.71505320072174072
0.16039830446243286 0.5569385290145874 0.69027602672576904
0.64106845855712891 0.55036962032318115 0.62667828798294067
0.93639516830444336 0.62777775526046753 0.75226742029190063
0.11264424026012421 0.63877034187316895 0.77853816747665405
0.14132486283779144 0.62189358472824097 0.75491303205490112
0.19255323708057404 0.65810990333557129 0.75750744342803955
0.69161778688430786 0.74116438627243042 0.72764241695404053
0.94396460056304932 0.73903244733810425 0.69832372665405273
0.17936678230762482 0.85473954677581787 0.94464552402496338
0.21146862208843231 0.8508109450340271 0.93016898632049561
0.25806763768196106 0.87814342975616455 0.88265067338943481
0.60090124607086182 0.92779183387756348 0.70204079151153564
0.86528521776199341 0.93660253286361694 0.54111772775650024
0.14213190972805023 0.69608467817306519 0.88288968801498413
0.17377716302871704 0.69628643989562988 0.87429165840148926
0.20395258069038391 0.68713223934173584 0.8528175950050354
0.61116695404052734 0.68341714143753052 0.8533322811126709
0.94558364152908325 0.63060569763183594 0.90121513605117798
0.14578239619731903 0.71351134777069092 0.89623898267745972
0.18140245974063873 0.71827375888824463 0.8925742506980896
0.21387577056884766 0.71073859930038452 0.87788349390029907
0.51488995552062988 0.7240789532661438 0.82122159004211426
0.94487231969833374 0.66229689121246338 0.90029007196426392
0.14574883878231049 0.71773356199264526 0.89668744802474976
0.17290912568569183 0.72583687305450439 0.90221560001373291
0.20389629900455475 0.71976125240325928 0.89207178354263306
0.43984812498092651 0.73491197824478149 0.83438998460769653
0.93559938669204712 0.68873715400695801 0.90182816982269287
0.13904604315757751 0.74568372964859009 0.92696583271026611
0.17145168781280518 0.74056828022003174 0.91341358423233032
0.20835417509078979 0.74637138843536377 0.91110026836395264
0.44135540723800659 0.7798689603805542 0.88293051719665527
0.92828965187072754 0.76669645309448242 0.92086011171340942
0.15270993113517761 0.77626770734786987 0.93547701835632324
0.1848711371421814 0.78389328718185425 0.94148951768875122
0.22961954772472382 0.80153340101242065 0.93467116355895996
0.41983470320701599 0.84545862674713135 0.93628716468811035
0.91884273290634155 0.94340246915817261 0.89503443241119385
