assets/lut/ohadperetz d o 1.cube
# Created by: G'MIC (https://gmic.eu)
TITLE "d_o_1"
# LUT size
LUT_3D_SIZE 7
# Data domain
DOMAIN_MIN 0.0 0.0 0.0
DOMAIN_MAX 1.0 1.0 1.0
# LUT data points
0 0 0
0 0 0
0.038446031510829926 0.023901741951704025 0.022444421425461769
0.84580546617507935 0.0012179805198684335 0.0012096180580556393
1 0.0047380034811794758 0
1 0.0031687268055975437 0
1 0.0045496770180761814 0
0.0045287488028407097 0.0019897760357707739 0.0046652699820697308
0.010667464695870876 0.011603965424001217 0.012213733047246933
0.15233969688415527 0.05234977975487709 0.022553762421011925
0.83978241682052612 0.043561749160289764 0
0.99675041437149048 0.10532244294881821 0
1 0.11562111228704453 0
1 0.12335500121116638 0
0.01790434867143631 0.17055670917034149 0.020016733556985855
0.015926914289593697 0.17432726919651031 0.0053217718377709389
0.18815577030181885 0.17011500895023346 0.00022297279792837799
0.74612492322921753 0.18690884113311768 0
0.98492133617401123 0.25996699929237366 0
0.99931734800338745 0.28493702411651611 0.001066305092535913
0.99998277425765991 0.29770040512084961 0
0 0.52989202737808228 0
0 0.5100860595703125 2.3336972390097799e-06
0.066919662058353424 0.48125845193862915 0
0.59862202405929565 0.49502000212669373 0
0.92227846384048462 0.53929167985916138 0
0.9913601279258728 0.55216670036315918 0
1 0.56686347723007202 0
1.8669577912078239e-05 0.85713833570480347 0.00046691895113326609
0 0.85505044460296631 0.0047097899951040745
0.040632374584674835 0.8144950270652771 0.0025421441532671452
0.47044607996940613 0.83963412046432495 0
0.86540192365646362 0.80212587118148804 0
0.96908849477767944 0.76716119050979614 0
1 0.76610726118087769 0
0 1 0
0 1 0
0.081755049526691437 0.99737066030502319 0.00063083122950047255
0.42970556020736694 0.99453848600387573 0.00073628145037218928
0.81828212738037109 0.97997617721557617 0.00040820252615958452
0.96753543615341187 0.94851934909820557 0.00027712652808986604
1 0.92057734727859497 0
0 1 0
0 1 0
0.092746168375015259 1 0
0.38084951043128967 0.99959295988082886 0.0022206027060747147
0.76846456527709961 0.99967718124389648 0.0028546801768243313
0.97006207704544067 1 0
1 0.99996966123580933 0
0 0 0
0 0 0
0.041772536933422089 0.02550874650478363 0.029578579589724541
0.83711594343185425 0.00076068053022027016 0.038433734327554703
0.9997943639755249 0.0029839908238500357 0.028489191085100174
1 0.00025293687940575182 0.033372588455677032
1 0.0031259872484952211 0.049196057021617889
0.0052642524242401123 0.0037197337951511145 0.0069139366969466209
0.01453743688762188 0.017678368836641312 0.018013553693890572
0.15639603137969971 0.048296324908733368 0.03950875997543335
0.83305305242538452 0.041321039199829102 0.012377375736832619
0.99601644277572632 0.10915515571832657 0.014531946741044521
0.99623864889144897 0.11128921806812286 0.019481224939227104
1 0.12796911597251892 0.035021405667066574
0.011523677036166191 0.16976656019687653 0.028310230001807213
0.013053011149168015 0.1740906685590744 0.014888374134898186
0.18971081078052521 0.17027835547924042 0.0035495683550834656
0.73135149478912354 0.18470707535743713 0.00072875677142292261
0.9794495701789856 0.26442590355873108 0.0058652688749134541
0.99997329711914062 0.2870233952999115 0.0077761332504451275
1 0.29260000586509705 0.021509433165192604
0.00098470051307231188 0.52211356163024902 0
0 0.49816331267356873 0
0.059727057814598083 0.47501438856124878 0
0.58503663539886475 0.48291680216789246 0.00052574009168893099
0.91928327083587646 0.53092914819717407 0
0.9969785213470459 0.54765158891677856 0.00027588490047492087
1 0.56142324209213257 0.00025075275334529579
0.0062541887164115906 0.86448818445205688 6.6390690335538238e-05
0 0.85042160749435425 0.0069189933128654957
0.025318386033177376 0.80696815252304077 0.0017956901574507356
0.44064068794250488 0.82859933376312256 9.0505564003251493e-05
0.85571533441543579 0.77664923667907715 0
0.97552257776260376 0.75870901346206665 0
1 0.76064437627792358 0
0 1 0.00051775167230516672
0 1 0.01072254590690136
0.074678249657154083 0.99894684553146362 0.013890225440263748
0.42182910442352295 0.99533319473266602 0.0020242130849510431
0.81210458278656006 0.97000265121459961 0.00092902092728763819
0.95701408386230469 0.92759162187576294 2.3037779101287015e-05
0.99988508224487305 0.90293526649475098 0
0 1 0
0.00046718821977265179 1 6.073596523492597e-05
0.10654661804437637 1 0.0058690388686954975
0.40031325817108154 1 0.013675854541361332
0.75005555152893066 1 0.017166825011372566
0.94153100252151489 1 0.0097367530688643456
0.99980109930038452 0.99971997737884521 0
0.022955112159252167 0.027300652116537094 0.048350900411605835
0.036241389811038971 0.031231779605150223 0.056276462972164154
0.11281021684408188 0.038691844791173935 0.09512435644865036
0.8838881254196167 0.00012263878306839615 0.2667326033115387
0.9960053563117981 0.0066788466647267342 0.24770897626876831
1 0.0030644584912806749 0.25147143006324768
1 0.0092385681346058846 0.24686515331268311
0.023260528221726418 0.06357332319021225 0.11563681811094284
0.03933938592672348 0.067856714129447937 0.14863522350788116
0.17842212319374084 0.062232851982116699 0.15837407112121582
0.81889063119888306 0.055567394942045212 0.19269903004169464
0.9954950213432312 0.098716169595718384 0.17923292517662048
0.99837249517440796 0.1063687652349472 0.17763455212116241
1 0.12053778022527695 0.20129311084747314
0.0012997795129194856 0.18669931590557098 0.16514496505260468
0.0089504318311810493 0.18107987940311432 0.15742591023445129
0.15794719755649567 0.16294781863689423 0.13737519085407257
0.7019842267036438 0.1780707836151123 0.11149604618549347
0.98023933172225952 0.25035560131072998 0.12121336907148361
1 0.27168551087379456 0.14100188016891479
1 0.28430759906768799 0.14263558387756348
0.00035883585223928094 0.5201835036277771 0.10049987584352493
0 0.49596068263053894 0.094439685344696045
0.06345406174659729 0.46515536308288574 0.081916794180870056
0.56605535745620728 0.47745025157928467 0.071645773947238922
0.92006176710128784 0.51717591285705566 0.072320513427257538
0.99908196926116943 0.53824746608734131 0.085762336850166321
1 0.55689448118209839 0.10058662295341492
0.004662622231990099 0.84739845991134644 0.058721370995044708
2.7017033062293194e-05 0.83365064859390259 0.062103673815727234
0.03586164116859436 0.80020880699157715 0.062346365302801132
0.41471582651138306 0.79691940546035767 0.056207887828350067
0.84839403629302979 0.77074402570724487 0.04804413765668869
0.96924299001693726 0.74801367521286011 0.044620856642723083
0.99999064207077026 0.74741178750991821 0.049759630113840103
0.0018651775317266583 0.99956357479095459 0.11454897373914719
9.5741423137951642e-05 0.99998801946640015 0.12146630138158798
0.074360929429531097 0.99628067016601562 0.10321404039859772
0.38601928949356079 0.98779517412185669 0.072735324501991272
0.79355573654174805 0.97433900833129883 0.092983603477478027
0.94842827320098877 0.91441589593887329 0.060041315853595734
0.99793821573257446 0.8867194652557373 0.037079934030771255
0 1 0.11634135246276855
0.0023057975340634584 1 0.10338667035102844
0.10403534770011902 1 0.11065711081027985
0.37791118025779724 1 0.10080701112747192
0.72009408473968506 1 0.1050259917974472
0.91920214891433716 1 0.088090457022190094
0.9936099648475647 0.99640786647796631 0.038761857897043228
0.0023521722760051489 0.1616230309009552 0.94465619325637817
0.10728433728218079 0.13022561371326447 0.95242667198181152
0.29435068368911743 0.094863370060920715 0.83675467967987061
0.81738495826721191 0.042570959776639938 0.75624352693557739
0.99696469306945801 0.054622352123260498 0.78791362047195435
0.99549895524978638 0.069993056356906891 0.79779636859893799
0.99660825729370117 0.092672668397426605 0.80948656797409058
0 0.26991167664527893 0.84703141450881958
0.041993878781795502 0.23655657470226288 0.82622134685516357
0.1945624053478241 0.19139425456523895 0.72795617580413818
0.7024611234664917 0.1428438276052475 0.59087145328521729
0.99994611740112305 0.19743873178958893 0.70160555839538574
0.99910265207290649 0.20820298790931702 0.71639645099639893
0.99852734804153442 0.23190413415431976 0.74750244617462158
0 0.343761146068573 0.66625493764877319
0.0059915580786764622 0.32751750946044922 0.65783369541168213
0.10543309897184372 0.30065447092056274 0.60872805118560791
0.55372124910354614 0.25828686356544495 0.45724204182624817
0.9798816442489624 0.32933139801025391 0.53155583143234253
0.99954450130462646 0.35627368092536926 0.57089054584503174
0.99999535083770752 0.37463051080703735 0.58453500270843506
2.0464729459490627e-05 0.52881532907485962 0.53350222110748291
0 0.50433897972106934 0.50300067663192749
0.05304037407040596 0.48630473017692566 0.4715360701084137
0.45638969540596008 0.46756219863891602 0.38910102844238281
0.9071539044380188 0.48852688074111938 0.33677870035171509
0.99718338251113892 0.53470951318740845 0.34607529640197754
1 0.53299671411514282 0.34100461006164551
4.3083641685370822e-06 0.8731837272644043 0.51917761564254761
0 0.86217910051345825 0.49697938561439514
0.041337002068758011 0.81529468297958374 0.43114000558853149
0.32192781567573547 0.77394074201583862 0.30204591155052185
0.8196985125541687 0.74606335163116455 0.23310010135173798
0.964802086353302 0.745414137840271 0.22113972902297974
1 0.74928677082061768 0.21033693850040436
0.0039215688593685627 1 0.54902535676956177
0.0005162556772120297 0.99907577037811279 0.50204843282699585
0.062765859067440033 0.98825860023498535 0.42240232229232788
0.31608507037162781 0.96431100368499756 0.29799303412437439
0.7524343729019165 0.94713616371154785 0.27033218741416931
0.94632047414779663 0.90227383375167847 0.21974125504493713
0.99918341636657715 0.87092691659927368 0.17026980221271515
0.0011389339342713356 0.99727660417556763 0.52010393142700195
8.2726568507496268e-05 0.99678784608840942 0.46826198697090149
0.075375817716121674 1 0.4309002161026001
0.31238141655921936 1 0.33153825998306274
0.67612326145172119 1 0.27479264140129089
0.89786100387573242 0.9990120530128479 0.24653677642345428
0.98803019523620605 0.98385065793991089 0.16801801323890686
0.0051980260759592056 0.19508753716945648 0.99979269504547119
0.10145549476146698 0.1784302145242691 0.99899172782897949
0.28159910440444946 0.1622801274061203 1
0.8082127571105957 0.11107770353555679 0.99982750415802002
1 0.097407199442386627 1
1 0.10678628832101822 1
0.9999813437461853 0.14085651934146881 1
0 0.35272547602653503 0.99959754943847656
0.054940827190876007 0.33430272340774536 0.99144113063812256
0.22813208401203156 0.32578873634338379 0.9991079568862915
0.61953651905059814 0.27058082818984985 0.9950333833694458
1 0.24400267004966736 0.99114382266998291
1 0.24799682199954987 0.99193358421325684
0.99730628728866577 0.27989411354064941 0.99468666315078735
0.00018855076632462442 0.49535027146339417 0.98035681247711182
0.024214470759034157 0.48964306712150574 0.9797288179397583
0.156915083527565 0.47171330451965332 0.97763168811798096
0.44077113270759583 0.42643311619758606 0.94806581735610962
0.96436011791229248 0.40039998292922974 0.92011368274688721
1 0.42378881573677063 0.9583095908164978
0.99712210893630981 0.43193730711936951 0.94493567943572998
0 0.63920056819915771 0.8967747688293457
0.000253176229307428 0.62035048007965088 0.88481104373931885
0.078808426856994629 0.59711498022079468 0.8682558536529541
0.32487446069717407 0.56854647397994995 0.84913420677185059
0.86202096939086914 0.5406072735786438 0.79241561889648438
0.99854505062103271 0.5709691047668457 0.82408875226974487
0.99656474590301514 0.5788835883140564 0.84205514192581177
0 0.82173079252243042 0.85077732801437378
0 0.81684631109237671 0.85155731439590454
0.032728008925914764 0.76678764820098877 0.79725044965744019
0.23763316869735718 0.7672533392906189 0.76619213819503784
0.74294072389602661 0.75455290079116821 0.70239698886871338
0.96061414480209351 0.75426340103149414 0.64266139268875122
0.99897676706314087 0.74585145711898804 0.6150200366973877
0.0025916006416082382 0.99496138095855713 0.90939635038375854
0 0.98143988847732544 0.88725906610488892
0.049755740910768509 0.96006470918655396 0.82942920923233032
0.24785710871219635 0.95668905973434448 0.74813640117645264
0.64525848627090454 0.91897761821746826 0.61147916316986084
0.91196578741073608 0.88708341121673584 0.51247775554656982
0.99687826633453369 0.86701059341430664 0.44101262092590332
0.001576591981574893 0.99894464015960693 0.91036409139633179
3.5274730180390179e-05 0.99902313947677612 0.88379973173141479
0.052486121654510498 1 0.84044057130813599
0.24406461417675018 1 0.72381067276000977
0.60716056823730469 0.99757963418960571 0.56310772895812988
0.85091298818588257 0.99209117889404297 0.49308183789253235
0.97564667463302612 0.96552062034606934 0.37075531482696533
0.010460887104272842 0.19206790626049042 0.98312258720397949
0.10871133208274841 0.18052785098552704 0.99053406715393066
0.29480606317520142 0.1582680344581604 0.99997389316558838
0.7803846001625061 0.11451384425163269 0.99991738796234131
1 0.1006622314453125 1
1 0.11641769111156464 1
1 0.14470221102237701 1
0.00016916311869863421 0.34780246019363403 0.99999850988388062
0.072255901992321014 0.33758845925331116 0.99884629249572754
0.24778243899345398 0.3206297755241394 0.99959886074066162
0.65022534132003784 0.27446961402893066 0.99377560615539551
1 0.25789725780487061 1
1 0.26712113618850708 1
0.99919217824935913 0.28557842969894409 0.99981522560119629
0 0.50921422243118286 1
0.035403084009885788 0.50790822505950928 1
0.17749983072280884 0.49340441823005676 0.99971467256546021
0.43134230375289917 0.46008753776550293 0.99943047761917114
0.97394829988479614 0.44052690267562866 1
1 0.44620347023010254 1
0.98775756359100342 0.45587867498397827 1
0 0.68135315179824829 0.99658739566802979
0.0026048996951431036 0.68101626634597778 0.99920439720153809
0.088003329932689667 0.6735033392906189 0.99948102235794067
0.29861235618591309 0.63986665010452271 0.99750906229019165
0.79663926362991333 0.6077646017074585 0.98433643579483032
0.99956554174423218 0.61015498638153076 0.98812687397003174
0.98802095651626587 0.61341822147369385 0.99242448806762695
0 0.84067392349243164 0.98853391408920288
0 0.8324933648109436 0.98512446880340576
0.050179995596408844 0.811573326587677 0.96659117937088013
0.23984734714031219 0.78558564186096191 0.95059359073638916
0.6295851469039917 0.76773560047149658 0.93552094697952271
0.95458871126174927 0.76576536893844604 0.92765414714813232
0.9999082088470459 0.76158827543258667 0.92060482501983643
0.0032403236255049706 0.97576391696929932 0.99236619472503662
0 0.96382766962051392 0.98589688539505005
0.03478526696562767 0.94029527902603149 0.9629817008972168
0.20902444422245026 0.91812825202941895 0.94068819284439087
0.51092827320098877 0.89789021015167236 0.8932187557220459
0.89083898067474365 0.88749116659164429 0.84565180540084839
0.99785125255584717 0.8705858588218689 0.79996228218078613
0 1 0.99512875080108643
0 1 0.98725301027297974
0.037941411137580872 0.99999856948852539 0.97925907373428345
0.20616437494754791 0.99990016222000122 0.94412052631378174
0.46436646580696106 0.9957963228225708 0.85373061895370483
0.83137494325637817 0.98582667112350464 0.77075552940368652
0.97581934928894043 0.95922726392745972 0.68210291862487793
0.038328491151332855 0.20225229859352112 0.98645251989364624
0.14257247745990753 0.19239190220832825 0.99404287338256836
0.28511431813240051 0.16718429327011108 0.99986839294433594
0.82848376035690308 0.12007495760917664 0.99897462129592896
1 0.10439809411764145 1
1 0.11856361478567123 1
1 0.14231638610363007 1
0.010276868939399719 0.35712531208992004 0.99797272682189941
0.091297060251235962 0.34877365827560425 0.99623650312423706
0.22980371117591858 0.32697221636772156 0.99979811906814575
0.61377620697021484 0.28216513991355896 0.99908965826034546
1 0.26077213883399963 1
1 0.27258449792861938 1
1 0.29206830263137817 1
0.0012148090172559023 0.51989567279815674 1
0.05293026939034462 0.51356148719787598 0.99825125932693481
0.18784303963184357 0.49681740999221802 0.99988389015197754
0.49323689937591553 0.4607580304145813 0.99994587898254395
0.97501158714294434 0.44025343656539917 0.9992864727973938
1 0.44850698113441467 0.99955952167510986
0.99760138988494873 0.46154734492301941 0.99870973825454712
0 0.68918853998184204 1
0.014709756709635258 0.68255853652954102 0.99782872200012207
0.11167693883180618 0.66901445388793945 0.99817430973052979
0.32362076640129089 0.64048582315444946 0.9985119104385376
0.77274447679519653 0.61825233697891235 0.99879544973373413
0.99975907802581787 0.61900103092193604 1
0.99156743288040161 0.62348395586013794 1
0 0.85376256704330444 1
0.00042453841888345778 0.84329342842102051 1
0.064994081854820251 0.82766467332839966 0.99994713068008423
0.23834460973739624 0.80718725919723511 1
0.57342469692230225 0.78143966197967529 0.99968332052230835
0.94833952188491821 0.7703254222869873 0.99995404481887817
0.99995100498199463 0.76438724994659424 0.99935406446456909
0.0002520392881706357 0.98057132959365845 1
0 0.96253907680511475 1
0.044526733458042145 0.94281882047653198 1
0.21982556581497192 0.91324007511138916 0.99932527542114258
0.50256776809692383 0.88743972778320312 0.99418842792510986
0.859458327293396 0.87961328029632568 0.98416310548782349
0.991463303565979 0.8735085129737854 0.97595596313476562
0 1 1
0 1 1
0.033236484974622726 1 1
0.18460860848426819 0.99373310804367065 0.99954599142074585
0.4080355167388916 0.98257213830947876 0.99537283182144165
0.77169406414031982 0.96569132804870605 0.96077001094818115
0.96500211954116821 0.95878344774246216 0.92884147167205811
