assets/lut/ohadperetz retro summer 3.cube
# Created by: G'MIC (https://gmic.eu)
TITLE "retro_summer_3"
# LUT size
LUT_3D_SIZE 13
# Data domain
DOMAIN_MIN 0.0 0.0 0.0
DOMAIN_MAX 1.0 1.0 1.0
# LUT data points
0.10347222536802292 0.070236027240753174 0.0590946264564991
0.11137481033802032 0.070142485201358795 0.060323290526866913
0.12700243294239044 0.067420467734336853 0.059205312281847
0.16624298691749573 0.060200739651918411 0.051153622567653656
0.24346524477005005 0.045326773077249527 0.036953825503587723
0.3554522693157196 0.026520822197198868 0.021859981119632721
0.48831775784492493 0.009989345446228981 0.010065878741443157
0.63298577070236206 0.0010940252104774117 0.0034642836544662714
0.7866356372833252 0 0.00052722106920555234
0.93240463733673096 0 0
0.99982297420501709 0 0
1 0 0
1 0 0
0.10041647404432297 0.079221092164516449 0.052420284599065781
0.10895849764347076 0.080091945827007294 0.055726908147335052
0.12510068714618683 0.077132672071456909 0.05581195279955864
0.16138802468776703 0.070308580994606018 0.0477168969810009
0.23549056053161621 0.055420700460672379 0.032855838537216187
0.34939110279083252 0.032821491360664368 0.017293384298682213
0.48662272095680237 0.012668400071561337 0.0059325573965907097
0.63470256328582764 0.0022568048443645239 0.00053275615209713578
0.79440921545028687 0 0
0.94589883089065552 0 0
1 0 0
1 0 0
1 0 0
0.09284491091966629 0.092092253267765045 0.042360030114650726
0.10270333290100098 0.091195143759250641 0.047395728528499603
0.11892824620008469 0.09003150463104248 0.047799322754144669
0.15438218414783478 0.085024736821651459 0.03905588760972023
0.22569477558135986 0.071591094136238098 0.024257734417915344
0.34057885408401489 0.046290453523397446 0.010117445141077042
0.48375335335731506 0.020433029159903526 0.0015366497682407498
0.63718235492706299 0.006681778933852911 0
0.80290096998214722 0.0012208826374262571 0
0.95691561698913574 2.2753547455067746e-05 0
1 0 0
1 0 0
1 0 0
0.075245603919029236 0.11463812738656998 0.025231605395674706
0.085261940956115723 0.11312562227249146 0.029493488371372223
0.10260225087404251 0.11272981017827988 0.030292659997940063
0.13747414946556091 0.11071274429559708 0.023647099733352661
0.20225971937179565 0.10077367722988129 0.01108474750071764
0.31306815147399902 0.076038002967834473 0.0018250109860673547
0.45746693015098572 0.045470908284187317 3.2312730127159739e-06
0.61439943313598633 0.02166290208697319 0
0.78139203786849976 0.0043873358517885208 0
0.94030183553695679 0 0
1 0 0
1 0 0
1 0 0
0.050885368138551712 0.14815449714660645 0.0063084173016250134
0.058376986533403397 0.14720767736434937 0.0076900855638086796
0.075728505849838257 0.14780768752098083 0.0092769395560026169
0.11220831423997879 0.14739733934402466 0.007052447646856308
0.17289057374000549 0.14134037494659424 0.0013523475499823689
0.27371421456336975 0.12148195505142212 3.5903033221984515e-06
0.41232240200042725 0.091043554246425629 0
0.57122063636779785 0.058797348290681839 0
0.74079334735870361 0.028259037062525749 0
0.91008687019348145 0.0097007900476455688 0
0.99855595827102661 0.0026790543925017118 0
1 8.4252453234512359e-05 0
1 0 0
0.025857647880911827 0.19290140271186829 0
0.027356375008821487 0.1945851743221283 3.5977831430500373e-05
0.03847605362534523 0.19697405397891998 8.4596518718171865e-05
0.071634255349636078 0.19834856688976288 5.6397682783426717e-05
0.13192339241504669 0.19563496112823486 0
0.22594961524009705 0.18343277275562286 0
0.35950073599815369 0.15927447378635406 0
0.52253472805023193 0.12812523543834686 0
0.70488590002059937 0.09619661420583725 0.00020089243480470031
0.88906973600387573 0.07046036422252655 0.00033002367126755416
0.99579507112503052 0.049896121025085449 3.8117053918540478e-05
1 0.027672456577420235 5.0368962547509e-05
1 0.01302572526037693 0
0.0065863514319062233 0.25144147872924805 0
0.0029558967798948288 0.25708350539207458 0
0.0041091619059443474 0.26408752799034119 0
0.019688325002789497 0.26956143975257874 0
0.074147544801235199 0.27260735630989075 0
0.16627891361713409 0.26823675632476807 0
0.29640364646911621 0.25254335999488831 0
0.46278390288352966 0.22754763066768646 0
0.65463590621948242 0.19863216578960419 0.0013928283005952835
0.84628772735595703 0.17115017771720886 0.0032235388644039631
0.9790082573890686 0.14432200789451599 0.0030552882235497236
1 0.1146085113286972 0.0024165285285562277
1 0.090093247592449188 0.00056028179824352264
0.00012135224824305624 0.33051559329032898 1.1668485967675224e-05
0 0.34130591154098511 0.00018864052253775299
0 0.35395795106887817 0.00058945303317159414
0.00051800598157569766 0.36482048034667969 0.0011287315282970667
0.029461594298481941 0.37303486466407776 0.0011032553156837821
0.10694831609725952 0.37521851062774658 0.00035763910273090005
0.22425492107868195 0.36738863587379456 5.834242983837612e-06
0.38521766662597656 0.34906190633773804 2.5281718990299851e-05
0.57761311531066895 0.32334649562835693 0.0012530009262263775
0.77729809284210205 0.29619058966636658 0.002980206161737442
0.94565939903259277 0.26953426003456116 0.0035322001203894615
1 0.23896026611328125 0.0033898595720529556
1 0.21104097366333008 0.00057233922416344285
0 0.43457382917404175 0.00014935662329662591
0 0.44824773073196411 0.0016584807308390737
0 0.46493050456047058 0.0046179676428437233
0 0.47981759905815125 0.0070517747662961483
0.008002815768122673 0.49096858501434326 0.0062150396406650543
0.059314697980880737 0.49710977077484131 0.0033119949512183666
0.15169975161552429 0.49568650126457214 0.00041228649206459522
0.29543450474739075 0.48289892077445984 0
0.48261874914169312 0.45939269661903381 0
0.6886439323425293 0.43379727005958557 0
0.89114087820053101 0.40986710786819458 7.7550554124172777e-05
0.99695783853530884 0.38143536448478699 3.4466913348296657e-05
1 0.35230326652526855 0
0 0.55615675449371338 5.1341336074983701e-05
0 0.57212984561920166 0.0030889324843883514
0 0.59038913249969482 0.0097946766763925552
0 0.60677307844161987 0.013300144113600254
0.0013344858307391405 0.61860328912734985 0.011818709783256054
0.029640212655067444 0.62587898969650269 0.0073703243397176266
0.098207838833332062 0.62771880626678467 0.0028467664960771799
0.22072117030620575 0.61916214227676392 0.00034079459146596491
0.39509290456771851 0.59972900152206421 2.4503820895915851e-05
0.59829360246658325 0.57694482803344727 0
0.8076367974281311 0.5543522834777832 0
0.97178900241851807 0.52831447124481201 0
1 0.50071614980697632 0
0 0.68794184923171997 0
0 0.7054063081741333 0.0015710717998445034
0 0.72398120164871216 0.0093778269365429878
0 0.74007672071456909 0.01404119748622179
9.6818512247409672e-05 0.75045883655548096 0.012837039306759834
0.014883707277476788 0.7569006085395813 0.0087881796061992645
0.068202570080757141 0.75965261459350586 0.0049878736026585102
0.17003566026687622 0.75470572710037231 0.0038211897481232882
0.32227012515068054 0.7408294677734375 0.0032370623666793108
0.50892114639282227 0.72246450185775757 0.0023662042804062366
0.71285736560821533 0.70206946134567261 0.0014545066514983773
0.9134451150894165 0.67859923839569092 0.00021612130512949079
0.99977701902389526 0.65360409021377563 0
0 0.82450854778289795 0
0 0.84229350090026855 4.7062891098903492e-05
0 0.86118483543395996 0.0025285757146775723
0 0.8762630820274353 0.0067983889020979404
0 0.88523286581039429 0.0067878873087465763
0.0062453476712107658 0.89048737287521362 0.004732079803943634
0.045477308332920074 0.89398103952407837 0.0035433003213256598
0.12716284394264221 0.89225220680236816 0.0038262610323727131
0.25278139114379883 0.88306564092636108 0.0038602941203862429
0.41373780369758606 0.86874610185623169 0.0038602941203862429
0.60450130701065063 0.8519737720489502 0.0038655151147395372
0.82093501091003418 0.83235180377960205 0.0032449609134346247
0.98579484224319458 0.81015944480895996 0.00037126729148440063
0 0.95974868535995483 0
0 0.97222566604614258 0
0 0.98272526264190674 0
0 0.98883223533630371 8.1679398135747761e-05
0 0.99215608835220337 0.00013068703992757946
0.00096197688253596425 0.99422663450241089 0
0.025339657440781593 0.99525576829910278 0
0.090368755161762238 0.99505722522735596 0
0.19257023930549622 0.99285459518432617 0
0.3284727931022644 0.9884028434753418 0
0.50195926427841187 0.98227196931838989 0.00011399212962714955
0.72257369756698608 0.97328412532806396 0.00096555222989991307
0.93828415870666504 0.9608154296875 0.00014020134403835982
0.10300198942422867 0.069730393588542938 0.067593082785606384
0.11238083243370056 0.069161616265773773 0.0699310302734375
0.12823754549026489 0.065707951784133911 0.069746442139148712
0.16368532180786133 0.058681339025497437 0.06180306151509285
0.23698683083057404 0.043897021561861038 0.04656098410487175
0.34851276874542236 0.024261444807052612 0.029117673635482788
0.48321688175201416 0.0090208761394023895 0.01535378210246563
0.63190078735351562 0.0014382456429302692 0.0080972407013177872
0.78996831178665161 0 0.0052966848015785217
0.9422113299369812 0 0.0010988572612404823
1 0 0
1 0 0
1 0 0
0.10120818018913269 0.07875765860080719 0.062250640243291855
0.10997617989778519 0.078534148633480072 0.067070081830024719
0.12471757829189301 0.076083645224571228 0.06759161502122879
0.15818144381046295 0.069855228066444397 0.059427730739116669
0.23026423156261444 0.054713558405637741 0.04303760826587677
0.34283676743507385 0.032541252672672272 0.024223297834396362
0.48059272766113281 0.013280337676405907 0.0094068190082907677
0.63182532787322998 0.0034656000789254904 0.0021276886109262705
0.79216933250427246 0.00018231260764878243 0.00052958470769226551
0.94633990526199341 0 3.2312730127159739e-06
1 0 0
1 0 0
1 0 0
0.092679418623447418 0.090907126665115356 0.053046777844429016
0.10289625078439713 0.090262047946453094 0.059656567871570587
0.11855154484510422 0.089495338499546051 0.061314228922128677
0.15284623205661774 0.08480381965637207 0.052487555891275406
0.22307878732681274 0.071607373654842377 0.036281794309616089
0.33521884679794312 0.047590982168912888 0.017696904018521309
0.47598865628242493 0.023656029254198074 0.0035320057068020105
0.63152229785919189 0.0090568689629435539 2.4279426725115627e-05
0.79720509052276611 0.0018689173739403486 0
0.9519466757774353 0 0
1 0 0
1 0 0
1 0 0
0.074334099888801575 0.1141192689538002 0.033319137990474701
0.084571748971939087 0.11359795928001404 0.037406366318464279
0.1016705259680748 0.11334461718797684 0.040341395884752274
0.13620676100254059 0.11121951788663864 0.035025503486394882
0.20286063849925995 0.10077548772096634 0.02254893071949482
0.31175458431243896 0.077415809035301208 0.0075030457228422165
0.45226278901100159 0.049093492329120636 0.00022439395252149552
0.60989689826965332 0.025791453197598457 0
0.77767527103424072 0.0089292041957378387 0
0.93697667121887207 0.00049272424075752497 0
1 0 0
1 0 0
1 0 0
0.04864438995718956 0.14925970137119293 0.0088912062346935272
0.056518435478210449 0.15016303956508636 0.0086474549025297165
0.072842754423618317 0.15077534317970276 0.011269019916653633
0.10764180868864059 0.14988553524017334 0.011827117763459682
0.17106135189533234 0.14270500838756561 0.0070239496417343616
0.27296879887580872 0.12322251498699188 0.00085298129124566913
0.41054877638816833 0.094536349177360535 0
0.56847172975540161 0.064529165625572205 0
0.73729068040847778 0.037897836416959763 0
0.90691578388214111 0.017234129831194878 0
0.99811339378356934 0.005167059600353241 0
1 0.00053172389743849635 0
1 0 0
0.023058423772454262 0.19371490180492401 8.3235201600473374e-05
0.025480039417743683 0.19734258949756622 0
0.037286631762981415 0.20112058520317078 8.2277783803874627e-06
0.068007104098796844 0.20319315791130066 0.00016449572285637259
0.12768988311290741 0.20026132464408875 0.00020044363918714225
0.22413156926631927 0.18707066774368286 4.1138891901937313e-06
0.35910245776176453 0.16288116574287415 0
0.52141988277435303 0.13302884995937347 0
0.70095068216323853 0.10359378904104233 0
0.88194781541824341 0.078171566128730774 0
0.99359977245330811 0.056468155235052109 0
1 0.03531399741768837 0
1 0.019997511059045792 0
0.0043911202810704708 0.25316837430000305 0
0.0026085646823048592 0.26081347465515137 0
0.0051888409070670605 0.26956838369369507 0
0.024148724973201752 0.27647587656974792 0
0.075910113751888275 0.27941632270812988 0
0.16579553484916687 0.27388563752174377 0
0.29694017767906189 0.25705745816230774 0
0.46379348635673523 0.23192502558231354 0
0.65426790714263916 0.20419727265834808 0
0.84578686952590942 0.17786109447479248 9.7895601356867701e-05
0.98149287700653076 0.1522466242313385 0.00037991392309777439
1 0.12473280727863312 3.8132013287395239e-05
1 0.10144228488206863 0
0 0.33378738164901733 0
0 0.34585750102996826 0
0 0.35995340347290039 0
0.002041057450696826 0.37238180637359619 0
0.033999558538198471 0.3805183470249176 0
0.1088794469833374 0.38141784071922302 0
0.22716982662677765 0.37211495637893677 0
0.38928377628326416 0.35338982939720154 0
0.58139026165008545 0.32888150215148926 0
0.78159099817276001 0.30328866839408875 0.00047327677020803094
0.95080530643463135 0.27719977498054504 0.0033620197791606188
1 0.2470342218875885 0.00086554733570665121
1 0.21850119531154633 0
0 0.43677628040313721 0
0 0.45271974802017212 0
0 0.47108855843544006 5.5649699788773432e-05
0 0.48729079961776733 0.00054168701171875
0.011424868367612362 0.49821096658706665 0.0007084566168487072
0.063828475773334503 0.50307142734527588 0.00018485574400983751
0.15971224009990692 0.49983447790145874 0
0.30528223514556885 0.48678216338157654 0
0.48953592777252197 0.46518927812576294 0
0.6926770806312561 0.44099161028862 9.3347889560391195e-06
0.88876163959503174 0.41648948192596436 0.0012385648442432284
0.99618756771087646 0.38698059320449829 0.00023749856336507946
1 0.3563406765460968 0
0 0.5568462610244751 0
0 0.57565057277679443 4.7721114242449403e-06
0 0.59678119421005249 0.0013907338725402951
0 0.6143951416015625 0.0053361481986939907
0.0027387731242924929 0.62538248300552368 0.0054801041260361671
0.03314533457159996 0.631569504737854 0.0031382092274725437
0.10552121698856354 0.63238000869750977 0.00079520727740600705
0.23010407388210297 0.62418138980865479 1.7233456674148329e-05
0.40247833728790283 0.60665154457092285 0
0.6026032567024231 0.5850028395652771 0
0.80559301376342773 0.56214737892150879 0
0.97083836793899536 0.53406387567520142 0
1 0.50322043895721436 0
0 0.68742603063583374 0
0 0.70762538909912109 1.6455556988148601e-06
0 0.72908484935760498 0.0015958000440150499
0 0.74616605043411255 0.006233604159206152
0.00013415767170954496 0.75630688667297363 0.0067435619421303272
0.013888699002563953 0.76249152421951294 0.0047955680638551712
0.067191056907176971 0.76626408100128174 0.003821458900347352
0.17089684307575226 0.76312321424484253 0.0030971153173595667
0.3268284797668457 0.75021696090698242 0.0017289554234594107
0.51665729284286499 0.73200678825378418 0.00037997376057319343
0.71692436933517456 0.71193075180053711 0.000457763671875
0.9187663197517395 0.68540406227111816 0.00033210305264219642
0.99998492002487183 0.65546131134033203 0
0 0.82344454526901245 0
0 0.84407222270965576 0
0 0.86455738544464111 8.6526306404266506e-05
0 0.88048583269119263 0.00090592325432226062
0 0.88998782634735107 0.0013899710029363632
0.0026850830763578415 0.89598023891448975 0.0010878021130338311
0.036859162151813507 0.90236848592758179 0.0022125095129013062
0.11926281452178955 0.90366083383560181 0.0037124932277947664
0.25133487582206726 0.89576202630996704 0.0038485806435346603
0.42058840394020081 0.88217711448669434 0.0019570295698940754
0.61221218109130859 0.86639952659606934 0.0012727027060464025
0.83168745040893555 0.84201467037200928 0.0022380603477358818
0.99071073532104492 0.81179529428482056 0.00016120461805257946
0 0.95853269100189209 0
0 0.97227197885513306 0
0 0.98336851596832275 0
0 0.99011844396591187 0
0 0.99385213851928711 0
1.7592486983630806e-05 0.99569809436798096 0
0.012848992832005024 0.99693459272384644 0
0.076379068195819855 0.99743455648422241 0
0.18369801342487335 0.9964902400970459 0.0001516903139417991
0.32853052020072937 0.99406123161315918 0
0.50805538892745972 0.98958361148834229 3.5903033790418704e-07
0.72869855165481567 0.97998046875 0.00016551298904232681
0.94341850280761719 0.96261602640151978 3.0158547815517522e-05
0.10235361009836197 0.069305896759033203 0.086603306233882904
0.11211527138948441 0.067244797945022583 0.090041592717170715
0.12871351838111877 0.063110083341598511 0.0902862548828125
0.16624759137630463 0.053972549736499786 0.081824511289596558
0.23901981115341187 0.037664718925952911 0.065283022820949554
0.34666022658348083 0.019199101254343987 0.044771876186132431
0.48011857271194458 0.0067634284496307373 0.027485357597470284
0.63184118270874023 0.0012591343838721514 0.016160883009433746
0.79480940103530884 0.00058029772480949759 0.0099288346245884895
0.95043551921844482 0.00066453521139919758 0.0027455347590148449
1 0 0
1 0 0
1 0 0
0.10043203085660934 0.077452383935451508 0.082072436809539795
0.10982905328273773 0.076230369508266449 0.087507002055644989
0.12447167187929153 0.074183128774166107 0.087355025112628937
0.15985892713069916 0.067097514867782593 0.079104691743850708
0.23169542849063873 0.051276471465826035 0.062237054109573364
0.3405170738697052 0.030314218252897263 0.040105722844600677
0.47628802061080933 0.013547754846513271 0.019500283524394035
0.63125050067901611 0.0050041200593113899 0.0072395023889839649
0.79702329635620117 0.002442274009808898 0.0020678651053458452
0.95218515396118164 0.00011005775741068646 8.6167283370741643e-06
1 0 0
1 0 0
1 0 0
0.091933019459247589 0.089691370725631714 0.075588300824165344
0.10259580612182617 0.089460335671901703 0.081312425434589386
0.11792045831680298 0.08947918564081192 0.081800319254398346
0.15355572104454041 0.084335163235664368 0.075478993356227875
0.2250189334154129 0.070925094187259674 0.06077098473906517
0.33303526043891907 0.049110114574432373 0.036513984203338623
0.47028157114982605 0.027798028662800789 0.012629400938749313
0.62909871339797974 0.012538236565887928 0.0016415165737271309
0.79962074756622314 0.0041980817914009094 6.5792308305390179e-05
0.95487016439437866 1.3463637515087612e-05 0
1 0 0
1 0 0
1 0 0
0.072240568697452545 0.11297944188117981 0.056903958320617676
0.083794645965099335 0.11363349109888077 0.059454061090946198
0.10138678550720215 0.11421981453895569 0.061918850988149643
0.13688036799430847 0.11200443655252457 0.059677619487047195
0.20443689823150635 0.10163083672523499 0.047592118382453918
0.31075757741928101 0.080374516546726227 0.025131989270448685
0.44871622323989868 0.054480638355016708 0.0041756276041269302
0.60894107818603516 0.031182397156953812 2.6672962121665478e-05
0.7806098461151123 0.013444310054183006 0
0.93939757347106934 0.0015427832258865237 0
1 0 0
1 0 0
1 0 0
0.044968206435441971 0.14757224917411804 0.030770035460591316
0.055381372570991516 0.15041820704936981 0.028470192104578018
0.073124036192893982 0.15164504945278168 0.02993755042552948
0.10801217705011368 0.15169711410999298 0.032459858804941177
0.17186741530895233 0.14508816599845886 0.0272178053855896
0.27439484000205994 0.1264253556728363 0.011961828917264938
0.41128531098365784 0.099329523742198944 0.00059250474441796541
0.57091784477233887 0.070036537945270538 0
0.74200648069381714 0.043709371238946915 0
0.90815645456314087 0.022560777142643929 0
0.99794191122055054 0.008589412085711956 0
1 0.0020659801084548235 0
1 0.0002263087808387354 0
0.019202886149287224 0.19382098317146301 0.0081885242834687233
0.024901207536458969 0.19874857366085052 0.0042057712562382221
0.038713805377483368 0.20388425886631012 0.0032036276534199715
0.070468038320541382 0.20670528709888458 0.0072083864361047745
0.12988254427909851 0.20374667644500732 0.0096734585240483284
0.22704489529132843 0.19088952243328094 0.0052304887212812901
0.36355212330818176 0.16637681424617767 0.0007239846745505929
0.52513819932937622 0.13721558451652527 0
0.70268285274505615 0.10879597067832947 0
0.88050359487533569 0.084307156503200531 0
0.99322682619094849 0.064375080168247223 0
1 0.046057816594839096 0
1 0.031341612339019775 0
0.0022290698252618313 0.25569704174995422 0.00017335181473754346
0.0025763118173927069 0.26449787616729736 8.9757583054961287e-07
0.0083343060687184334 0.27466931939125061 0
0.031320862472057343 0.28232249617576599 0.0001161163963843137
0.081903047859668732 0.28500455617904663 0.00078970217145979404
0.16945101320743561 0.27919155359268188 0.0010874730069190264
0.30120262503623962 0.26110091805458069 0.00031842998578213155
0.46654406189918518 0.23564650118350983 0
0.65455049276351929 0.20947575569152832 0
0.8471914529800415 0.18543997406959534 0
0.98488259315490723 0.16239030659198761 0
1 0.13748989999294281 0
1 0.11501965671777725 0
0 0.33804255723953247 0
0 0.35124251246452332 0
2.4084951292024925e-05 0.36628669500350952 0
0.0061030518263578415 0.37911352515220642 0
0.042297661304473877 0.38712790608406067 0
0.1152268648147583 0.3871302604675293 0
0.23322960734367371 0.37648540735244751 0
0.39364099502563477 0.3571324348449707 0
0.58516258001327515 0.33448898792266846 0
0.78886944055557251 0.31183570623397827 0
0.95949375629425049 0.28808090090751648 0.00046898337313905358
1 0.25828886032104492 5.9240005612082314e-06
1 0.22934439778327942 0
0 0.44080039858818054 0
0 0.45820048451423645 0
0 0.47751593589782715 0
0.00029011146398261189 0.49402335286140442 0
0.018044834956526756 0.50449204444885254 0
0.072236016392707825 0.50794404745101929 0
0.16996952891349792 0.50340777635574341 0
0.3149878978729248 0.49058496952056885 0
0.4993915855884552 0.4714103639125824 0
0.70388162136077881 0.44983625411987305 0
0.89460664987564087 0.42531329393386841 8.8770248112268746e-05
0.9965444803237915 0.3944719135761261 2.6328891635785112e-06
1 0.36271607875823975 0
0 0.55974513292312622 0
0 0.5803295373916626 0
0 0.60252588987350464 0
0 0.62057644128799438 4.1841991333058104e-05
0.0053080390207469463 0.63118380308151245 0.00022686229203827679
0.039330679923295975 0.63659548759460449 0.00011873432231368497
0.11478465795516968 0.6366695761680603 2.8722427032334963e-06
0.24031499028205872 0.62938809394836426 0
0.41239085793495178 0.61408376693725586 0
0.61129790544509888 0.59342056512832642 0
0.80869799852371216 0.56941062211990356 0
0.97135078907012939 0.53906834125518799 0
1 0.50634610652923584 0
0 0.68876302242279053 0
0 0.71119588613510132 0
0 0.73382651805877686 0
0 0.75158631801605225 7.2703638579696417e-05
0.00021700392244383693 0.76205426454544067 0.00052731082541868091
0.014041347429156303 0.76849806308746338 0.00098591228015720844
0.06854952871799469 0.7730594277381897 0.002088883426040411
0.17318196594715118 0.7716260552406311 0.0014121710555627942
0.33038341999053955 0.75980943441390991 0.00025232351617887616
0.52193856239318848 0.74097996950149536 0
0.72118431329727173 0.71893465518951416 0
0.92319363355636597 0.68887984752655029 0
1 0.65550976991653442 0
0 0.82402557134628296 0
0 0.84632992744445801 0
0 0.86800104379653931 0
0 0.88482749462127686 0
0 0.89560830593109131 0
0.0010970620205625892 0.90348130464553833 2.3037780465529067e-06
0.029917623847723007 0.91155564785003662 0.0010223687859252095
0.11215664446353912 0.91533780097961426 0.0032515283674001694
0.24853436648845673 0.90812861919403076 0.0019049850525334477
0.42451596260070801 0.89267653226852417 7.0010914896556642e-06
0.61995166540145874 0.87384206056594849 0
0.84172481298446655 0.84460544586181641 0
0.99361222982406616 0.81018531322479248 0
0 0.95846760272979736 0
0 0.97352856397628784 0
0 0.98506683111190796 0
0 0.99155718088150024 0
0 0.99527066946029663 0
0 0.99701070785522461 0
0.0062526180408895016 0.99873799085617065 0
0.065667949616909027 0.9996110200881958 0
0.17825128138065338 0.99887353181838989 0
0.33140608668327332 0.9964979887008667 0
0.51634055376052856 0.9923703670501709 0
0.73569440841674805 0.98128336668014526 0
0.94639801979064941 0.96162110567092896 0
0.098196439445018768 0.066715717315673828 0.13323734700679779
0.10845966637134552 0.064092956483364105 0.1371285617351532
0.12631227076053619 0.059187766164541245 0.13681253790855408
