assets/lut/ohadperetz subtle yellow.cube
# Created by: G'MIC (https://gmic.eu)
TITLE "subtle_yellow"
# LUT size
LUT_3D_SIZE 13
# Data domain
DOMAIN_MIN 0.0 0.0 0.0
DOMAIN_MAX 1.0 1.0 1.0
# LUT data points
0.0039838156662881374 0.0011423297692090273 0.0018395368242636323
0.041798818856477737 0.00013284121814649552 0.0028636108618229628
0.13227967917919159 0 0.00028104594093747437
0.31621703505516052 8.1679398135747761e-05 2.2753547455067746e-05
0.53954702615737915 9.3347889560391195e-06 4.2978921555913985e-05
0.72320067882537842 0 0
0.84843772649765015 0 0.00039945114986039698
0.91775012016296387 0 0.0014334734296426177
0.95180696249008179 0 4.0450751839671284e-05
0.96423369646072388 0 0
0.96505242586135864 0 0
0.96263432502746582 0 0
0.96358126401901245 0 0
0.00025709564215503633 0.026119815185666084 0
0.02068602666258812 0.015438439324498177 0.00022134219761937857
0.085013777017593384 0.010069005191326141 5.0264247875020374e-06
0.22521483898162842 0.0040742014534771442 0
0.44195234775543213 0 0
0.66124379634857178 0 0
0.82202333211898804 0 0
0.90992236137390137 0 0
0.9479096531867981 0 0
0.95998364686965942 0 0
0.95885276794433594 0 0
0.95380032062530518 0 0
0.95276814699172974 0 0
0 0.070832662284374237 0
0.0045019113458693027 0.061823226511478424 0
0.051878731697797775 0.054534297436475754 0
0.14923270046710968 0.038985695689916611 0
0.34316644072532654 0.0089579867199063301 0
0.5886579155921936 0.0011002634419128299 0
0.78483778238296509 1.1668485967675224e-05 0
0.89374393224716187 0 0
0.94166702032089233 0 0
0.95954620838165283 0 0
0.96124321222305298 0 0
0.95384299755096436 0 0
0.95015484094619751 0 0
0 0.12575154006481171 0
0.0015697553753852844 0.11271101981401443 0
0.025518739596009254 0.10738085210323334 0
0.086390569806098938 0.096814818680286407 0
0.24462795257568359 0.066666364669799805 0.00049425015458837152
0.49352216720581055 0.033604148775339127 0.0021267160773277283
0.72409713268280029 0.010043036192655563 0.002240289468318224
0.86979734897613525 0.0010442247148603201 0.00057217467110604048
0.93728262186050415 0.00011901855759788305 3.6755729524884373e-05
0.96875673532485962 0.001064300537109375 0
0.97859734296798706 0.0035273833200335503 0
0.97035735845565796 0.0040453146211802959 0.00018630681734066457
0.96158498525619507 0.0026302861515432596 0.00050874595763161778
0 0.22198954224586487 0
4.2126226617256179e-05 0.19863814115524292 0
0.0045748092234134674 0.18617863953113556 0
0.03773745521903038 0.17704916000366211 0
0.15253743529319763 0.15903463959693909 8.8979686552193016e-05
0.3810020387172699 0.11974973231554031 0.00084388582035899162
0.64962667226791382 0.081221744418144226 0.0021206126548349857
0.85094112157821655 0.055312976241111755 0.0023645886685699224
0.95162385702133179 0.049586590379476547 0.0038943721447139978
0.99124383926391602 0.063090592622756958 0.0066253361292183399
0.99859380722045898 0.073450259864330292 0.010033491998910904
0.99426239728927612 0.069114997982978821 0.01717771589756012
0.98617732524871826 0.060310736298561096 0.018435340374708176
0 0.36940762400627136 0
0 0.3404386043548584 0
1.9447476006462239e-05 0.31544753909111023 0
0.0080746673047542572 0.30071428418159485 0
0.073104023933410645 0.29443717002868652 0
0.26181215047836304 0.26956534385681152 0
0.55417907238006592 0.22720950841903687 0
0.81541705131530762 0.19491159915924072 0.00027848785975947976
0.96256142854690552 0.19117887318134308 0.0092017678543925285
0.99980080127716064 0.21094997227191925 0.035673748701810837
1 0.22691202163696289 0.065143570303916931
0.99998539686203003 0.21600009500980377 0.076255947351455688
0.99927324056625366 0.19333301484584808 0.069984167814254761
0 0.5542486310005188 0
0 0.52669632434844971 0
0 0.49588698148727417 0
0.00044048533891327679 0.47240513563156128 0
0.026540270075201988 0.46565127372741699 0
0.15609575808048248 0.45911654829978943 0
0.41087844967842102 0.43346822261810303 0
0.71517759561538696 0.3954409658908844 7.4872783443424851e-05
0.92569160461425781 0.38264721632003784 0.01146386843174696
0.99763786792755127 0.40116456151008606 0.052865661680698395
0.99998480081558228 0.42295339703559875 0.10392701625823975
0.99806880950927734 0.41399642825126648 0.12350603193044662
0.99512237310409546 0.38363972306251526 0.1158374696969986
0.0016608145087957382 0.75133711099624634 0.00090177945094183087
8.2262828072998673e-05 0.73116499185562134 4.083969906787388e-05
0 0.70276224613189697 0
0 0.67219328880310059 0
0.0096720531582832336 0.65689647197723389 0.00018745871784631163
0.090830981731414795 0.66159313917160034 0.0018320869421586394
0.28970372676849365 0.6535605788230896 0.0025950861163437366
0.58694130182266235 0.61887717247009277 0.0010646147420629859
0.84387904405593872 0.59294027090072632 0.0075812097638845444
0.97929215431213379 0.59610450267791748 0.038541816174983978
1 0.61361932754516602 0.084852360188961029
0.99672681093215942 0.61450332403182983 0.11705024540424347
0.98577255010604858 0.5877150297164917 0.12284707278013229
0.022480325773358345 0.92145371437072754 0.019113712012767792
0.013854546472430229 0.91322296857833862 0.011568241752684116
0.0090721724554896355 0.89443767070770264 0.0077364454045891762
0.0061701755039393902 0.86749541759490967 0.0066478503867983818
0.012331569567322731 0.8521806001663208 0.0082218395546078682
0.066849067807197571 0.8542104959487915 0.015167445875704288
0.21724595129489899 0.85256165266036987 0.019864115864038467
0.46849173307418823 0.82578343152999878 0.015741132199764252
0.73983287811279297 0.78890413045883179 0.0098500121384859085
0.93657797574996948 0.7705046534538269 0.016132684424519539
0.99965173006057739 0.7758449912071228 0.043668992817401886
0.99705249071121216 0.78293013572692871 0.080579809844493866
0.9825776219367981 0.76491475105285645 0.10128984600305557
0.074158750474452972 0.9979204535484314 0.067929886281490326
0.065222688019275665 0.99813836812973022 0.058991212397813797
0.0559857077896595 0.99577933549880981 0.050758630037307739
0.044903263449668884 0.99045157432556152 0.043300479650497437
0.039396174252033234 0.98768025636672974 0.04086577519774437
0.071385011076927185 0.98664987087249756 0.0490151047706604
0.17839184403419495 0.9858132004737854 0.055996119976043701
0.3822806179523468 0.97151923179626465 0.049649465829133987
0.64419341087341309 0.93527799844741821 0.030974129214882851
0.87251830101013184 0.90680384635925293 0.015613975003361702
0.98901331424713135 0.90133821964263916 0.021731492131948471
0.99903053045272827 0.90719664096832275 0.049935359507799149
0.98933863639831543 0.90051907300949097 0.074384085834026337
0.14388519525527954 1 0.13568927347660065
0.13927547633647919 1 0.13060896098613739
0.12810021638870239 1 0.12207689136266708
0.10579130798578262 1 0.10943524539470673
0.087002217769622803 1 0.10181232541799545
0.10040193796157837 1 0.10481847077608109
0.17562243342399597 1 0.10797896981239319
0.33680707216262817 1 0.098643600940704346
0.5673641562461853 0.99767220020294189 0.073611468076705933
0.80027711391448975 0.98783713579177856 0.044523980468511581
0.95719325542449951 0.98348879814147949 0.031055854633450508
0.99976474046707153 0.9868011474609375 0.040092796087265015
0.99982297420501709 0.98588508367538452 0.056246664375066757
0.20268186926841736 0.99625635147094727 0.194424107670784
0.20259962975978851 0.99748080968856812 0.19482928514480591
0.1934533566236496 0.99902939796447754 0.19080811738967896
0.16667570173740387 0.99999940395355225 0.17866559326648712
0.14193081855773926 1 0.1697072833776474
0.14320777356624603 1 0.16835051774978638
0.19308054447174072 1 0.16796959936618805
0.31229647994041443 1 0.15786422789096832
0.50631475448608398 1 0.13009573519229889
0.73725849390029907 1 0.0900765061378479
0.92722839117050171 1 0.057718075811862946
0.99973475933074951 1 0.046177823096513748
1 1 0.048796109855175018
0.24061322212219238 0.97924667596817017 0.23278798162937164
0.24033904075622559 0.98087126016616821 0.2354394793510437
0.23177649080753326 0.98654776811599731 0.23506787419319153
0.21256949007511139 0.99614733457565308 0.23101413249969482
0.19262512028217316 0.99976819753646851 0.22672431170940399
0.19036899507045746 1 0.22515043616294861
0.22285248339176178 1 0.22336798906326294
0.30941599607467651 0.99949783086776733 0.21391955018043518
0.47111538052558899 0.99746304750442505 0.1855449378490448
0.69521516561508179 0.99683552980422974 0.13758063316345215
0.90438050031661987 0.99834346771240234 0.091084979474544525
0.99927055835723877 0.99991148710250854 0.063944019377231598
1 1 0.054009530693292618
0.0014422248350456357 0.00065769866341724992 0.03843320906162262
0.038844417780637741 6.8215763349144254e-06 0.042149189859628677
0.12756475806236267 9.7237381851300597e-05 0.02476532943546772
0.29943990707397461 0.001208077184855938 0.0090840952470898628
0.53322356939315796 0.00035569432657212019 8.5808249423280358e-05
0.73531830310821533 0 0
0.86380195617675781 0.00048054713988676667 0
0.92884534597396851 0.00037144680391065776 0
0.95719164609909058 0 0
0.96523493528366089 0 0
0.96338284015655518 0 0
0.95987659692764282 0 0
0.96065855026245117 0 0
0 0.02555408887565136 0.014755084179341793
0.017523461952805519 0.013884196989238262 0.018047317862510681
0.083951570093631744 0.009168572723865509 0.0113423066213727
0.21312838792800903 0.004510961938649416 0.0062870248220860958
0.4292043149471283 4.1468003473710269e-05 0.00010447782551636919
0.66099041700363159 0 0
0.82787811756134033 0 0
0.91547286510467529 0 0
0.95001804828643799 0 0
0.95873522758483887 0 0
0.95587170124053955 0 0
0.95047342777252197 0 0
0.9506574273109436 0 0
0 0.070816129446029663 0.0043527190573513508
0.005289668682962656 0.05970928817987442 0.0027148975059390068
0.048670046031475067 0.051799491047859192 0.0017052594339475036
0.1382373571395874 0.03875134140253067 0.0011810152791440487
0.32675719261169434 0.013860112056136131 4.846909359912388e-05
0.57555830478668213 0.0016628040466457605 0.00057458318769931793
0.77875113487243652 0 3.321030453662388e-05
0.89249169826507568 0 0
0.9400896430015564 0 0
0.95615512132644653 0 0
0.95618724822998047 0 0
0.94950670003890991 0 0
0.94969397783279419 0 0
0 0.12468484789133072 0.00050075753824785352
0.0015005822060629725 0.11017666757106781 0.00012136721488786861
0.023601695895195007 0.1019783616065979 1.2835334018745925e-05
0.084512151777744293 0.092667058110237122 0
0.23477257788181305 0.067480869591236115 0.0014742682687938213
0.47692355513572693 0.035175848752260208 0.0051077152602374554
0.71149671077728271 0.0091964276507496834 0.0016221589175984263
0.86316770315170288 0.00053197820670902729 9.4245461923492257e-07
0.93402808904647827 0 0
0.96577972173690796 0.0013446733355522156 0
0.97363376617431641 0.0069718752056360245 2.0614324967027642e-05
0.96649903059005737 0.007121620699763298 0.0009048910578712821
0.96546465158462524 0.00089712702902033925 0
0 0.21392959356307983 0
1.7772001228877343e-05 0.19071778655052185 0
0.004209600854665041 0.17524886131286621 0
0.037079665809869766 0.16582150757312775 0
0.14618474245071411 0.15225373208522797 0.00097578461281955242
0.36501839756965637 0.12000036984682083 0.0025074230507016182
0.63155311346054077 0.07987435907125473 0.001314066001214087
0.83844232559204102 0.050304621458053589 4.3592266592895612e-05
0.94828212261199951 0.043752498924732208 0.0026620004791766405
0.99095726013183594 0.060343123972415924 0.0060550463385879993
0.9973950982093811 0.076236262917518616 0.012592569924890995
0.99307698011398315 0.0675993412733078 0.016469663009047508
0.99174690246582031 0.045472029596567154 0.0043914048001170158
0 0.35511201620101929 0
0 0.32645872235298157 0
0 0.30217370390892029 0
0.0053115696646273136 0.28773123025894165 0
0.067222282290458679 0.28266763687133789 0
0.24921113252639771 0.26324564218521118 0
0.53376328945159912 0.2232528030872345 0
0.79864656925201416 0.18912987411022186 0
0.95956516265869141 0.18248820304870605 0.0039856107905507088
0.99993902444839478 0.20249436795711517 0.03192138671875
1 0.22074972093105316 0.065954901278018951
0.99995505809783936 0.2081497460603714 0.073720403015613556
0.99999809265136719 0.17887057363986969 0.055420462042093277
0 0.54028439521789551 0
0 0.51191455125808716 0
0 0.48449364304542542 0
0 0.46239307522773743 0
0.018108189105987549 0.45430651307106018 0
0.14387223124504089 0.44909203052520752 0
0.39801588654518127 0.42549601197242737 0
0.69866788387298584 0.38975793123245239 0
0.92034244537353516 0.37422233819961548 0.0061496659182012081
0.99862146377563477 0.38960236310958862 0.045416396111249924
1 0.41230836510658264 0.09969831258058548
0.99809640645980835 0.40663152933120728 0.12350033223628998
0.9941558837890625 0.37479373812675476 0.11280599981546402
0.00016374775441363454 0.74196279048919678 0.00012796439114026725
0 0.71518987417221069 0
0 0.68944531679153442 0
0 0.66236358880996704 0
0.0025492052081972361 0.64680427312850952 5.9838390598088154e-07
0.07377941906452179 0.65007144212722778 0.00053770776139572263
0.27026781439781189 0.64547514915466309 0.0011874031042680144
0.56685334444046021 0.61366087198257446 0.00012841318675782531
0.83780753612518311 0.58487439155578613 0.002106894738972187
0.98428070545196533 0.58415687084197998 0.02914804220199585
1 0.60408014059066772 0.082130074501037598
0.99723076820373535 0.60935801267623901 0.12121299654245377
0.98584443330764771 0.58157026767730713 0.12720051407814026
0.015427772887051105 0.92040246725082397 0.014709128998219967
0.010402544401586056 0.89754688739776611 0.0087644243612885475
0.0088934209197759628 0.88020074367523193 0.0070005827583372593
0.0044245999306440353 0.85923486948013306 0.0060360031202435493
0.0038852617144584656 0.84163790941238403 0.0066008623689413071
0.051485937088727951 0.84184592962265015 0.012298509478569031
0.20255888998508453 0.84150338172912598 0.015951493754982948
0.45896068215370178 0.8162081241607666 0.010320805944502354
0.73855435848236084 0.78012824058532715 0.0023838717024773359
0.93880331516265869 0.76071572303771973 0.0090987710282206535
0.99944877624511719 0.76580500602722168 0.042758524417877197
0.99866980314254761 0.77359998226165771 0.083770677447319031
0.98641854524612427 0.75708407163619995 0.10490164905786514
0.070564195513725281 0.99885457754135132 0.066250517964363098
0.062863215804100037 0.99549674987792969 0.057053733617067337
0.055371303111314774 0.99264794588088989 0.048255562782287598
0.0435318723320961 0.98916137218475342 0.041441675275564194
0.033398393541574478 0.98337423801422119 0.040690358728170395
0.062419261783361435 0.9808727502822876 0.04694550484418869
0.17311158776283264 0.97909677028656006 0.051493071019649506
0.38281965255737305 0.96344590187072754 0.043142564594745636
0.64593404531478882 0.92985588312149048 0.023493209853768349
0.87319499254226685 0.90224975347518921 0.009920741431415081
0.98898816108703613 0.89546948671340942 0.019337942823767662
0.99981600046157837 0.89797049760818481 0.049164820462465286
0.99654340744018555 0.88992536067962646 0.07387688010931015
0.1460953950881958 1 0.14029897749423981
0.1356942355632782 1 0.12811432778835297
0.12197959423065186 1 0.11461979150772095
0.10204484313726425 1 0.10333395749330521
0.084299512207508087 1 0.098816186189651489
0.09644482284784317 1 0.1021931990981102
0.17323260009288788 1 0.10429521650075912
0.33704659342765808 1 0.094231188297271729
0.56935274600982666 0.99750739336013794 0.067824706435203552
0.80488497018814087 0.98880785703659058 0.038723889738321304
0.96332985162734985 0.98437690734863281 0.026476752012968063
1 0.9833378791809082 0.036639809608459473
1 0.97847485542297363 0.052776545286178589
0.20395389199256897 0.99773043394088745 0.19855797290802002
0.19612966477870941 0.99994188547134399 0.1889621913433075
0.18206529319286346 1 0.17827555537223816
0.16109634935855865 1 0.1692851334810257
0.14235810935497284 1 0.16426555812358856
0.14533652365207672 1 0.1647830605506897
0.19428668916225433 1 0.16485725343227386
0.31393381953239441 1 0.15402007102966309
0.51005071401596069 1 0.12523487210273743
0.73993098735809326 1 0.086142115294933319
0.92823082208633423 1 0.055724740028381348
0.99976783990859985 1 0.044740907847881317
1 1 0.0465201735496521
0.23654951155185699 0.98727834224700928 0.23065890371799469
0.23243671655654907 0.99297171831130981 0.22730547189712524
0.22325052320957184 0.99686217308044434 0.22330696880817413
0.21006162464618683 0.99879270792007446 0.22248256206512451
0.19653099775314331 0.99960190057754517 0.22148418426513672
0.19688712060451508 0.99970126152038574 0.22166882455348969
0.22771194577217102 0.99970126152038574 0.22076807916164398
0.3142581582069397 0.99936151504516602 0.21036769449710846
0.47668400406837463 0.99886304140090942 0.18127819895744324
0.69279855489730835 0.99899899959564209 0.13647466897964478
0.89391285181045532 0.99988424777984619 0.09361681342124939
0.99692630767822266 1 0.065809361636638641
1 1 0.053270719945430756
0.0010764178587123752 0.0040018418803811073 0.12878461182117462
0.031954508274793625 0.00081024167593568563 0.13613176345825195
0.11917115747928619 3.8894954741408583e-06 0.11703424155712128
0.28316584229469299 0.00026001274818554521 0.075225502252578735
0.52709776163101196 5.4647407523589209e-05 0.020424442365765572
0.74037331342697144 0 0.0019504771335050464
0.86819601058959961 0.00042959474376402795 0.00023531446640845388
0.93178373575210571 0.00026312435511499643 0.00042589972144924104
0.95762091875076294 0 0.00068046717206016183
0.96464055776596069 0 7.7789904025848955e-05
0.96285229921340942 0 0
0.96004301309585571 0 0
0.96125513315200806 0 0
0 0.029404450207948685 0.068976610898971558
0.0099164927378296852 0.018136251717805862 0.081005692481994629
0.075861506164073944 0.0071283080615103245 0.075548477470874786
0.2006051242351532 0.0019255245570093393 0.054638732224702835
0.41626882553100586 9.8733344202628359e-06 0.014920433051884174
0.65618735551834106 0 0.00010815788846230134
0.82563239336013794 0 0
0.91272532939910889 0 0
0.94765985012054443 0 0
0.95774990320205688 0 0
0.9560968279838562 0 0
0.95229947566986084 0 0
0.95342928171157837 0 0
0 0.072440668940544128 0.036410238593816757
0.0023559569381177425 0.061002440750598907 0.039547398686408997
0.044253792613744736 0.047359734773635864 0.041310254484415054
0.13092680275440216 0.032402817159891129 0.032601360231637955
0.31200191378593445 0.01449172105640173 0.011617638170719147
0.56425219774246216 0.0030395358335226774 0.00083356373943388462
0.77055191993713379 0 1.3463637515087612e-05
0.88571494817733765 0 0
0.93555992841720581 0 0
0.95404547452926636 0 0
0.95630508661270142 0 0
0.95236265659332275 0 0
0.95383334159851074 0 0
0 0.12452108412981033 0.014554237015545368
0.00055396882817149162 0.10959175229072571 0.013870822265744209
0.019591357558965683 0.09774412214756012 0.014957517385482788
0.081045545637607574 0.08714873343706131 0.014769610017538071
0.22429335117340088 0.067564763128757477 0.0084284460172057152
0.4645848274230957 0.036675442010164261 0.0034333772491663694
0.70000177621841431 0.010369918309152126 0.00010600370296742767
0.85312330722808838 0.00080608291318640113 0
0.92666220664978027 1.9387638531043194e-05 0
0.96092110872268677 0.0022414862178266048 0
0.97096109390258789 0.0090019525960087776 0
0.96723151206970215 0.0086976448073983192 0
0.96756917238235474 0.0014716204022988677 0
0 0.20668779313564301 0.001850562053732574
0 0.18568235635757446 0.0012463289313018322
0.0032379897311329842 0.16985480487346649 0.0042825439013540745
0.036372389644384384 0.1615716964006424 0.0096107181161642075
0.14111348986625671 0.14943969249725342 0.0069417166523635387
0.35498324036598206 0.11725924909114838 0.00093645579181611538
0.61745345592498779 0.077463142573833466 7.1806067580837407e-07
0.8230968713760376 0.050003007054328918 0
0.93611335754394531 0.043797094374895096 0.002384380204603076
0.98486363887786865 0.059864073991775513 0.009861246682703495
0.9935605525970459 0.076455198228359222 0.015757795423269272
0.98922783136367798 0.069453909993171692 0.011376384645700455
0.98901981115341187 0.048123303800821304 0.0017031800234690309
0 0.34000915288925171 0
0 0.31519618630409241 0
0 0.29524043202400208 0.00026855469332076609
0.0054558697156608105 0.28331100940704346 0.0021372626069933176
0.065846778452396393 0.27625930309295654 0.0014289856189861894
0.24142648279666901 0.25534588098526001 2.804924406518694e-05
0.51768380403518677 0.21677596867084503 0
0.77982813119888306 0.18381889164447784 0
0.94344061613082886 0.17708984017372131 0.0051553612574934959
0.99865210056304932 0.19598647952079773 0.036212068051099777
0.9996635913848877 0.21527209877967834 0.07159944623708725
0.99712425470352173 0.20405921339988708 0.073247261345386505
0.9993022084236145 0.17560529708862305 0.050810348242521286
0 0.52279925346374512 0
0 0.49650195240974426 0
0 0.47388184070587158 0
0 0.45408609509468079 0
0.018599925562739372 0.44431406259536743 0
0.14002035558223724 0.43717244267463684 0
0.38824188709259033 0.41367539763450623 0
0.68625205755233765 0.37808573246002197 0
0.90413397550582886 0.36385798454284668 0.006434751208871603
0.99553436040878296 0.37795025110244751 0.045377366244792938
0.99996501207351685 0.4007430374622345 0.10071057826280594
0.99765455722808838 0.39673110842704773 0.12399422377347946
0.99555075168609619 0.36525627970695496 0.11440069228410721
6.2231927586253732e-05 0.72560447454452515 0.00029599058325402439
0 0.6978142261505127 0
0 0.67492365837097168 0
0 0.65092772245407104 0
0.0026037776842713356 0.63400936126708984 0
0.072817832231521606 0.63404548168182373 0.00015136120782699436
0.26897913217544556 0.6273043155670166 0.00085226318333297968
0.55829572677612305 0.59787476062774658 7.3376824730075896e-05
0.82308220863342285 0.57171308994293213 0.0017221488524228334
0.97612506151199341 0.57115942239761353 0.02868327684700489
1 0.59116792678833008 0.082002170383930206
0.99804979562759399 0.59917169809341431 0.12368559092283249
0.98964065313339233 0.57237392663955688 0.13071149587631226
0.013672518543899059 0.90699613094329834 0.014296707697212696
0.010759720578789711 0.88145792484283447 0.0078157465904951096
0.010396142490208149 0.86498081684112549 0.0058282888494431973
0.0050327074714004993 0.84710800647735596 0.0045895297080278397
0.0038278317078948021 0.82659351825714111 0.0052160373888909817
0.050401352345943451 0.82393234968185425 0.010193843394517899
0.200661301612854 0.82314163446426392 0.01425781287252903
0.452862948179245 0.80019325017929077 0.0083149783313274384
0.72900980710983276 0.76638984680175781 0.00090810738038271666
0.92925286293029785 0.74850642681121826 0.0083575081080198288
0.99856710433959961 0.75512897968292236 0.044670015573501587
0.99986511468887329 0.76469337940216064 0.087015978991985321
0.9952206015586853 0.74896812438964844 0.10737292468547821
0.067361436784267426 0.99698054790496826 0.064354196190834045
0.060880128294229507 0.99156701564788818 0.054612897336483002
0.054567642509937286 0.98820716142654419 0.04549325630068779
0.043032195419073105 0.98493754863739014 0.039159078150987625
0.033446863293647766 0.97634923458099365 0.03874390572309494
0.061773620545864105 0.97184795141220093 0.045060895383358002
0.1706002801656723 0.96946316957473755 0.050154682248830795
0.3772638738155365 0.95361834764480591 0.041351843625307083
0.63856315612792969 0.92039948701858521 0.02104695700109005
0.86459732055664062 0.89433377981185913 0.0091369030997157097
0.98555803298950195 0.88879704475402832 0.022202914580702782
1 0.89141196012496948 0.050990864634513855
0.99994051456451416 0.88114970922470093 0.073497951030731201
0.14177601039409637 1 0.13759569823741913
0.1309339851140976 1 0.12399397045373917
0.11726512759923935 1 0.10930805653333664
0.10031727701425552 1 0.09868139773607254
0.086144544184207916 1 0.095850974321365356
0.098599240183830261 1 0.099956899881362915
0.1718432754278183 1 0.10373367369174957
0.3306441605091095 0.9999731183052063 0.09383353590965271
0.56138426065444946 0.9963194727897644 0.066717840731143951
0.79575115442276001 0.98661613464355469 0.038170743733644485
0.9572334885597229 0.98134690523147583 0.028758404776453972
1 0.97869586944580078 0.037500135600566864
