assets/lut/ohadperetz cold simplicity 2.cube
# Created by: G'MIC (https://gmic.eu)
TITLE "cold_simplicity_2"
# LUT size
LUT_3D_SIZE 13
# Data domain
DOMAIN_MIN 0.0 0.0 0.0
DOMAIN_MAX 1.0 1.0 1.0
# LUT data points
0.011764706112444401 0.011764706112444401 0.011764706112444401
0.0095733646303415298 0.0096390964463353157 0.00929234828799963
0.010461007244884968 0.0099624181166291237 0.0097566638141870499
0.037154670804738998 0.031562760472297668 0.031495667994022369
0.090634562075138092 0.057508282363414764 0.057478796690702438
0.25127175450325012 0.070853888988494873 0.083246283233165741
0.5037388801574707 0.074274368584156036 0.11916842311620712
0.70082324743270874 0.11396077275276184 0.16568374633789062
0.81214320659637451 0.17672966420650482 0.19376516342163086
0.90248256921768188 0.2481042742729187 0.21089546382427216
0.9345782995223999 0.30833113193511963 0.20684275031089783
0.94250029325485229 0.32225653529167175 0.2108127623796463
0.94776177406311035 0.32648080587387085 0.21681363880634308
0.012341458350419998 0.012311120517551899 0.012198548763990402
0.015334947966039181 0.015484110452234745 0.015032120980322361
0.023663809522986412 0.023449646309018135 0.022498276084661484
0.043708037585020065 0.039962168782949448 0.038385681807994843
0.092114284634590149 0.062045153230428696 0.057433288544416428
0.24225033819675446 0.075748026371002197 0.076209753751754761
0.48179781436920166 0.080760061740875244 0.10643935948610306
0.6843305230140686 0.11770536005496979 0.15748687088489532
0.80796104669570923 0.1786363273859024 0.18752920627593994
0.89922070503234863 0.24819004535675049 0.20540831983089447
0.93125736713409424 0.31201118230819702 0.20162846148014069
0.94197899103164673 0.33305501937866211 0.2036018967628479
0.94993692636489868 0.33842131495475769 0.20921169221401215
0.019976820796728134 0.02061951532959938 0.019925450906157494
0.029240312054753304 0.030507165938615799 0.028746571391820908
0.038395527750253677 0.039257243275642395 0.036421157419681549
0.053311709314584732 0.049847383052110672 0.045755170285701752
0.091665245592594147 0.066019557416439056 0.057011667639017105
0.22426603734493256 0.083063133060932159 0.067027434706687927
0.45436528325080872 0.088842920958995819 0.094826117157936096
0.66261351108551025 0.12229291349649429 0.14756464958190918
0.79817050695419312 0.18251088261604309 0.18082082271575928
0.88593560457229614 0.25066325068473816 0.19700351357460022
0.92768895626068115 0.32140323519706726 0.19420157372951508
0.94310474395751953 0.3446357250213623 0.19601000845432281
0.95222979784011841 0.349437415599823 0.20210860669612885
0.040853478014469147 0.044822182506322861 0.04113229364156723
0.044999741017818451 0.049549445509910583 0.045141182839870453
0.049961958080530167 0.053760424256324768 0.047826670110225677
0.061151497066020966 0.060548402369022369 0.052729707211256027
0.093245469033718109 0.075312070548534393 0.056505899876356125
0.22240900993347168 0.096699073910713196 0.057015556842088699
0.4352080225944519 0.10446035116910934 0.081735961139202118
0.625324547290802 0.13711510598659515 0.13081653416156769
0.77627682685852051 0.18867640197277069 0.17384256422519684
0.87931877374649048 0.25321295857429504 0.19237890839576721
0.92627722024917603 0.32528069615364075 0.18951714038848877
0.94029945135116577 0.35511162877082825 0.18665942549705505
0.95145493745803833 0.36013448238372803 0.18964409828186035
0.050404239445924759 0.096184857189655304 0.067254088819026947
0.055646125227212906 0.095072776079177856 0.067341990768909454
0.061285488307476044 0.095647014677524567 0.066342808306217194
0.069568991661071777 0.099843241274356842 0.066270656883716583
0.10004755854606628 0.11173465102910995 0.059708300977945328
0.21409271657466888 0.12817087769508362 0.039244841784238815
0.42115932703018188 0.13979281485080719 0.065847240388393402
0.61526179313659668 0.17152149975299835 0.11610059440135956
0.77128446102142334 0.20853295922279358 0.16422569751739502
0.88189148902893066 0.25638055801391602 0.19014111161231995
0.92475903034210205 0.32080420851707458 0.18730846047401428
0.93779116868972778 0.36107715964317322 0.18018847703933716
0.94857019186019897 0.36570572853088379 0.18300153315067291
0.029940526932477951 0.17991527915000916 0.092088021337985992
0.042290810495615005 0.17986491322517395 0.093651972711086273
0.052329868078231812 0.17902322113513947 0.090568140149116516
0.067491225898265839 0.1849953830242157 0.086480081081390381
0.09782746434211731 0.19104193150997162 0.074888221919536591
0.20289915800094604 0.20013530552387238 0.051916278898715973
0.41152563691139221 0.20536467432975769 0.050534747540950775
0.6392521858215332 0.24255222082138062 0.1041979044675827
0.78822135925292969 0.28515481948852539 0.14628861844539642
0.8770785927772522 0.3380686342716217 0.16546586155891418
0.9092220664024353 0.39197039604187012 0.16326920688152313
0.92253154516220093 0.41701936721801758 0.15957708656787872
0.9326779842376709 0.41478922963142395 0.16460888087749481
0.019344404339790344 0.2834509015083313 0.13024583458900452
0.028412284329533577 0.28146925568580627 0.12728013098239899
0.038485210388898849 0.27541252970695496 0.1203688383102417
0.05455055832862854 0.27415665984153748 0.1159353032708168
0.084494605660438538 0.27822709083557129 0.10629676282405853
0.17912778258323669 0.31786739826202393 0.093816213309764862
0.38007771968841553 0.31864798069000244 0.065469078719615936
0.6431695818901062 0.32337343692779541 0.087457142770290375
0.7853732705116272 0.38259169459342957 0.12015171349048615
0.85773563385009766 0.44109973311424255 0.13233588635921478
0.88026493787765503 0.49884778261184692 0.12724272906780243
0.8910139799118042 0.51954960823059082 0.12710985541343689
0.8979417085647583 0.52184051275253296 0.13088031113147736
0.030358796939253807 0.41145715117454529 0.18973603844642639
0.036374036222696304 0.4083426296710968 0.18122647702693939
0.045974176377058029 0.40416240692138672 0.17441615462303162
0.060420691967010498 0.39568400382995605 0.16546736657619476
0.087161615490913391 0.40149345993995667 0.15566779673099518
0.15615715086460114 0.44816878437995911 0.14861775934696198
0.3450656533241272 0.50692760944366455 0.13064450025558472
0.6125074028968811 0.48689502477645874 0.09048888087272644
0.76916176080703735 0.48675400018692017 0.09822884202003479
0.83238083124160767 0.53100061416625977 0.10867957025766373
0.84756910800933838 0.58010768890380859 0.10766170918941498
0.86154592037200928 0.59440189599990845 0.11201395094394684
0.8708423376083374 0.59521687030792236 0.11727391928434372
0.046393852680921555 0.54195797443389893 0.24122056365013123
0.052506331354379654 0.53748315572738647 0.23071780800819397
0.060972295701503754 0.53069770336151123 0.22327139973640442
0.073756963014602661 0.5259290337562561 0.21788811683654785
0.10192511975765228 0.53469169139862061 0.20966809988021851
0.18962129950523376 0.57972872257232666 0.1985664963722229
0.33408275246620178 0.64367467164993286 0.18558093905448914
0.55692547559738159 0.67712181806564331 0.14700023829936981
0.71766358613967896 0.6206289529800415 0.10285075753927231
0.80544984340667725 0.61720377206802368 0.10249976068735123
0.82506841421127319 0.64431923627853394 0.10359551012516022
0.83691620826721191 0.6600877046585083 0.10484889894723892
0.84647548198699951 0.66000783443450928 0.10921038687229156
0.065070867538452148 0.6674920916557312 0.2837212085723877
0.071666225790977478 0.66216760873794556 0.27343109250068665
0.080333858728408813 0.65489006042480469 0.26558211445808411
0.091964513063430786 0.64823544025421143 0.26047834753990173
0.1189606785774231 0.65434825420379639 0.2548125684261322
0.21292392909526825 0.69206839799880981 0.24229641258716583
0.35456445813179016 0.74370783567428589 0.22704768180847168
0.51539033651351929 0.7796669602394104 0.20409654080867767
0.66998755931854248 0.76975852251052856 0.17226631939411163
0.76635652780532837 0.73090600967407227 0.13729998469352722
0.79952520132064819 0.72181254625320435 0.11164648085832596
0.81548643112182617 0.7203708291053772 0.1075519323348999
0.82559865713119507 0.71671903133392334 0.11143794655799866
0.087149105966091156 0.77543610334396362 0.32143616676330566
0.094063401222229004 0.76994526386260986 0.31329625844955444
0.10261912643909454 0.76311576366424561 0.30549129843711853
0.11507856845855713 0.76098322868347168 0.29864740371704102
0.13739883899688721 0.76430994272232056 0.29204368591308594
0.21239043772220612 0.78784304857254028 0.28320932388305664
0.35656970739364624 0.82635986804962158 0.26809418201446533
0.50041806697845459 0.86091470718383789 0.25775644183158875
0.64525067806243896 0.88004559278488159 0.25196480751037598
0.74470400810241699 0.87116944789886475 0.23251605033874512
0.78138172626495361 0.82698285579681396 0.15956446528434753
0.79737561941146851 0.79480087757110596 0.12241820991039276
0.80709487199783325 0.78224891424179077 0.11842045187950134
0.11011689156293869 0.86318397521972656 0.35393664240837097
0.11711561679840088 0.85665404796600342 0.3479742705821991
0.12634555995464325 0.8549424409866333 0.34275645017623901
0.13995644450187683 0.85271263122558594 0.33574783802032471
0.16190403699874878 0.85840106010437012 0.32785677909851074
0.22568376362323761 0.8733486533164978 0.31810387969017029
0.35875111818313599 0.89563477039337158 0.30546185374259949
0.49598756432533264 0.91989332437515259 0.29507961869239807
0.62678647041320801 0.93654680252075195 0.28728121519088745
0.72963243722915649 0.94194173812866211 0.28568989038467407
0.78520035743713379 0.92625457048416138 0.25286111235618591
0.79818111658096313 0.89338064193725586 0.20161435008049011
0.80230540037155151 0.86631578207015991 0.1663789302110672
0.11631004512310028 0.88509660959243774 0.36362928152084351
0.12406443804502487 0.88339376449584961 0.35997822880744934
0.13518792390823364 0.88842558860778809 0.3586367666721344
0.15349511802196503 0.89601296186447144 0.35316994786262512
0.17861360311508179 0.90610092878341675 0.34596014022827148
0.23274712264537811 0.91740161180496216 0.33763769268989563
0.35380834341049194 0.92346060276031494 0.32245737314224243
0.48766458034515381 0.93088489770889282 0.30464634299278259
0.61098200082778931 0.94273459911346436 0.29429006576538086
0.70901840925216675 0.95289963483810425 0.29025185108184814
0.78333848714828491 0.95467567443847656 0.28131082653999329
0.80768078565597534 0.94796282052993774 0.27420708537101746
0.8176388144493103 0.94323444366455078 0.26633396744728088
0.011842076666653156 0.011814072728157043 0.011788401752710342
0.011105017736554146 0.010981331579387188 0.010557959787547588
0.01398106012493372 0.013121825642883778 0.012883010320365429
0.038911439478397369 0.033273838460445404 0.033192936331033707
0.086743734776973724 0.057886339724063873 0.058361172676086426
0.24176102876663208 0.070867113769054413 0.086144916713237762
0.49643141031265259 0.074289940297603607 0.12625424563884735
0.70064395666122437 0.11239387840032578 0.17711038887500763
0.81718093156814575 0.17564709484577179 0.20615421235561371
0.90318328142166138 0.24466715753078461 0.22368867695331573
0.93240523338317871 0.30288055539131165 0.22065553069114685
0.94494444131851196 0.32301431894302368 0.22177132964134216
0.95385956764221191 0.32542034983634949 0.22767497599124908
0.016574755311012268 0.016506688669323921 0.016221947968006134
0.019588470458984375 0.019421417266130447 0.019145293161273003
0.027349179610610008 0.026620334014296532 0.026049355044960976
0.041245315223932266 0.038660444319248199 0.038325052708387375
0.091516263782978058 0.059997141361236572 0.058298792690038681
0.23937216401100159 0.075859680771827698 0.083319403231143951
0.47750410437583923 0.080050371587276459 0.11842624098062515
0.67160278558731079 0.11324120312929153 0.16481858491897583
0.79875451326370239 0.17794801294803619 0.196578249335289
0.89837312698364258 0.24739266932010651 0.21823421120643616
0.93020260334014893 0.3117002546787262 0.2145054042339325
0.9441646933555603 0.33344361186027527 0.21489301323890686
0.95410549640655518 0.33717763423919678 0.21844001114368439
0.026383180171251297 0.026391975581645966 0.026015069335699081
0.030263399705290794 0.030352035537362099 0.029652703553438187
0.039640806615352631 0.039301134645938873 0.037650313228368759
0.05341479554772377 0.050082635134458542 0.04778849333524704
0.091087058186531067 0.065776467323303223 0.06019655242562294
0.2240925133228302 0.082896247506141663 0.074289523065090179
0.44988599419593811 0.08867376297712326 0.10543247312307358
0.66031330823898315 0.11935959011316299 0.158323734998703
0.79223924875259399 0.18135423958301544 0.19137281179428101
0.87769085168838501 0.2489331066608429 0.20732824504375458
0.92475628852844238 0.31990817189216614 0.20730802416801453
0.94301521778106689 0.34442821145057678 0.20719698071479797
0.95458787679672241 0.34873926639556885 0.20958170294761658
0.039345730096101761 0.04402199387550354 0.041235260665416718
0.041935428977012634 0.046553682535886765 0.043171077966690063
0.049731265753507614 0.051845192909240723 0.047874525189399719
0.063495025038719177 0.062777712941169739 0.055847093462944031
0.096214964985847473 0.07575061172246933 0.061276588588953018
0.22178667783737183 0.095892138779163361 0.064263366162776947
0.43044057488441467 0.10231592506170273 0.092905960977077484
0.63320475816726685 0.12881630659103394 0.14605055749416351
0.78680419921875 0.18633021414279938 0.1865667998790741
0.87719380855560303 0.25191962718963623 0.2042384147644043
0.92483711242675781 0.32368361949920654 0.2037656307220459
0.94084495306015015 0.35155591368675232 0.20185361802577972
0.95149129629135132 0.35629081726074219 0.20323407649993896
0.052530743181705475 0.09763132780790329 0.072752170264720917
0.055826913565397263 0.096233919262886047 0.071674585342407227
0.061468116939067841 0.097118988633155823 0.071692809462547302
0.070124834775924683 0.10047400742769241 0.071530781686306
0.10134231299161911 0.10889431834220886 0.066184461116790771
0.21573182940483093 0.12216520309448242 0.048249337822198868
0.41697445511817932 0.13882447779178619 0.074919320642948151
0.62466990947723389 0.16212132573127747 0.13309819996356964
0.7859647274017334 0.20204178988933563 0.18030437827110291
0.87966322898864746 0.25867298245429993 0.20099559426307678
0.92538678646087646 0.32443594932556152 0.20104131102561951
0.9381105899810791 0.35803273320198059 0.19632849097251892
0.94972103834152222 0.36176571249961853 0.19808779656887054
0.037784263491630554 0.18264272809028625 0.10527161508798599
0.045001551508903503 0.1801532655954361 0.10334399342536926
0.057492334395647049 0.18559072911739349 0.10340413451194763
0.070896267890930176 0.18967114388942719 0.098454147577285767
0.098940722644329071 0.18889924883842468 0.083007633686065674
0.19724619388580322 0.19077832996845245 0.056719072163105011
0.40533986687660217 0.19867384433746338 0.058119066059589386
0.63284033536911011 0.23389270901679993 0.11619208753108978
0.78851902484893799 0.27703738212585449 0.16057778894901276
0.87522333860397339 0.33098030090332031 0.17970328032970428
0.9115559458732605 0.39043450355529785 0.17722326517105103
0.92484128475189209 0.41264015436172485 0.17543667554855347
0.93723177909851074 0.41354387998580933 0.17768195271492004
0.024026563391089439 0.28012648224830627 0.1423770934343338
0.029396312311291695 0.27558091282844543 0.13857744634151459
0.046435143798589706 0.28412628173828125 0.13854651153087616
0.062848061323165894 0.28194534778594971 0.13170698285102844
0.088596642017364502 0.28131395578384399 0.11823493987321854
0.17377670109272003 0.3099425733089447 0.1031549945473671
0.37768024206161499 0.31307104229927063 0.069787360727787018
0.6448969841003418 0.31856197118759155 0.10024653375148773
0.78713250160217285 0.3732115626335144 0.13503623008728027
0.85111647844314575 0.43717065453529358 0.14384555816650391
0.88481062650680542 0.49435776472091675 0.14268970489501953
0.89449805021286011 0.51640385389328003 0.14154894649982452
0.90451997518539429 0.5170438289642334 0.14436797797679901
0.029137285426259041 0.4086308479309082 0.19754604995250702
0.036168985068798065 0.39979547262191772 0.18971297144889832
0.04849344864487648 0.40266287326812744 0.1875273734331131
0.064928226172924042 0.39737477898597717 0.17794358730316162
0.088288359344005585 0.40155670046806335 0.16846047341823578
0.16582798957824707 0.43789282441139221 0.15800313651561737
0.35076791048049927 0.49990534782409668 0.13738922774791718
0.61089009046554565 0.47786235809326172 0.10108014196157455
0.76955240964889526 0.47836741805076599 0.1118190661072731
0.83084696531295776 0.52659147977828979 0.12266380339860916
0.85218948125839233 0.57580596208572388 0.12270165234804153
0.86556476354598999 0.59062415361404419 0.12417629361152649
0.87432938814163208 0.59228569269180298 0.12673787772655487
0.045130353420972824 0.53784042596817017 0.24681675434112549
0.053697817027568817 0.53269582986831665 0.24048095941543579
0.062917627394199371 0.52795398235321045 0.23510304093360901
0.078704893589019775 0.52500462532043457 0.22752846777439117
0.10275672376155853 0.5304490327835083 0.21836735308170319
0.17502869665622711 0.56562447547912598 0.20704025030136108
0.33405005931854248 0.63611388206481934 0.19336296617984772
0.5571519136428833 0.67293959856033325 0.15934789180755615
0.72139930725097656 0.62077176570892334 0.11574150621891022
0.81075501441955566 0.6178935170173645 0.11322277039289474
0.82844889163970947 0.64519292116165161 0.11663874983787537
0.84046065807342529 0.65653246641159058 0.11736391484737396
0.84938710927963257 0.6579098105430603 0.11816664785146713
0.064491912722587585 0.66383236646652222 0.28965604305267334
0.073422662913799286 0.6566435694694519 0.28343740105628967
0.082957848906517029 0.65012228488922119 0.27718794345855713
0.098120369017124176 0.64711982011795044 0.27039536833763123
0.12070273607969284 0.65150159597396851 0.26217591762542725
0.18806394934654236 0.68084210157394409 0.25050929188728333
0.33154228329658508 0.73718428611755371 0.23560582101345062
0.51690870523452759 0.779246985912323 0.21639721095561981
0.67054373025894165 0.77637684345245361 0.17772680521011353
0.7698211669921875 0.73433679342269897 0.14349131286144257
0.80360370874404907 0.72277200222015381 0.12424397468566895
0.8193860650062561 0.71831244230270386 0.12034004181623459
0.82943207025527954 0.71570283174514771 0.11913329362869263
0.08757597953081131 0.77284610271453857 0.32991933822631836
0.095349282026290894 0.76565730571746826 0.32399806380271912
0.10574422776699066 0.75808453559875488 0.31711342930793762
0.12163356691598892 0.75756502151489258 0.30943578481674194
0.14244581758975983 0.762123703956604 0.30091589689254761
0.20394191145896912 0.78160363435745239 0.28870448470115662
0.34296724200248718 0.82069623470306396 0.27497819066047668
0.49527323246002197 0.85570204257965088 0.26451486349105835
0.64261060953140259 0.87635546922683716 0.25644567608833313
0.74484360218048096 0.86919677257537842 0.23453111946582794
0.78605347871780396 0.82359409332275391 0.16555546224117279
0.80011641979217529 0.79471409320831299 0.13461297750473022
0.8108065128326416 0.78108364343643188 0.12738162279129028
0.11202569305896759 0.86134153604507446 0.36528408527374268
0.11768715083599091 0.85325878858566284 0.35815110802650452
0.12809553742408752 0.85408324003219604 0.35409635305404663
0.14445643126964569 0.85121756792068481 0.34542685747146606
0.16515785455703735 0.85516703128814697 0.33747014403343201
0.22191812098026276 0.86723083257675171 0.32587781548500061
0.34407886862754822 0.89444243907928467 0.31354939937591553
0.47735342383384705 0.91874551773071289 0.30372747778892517
0.62088185548782349 0.9335358738899231 0.29770481586456299
0.72757387161254883 0.94215315580368042 0.29662171006202698
0.78890883922576904 0.93214309215545654 0.27452629804611206
0.79927384853363037 0.89222687482833862 0.2085365355014801
0.80258840322494507 0.86664438247680664 0.16841059923171997
0.12051164358854294 0.88881021738052368 0.37544256448745728
0.12751834094524384 0.8908502459526062 0.37266567349433899
0.13792409002780914 0.89459693431854248 0.3691328763961792
0.157825767993927 0.89691197872161865 0.36256366968154907
0.18238715827465057 0.90453779697418213 0.3559538722038269
0.22571592032909393 0.91763848066329956 0.3471393883228302
0.34379997849464417 0.92349302768707275 0.32871782779693604
0.47328096628189087 0.92958664894104004 0.31245863437652588
0.59695339202880859 0.94309496879577637 0.30628719925880432
0.70142608880996704 0.95414131879806519 0.30120611190795898
0.77615845203399658 0.95081931352615356 0.29265990853309631
0.80834585428237915 0.94673460721969604 0.28239977359771729
0.8210335373878479 0.94884383678436279 0.27592313289642334
0.013088974170386791 0.012949924916028976 0.012839657254517078
0.01574210450053215 0.015623279847204685 0.015624446794390678
0.01559238787740469 0.015144901350140572 0.015289844945073128
0.038563132286071777 0.033705856651067734 0.034106042236089706
0.085485629737377167 0.058024834841489792 0.060819916427135468
0.2380070835351944 0.070326052606105804 0.092998415231704712
0.48875692486763 0.07389812171459198 0.1371455043554306
0.68168169260025024 0.11224564164876938 0.18604587018489838
0.8165021538734436 0.17557850480079651 0.22056677937507629
0.89690887928009033 0.24378404021263123 0.23634982109069824
0.93217402696609497 0.30489552021026611 0.23714134097099304
0.94792795181274414 0.32017254829406738 0.23802724480628967
0.95980918407440186 0.32357347011566162 0.2410733699798584
0.022376056760549545 0.022298850119113922 0.022145798429846764
0.024748079478740692 0.02460397407412529 0.024820813909173012
0.029218381270766258 0.0288669653236866 0.028957530856132507
0.0438346266746521 0.040632210671901703 0.04070732370018959
0.087421700358390808 0.060899890959262848 0.061657700687646866
0.23197034001350403 0.075014941394329071 0.089842461049556732
0.46789601445198059 0.083867363631725311 0.13138847053050995
0.67138707637786865 0.11630956828594208 0.17945675551891327
0.80315202474594116 0.17864961922168732 0.21237015724182129
0.89622676372528076 0.24559709429740906 0.23246932029724121
0.92892158031463623 0.30961096286773682 0.23080599308013916
0.9450802206993103 0.33202850818634033 0.23120367527008057
0.95633149147033691 0.33493810892105103 0.23365607857704163
0.032142996788024902 0.032439436763525009 0.032300777733325958
0.033426590263843536 0.033682461827993393 0.033663611859083176
0.040188629180192947 0.039501473307609558 0.039474040269851685
0.054006896913051605 0.050626117736101151 0.050098076462745667
0.091688312590122223 0.066629938781261444 0.064609989523887634
0.2182064950466156 0.083876334130764008 0.083620093762874603
0.44243791699409485 0.095732428133487701 0.12384018301963806
0.65944093465805054 0.12064095586538315 0.17221345007419586
0.79253190755844116 0.18125219643115997 0.20493927597999573
0.87815099954605103 0.24764718115329742 0.22238191962242126
0.92400902509689331 0.3155137300491333 0.22475232183933258
0.94210749864578247 0.3431529700756073 0.22445383667945862
0.95426070690155029 0.34630373120307922 0.22612281143665314
0.042729053646326065 0.0482647605240345 0.04640502855181694
0.044557593762874603 0.049874041229486465 0.047485679388046265
0.049310319125652313 0.052740298211574554 0.050913598388433456
0.061409909278154373 0.060659177601337433 0.058015607297420502
0.096284486353397369 0.076074786484241486 0.066914953291416168
0.21317674219608307 0.092580400407314301 0.07491004467010498
0.4195672869682312 0.10243786126375198 0.10837231576442719
0.63694077730178833 0.12742774188518524 0.16208304464817047
0.78021204471588135 0.18087045848369598 0.19946190714836121
0.87798589468002319 0.24901935458183289 0.22018560767173767
0.9238961935043335 0.31708851456642151 0.22153368592262268
0.93920838832855225 0.35439687967300415 0.21748057007789612
0.94993889331817627 0.35402828454971313 0.21949665248394012
0.051243443042039871 0.10043767094612122 0.07835020124912262
0.055226746946573257 0.098992198705673218 0.077576294541358948
0.058324191719293594 0.10143324732780457 0.078486710786819458
0.068178035318851471 0.10203485190868378 0.078336916863918304
