assets/lut/ohadperetz true colors 8.cube
# Created by: G'MIC (https://gmic.eu)
TITLE "true_colors_8"
# LUT size
LUT_3D_SIZE 13
# Data domain
DOMAIN_MIN 0.0 0.0 0.0
DOMAIN_MAX 1.0 1.0 1.0
# LUT data points
0.017868654802441597 0.01467635203152895 0.0099183479323983192
0.049102947115898132 0.0088594770058989525 0.011418301612138748
0.090467728674411774 0.0062158023938536644 0.0102373156696558
0.1540340781211853 0.0020354625303298235 0.0043258219957351685
0.24238066375255585 0 0.00076473457738757133
0.34295916557312012 0 1.1668485967675224e-05
0.45195987820625305 0 0
0.56769096851348877 0 0
0.6900864839553833 5.9898226027144119e-05 0
0.82159507274627686 0.0020701838657259941 0.00011376773909432814
0.9557192325592041 0.00065596337663009763 8.3429673395585269e-05
1 0 0
1 0 0
0.0049324785359203815 0.038613487035036087 0.0033323250245302916
0.03177681565284729 0.032330784946680069 0.0053231334313750267
0.07485555112361908 0.026825444772839546 0.0054538799449801445
0.14092551171779633 0.016031840816140175 0.0023906184360384941
0.23113486170768738 0.0027650571428239346 0.00019297879771329463
0.33383139967918396 0 0
0.44443976879119873 0 0
0.56227076053619385 0 0
0.68725872039794922 0 0
0.82143759727478027 0 0
0.95575404167175293 0 0
1 0 0
1 0 0
0.00061985087813809514 0.06541607528924942 0.003185077803209424
0.0139909777790308 0.06219998374581337 0.0027023465372622013
0.05242219939827919 0.058123227208852768 0.002080580685287714
0.12244296818971634 0.046394571661949158 0.00073427683673799038
0.21832822263240814 0.027769500389695168 1.077091019396903e-05
0.32505777478218079 0.011987858451902866 0
0.43809664249420166 0.0035992341581732035 0
0.55833971500396729 0.001354157691821456 0
0.68815153837203979 0.00033988204086199403 0.00012660307402256876
0.82837307453155518 0 0.00014896766515448689
0.96122503280639648 0 0
1 0 0
1 0 0
0 0.10561875253915787 0.0016770455986261368
0.00067256850888952613 0.10509277135133743 0.00022209018061403185
0.020685726776719093 0.10485277324914932 1.5079273907758761e-05
0.090180628001689911 0.096902050077915192 0
0.19449101388454437 0.080163903534412384 0
0.30743920803070068 0.063428692519664764 0
0.42185094952583313 0.048282846808433533 0.00026331882691010833
0.54381740093231201 0.037791188806295395 0.00069213565438985825
0.6784026026725769 0.02574787475168705 0.0017232408281415701
0.82454067468643188 0.011041364632546902 0.0023434208706021309
0.962349534034729 0.0017397712217643857 0.00020672667596954852
1 5.8028275816468522e-05 0
1 0 0
0 0.16787861287593842 9.3347889560391195e-06
0 0.17002835869789124 0
0.0013987672282382846 0.17418532073497772 0
0.04313996434211731 0.17251139879226685 0
0.15082709491252899 0.15893687307834625 0
0.27213853597640991 0.14162883162498474 0.00032263362663798034
0.38931781053543091 0.12668596208095551 0.001305314595811069
0.5130159854888916 0.11175739020109177 0.0020818524062633514
0.64986497163772583 0.092409901320934296 0.004380454309284687
0.800315260887146 0.069246210157871246 0.0063415528275072575
0.94851535558700562 0.045948896557092667 0.0022597669158130884
1 0.0296756811439991 0
1 0.014858844690024853 0
0 0.24537636339664459 0
0 0.25021094083786011 0
0 0.25632581114768982 0
0.0078081018291413784 0.25751060247421265 0
0.091119430959224701 0.24749869108200073 0.00012213014997541904
0.21639186143875122 0.23125149309635162 0.0020074134226888418
0.34270808100700378 0.21600453555583954 0.0033525056205689907
0.47153201699256897 0.20023229718208313 0.0025386735796928406
0.60797005891799927 0.18099223077297211 0.0044109420850872993
0.75877594947814941 0.15943735837936401 0.0066078486852347851
0.91766476631164551 0.13447088003158569 0.0043447157368063927
0.99921858310699463 0.10720910131931305 0
1 0.07606525719165802 0
0 0.33055388927459717 0
0 0.33647286891937256 0
0 0.34250104427337646 0
0.00031006758217699826 0.34411492943763733 0
0.046497747302055359 0.33693477511405945 8.5179948655422777e-05
0.15755270421504974 0.32265937328338623 0.0014497644733637571
0.28889200091362 0.30597269535064697 0.0018061320297420025
0.42462825775146484 0.28980883955955505 0.00052566529484465718
0.56189888715744019 0.27413231134414673 0.0026691961102187634
0.71276235580444336 0.25655829906463623 0.00534845981746912
0.87719970941543579 0.23277589678764343 0.0035975438077002764
0.99122869968414307 0.19982649385929108 8.3429673395585269e-05
1 0.15253368020057678 0
0 0.41962072253227234 0
0 0.42550700902938843 0
0 0.43126803636550903 0
0 0.43316376209259033 0
0.02026163786649704 0.428375244140625 0
0.10368164628744125 0.41658961772918701 0.00014605054457206279
0.22521732747554779 0.40037456154823303 7.3900409915950149e-05
0.36552160978317261 0.38309004902839661 6.2231927586253732e-05
0.50891631841659546 0.36713477969169617 0.0016831790562719107
0.6579628586769104 0.35006016492843628 0.003878484945744276
0.8153916597366333 0.32856917381286621 0.0023042566608637571
0.96132093667984009 0.29363110661506653 0
0.99984073638916016 0.23729526996612549 0
2.8782264053006656e-05 0.51146048307418823 0
0 0.51719629764556885 0
0 0.52346533536911011 0
0 0.52664697170257568 0
0.006905275397002697 0.52439314126968384 0
0.062279406934976578 0.515361487865448 0
0.1663506031036377 0.50012487173080444 0
0.30293726921081543 0.48155960440635681 7.7789909482817166e-06
0.44888466596603394 0.46380376815795898 0.00076934217941015959
0.59456825256347656 0.44698140025138855 0.0016442841151729226
0.74558544158935547 0.42875540256500244 0.00027712652808986604
0.93245655298233032 0.39689168334007263 0
1 0.33859744668006897 0
0.0042785345576703548 0.6064336895942688 0.00049241009401157498
0.0019305510213598609 0.6131780743598938 0.00030026902095414698
0.00019399604934733361 0.62139451503753662 9.4709212135057896e-05
0 0.62696540355682373 0
0.0017950768815353513 0.62722229957580566 0
0.036617383360862732 0.62033051252365112 0
0.12113092094659805 0.60628730058670044 0
0.24433878064155579 0.58702218532562256 0
0.38847386837005615 0.56665605306625366 0
0.53658628463745117 0.54877883195877075 0
0.68618768453598022 0.53446424007415771 0
0.87514638900756836 0.50761950016021729 0
0.9996829628944397 0.44912925362586975 0
0.0061896531842648983 0.70849013328552246 0.00060987286269664764
0.0061831306666135788 0.71803736686706543 0.00060987286269664764
0.0023510952014476061 0.72878044843673706 0.00048929848708212376
7.5845155151910149e-06 0.73712122440338135 0
1.5557981896563433e-05 0.74004280567169189 0
0.010355077683925629 0.73603963851928711 0
0.070284374058246613 0.72436851263046265 0
0.176322340965271 0.70548027753829956 0
0.31703442335128784 0.68172997236251831 0
0.47612172365188599 0.65803080797195435 0
0.6303449273109436 0.64210331439971924 0
0.81044018268585205 0.62083792686462402 0
0.9917672872543335 0.56301039457321167 0
0 0.8266029953956604 0
0.0003016303526237607 0.83688169717788696 0
3.2088337320601568e-05 0.8495175838470459 0
0 0.86009961366653442 0
0 0.86615288257598877 0
4.4923668610863388e-05 0.86579632759094238 0
0.012352782301604748 0.85833150148391724 0
0.082369290292263031 0.84324371814727783 0
0.20631396770477295 0.82104790210723877 0
0.36433812975883484 0.79427421092987061 0.00022496242308989167
0.52510350942611694 0.77357816696166992 0.00039363186806440353
0.71631896495819092 0.74897676706314087 0.00016533346206415445
0.96446728706359863 0.68834513425827026 0
0 0.95864319801330566 0
0 0.96587967872619629 0
0 0.973713219165802 0
0 0.98081827163696289 0
0 0.98489570617675781 0
0 0.98590582609176636 0
0 0.98461037874221802 0
0.0049995570443570614 0.98026710748672485 0
0.057428039610385895 0.97144299745559692 0
0.17471805214881897 0.95995193719863892 0.00052240409422665834
0.32128581404685974 0.94773232936859131 0.0013325260952115059
0.53068125247955322 0.92205876111984253 0.00042023003334179521
0.84662938117980957 0.85851132869720459 0
0.012374578975141048 0.011082877404987812 0.038017768412828445
0.039073958992958069 0.0061630546115338802 0.044345498085021973
0.081382915377616882 0.0045047234743833542 0.043607942759990692
0.15318015217781067 0.001790903159417212 0.027048222720623016
0.24042361974716187 0 0.01440251711755991
0.33828422427177429 0 0.0051983254961669445
0.4465731680393219 0 0.00032243915484286845
0.56377601623535156 0 0
0.6894800066947937 2.1003274014219642e-05 0
0.82316452264785767 0.00096109427977353334 0
0.95199751853942871 0.00025923486100509763 0
1 0 0
1 0 0
0.0051751527935266495 0.033690523356199265 0.028158929198980331
0.02958863228559494 0.028880055993795395 0.031297512352466583
0.069248050451278687 0.025129131972789764 0.029547402635216713
0.13601215183734894 0.016206389293074608 0.018744330853223801
0.22630712389945984 0.0040391511283814907 0.0079337777569890022
0.32820859551429749 0.00016521378711331636 0.001154791098088026
0.44034820795059204 0 0
0.56104946136474609 0 0
0.69015228748321533 0 0
0.82826453447341919 0 0
0.95852231979370117 0 0
1 0 0
1 0 0
0.0010850345715880394 0.061240594834089279 0.024373626336455345
0.01409861259162426 0.05940411239862442 0.020740838721394539
0.050190839916467667 0.056380551308393478 0.016108613461256027
0.11821546405553818 0.046057965606451035 0.0111491484567523
0.21366643905639648 0.02917926199734211 0.0041803847998380661
0.32133659720420837 0.015609606169164181 0.00018421247659716755
0.43596425652503967 0.007458795327693224 0
0.55766052007675171 0.0033904579468071461 0
0.6905025839805603 0.00075347005622461438 0
0.83361101150512695 0 0
0.96521860361099243 0 0
1 0 0
1 0 0
0 0.10284467041492462 0.015932030975818634
0.00049110862892121077 0.10504698008298874 0.0073912674561142921
0.020005963742733002 0.10626523196697235 0.0042279860936105251
0.088579244911670685 0.097433812916278839 0.0043141981586813927
0.19237764179706573 0.081520333886146545 0.001298747374676168
0.30516228079795837 0.066998004913330078 2.468333605065709e-06
0.42033261060714722 0.054242722690105438 0
0.54282164573669434 0.042581655085086823 0
0.67708730697631836 0.028207741677761078 0
0.8235289454460144 0.012877834960818291 7.0010914896556642e-06
0.96226948499679565 0.0044161328114569187 0
1 0.00098437140695750713 0
1 0 0
0 0.16559314727783203 0.0023914261255413294
0 0.1707809716463089 0.00042504703742451966
0.0018156911246478558 0.17702269554138184 0.00021338369697332382
0.045295700430870056 0.17576602101325989 0.00048555861576460302
0.15213270485401154 0.16110950708389282 6.7781933466903865e-05
0.27292120456695557 0.14463849365711212 0
0.39016443490982056 0.1308126300573349 0
0.51189339160919189 0.11558569967746735 0
0.64502608776092529 0.095188289880752563 3.2955991628114134e-05
0.79358237981796265 0.072632402181625366 0.0016951168654486537
0.94450896978378296 0.05284423753619194 0.000794459308963269
1 0.035375721752643585 0
1 0.016684228554368019 0
0 0.24444384872913361 0
0 0.2521037757396698 0
0 0.25950142741203308 0
0.014059777371585369 0.26077121496200562 0
0.10127770155668259 0.24987158179283142 0
0.2221834659576416 0.23368510603904724 0.00016934264567680657
0.34652674198150635 0.21863332390785217 0.00083200790686532855
0.47069570422172546 0.20357045531272888 0
0.6012231707572937 0.18541489541530609 9.858374141913373e-06
0.74782580137252808 0.16395555436611176 0.00079716701293364167
0.9090617299079895 0.13819992542266846 0.00084970513125881553
0.99828070402145386 0.10934050381183624 0
1 0.076509006321430206 0
0 0.33082345128059387 0
0 0.33904734253883362 0
0 0.3461557924747467 0
0.0018854029476642609 0.34777951240539551 0
0.055618930608034134 0.34018710255622864 0
0.16503281891345978 0.32530167698860168 0.00012178607721580192
0.29327937960624695 0.30859550833702087 0.0013696409296244383
0.42361047863960266 0.29351314902305603 0
0.55587422847747803 0.27807319164276123 3.5903033790418704e-07
0.7018505334854126 0.26003560423851013 8.8665532530285418e-05
0.86376625299453735 0.23404538631439209 9.6698837296571583e-05
0.9854474663734436 0.19814217090606689 0
1 0.15291191637516022 0
0 0.42018917202949524 0
0 0.42830562591552734 0
0 0.43523642420768738 0
1.0367000868427567e-05 0.43758320808410645 0
0.02366364374756813 0.43256202340126038 0
0.10996007174253464 0.42018371820449829 0
0.23047143220901489 0.40289068222045898 0
0.36664658784866333 0.38644254207611084 0
0.50716227293014526 0.36979091167449951 0
0.65416836738586426 0.3524094820022583 3.7458830774994567e-05
0.80962300300598145 0.32966387271881104 8.2427377492422238e-06
0.9582335352897644 0.29344460368156433 0
1 0.24132378399372101 0
0.0004048964474350214 0.51209443807601929 0
0 0.52008110284805298 0
0 0.52755701541900635 0
0 0.5313185453414917 0
0.0064687090925872326 0.52887821197509766 0
0.064838424324989319 0.51889491081237793 0
0.17012013494968414 0.50288116931915283 0
0.30448779463768005 0.48425003886222839 0
0.44986647367477417 0.46521684527397156 0
0.59655308723449707 0.44852006435394287 1.5557981214442407e-06
0.75065183639526367 0.43012002110481262 0
0.9305766224861145 0.39781081676483154 0
1 0.3427681028842926 0
0.0057635437697172165 0.60784739255905151 0
0.0011515000369399786 0.61651867628097534 0
8.9757584476046759e-08 0.6254878044128418 0
0 0.63146829605102539 0
0.00050395890139043331 0.63152134418487549 0
0.030524235218763351 0.62417060136795044 0
0.1165311187505722 0.60950160026550293 0
0.24099460244178772 0.5896037220954895 0
0.3874853253364563 0.5681154727935791 0
0.5389588475227356 0.54977869987487793 0
0.6934775710105896 0.53554850816726685 0
0.88060873746871948 0.50998836755752563 0
0.99949878454208374 0.45380601286888123 0
0.005854378454387188 0.71176230907440186 0
0.0022131078876554966 0.72164714336395264 0
1.6635072825010866e-05 0.73278921842575073 0
0 0.74126213788986206 0
0 0.74439823627471924 0
0.0045323688536882401 0.74008810520172119 0
0.057405777275562286 0.72797483205795288 0
0.16524350643157959 0.70859724283218384 0
0.30896589159965515 0.68414574861526489 0
0.47418302297592163 0.65971499681472778 0
0.63881999254226685 0.64292651414871216 5.7145662140101194e-06
0.81719481945037842 0.62443667650222778 0.000128996602143161
0.99160915613174438 0.56885409355163574 3.9493338590546045e-06
0 0.83010637760162354 0
0 0.84058946371078491 0
0 0.85325884819030762 0
0 0.86414831876754761 0
0 0.87051737308502197 0
0 0.87050670385360718 0
0.0055225598625838757 0.86288726329803467 0
0.063028119504451752 0.84802109003067017 0
0.18466627597808838 0.82641756534576416 0
0.34766384959220886 0.79987412691116333 0.00099722167942672968
0.53024697303771973 0.77588760852813721 0.0026412964798510075
0.72932320833206177 0.75169461965560913 0.0029361499473452568
0.96419769525527954 0.69597643613815308 0.00039744656533002853
0 0.96036773920059204 0
0 0.96797651052474976 0
0 0.97592473030090332 0
0 0.98305177688598633 0
0 0.98671793937683105 0
0 0.9881216287612915 0
0 0.98691940307617188 0
0.00115141028072685 0.98330116271972656 0
0.03349030390381813 0.9767264723777771 0
0.14299966394901276 0.9658278226852417 0.0018917009001597762
0.31347885727882385 0.95206993818283081 0.0034495783038437366
0.53020697832107544 0.92892211675643921 0.0016323912423104048
0.83366507291793823 0.87166786193847656 0
0.003484329441562295 0.013139537535607815 0.078641377389431
0.014448517002165318 0.010757251642644405 0.08662828803062439
0.051383823156356812 0.007155055645853281 0.095105446875095367
0.14131768047809601 0.0019794986583292484 0.075527235865592957
0.24362435936927795 9.3347889560391195e-06 0.048648729920387268
0.33903923630714417 0 0.033296652138233185
0.44507259130477905 0 0.015067007392644882
0.56124633550643921 0 0.002909237751737237
0.68736213445663452 0 4.6673943870700896e-05
0.82288926839828491 1.516903103038203e-05 0
0.94823604822158813 0 0
1 0 0
1 0 0
0.0024650723207741976 0.033634036779403687 0.066046558320522308
0.016556743532419205 0.031552813947200775 0.066974759101867676
0.052048329263925552 0.027391605079174042 0.072007946670055389
0.13002166152000427 0.015964478254318237 0.059991665184497833
0.22869080305099487 0.0039119496941566467 0.037212971597909927
0.32797929644584656 0.00044977525249123573 0.022077359259128571
0.43942990899085999 0 0.0063983690924942493
0.56015306711196899 0 0.00032064400147646666
0.69129985570907593 0 0
0.83434617519378662 0 0
0.96255338191986084 0 0
1 0 0
1 0 0
0.00076114432886242867 0.059677168726921082 0.058957520872354507
0.01179555244743824 0.058763064444065094 0.054413739591836929
0.049725491553544998 0.05405203253030777 0.052721180021762848
0.11936389654874802 0.044537175446748734 0.044755928218364716
0.2153291255235672 0.029355216771364212 0.029561091214418411
0.32265704870223999 0.017681719735264778 0.014578351750969887
0.43622106313705444 0.011644984595477581 0.0037383732851594687
0.55780744552612305 0.0064458362758159637 6.7018998379353434e-05
0.69242244958877563 0.0017910826718434691 0
0.84135079383850098 6.7916567786596715e-05 0
0.97278732061386108 0 0
1 0 0
1 0 0
0 0.099955372512340546 0.046486992388963699
0.0022170122247189283 0.1012205109000206 0.039409860968589783
0.02832539938390255 0.10182703286409378 0.034833196550607681
0.091654516756534576 0.097417600452899933 0.029450584203004837
0.1927715390920639 0.084253214299678802 0.017784837633371353
0.30587318539619446 0.069995567202568054 0.0076616322621703148
0.4202747642993927 0.059223789721727371 0.0020833183079957962
0.5438772439956665 0.047333423048257828 3.0367982617462985e-05
0.67820733785629272 0.03128013014793396 0
0.82607311010360718 0.016506928950548172 0
0.96563488245010376 0.0096839005127549171 0
1 0.0039473888464272022 0
1 0.00020033892360515893 0
0.00039342243690043688 0.16301389038562775 0.023933036252856255
3.6531335354084149e-05 0.16770191490650177 0.018259564414620399
0.0062379278242588043 0.17355133593082428 0.01671905443072319
0.053155157715082169 0.17413878440856934 0.012985199689865112
0.15438182651996613 0.16279599070549011 0.0068666497245430946
0.27316129207611084 0.14704678952693939 0.0015198801411315799
0.39210599660873413 0.13290558755397797 0.00013212316844146699
0.51640433073043823 0.11789431422948837 0
0.64743036031723022 0.097172483801841736 0
0.79316139221191406 0.075476326048374176 0
0.94618147611618042 0.059771697968244553 0
1 0.042598888278007507 0
1 0.020206959918141365 0
0.0012045766925439239 0.24327607452869415 0.0046950248070061207
3.3060710848076269e-05 0.25129345059394836 0.0024993896950036287
0.00020232854876667261 0.25772640109062195 0.0037861093878746033
0.023390855640172958 0.25912183523178101 0.0030357509385794401
0.10889372229576111 0.25004783272743225 0.00073245179373770952
0.22647346556186676 0.23417705297470093 3.7398992844828172e-06
0.35232403874397278 0.21806785464286804 2.3142496502259746e-05
0.47698304057121277 0.20330172777175903 0
0.60585808753967285 0.18538804352283478 0
0.75182425975799561 0.16381050646305084 0
0.91156286001205444 0.14076055586338043 0
0.99834644794464111 0.11217693239450455 0
1 0.077634774148464203 0
0.000100737925095018 0.3303016722202301 0.00013224284339230508
0 0.33918038010597229 9.8733344202628359e-06
0 0.34609070420265198 7.8089098678901792e-05
0.0049493229016661644 0.34798848628997803 4.0390910726273432e-05
0.062323775142431259 0.34139400720596313 0
0.17001621425151825 0.32578614354133606 0
0.30030086636543274 0.30833661556243896 0.000148773193359375
0.42961758375167847 0.29353544116020203 0
0.56088948249816895 0.27819454669952393 0
0.70545065402984619 0.25962531566619873 0
0.86166048049926758 0.23400738835334778 0
0.98372936248779297 0.19854657351970673 0
1 0.15391647815704346 0
0 0.42059043049812317 0
0 0.42923963069915771 0
0 0.43633940815925598 0
7.2569004260003567e-05 0.43964192271232605 0
0.026047710329294205 0.43497917056083679 0
0.11277136951684952 0.42211291193962097 0
0.23646447062492371 0.40502962470054626 0
0.37298297882080078 0.38747003674507141 0
0.51207846403121948 0.3716282844543457 0
0.65617465972900391 0.35442909598350525 0
0.80871725082397461 0.33096471428871155 0
0.95618253946304321 0.29502123594284058 0
1 0.24441538751125336 0
0.0014816882321611047 0.51318609714508057 0
2.2768506823922507e-05 0.52192562818527222 0
0 0.53018438816070557 0
0 0.53409373760223389 0
0.005850174929946661 0.53178006410598755 0
0.064214177429676056 0.52189850807189941 0
0.17252673208713531 0.50548404455184937 0
0.30892622470855713 0.48659002780914307 0
0.45418864488601685 0.46822419762611389 0
0.60047918558120728 0.45140331983566284 0
0.75265073776245117 0.4326193630695343 0
0.92222458124160767 0.40015923976898193 0
1 0.34659770131111145 0
0.0066727283410727978 0.6101643443107605 0
0.0012433668598532677 0.61951786279678345 0
0 0.62871640920639038 0
0 0.63478100299835205 0
0.00015881108993198723 0.63489127159118652 0
0.02431456558406353 0.6275714635848999 0
0.11192360520362854 0.6128920316696167 0
0.23922142386436462 0.59290003776550293 0
0.38694465160369873 0.57147347927093506 0
0.5406607985496521 0.55301135778427124 0
0.69473707675933838 0.53815597295761108 0
0.87775856256484985 0.51132822036743164 0
0.99972158670425415 0.45641767978668213 0
0.0047075608745217323 0.71583569049835205 0
0.00071731267962604761 0.72578668594360352 0
0 0.73654592037200928 0
0 0.74470096826553345 0
0 0.74776625633239746 0
0.0019210217287763953 0.74377936124801636 0
0.0475044846534729 0.73171639442443848 0
0.15664821863174438 0.71253794431686401 0
0.30189797282218933 0.68845450878143311 0
0.46993187069892883 0.66405373811721802 0
0.64023762941360474 0.64622372388839722 2.423454679956194e-05
0.8278535008430481 0.62561541795730591 0.00079175166320055723
0.99495595693588257 0.57180780172348022 2.297794162586797e-05
0 0.8348885178565979 0
0 0.84533500671386719 0
0 0.85746890306472778 0
0 0.86814188957214355 0
0 0.87432080507278442 0
0 0.87463510036468506 0
0.0028300865087658167 0.86746543645858765 0
0.051697645336389542 0.85299968719482422 0
0.17261657118797302 0.83200752735137939 0
0.34026339650154114 0.80543822050094604 8.1769154348876327e-05
0.53403282165527344 0.78034895658493042 0.0018400753615424037
0.73137050867080688 0.76028954982757568 0.003928719088435173
0.96182262897491455 0.7098352313041687 0.0012633230071514845
0 0.96384310722351074 0
0 0.97081774473190308 0
0 0.97857749462127686 0
0 0.98502379655838013 0
0 0.98852235078811646 0
0 0.98997092247009277 0
0 0.98893123865127563 0
0.000335693359375 0.98552751541137695 0
0.025898413732647896 0.98003655672073364 0
0.13429898023605347 0.96953034400939941 0.00024611529079265893
0.31297978758811951 0.95671385526657104 0.0014071445912122726
0.52392661571502686 0.94040966033935547 0.0017104204744100571
0.82080906629562378 0.89078223705291748 0.00013355928240343928
7.0010914896556642e-06 0.017270764335989952 0.14513412117958069
0.00057377532357349992 0.016158983111381531 0.14544031023979187
0.013044006191194057 0.010924380272626877 0.15928374230861664
0.084368161857128143 0.0017013848992064595 0.16742761433124542
0.22506542503833771 0 0.12862296402454376
0.34473308920860291 0 0.093579404056072235
0.44843092560768127 0 0.068506963551044464
0.55770152807235718 0 0.047084465622901917
0.67845559120178223 0 0.025513414293527603
0.81652456521987915 0 0.0076014501973986626
0.94363677501678467 0 0.0012513254769146442
0.99962925910949707 0 0
1 0 0
2.6927275030175224e-05 0.036744929850101471 0.128098264336586
0.0023847990669310093 0.035241849720478058 0.12593615055084229
0.015821957960724831 0.03245856985449791 0.14046594500541687
0.084326967597007751 0.018042949959635735 0.14880718290805817
0.21646995842456818 0.0028447168879210949 0.1129109114408493
0.3324795663356781 8.8860006144386716e-06 0.083023801445960999
0.43990802764892578 0 0.057691745460033417
0.55642431974411011 0 0.035320177674293518
0.6849435567855835 0 0.021667465567588806
0.83169710636138916 0 0.011075083166360855
0.9611322283744812 0 0.0022700740955770016
0.99997717142105103 0 0
1 0 0
1.0770910421342705e-06 0.061600837856531143 0.11472535878419876
0.0026904686819761992 0.060570076107978821 0.11291263252496719
0.02500285767018795 0.05788014829158783 0.11791573464870453
0.090479247272014618 0.048025991767644882 0.12231328338384628
0.214922696352005 0.023686861619353294 0.09770609438419342
0.32939907908439636 0.012282442301511765 0.073773391544818878
0.43540966510772705 0.011294465512037277 0.054657910019159317
