assets/lut/ohadperetz retro summer 3.cube
# Created by: G'MIC (https://gmic.eu)
TITLE "retro_summer_3"
# LUT size
LUT_3D_SIZE 5
# Data domain
DOMAIN_MIN 0.0 0.0 0.0
DOMAIN_MAX 1.0 1.0 1.0
# LUT data points
0.10347222536802292 0.070236027240753174 0.0590946264564991
0.16624298691749573 0.060200739651918411 0.051153622567653656
0.48831775784492493 0.009989345446228981 0.010065878741443157
0.93240463733673096 0 0
1 0 0
0.075245603919029236 0.11463812738656998 0.025231605395674706
0.13747414946556091 0.11071274429559708 0.023647099733352661
0.45746693015098572 0.045470908284187317 3.2312730127159739e-06
0.94030183553695679 0 0
1 0 0
0.0065863514319062233 0.25144147872924805 0
0.019688325002789497 0.26956143975257874 0
0.29640364646911621 0.25254335999488831 0
0.84628772735595703 0.17115017771720886 0.0032235388644039631
1 0.090093247592449188 0.00056028179824352264
0 0.55615675449371338 5.1341336074983701e-05
0 0.60677307844161987 0.013300144113600254
0.098207838833332062 0.62771880626678467 0.0028467664960771799
0.59829360246658325 0.57694482803344727 0
1 0.50071614980697632 0
0 0.95974868535995483 0
0 0.98883223533630371 8.1679398135747761e-05
0.025339657440781593 0.99525576829910278 0
0.3284727931022644 0.9884028434753418 0
0.93828415870666504 0.9608154296875 0.00014020134403835982
0.098196439445018768 0.066715717315673828 0.13323734700679779
0.16552303731441498 0.049127046018838882 0.12627063691616058
0.47288462519645691 0.0038370168767869473 0.057599879801273346
0.9378516674041748 0.0030682133510708809 0.0021840413101017475
1 0 0
0.068549767136573792 0.11018183082342148 0.10226412117481232
0.13754087686538696 0.10985710471868515 0.10440554469823837
0.44527581334114075 0.05519644170999527 0.028841953724622726
0.94503813982009888 0.0012095283018425107 0.00033665078808553517
1 0 0
0.00059569114819169044 0.25505590438842773 0.0097130266949534416
0.035823732614517212 0.28327485918998718 0.010888013988733292
0.30528929829597473 0.26205047965049744 0.015618732199072838
0.85032302141189575 0.18822810053825378 0
1 0.12346358597278595 0
0 0.56190186738967896 0
0 0.62352263927459717 0
0.11994057148694992 0.63966363668441772 0
0.61407208442687988 0.5986560583114624 0
1 0.50883287191390991 0
0 0.95912259817123413 0
0 0.99305230379104614 0
0.0042596105486154556 0.99966877698898315 0
0.33277767896652222 0.99686348438262939 0
0.94138652086257935 0.959209144115448 0
0.061849333345890045 0.03066386841237545 0.56408929824829102
0.14398153126239777 0.023463575169444084 0.53993463516235352
0.43108659982681274 0.00033454145886935294 0.40820607542991638
0.89072030782699585 0.00049214082537218928 0.23117904365062714
0.99706888198852539 0.001450766809284687 0.054303247481584549
0.041174646466970444 0.084921590983867645 0.47147443890571594
0.11651939153671265 0.081401333212852478 0.4828934371471405
0.40949314832687378 0.035033684223890305 0.39120462536811829
0.92615938186645508 0.00021555283456109464 0.25351884961128235
0.99801826477050781 0 0.10053526610136032
6.4625460254319478e-06 0.23863218724727631 0.23814395070075989
0.029051985591650009 0.26695191860198975 0.26371502876281738
0.2970241904258728 0.25731667876243591 0.25492978096008301
0.84887254238128662 0.18838371336460114 0.1937030553817749
0.99906319379806519 0.1143372654914856 0.10798217356204987
0 0.55982965230941772 0.015245459973812103
0 0.62567585706710815 0.047047663480043411
0.12617047131061554 0.63917249441146851 0.074922822415828705
0.62404143810272217 0.59990477561950684 0.06547875702381134
1 0.51508033275604248 0.048198610544204712
0 0.96033227443695068 0
0 0.99663138389587402 0
0.019344089552760124 0.99659603834152222 0
0.35418993234634399 0.99722522497177124 0.00067844765726476908
0.95710402727127075 0.96660107374191284 0.0018110087839886546
0.0064912685193121433 0 1
0.088389210402965546 0 1
0.36705693602561951 0 0.97690773010253906
0.83691209554672241 0 0.87098830938339233
0.99711072444915771 0 0.69140475988388062
0.0030655656009912491 0.037220284342765808 0.9998285174369812
0.063373461365699768 0.042488068342208862 1
0.36355876922607422 0.010142726823687553 0.98978710174560547
0.87036925554275513 0.00047622382408007979 0.90908181667327881
0.9990534782409668 0 0.76860672235488892
0 0.20251509547233582 0.87134855985641479
0.01941414549946785 0.23184676468372345 0.90496921539306641
0.25842306017875671 0.21964912116527557 0.88288891315460205
0.80945539474487305 0.15908943116664886 0.81788694858551025
1 0.11762601137161255 0.69870167970657349
0 0.53406715393066406 0.53426897525787354
0 0.59070783853530884 0.59879213571548462
0.11069859564304352 0.61884260177612305 0.62841427326202393
0.59903234243392944 0.58404290676116943 0.58929538726806641
1 0.50145018100738525 0.52563512325286865
0 0.94994622468948364 0.21283890306949615
0.0026862649247050285 0.98486727476119995 0.26970434188842773
0.01910216361284256 0.99332135915756226 0.27906787395477295
0.33854907751083374 0.98974877595901489 0.30125057697296143
0.96114581823348999 0.97365915775299072 0.26375240087509155
0 0 1
0.049662794917821884 0 1
0.28773421049118042 0 0.9994741678237915
0.7679334282875061 0 0.99374741315841675
1 0.0019869336392730474 1
0 0.00036432602792046964 1
0.040247615426778793 0.0067469580098986626 1
0.30200314521789551 0.00058566825464367867 1
0.813190758228302 0 0.99730569124221802
1 0.011513414792716503 1
0 0.14113092422485352 1
0.021011905744671822 0.18554702401161194 1
0.23143312335014343 0.17829722166061401 1
0.74358874559402466 0.11983036994934082 0.99975144863128662
1 0.12355218082666397 1
0 0.48541438579559326 1
5.4258460295386612e-05 0.54053187370300293 1
0.10319522023200989 0.57048583030700684 1
0.5866590142250061 0.54076182842254639 1
0.99966555833816528 0.46961569786071777 1
0 0.91287422180175781 0.90973347425460815
0 0.96707433462142944 0.94952183961868286
0.0039362139068543911 0.98075228929519653 0.96654194593429565
0.34882012009620667 0.9856574535369873 0.9776187539100647
0.94463461637496948 0.96183604001998901 0.95863634347915649
