assets/lut/ohadperetz cold simplicity 2.cube
# Created by: G'MIC (https://gmic.eu)
TITLE "cold_simplicity_2"
# LUT size
LUT_3D_SIZE 7
# Data domain
DOMAIN_MIN 0.0 0.0 0.0
DOMAIN_MAX 1.0 1.0 1.0
# LUT data points
0.011764706112444401 0.011764706112444401 0.011764706112444401
0.010461007244884968 0.0099624181166291237 0.0097566638141870499
0.090634562075138092 0.057508282363414764 0.057478796690702438
0.5037388801574707 0.074274368584156036 0.11916842311620712
0.81214320659637451 0.17672966420650482 0.19376516342163086
0.9345782995223999 0.30833113193511963 0.20684275031089783
0.94776177406311035 0.32648080587387085 0.21681363880634308
0.019976820796728134 0.02061951532959938 0.019925450906157494
0.038395527750253677 0.039257243275642395 0.036421157419681549
0.091665245592594147 0.066019557416439056 0.057011667639017105
0.45436528325080872 0.088842920958995819 0.094826117157936096
0.79817050695419312 0.18251088261604309 0.18082082271575928
0.92768895626068115 0.32140323519706726 0.19420157372951508
0.95222979784011841 0.349437415599823 0.20210860669612885
0.050404239445924759 0.096184857189655304 0.067254088819026947
0.061285488307476044 0.095647014677524567 0.066342808306217194
0.10004755854606628 0.11173465102910995 0.059708300977945328
0.42115932703018188 0.13979281485080719 0.065847240388393402
0.77128446102142334 0.20853295922279358 0.16422569751739502
0.92475903034210205 0.32080420851707458 0.18730846047401428
0.94857019186019897 0.36570572853088379 0.18300153315067291
0.019344404339790344 0.2834509015083313 0.13024583458900452
0.038485210388898849 0.27541252970695496 0.1203688383102417
0.084494605660438538 0.27822709083557129 0.10629676282405853
0.38007771968841553 0.31864798069000244 0.065469078719615936
0.7853732705116272 0.38259169459342957 0.12015171349048615
0.88026493787765503 0.49884778261184692 0.12724272906780243
0.8979417085647583 0.52184051275253296 0.13088031113147736
0.046393852680921555 0.54195797443389893 0.24122056365013123
0.060972295701503754 0.53069770336151123 0.22327139973640442
0.10192511975765228 0.53469169139862061 0.20966809988021851
0.33408275246620178 0.64367467164993286 0.18558093905448914
0.71766358613967896 0.6206289529800415 0.10285075753927231
0.82506841421127319 0.64431923627853394 0.10359551012516022
0.84647548198699951 0.66000783443450928 0.10921038687229156
0.087149105966091156 0.77543610334396362 0.32143616676330566
0.10261912643909454 0.76311576366424561 0.30549129843711853
0.13739883899688721 0.76430994272232056 0.29204368591308594
0.35656970739364624 0.82635986804962158 0.26809418201446533
0.64525067806243896 0.88004559278488159 0.25196480751037598
0.78138172626495361 0.82698285579681396 0.15956446528434753
0.80709487199783325 0.78224891424179077 0.11842045187950134
0.11631004512310028 0.88509660959243774 0.36362928152084351
0.13518792390823364 0.88842558860778809 0.3586367666721344
0.17861360311508179 0.90610092878341675 0.34596014022827148
0.35380834341049194 0.92346060276031494 0.32245737314224243
0.61098200082778931 0.94273459911346436 0.29429006576538086
0.78333848714828491 0.95467567443847656 0.28131082653999329
0.8176388144493103 0.94323444366455078 0.26633396744728088
0.013088974170386791 0.012949924916028976 0.012839657254517078
0.01559238787740469 0.015144901350140572 0.015289844945073128
0.085485629737377167 0.058024834841489792 0.060819916427135468
0.48875692486763 0.07389812171459198 0.1371455043554306
0.8165021538734436 0.17557850480079651 0.22056677937507629
0.93217402696609497 0.30489552021026611 0.23714134097099304
0.95980918407440186 0.32357347011566162 0.2410733699798584
0.032142996788024902 0.032439436763525009 0.032300777733325958
0.040188629180192947 0.039501473307609558 0.039474040269851685
0.091688312590122223 0.066629938781261444 0.064609989523887634
0.44243791699409485 0.095732428133487701 0.12384018301963806
0.79253190755844116 0.18125219643115997 0.20493927597999573
0.92400902509689331 0.3155137300491333 0.22475232183933258
0.95426070690155029 0.34630373120307922 0.22612281143665314
0.051243443042039871 0.10043767094612122 0.07835020124912262
0.058324191719293594 0.10143324732780457 0.078486710786819458
0.10339567810297012 0.1108313649892807 0.074535772204399109
0.41395643353462219 0.13887226581573486 0.089688323438167572
0.78461873531341553 0.19605048000812531 0.19563020765781403
0.92019307613372803 0.3226449191570282 0.21540649235248566
0.94711065292358398 0.35986974835395813 0.2126423567533493
0.026322832331061363 0.27594861388206482 0.15666791796684265
0.048607591539621353 0.28165528178215027 0.15366959571838379
0.085547894239425659 0.27176079154014587 0.13042564690113068
0.37298530340194702 0.307850182056427 0.081792749464511871
0.79196757078170776 0.36969149112701416 0.15276288986206055
0.88635218143463135 0.49203947186470032 0.16035017371177673
0.90649914741516113 0.51375889778137207 0.16163869202136993
0.046728305518627167 0.53151160478591919 0.25980156660079956
0.065936282277107239 0.5249783992767334 0.24874794483184814
0.10843484848737717 0.5271376371383667 0.23113872110843658
0.33151257038116455 0.62850445508956909 0.20586802065372467
0.72369825839996338 0.61625379323959351 0.13085539638996124
0.83156692981719971 0.64409732818603516 0.12932416796684265
0.85284173488616943 0.65336960554122925 0.13469389081001282
0.089907206594944 0.76758867502212524 0.3418923020362854
0.10796397924423218 0.75472331047058105 0.32963696122169495
0.15633650124073029 0.76114261150360107 0.31134539842605591
0.32578840851783752 0.81131935119628906 0.2842048704624176
0.64519596099853516 0.87504047155380249 0.26629632711410522
0.79048818349838257 0.82210510969161987 0.1875317394733429
0.81358665227890015 0.78269487619400024 0.14066833257675171
0.12422043830156326 0.89120835065841675 0.38999029994010925
0.14152507483959198 0.89244550466537476 0.3836289644241333
0.18151244521141052 0.89799338579177856 0.36987996101379395
0.33906665444374084 0.92254728078842163 0.34259092807769775
0.58606749773025513 0.94280976057052612 0.32112729549407959
0.78169053792953491 0.95369809865951538 0.31030473113059998
0.82152283191680908 0.94863325357437134 0.2893216609954834
0.041077796369791031 0.088856607675552368 0.10362176597118378
0.04363849014043808 0.08716437965631485 0.098658621311187744
0.085091471672058105 0.088628612458705902 0.10429172962903976
0.42481702566146851 0.12099248915910721 0.17543885111808777
0.79687106609344482 0.21320828795433044 0.25312542915344238
0.92749160528182983 0.31709685921669006 0.27238637208938599
0.95778298377990723 0.33821707963943481 0.272849440574646
0.046084325760602951 0.090838350355625153 0.10820996016263962
0.051786310970783234 0.088884659111499786 0.10316914319992065
0.086579687893390656 0.093613781034946442 0.10504838824272156
0.38518542051315308 0.12811586260795593 0.15040658414363861
0.76572304964065552 0.21187900006771088 0.22959932684898376
0.92391979694366455 0.32483214139938354 0.26168999075889587
0.95234882831573486 0.35326799750328064 0.25967395305633545
0.048784606158733368 0.10918132960796356 0.11670032888650894
0.059941057115793228 0.10687137395143509 0.11358226835727692
0.093219161033630371 0.11117525398731232 0.10870232433080673
0.37594509124755859 0.13924266397953033 0.12259896844625473
0.75771820545196533 0.20295016467571259 0.22082716226577759
0.91797316074371338 0.32300356030464172 0.2491772472858429
0.94600027799606323 0.36558440327644348 0.24836122989654541
0.020203683525323868 0.27781000733375549 0.21613976359367371
0.046998970210552216 0.27842065691947937 0.20875243842601776
0.082207351922988892 0.26719895005226135 0.17945094406604767
0.34615489840507507 0.29565802216529846 0.11686345934867859
0.77443987131118774 0.35882502794265747 0.18210400640964508
0.890411376953125 0.47298547625541687 0.19629774987697601
0.91502022743225098 0.49735879898071289 0.19877000153064728
0.057028543204069138 0.54171562194824219 0.32059642672538757
0.07813756912946701 0.5316472053527832 0.30951812863349915
0.11021512746810913 0.52256149053573608 0.28307661414146423
0.31672883033752441 0.59866189956665039 0.2328881174325943
0.71516066789627075 0.61122173070907593 0.16268739104270935
0.83716362714767456 0.63406813144683838 0.16105864942073822
0.85606110095977783 0.65452581644058228 0.16261330246925354
0.096095487475395203 0.7681012749671936 0.39888057112693787
0.11478989571332932 0.75525480508804321 0.38822752237319946
0.15661561489105225 0.75480169057846069 0.36838263273239136
0.31260243058204651 0.79738742113113403 0.31734707951545715
0.6238519549369812 0.85594397783279419 0.28691810369491577
0.78761571645736694 0.80888068675994873 0.20646347105503082
0.81177908182144165 0.79185777902603149 0.17690947651863098
0.12914817035198212 0.89164799451828003 0.45180699229240417
0.14791274070739746 0.88477104902267456 0.4602319598197937
0.17832744121551514 0.88989853858947754 0.4286649227142334
0.32010042667388916 0.91990399360656738 0.38098394870758057
0.57947933673858643 0.93777090311050415 0.34969356656074524
0.78067260980606079 0.95048767328262329 0.3364894688129425
0.81893044710159302 0.94459062814712524 0.31851446628570557
0.013038410805165768 0.28818482160568237 0.38351142406463623
0.024599801748991013 0.28635507822036743 0.36754694581031799
0.057531125843524933 0.25966569781303406 0.32452934980392456
0.21035371720790863 0.23781831562519073 0.26470789313316345
0.70504856109619141 0.30784550309181213 0.32662251591682434
0.91479527950286865 0.41095560789108276 0.45602789521217346
0.95590329170227051 0.43400284647941589 0.4820292592048645
0.010227113962173462 0.27886295318603516 0.37412488460540771
0.026469675824046135 0.27607566118240356 0.36085933446884155
0.059990961104631424 0.25089257955551147 0.31702226400375366
0.19423700869083405 0.23528414964675903 0.25772520899772644
0.67587023973464966 0.30774202942848206 0.3105781078338623
0.90732622146606445 0.40736684203147888 0.40417611598968506
0.95776528120040894 0.4345623254776001 0.41843888163566589
0.013279634527862072 0.2630983293056488 0.34986761212348938
0.035210434347391129 0.25852400064468384 0.33680841326713562
0.057194158434867859 0.25132477283477783 0.31992483139038086
0.19046670198440552 0.24187831580638885 0.26178663969039917
0.65647846460342407 0.31272408366203308 0.29621851444244385
0.90646809339523315 0.39909908175468445 0.34334102272987366
0.9508628249168396 0.4373963475227356 0.36104059219360352
0.024983469396829605 0.29600319266319275 0.35386809706687927
0.045313429087400436 0.28685614466667175 0.33947792649269104
0.072666406631469727 0.29382795095443726 0.33140888810157776
0.22058609127998352 0.31238517165184021 0.30346229672431946
0.71836858987808228 0.36424499750137329 0.2869911789894104
0.89857417345046997 0.43188083171844482 0.27988418936729431
0.9288402795791626 0.46698230504989624 0.27527293562889099
0.10500046610832214 0.60216683149337769 0.57801443338394165
0.12632535398006439 0.60186958312988281 0.56543809175491333
0.14146840572357178 0.57674223184585571 0.50628089904785156
0.22071473300457001 0.5689622163772583 0.38473567366600037
0.6493152379989624 0.62344515323638916 0.24203695356845856
0.83638143539428711 0.64010316133499146 0.20110592246055603
0.85714095830917358 0.66596043109893799 0.19684834778308868
0.1433759331703186 0.78782945871353149 0.66279911994934082
0.16028612852096558 0.77801048755645752 0.6365361213684082
0.1751924455165863 0.76122796535491943 0.57536369562149048
0.25337910652160645 0.76707416772842407 0.43419453501701355
0.56774336099624634 0.82650947570800781 0.35902842879295349
0.77832448482513428 0.81000643968582153 0.25475746393203735
0.82058238983154297 0.77820640802383423 0.19991567730903625
0.16183912754058838 0.8824886679649353 0.69340091943740845
0.17667606472969055 0.87916797399520874 0.67089885473251343
0.19893942773342133 0.88454049825668335 0.62444853782653809
0.27479168772697449 0.90954160690307617 0.48446282744407654
0.53695780038833618 0.93294912576675415 0.42726978659629822
0.74850910902023315 0.94528990983963013 0.39207366108894348
0.82651793956756592 0.93984109163284302 0.34206870198249817
0.063832089304924011 0.51293504238128662 0.66718709468841553
0.080119192600250244 0.50784409046173096 0.65400880575180054
0.1125837117433548 0.48719596862792969 0.6177743673324585
0.15624003112316132 0.4492681622505188 0.54815977811813354
0.57620084285736084 0.4429149329662323 0.48649972677230835
0.88550287485122681 0.50359064340591431 0.65040099620819092
0.95146328210830688 0.54124140739440918 0.71958810091018677
0.064225755631923676 0.4985421895980835 0.64615708589553833
0.081163771450519562 0.49600106477737427 0.63802915811538696
0.11179066449403763 0.48118269443511963 0.6112397313117981
0.16263233125209808 0.44343256950378418 0.52869081497192383
0.53302943706512451 0.43886354565620422 0.42656129598617554
0.8596000075340271 0.49633467197418213 0.58497929573059082
0.94812381267547607 0.55521786212921143 0.70715427398681641
0.061500683426856995 0.4885927140712738 0.63324820995330811
0.080107368528842926 0.48320114612579346 0.62353503704071045
0.10444672405719757 0.47617301344871521 0.60583144426345825
0.1524355411529541 0.44424432516098022 0.53219377994537354
0.49131110310554504 0.44018715620040894 0.39213806390762329
0.8418964147567749 0.49933087825775146 0.55054891109466553
0.94392871856689453 0.57462400197982788 0.69386541843414307
0.062507286667823792 0.47765442728996277 0.61635208129882812
0.083199158310890198 0.47458669543266296 0.60405009984970093
0.10408811271190643 0.46874520182609558 0.59234869480133057
0.1368207186460495 0.47609761357307434 0.59064191579818726
0.50776982307434082 0.47728565335273743 0.49841511249542236
0.84152281284332275 0.53586769104003906 0.59177422523498535
0.94796061515808105 0.58591258525848389 0.66025429964065552
0.08694380521774292 0.54074352979660034 0.66144973039627075
0.10686293989419937 0.53378033638000488 0.64999353885650635
0.13135842978954315 0.53454327583312988 0.63757181167602539
0.17210832238197327 0.56721162796020508 0.64638423919677734
0.55117702484130859 0.6388358473777771 0.63003325462341309
0.86720806360244751 0.66839790344238281 0.6230199933052063
0.93774211406707764 0.64890646934509277 0.54115575551986694
0.15787038207054138 0.76857978105545044 0.84990715980529785
0.17486429214477539 0.75944608449935913 0.83512455224990845
0.1994270533323288 0.76019126176834106 0.81311255693435669
0.22762513160705566 0.77064436674118042 0.75948637723922729
0.47683531045913696 0.79655522108078003 0.62641561031341553
0.79445379972457886 0.81334930658340454 0.48789632320404053
0.86419069766998291 0.7965049147605896 0.40284541249275208
0.18234544992446899 0.87819260358810425 0.91367977857589722
0.20375676453113556 0.87153023481369019 0.89547467231750488
0.22759450972080231 0.87745136022567749 0.87125235795974731
0.25467416644096375 0.88154029846191406 0.78449219465255737
0.48255756497383118 0.92249518632888794 0.62839597463607788
0.72162902355194092 0.94027209281921387 0.54744857549667358
0.84834092855453491 0.93630790710449219 0.44645726680755615
0.1289273202419281 0.66561704874038696 0.84817445278167725
0.1501384973526001 0.66262489557266235 0.83870983123779297
0.17095978558063507 0.65724843740463257 0.82369351387023926
0.1871570497751236 0.63965368270874023 0.79774540662765503
0.39617320895195007 0.65196049213409424 0.74854123592376709
0.85063070058822632 0.60538601875305176 0.83566462993621826
0.95153498649597168 0.60027080774307251 0.83730030059814453
0.13141311705112457 0.67101079225540161 0.84868860244750977
0.1498427540063858 0.66567212343215942 0.83710098266601562
0.17364008724689484 0.6589961051940918 0.8217167854309082
0.1922457367181778 0.63967400789260864 0.79307019710540771
0.36471155285835266 0.64562714099884033 0.74054145812988281
0.82441824674606323 0.61271029710769653 0.80952805280685425
0.94821840524673462 0.61876064538955688 0.82259422540664673
0.12278091162443161 0.66160696744918823 0.83470463752746582
0.14283531904220581 0.65727275609970093 0.82558482885360718
0.16606694459915161 0.65568435192108154 0.81883209943771362
0.18678462505340576 0.63069009780883789 0.77973467111587524
0.34124386310577393 0.6352161169052124 0.73245024681091309
0.78384512662887573 0.61804491281509399 0.77313625812530518
0.93362116813659668 0.6286461353302002 0.80396485328674316
0.11542841792106628 0.64578413963317871 0.81669265031814575
0.13392359018325806 0.64693695306777954 0.81335556507110596
0.15518684685230255 0.64124614000320435 0.80175518989562988
0.17616117000579834 0.63483506441116333 0.78924840688705444
0.31610938906669617 0.63590514659881592 0.74005299806594849
0.76210123300552368 0.61807441711425781 0.76033502817153931
0.92771106958389282 0.64954394102096558 0.80461519956588745
0.11491838097572327 0.65708804130554199 0.82195264101028442
0.13604342937469482 0.65371143817901611 0.81185793876647949
0.15620137751102448 0.64447665214538574 0.7987486720085144
0.1882767379283905 0.65703177452087402 0.80046230554580688
0.35090526938438416 0.68604034185409546 0.79301613569259644
0.77643698453903198 0.69835609197616577 0.79382514953613281
0.93783700466156006 0.71191978454589844 0.81985032558441162
0.13286586105823517 0.71350878477096558 0.86577302217483521
0.15270695090293884 0.70856595039367676 0.85383361577987671
0.17636263370513916 0.70223617553710938 0.83881533145904541
0.2110481858253479 0.72945320606231689 0.84414267539978027
0.34348538517951965 0.76130449771881104 0.84526139497756958
0.78156930208206177 0.81181114912033081 0.79475468397140503
0.94794416427612305 0.81088918447494507 0.78670048713684082
0.16784472763538361 0.81706839799880981 0.94264084100723267
0.18746799230575562 0.8136974573135376 0.94003236293792725
0.21362118422985077 0.82879745960235596 0.93628531694412231
0.25027349591255188 0.86481565237045288 0.93547612428665161
0.36192375421524048 0.87635546922683716 0.87640845775604248
0.71061062812805176 0.93293082714080811 0.77384793758392334
0.89071935415267944 0.94470357894897461 0.67057597637176514
0.14213190972805023 0.69608467817306519 0.88288968801498413
0.16350586712360382 0.69786423444747925 0.87893432378768921
0.18395529687404633 0.69488012790679932 0.86946022510528564
0.20395258069038391 0.68713223934173584 0.8528175950050354
0.36177465319633484 0.69720965623855591 0.80103796720504761
0.83574134111404419 0.64341026544570923 0.90932804346084595
0.94558364152908325 0.63060569763183594 0.90121513605117798
0.14750175178050995 0.71006119251251221 0.89637720584869385
0.16496798396110535 0.70945781469345093 0.88985198736190796
0.19006501138210297 0.71031635999679565 0.88550347089767456
0.21608394384384155 0.70307177305221558 0.86791056394577026
0.32140126824378967 0.70741409063339233 0.83169245719909668
0.78794687986373901 0.67527902126312256 0.90260893106460571
0.95076990127563477 0.65168994665145874 0.904651939868927
0.14419256150722504 0.7137255072593689 0.89407241344451904
0.1659037321805954 0.71539419889450073 0.89163494110107422
0.18943415582180023 0.72103613615036011 0.89514529705047607
0.21133635938167572 0.71596294641494751 0.88632184267044067
0.2876535952091217 0.7141730785369873 0.85932296514511108
0.72429966926574707 0.70717364549636841 0.87698709964752197
0.93773847818374634 0.67147982120513916 0.89545553922653198
0.14574883878231049 0.71773356199264526 0.89668744802474976
0.16138911247253418 0.72378385066986084 0.90226727724075317
0.18195647001266479 0.72452521324157715 0.9000316858291626
0.20389629900455475 0.71976125240325928 0.89207178354263306
0.25433680415153503 0.71768486499786377 0.87743735313415527
0.65997463464736938 0.72934746742248535 0.86042183637619019
0.93559938669204712 0.68873715400695801 0.90182816982269287
0.13842076063156128 0.73479694128036499 0.91539591550827026
0.15932042896747589 0.73734170198440552 0.91470670700073242
0.18111804127693176 0.73051244020462036 0.90355467796325684
0.20460803806781769 0.73559921979904175 0.90358567237854004
0.25319865345954895 0.74345499277114868 0.9008062481880188
0.63166648149490356 0.76971399784088135 0.86203551292419434
0.92715513706207275 0.73277407884597778 0.91719305515289307
0.14345748722553253 0.75624799728393555 0.92941129207611084
0.16214491426944733 0.74996256828308105 0.92005962133407593
0.18496929109096527 0.75093132257461548 0.92038434743881226
0.21245215833187103 0.75967878103256226 0.92090499401092529
0.27979844808578491 0.77739638090133667 0.92110490798950195
0.66364872455596924 0.82723104953765869 0.88421392440795898
0.92759788036346436 0.81220811605453491 0.92204272747039795
0.15270993113517761 0.77626770734786987 0.93547701835632324
0.17365998029708862 0.78342527151107788 0.94021868705749512
0.19910341501235962 0.78843289613723755 0.93651491403579712
0.22961954772472382 0.80153340101242065 0.93467116355895996
0.2874545156955719 0.82584303617477417 0.94525843858718872
0.64888620376586914 0.88384008407592773 0.92784136533737183
0.91884273290634155 0.94340246915817261 0.89503443241119385
