assets/lut/ohadperetz d o 1.cube
# Created by: G'MIC (https://gmic.eu)
TITLE "d_o_1"
# LUT size
LUT_3D_SIZE 13
# Data domain
DOMAIN_MIN 0.0 0.0 0.0
DOMAIN_MAX 1.0 1.0 1.0
# LUT data points
0 0 0
0 0 0
0 0 0
0 0.00089673808543011546 0.0010964636458083987
0.038446031510829926 0.023901741951704025 0.022444421425461769
0.36402785778045654 0.02534879744052887 0.023763949051499367
0.84580546617507935 0.0012179805198684335 0.0012096180580556393
0.99309432506561279 0.0017195757245644927 0
1 0.0047380034811794758 0
1 0.0045745251700282097 0
1 0.0031687268055975437 0
1 0.0031609628349542618 0
1 0.0045496770180761814 0
0 0 0
0 0 0
0 0.00010531556472415105 0.00044633453944697976
0.0030636207666248083 0.0093175703659653664 0.011984492652118206
0.090469092130661011 0.036362338811159134 0.029603742063045502
0.46986028552055359 0.021543525159358978 0.015371060930192471
0.85277187824249268 0.011046764440834522 0.00014100916450843215
0.96778631210327148 0.035081438720226288 0
0.99924701452255249 0.04837881401181221 0
1 0.04961082711815834 0
1 0.048327427357435226 0
1 0.049665845930576324 0
1 0.054949246346950531 0
0.0045287488028407097 0.0019897760357707739 0.0046652699820697308
0.0082186376675963402 0.004005820956081152 0.0060078338719904423
0.010667464695870876 0.011603965424001217 0.012213733047246933
0.026614798232913017 0.032796449959278107 0.027046024799346924
0.15233969688415527 0.05234977975487709 0.022553762421011925
0.5231778621673584 0.0337815061211586 0.0061399121768772602
0.83978241682052612 0.043561749160289764 0
0.95351147651672363 0.083737887442111969 0
0.99675041437149048 0.10532244294881821 0
1 0.11339434236288071 0
1 0.11562111228704453 0
1 0.11737836897373199 0
1 0.12335500121116638 0
0.025671206414699554 0.041015967726707458 0.027884718030691147
0.030855081975460052 0.051669716835021973 0.023666964843869209
0.042401347309350967 0.059290420264005661 0.026459338143467903
0.065587751567363739 0.074865557253360748 0.021575793623924255
0.20198054611682892 0.085341691970825195 0.0035917991772294044
0.52101641893386841 0.075987525284290314 2.8946820748387836e-05
0.8066861629486084 0.095028914511203766 0
0.94418597221374512 0.13908593356609344 0
0.99550795555114746 0.16783611476421356 0
1 0.18487624824047089 0
0.99981939792633057 0.19327069818973541 0
0.99984222650527954 0.19148789346218109 0
1 0.19906862080097198 0
0.01790434867143631 0.17055670917034149 0.020016733556985855
0.0093168523162603378 0.17660526931285858 0.006903958972543478
0.015926914289593697 0.17432726919651031 0.0053217718377709389
0.054892461746931076 0.17144449055194855 0.0050320196896791458
0.18815577030181885 0.17011500895023346 0.00022297279792837799
0.46554669737815857 0.16408886015415192 0
0.74612492322921753 0.18690884113311768 0
0.91093349456787109 0.23396313190460205 0
0.98492133617401123 0.25996699929237366 0
0.99987846612930298 0.27484443783760071 0.0003076590655837208
0.99931734800338745 0.28493702411651611 0.001066305092535913
0.99839049577713013 0.28305965662002563 3.4227559808641672e-05
0.99998277425765991 0.29770040512084961 0
0.0014060524990782142 0.35077270865440369 0.0014439751394093037
1.458560745959403e-05 0.34306606650352478 1.8086153431795537e-05
0.00027132220566272736 0.33197405934333801 0
0.017798315733671188 0.31947979331016541 0
0.12020669132471085 0.31403061747550964 0
0.38099056482315063 0.30817136168479919 0
0.67860376834869385 0.32023030519485474 0
0.86447596549987793 0.36763641238212585 0
0.95714724063873291 0.3997727632522583 0
0.99220657348632812 0.40754896402359009 5.834242983837612e-06
0.99925583600997925 0.41429108381271362 0.00066763185895979404
0.99916130304336548 0.41946795582771301 0.0020165087189525366
0.99981421232223511 0.43552839756011963 3.0338062060764059e-05
0 0.52989202737808228 0
0.00012640860222745687 0.52122265100479126 0.00021508909412659705
0 0.5100860595703125 2.3336972390097799e-06
0.0043347678147256374 0.49154072999954224 0
0.066919662058353424 0.48125845193862915 0
0.27692541480064392 0.50685292482376099 0
0.59862202405929565 0.49502000212669373 0
0.81452572345733643 0.49992784857749939 0
0.92227846384048462 0.53929167985916138 0
0.97164523601531982 0.549815833568573 0
0.9913601279258728 0.55216670036315918 0
0.99824118614196777 0.55878764390945435 0
1 0.56686347723007202 0
0.00077323167352005839 0.70229071378707886 0.00022313735098578036
0.00043931847903877497 0.70146608352661133 0.003961480688303709
5.0563439799589105e-06 0.69446420669555664 0.0018758287187665701
0.00090595317305997014 0.67271548509597778 0.00028906430816277862
0.04090365394949913 0.65652060508728027 7.6518335845321417e-05
0.21973982453346252 0.68290436267852783 0
0.52430200576782227 0.69192546606063843 0
0.76166892051696777 0.65986418724060059 0
0.89158529043197632 0.6655852198600769 0
0.95118427276611328 0.66743499040603638 0
0.97942161560058594 0.66652756929397583 0
0.99516505002975464 0.67134964466094971 0
1 0.67401617765426636 0
1.8669577912078239e-05 0.85713833570480347 0.00046691895113326609
0 0.86150270700454712 0.0044577056542038918
0 0.85505044460296631 0.0047097899951040745
0.00052784936269745231 0.83413469791412354 0.0038311528041958809
0.040632374584674835 0.8144950270652771 0.0025421441532671452
0.20234620571136475 0.8245389461517334 4.3457628635223955e-05
0.47044607996940613 0.83963412046432495 0
0.71610778570175171 0.82575994729995728 0
0.86540192365646362 0.80212587118148804 0
0.93371212482452393 0.77705681324005127 0
0.96908849477767944 0.76716119050979614 0
0.99263459444046021 0.76717132329940796 0
1 0.76610726118087769 0
0 0.97291505336761475 1.9387638531043194e-05
0 0.97773480415344238 0.00072326662484556437
0 0.9738842248916626 0.0021243225783109665
0.0048117544502019882 0.95847475528717041 0.0032124388962984085
0.062818877398967743 0.93764650821685791 0.0037932153791189194
0.21450287103652954 0.93436384201049805 0.0013717053225263953
0.44792678952217102 0.94360411167144775 3.5005457448278321e-06
0.68433535099029541 0.94283348321914673 0
0.8441321849822998 0.9169432520866394 0
0.92444539070129395 0.88257700204849243 0
0.96652758121490479 0.86414790153503418 0
0.99387884140014648 0.85608339309692383 0
1 0.84786123037338257 0
0 1 0
0 1 0
0 1 0
0.011829899623990059 0.99994748830795288 0.00012895172403659672
0.081755049526691437 0.99737066030502319 0.00063083122950047255
0.22338716685771942 0.99375373125076294 0.0011942994315177202
0.42970556020736694 0.99453848600387573 0.00073628145037218928
0.64943373203277588 0.9939541220664978 0.00020711561955977231
0.81828212738037109 0.97997617721557617 0.00040820252615958452
0.91682934761047363 0.96093493700027466 0.0011507071321830153
0.96753543615341187 0.94851934909820557 0.00027712652808986604
0.996124267578125 0.93552029132843018 0
1 0.92057734727859497 0
0 1 0
0 1 0
0 1 0
0.016258060932159424 1 0
0.088375493884086609 1 0
0.21714140474796295 1 0.00051671941764652729
0.40414372086524963 1 0.0028221278917044401
0.61394631862640381 1 0.0020775888115167618
0.79321044683456421 0.99904352426528931 0.0024502025917172432
0.91083377599716187 0.99686598777770996 0.0031843895558267832
0.97013366222381592 0.99659085273742676 0.00049143773503601551
0.99824559688568115 0.99090522527694702 0
1 0.97821658849716187 0
0 1 0
0 1 0
0 1 0
0.02198607474565506 1 0
0.092746168375015259 1 0
0.2086198478937149 1 4.9007641791831702e-05
0.38084951043128967 0.99959295988082886 0.0022206027060747147
0.58346319198608398 0.99968397617340088 0.0030341802630573511
0.76846456527709961 0.99967718124389648 0.0028546801768243313
0.90137463808059692 0.99993348121643066 0.0013309253845363855
0.97006207704544067 1 0
0.99894893169403076 1 0
1 0.99996966123580933 0
0 0 0
0 0 0
0 0 0
1.7772001228877343e-05 0.0013393627014011145 0.00079561123857274652
0.034116707742214203 0.025375815108418465 0.026445291936397552
0.35184749960899353 0.023443363606929779 0.037419114261865616
0.8327411413192749 0.0008183498284779489 0.0094900690019130707
0.98971307277679443 0.0011429580627009273 0.0028919742908328772
1 0.0038329928647726774 0.0011948678875342011
1 0.0029203526210039854 0.00063600728753954172
1 0.0013890584232285619 0.00039114858373068273
1 0.0017571393400430679 0.0012726727873086929
1 0.0039326385594904423 0.0032110775355249643
0 0 0
0 0 0
0 0.00022396013082470745 0.00026391720166429877
0.0038187962491065264 0.010997428558766842 0.012240959331393242
0.088915161788463593 0.036905940622091293 0.036209750920534134
0.45917186141014099 0.022766157984733582 0.023593183606863022
0.85300338268280029 0.009932439774274826 0.0015161701012402773
0.96334719657897949 0.032118193805217743 0.001744633074849844
0.99711352586746216 0.047148492187261581 0.00067373539786785841
1 0.046551916748285294 0.00014908734010532498
1 0.042641658335924149 3.291111454473139e-07
1 0.046668827533721924 0.00064555148128420115
1 0.054675009101629257 0.0021430819761008024
0.0050927256233990192 0.0028295330703258514 0.0058736465871334076
0.0076740938238799572 0.0061094546690583229 0.0069569754414260387
0.010510344058275223 0.015173249877989292 0.014401289634406567
0.030105350539088249 0.034220647066831589 0.033223859965801239
0.15513855218887329 0.050946671515703201 0.030660457909107208
0.51555222272872925 0.031498417258262634 0.0090462183579802513
0.835735023021698 0.0412178635597229 5.8402267313795164e-05
0.95473223924636841 0.083274409174919128 2.106311330862809e-05
0.99586695432662964 0.1079694852232933 2.6328891635785112e-06
1 0.11358117312192917 0
0.99941712617874146 0.11462792754173279 0
0.99952411651611328 0.12013551592826843 4.1303446778329089e-05
1 0.12700062990188599 0.00059190636966377497
0.027902416884899139 0.045760627835988998 0.032998088747262955
0.03257153183221817 0.054711960256099701 0.031241606920957565
0.040093112736940384 0.062850832939147949 0.033954992890357971
0.06841558963060379 0.073985978960990906 0.031018394976854324
0.20522847771644592 0.084081746637821198 0.0099320057779550552
0.51413124799728394 0.07401459664106369 0.00025811287923716009
0.79991674423217773 0.093176521360874176 0
0.94436287879943848 0.13873088359832764 0
0.99582386016845703 0.17164406180381775 0
1 0.18611884117126465 0
0.99857574701309204 0.19375897943973541 0
0.99773550033569336 0.19766061007976532 0
1 0.2014385461807251 0.00015616323798894882
0.017686536535620689 0.17184129357337952 0.020150382071733475
0.011251681484282017 0.17621873319149017 0.011519862338900566
0.015501463785767555 0.1739942878484726 0.010073253884911537
0.05279126763343811 0.17121614515781403 0.006680597085505724
0.18925844132900238 0.16927230358123779 0.00048688999959267676
0.46063229441642761 0.16348111629486084 0
0.74032020568847656 0.18388664722442627 0
0.90799278020858765 0.22912801802158356 0
0.9818427562713623 0.26008868217468262 0
0.99960851669311523 0.27321931719779968 0
0.99920451641082764 0.28428062796592712 0
0.99704647064208984 0.28925374150276184 3.4556669561425224e-06
0.99994957447052002 0.28960955142974854 0.00048856547800824046
0.0015894422540441155 0.34819695353507996 0.00032768998062238097
0 0.34176838397979736 0
1.0471718269400299e-05 0.33076927065849304 0
0.013451430015265942 0.31826663017272949 0
0.12041088938713074 0.31237632036209106 0
0.37116873264312744 0.31024894118309021 0
0.67242896556854248 0.31539285182952881 0
0.85956978797912598 0.36059758067131042 0.00022267359599936754
0.95334357023239136 0.39500176906585693 8.8291541032958776e-05
0.9907868504524231 0.40078616142272949 0
0.99946385622024536 0.41022244095802307 3.8894953036106017e-07
0.99965685606002808 0.42313778400421143 1.307468755840091e-05
0.99991977214813232 0.42510765790939331 0.0001360874593956396
0.00063787720864638686 0.52737963199615479 0
0 0.51755505800247192 0
0 0.50524771213531494 0
0.001959886634722352 0.48801639676094055 0
0.065630562603473663 0.47978585958480835 0
0.27836251258850098 0.49982360005378723 0
0.59377175569534302 0.48943570256233215 0
0.8094514012336731 0.49096289277076721 0.00084168679313734174
0.92169171571731567 0.53266555070877075 0.00045779359061270952
0.97358518838882446 0.54403996467590332 0
0.99364596605300903 0.54967999458312988 0
0.99938905239105225 0.56037044525146484 0
1 0.56414902210235596 0
0.004266147967427969 0.70400834083557129 0.00029085943242534995
0.00050237320829182863 0.69844812154769897 0.0044182571582496166
0 0.68749046325683594 0.0019295037491247058
0.00046451046364381909 0.66667485237121582 0.00014708275557495654
0.041913978755474091 0.65291434526443481 1.8774293494061567e-05
0.21678504347801208 0.67779415845870972 0
0.51432126760482788 0.68820619583129883 0
0.75828951597213745 0.6554417610168457 0
0.8924708366394043 0.65745300054550171 0
0.95504856109619141 0.66138243675231934 0
0.98416602611541748 0.66553425788879395 0
0.99729454517364502 0.67257940769195557 0
1 0.6745980978012085 0
0.0024700688663870096 0.86752617359161377 0.0012959199957549572
0.0001423106441507116 0.86647576093673706 0.0071809804067015648
0 0.85465419292449951 0.007082965224981308
5.3854552106713527e-07 0.83199435472488403 0.0039109024219214916
0.03160674124956131 0.81286191940307617 0.0020413566380739212
0.18709245324134827 0.82192468643188477 3.2761516195023432e-05
0.45619025826454163 0.83951228857040405 0
0.71121019124984741 0.82534724473953247 0
0.86496609449386597 0.79307341575622559 0
0.93819618225097656 0.77099227905273438 0
0.97427618503570557 0.76475143432617188 0
0.99452000856399536 0.76594012975692749 0
1 0.76544886827468872 0
3.8506004784721881e-05 0.98348134756088257 0.00048748840345069766
0 0.98346740007400513 0.0034464816562831402
0 0.97665351629257202 0.0062459907494485378
0.0012596279848366976 0.95988386869430542 0.0063619725406169891
0.049704458564519882 0.93981397151947021 0.0044293720275163651
0.19835937023162842 0.9360278844833374 0.00088610179955139756
0.43494084477424622 0.94422715902328491 0
0.67594784498214722 0.93751233816146851 0
0.84100258350372314 0.90704429149627686 0
0.92639422416687012 0.87577700614929199 0
0.96851122379302979 0.85855495929718018 0
0.99310773611068726 0.85022217035293579 0
1 0.84379440546035767 0
0 1 0
0 1 1.8101112800650299e-05
0 1 0.00083024270134046674
0.00736236572265625 1 0.0027800616808235645
0.074117235839366913 0.99866956472396851 0.003186454065144062
0.2163136750459671 0.99644201993942261 0.00079571595415472984
0.42594969272613525 0.99652290344238281 0
0.64801359176635742 0.99268102645874023 0
0.81773674488067627 0.97652739286422729 0
0.91605007648468018 0.95638525485992432 0
0.96630477905273438 0.94154268503189087 0
0.99450522661209106 0.92690008878707886 0
1 0.91437381505966187 0
0 1 0
0 1 0
0 1 0
0.01498145330697298 1 3.9822447433834895e-05
0.088217712938785553 1 0.00027842802228406072
0.22121615707874298 1 0.00043085135985165834
0.41023331880569458 1 0.00020606844918802381
0.61755383014678955 1 0.00019954606250394136
0.79160183668136597 0.99969756603240967 0.00048133998643606901
0.90449899435043335 0.99739992618560791 0.00098206766415387392
0.96503126621246338 0.99466085433959961 0.00013602762192022055
0.99599754810333252 0.98686689138412476 0
1 0.97492682933807373 0
0 1 0
0 1 0
2.1392223061411642e-05 1 0
0.023224370554089546 1 0
0.097853131592273712 1 0
0.22036409378051758 1 0.00043466605711728334
0.39249071478843689 1 0.0035684921313077211
0.5869976282119751 1 0.0047657834365963936
0.76184535026550293 1 0.0052331062033772469
0.88702547550201416 1 0.0044675040990114212
0.95856571197509766 1 0.0008112589712254703
0.99506080150604248 1 0
1 0.99997431039810181 0
0 0 0
0 0 0
0 0 0
6.1394188378471881e-05 0.0015785815194249153 0.001006646198220551
0.041772536933422089 0.02550874650478363 0.029578579589724541
0.36670312285423279 0.020396513864398003 0.05155588686466217
0.83711594343185425 0.00076068053022027016 0.038433734327554703
0.9845041036605835 0.0011589049827307463 0.030744664371013641
0.9997943639755249 0.0029839908238500357 0.028489191085100174
1 0.0013700897106900811 0.032696861773729324
1 0.00025293687940575182 0.033372588455677032
1 0.0006877225823700428 0.041506178677082062
1 0.0031259872484952211 0.049196057021617889
0 0 0
0 0 0
0.00041283998871222138 0.00057461310643702745 0.00050207402091473341
0.0087767802178859711 0.012607678771018982 0.013526048511266708
0.093045853078365326 0.035663172602653503 0.042399626225233078
0.47222992777824402 0.017679536715149879 0.037077225744724274
0.85335874557495117 0.0070265824906527996 0.023190202191472054
0.95913916826248169 0.030057106167078018 0.02475452795624733
0.99295783042907715 0.043445542454719543 0.024542251601815224
0.99958491325378418 0.040192965418100357 0.027243655174970627
0.9983522891998291 0.035695739090442657 0.026836859062314034
0.99907428026199341 0.041969958692789078 0.037954412400722504
1 0.052696093916893005 0.045873962342739105
0.0052642524242401123 0.0037197337951511145 0.0069139366969466209
0.0074797235429286957 0.0086643891409039497 0.0065472619608044624
0.01453743688762188 0.017678368836641312 0.018013553693890572
0.035617828369140625 0.034864045679569244 0.037499222904443741
0.15639603137969971 0.048296324908733368 0.03950875997543335
0.51163715124130249 0.032708633691072464 0.022278040647506714
0.83305305242538452 0.041321039199829102 0.012377375736832619
0.95565521717071533 0.082894362509250641 0.013959472998976707
0.99601644277572632 0.10915515571832657 0.014531946741044521
0.9997866153717041 0.11107366532087326 0.018426753580570221
0.99623864889144897 0.11128921806812286 0.019481224939227104
0.99647504091262817 0.12036573886871338 0.028272217139601707
1 0.12796911597251892 0.035021405667066574
0.02439696341753006 0.046440649777650833 0.037387698888778687
0.02658570185303688 0.055755060166120529 0.032785438001155853
0.036376412957906723 0.064903691411018372 0.037948578596115112
0.070374414324760437 0.074830494821071625 0.041306663304567337
0.20627982914447784 0.083719469606876373 0.020213976502418518
0.50222295522689819 0.078326806426048279 0.006190610583871603
0.78866839408874512 0.097036026418209076 0.0044516916386783123
0.94110071659088135 0.14156293869018555 0.0064875134266912937
0.99578756093978882 0.17649158835411072 0.0094493487849831581
1 0.18850034475326538 0.012012257240712643
0.99871623516082764 0.19437621533870697 0.011822778731584549
0.99696177244186401 0.20157076418399811 0.018629021942615509
1 0.20425374805927277 0.025681663304567337
0.011523677036166191 0.16976656019687653 0.028310230001807213
0.010085012763738632 0.17107418179512024 0.021137835457921028
0.013053011149168015 0.1740906685590744 0.014888374134898186
0.050770465284585953 0.17322012782096863 0.012451097369194031
0.18971081078052521 0.17027835547924042 0.0035495683550834656
0.45553258061408997 0.16447778046131134 0.00025111180730164051
0.73135149478912354 0.18470707535743713 0.00072875677142292261
0.9013553261756897 0.22863538563251495 0.0025696100201457739
0.9794495701789856 0.26442590355873108 0.0058652688749134541
0.99951052665710449 0.27919694781303406 0.0075139063410460949
0.99997329711914062 0.2870233952999115 0.0077761332504451275
0.99958252906799316 0.29268273711204529 0.014200367964804173
1 0.29260000586509705 0.021509433165192604
0.00040547989192418754 0.34565302729606628 0.0011376325273886323
0 0.33611553907394409 0.00086271995678544044
0 0.32780909538269043 8.7139655079226941e-05
0.01176871545612812 0.31784725189208984 4.5626769860973582e-05
0.12058980762958527 0.31087601184844971 1.2715657248918433e-05
0.36730676889419556 0.30565345287322998 8.2980885053984821e-05
0.66250848770141602 0.31072449684143066 7.8627643233630806e-05
0.85189962387084961 0.35630884766578674 7.6518335845321417e-05
0.95020967721939087 0.39726260304450989 0.00058394786901772022
0.99117732048034668 0.4064272940158844 0.0023775885347276926
0.99985814094543457 0.41133084893226624 0.0049054012633860111
1 0.42086344957351685 0.0063842623494565487
1 0.42272371053695679 0.0091405231505632401
0.00098470051307231188 0.52211356163024902 0
3.2312730127159739e-06 0.51078712940216064 0
0 0.49816331267356873 0
0.00062148150755092502 0.48239615559577942 0
0.059727057814598083 0.47501438856124878 0
0.27280601859092712 0.489503413438797 0.00072006526170298457
0.58503663539886475 0.48291680216789246 0.00052574009168893099
0.80450552701950073 0.48877328634262085 0
0.91928327083587646 0.53092914819717407 0
0.97482728958129883 0.54276096820831299 3.1863943149801344e-05
0.9969785213470459 0.54765158891677856 0.00027588490047492087
0.99999803304672241 0.55774956941604614 0.00010037890024250373
1 0.56142324209213257 0.00025075275334529579
0.0063233766704797745 0.6989130973815918 0
0.0011376474285498261 0.69254642724990845 0.00075344013748690486
0 0.68026173114776611 0.00048491533380001783
0 0.65945374965667725 4.4878791527480644e-07
0.030519701540470123 0.64324003458023071 0
0.20490929484367371 0.66303843259811401 0.00038012335426174104
0.50427460670471191 0.68157827854156494 0.00016051647253334522
0.75192582607269287 0.65153664350509644 0
0.88723993301391602 0.64732486009597778 0
0.95463085174560547 0.65317696332931519 0
0.98859292268753052 0.66210293769836426 0
0.99950480461120605 0.67061072587966919 0
1 0.67310339212417603 0
0.0062541887164115906 0.86448818445205688 6.6390690335538238e-05
0.0010265575256198645 0.86249148845672607 0.0037987653631716967
0 0.85042160749435425 0.0069189933128654957
0 0.82856112718582153 0.0039266250096261501
0.025318386033177376 0.80696815252304077 0.0017956901574507356
0.16944052278995514 0.80848246812820435 0.00085325055988505483
0.44064068794250488 0.82859933376312256 9.0505564003251493e-05
0.70036196708679199 0.81579005718231201 0
0.85571533441543579 0.77664923667907715 0
0.93466782569885254 0.75860732793807983 0
0.97552257776260376 0.75870901346206665 0
0.99560362100601196 0.76109933853149414 0
1 0.76064437627792358 0
0.0011528613977134228 0.98162692785263062 0.00053972727619111538
3.0966366466600448e-06 0.98118114471435547 0.0058599584735929966
0 0.97392469644546509 0.013506047427654266
0.0012725380947813392 0.9583742618560791 0.015211367048323154
0.046624515205621719 0.93838775157928467 0.010230988264083862
0.18837341666221619 0.93136858940124512 0.0040723765268921852
0.42265558242797852 0.93716704845428467 0.00052509683882817626
0.665435791015625 0.92772465944290161 3.1415154353453545e-06
0.83237767219543457 0.89423257112503052 0
0.92011779546737671 0.8638034462928772 0
0.96372860670089722 0.84772264957427979 0
0.98989665508270264 0.83928573131561279 0
0.99997127056121826 0.83494460582733154 0
0 1 0.00051775167230516672
0 1 0.0028581805527210236
0 1 0.01072254590690136
0.0086809499189257622 1 0.016573138535022736
0.074678249657154083 0.99894684553146362 0.013890225440263748
0.21484376490116119 0.99663394689559937 0.0074568507261574268
0.42182910442352295 0.99533319473266602 0.0020242130849510431
0.64392060041427612 0.98879754543304443 0.00069598027039319277
0.81210458278656006 0.97000265121459961 0.00092902092728763819
0.9077150821685791 0.94708991050720215 0.00050974829355254769
0.95701408386230469 0.92759162187576294 2.3037779101287015e-05
0.98761385679244995 0.91152781248092651 1.1070102118537761e-05
0.99988508224487305 0.90293526649475098 0
0 1 0
0 1 0.00021336873760446906
1.4959597365304944e-06 1 0.0024787005968391895
0.019099261611700058 1 0.0071722441352903843
0.093904964625835419 1 0.0098326290026307106
0.2276463657617569 1 0.008805607445538044
0.41423040628433228 1 0.0064118029549717903
0.61651283502578735 1 0.005584327969700098
0.78400039672851562 0.99947702884674072 0.0069643654860556126
0.8920179009437561 0.99542105197906494 0.0069051706232130527
0.9523739218711853 0.98792535066604614 0.003956514410674572
0.98726135492324829 0.97687965631484985 0.00070030364440754056
0.99988508224487305 0.96684169769287109 0
0 1 0
0 1 0
0.00046718821977265179 1 6.073596523492597e-05
0.029481237754225731 1 0.0016390333184972405
0.10654661804437637 1 0.0058690388686954975
0.23171554505825043 1 0.010734378360211849
0.40031325817108154 1 0.013675854541361332
0.58552378416061401 1 0.015526506118476391
0.75005555152893066 1 0.017166825011372566
0.86865818500518799 1 0.016139669343829155
0.94153100252151489 1 0.0097367530688643456
0.9837343692779541 1 0.001350836711935699
0.99980109930038452 0.99971997737884521 0
