assets/lut/ohadperetz retro summer 3.cube
# Created by: G'MIC (https://gmic.eu)
TITLE "retro_summer_3"
# LUT size
LUT_3D_SIZE 7
# Data domain
DOMAIN_MIN 0.0 0.0 0.0
DOMAIN_MAX 1.0 1.0 1.0
# LUT data points
0.10347222536802292 0.070236027240753174 0.0590946264564991
0.12700243294239044 0.067420467734336853 0.059205312281847
0.24346524477005005 0.045326773077249527 0.036953825503587723
0.48831775784492493 0.009989345446228981 0.010065878741443157
0.7866356372833252 0 0.00052722106920555234
0.99982297420501709 0 0
1 0 0
0.09284491091966629 0.092092253267765045 0.042360030114650726
0.11892824620008469 0.09003150463104248 0.047799322754144669
0.22569477558135986 0.071591094136238098 0.024257734417915344
0.48375335335731506 0.020433029159903526 0.0015366497682407498
0.80290096998214722 0.0012208826374262571 0
1 0 0
1 0 0
0.050885368138551712 0.14815449714660645 0.0063084173016250134
0.075728505849838257 0.14780768752098083 0.0092769395560026169
0.17289057374000549 0.14134037494659424 0.0013523475499823689
0.41232240200042725 0.091043554246425629 0
0.74079334735870361 0.028259037062525749 0
0.99855595827102661 0.0026790543925017118 0
1 0 0
0.0065863514319062233 0.25144147872924805 0
0.0041091619059443474 0.26408752799034119 0
0.074147544801235199 0.27260735630989075 0
0.29640364646911621 0.25254335999488831 0
0.65463590621948242 0.19863216578960419 0.0013928283005952835
0.9790082573890686 0.14432200789451599 0.0030552882235497236
1 0.090093247592449188 0.00056028179824352264
0 0.43457382917404175 0.00014935662329662591
0 0.46493050456047058 0.0046179676428437233
0.008002815768122673 0.49096858501434326 0.0062150396406650543
0.15169975161552429 0.49568650126457214 0.00041228649206459522
0.48261874914169312 0.45939269661903381 0
0.89114087820053101 0.40986710786819458 7.7550554124172777e-05
1 0.35230326652526855 0
0 0.68794184923171997 0
0 0.72398120164871216 0.0093778269365429878
9.6818512247409672e-05 0.75045883655548096 0.012837039306759834
0.068202570080757141 0.75965261459350586 0.0049878736026585102
0.32227012515068054 0.7408294677734375 0.0032370623666793108
0.71285736560821533 0.70206946134567261 0.0014545066514983773
0.99977701902389526 0.65360409021377563 0
0 0.95974868535995483 0
0 0.98272526264190674 0
0 0.99215608835220337 0.00013068703992757946
0.025339657440781593 0.99525576829910278 0
0.19257023930549622 0.99285459518432617 0
0.50195926427841187 0.98227196931838989 0.00011399212962714955
0.93828415870666504 0.9608154296875 0.00014020134403835982
0.10235361009836197 0.069305896759033203 0.086603306233882904
0.12871351838111877 0.063110083341598511 0.0902862548828125
0.23901981115341187 0.037664718925952911 0.065283022820949554
0.48011857271194458 0.0067634284496307373 0.027485357597470284
0.79480940103530884 0.00058029772480949759 0.0099288346245884895
1 0 0
1 0 0
0.091933019459247589 0.089691370725631714 0.075588300824165344
0.11792045831680298 0.08947918564081192 0.081800319254398346
0.2250189334154129 0.070925094187259674 0.06077098473906517
0.47028157114982605 0.027798028662800789 0.012629400938749313
0.79962074756622314 0.0041980817914009094 6.5792308305390179e-05
1 0 0
1 0 0
0.044968206435441971 0.14757224917411804 0.030770035460591316
0.073124036192893982 0.15164504945278168 0.02993755042552948
0.17186741530895233 0.14508816599845886 0.0272178053855896
0.41128531098365784 0.099329523742198944 0.00059250474441796541
0.74200648069381714 0.043709371238946915 0
0.99794191122055054 0.008589412085711956 0
1 0.0002263087808387354 0
0.0022290698252618313 0.25569704174995422 0.00017335181473754346
0.0083343060687184334 0.27466931939125061 0
0.081903047859668732 0.28500455617904663 0.00078970217145979404
0.30120262503623962 0.26110091805458069 0.00031842998578213155
0.65455049276351929 0.20947575569152832 0
0.98488259315490723 0.16239030659198761 0
1 0.11501965671777725 0
0 0.44080039858818054 0
0 0.47751593589782715 0
0.018044834956526756 0.50449204444885254 0
0.16996952891349792 0.50340777635574341 0
0.4993915855884552 0.4714103639125824 0
0.89460664987564087 0.42531329393386841 8.8770248112268746e-05
1 0.36271607875823975 0
0 0.68876302242279053 0
0 0.73382651805877686 0
0.00021700392244383693 0.76205426454544067 0.00052731082541868091
0.06854952871799469 0.7730594277381897 0.002088883426040411
0.33038341999053955 0.75980943441390991 0.00025232351617887616
0.72118431329727173 0.71893465518951416 0
1 0.65550976991653442 0
0 0.95846760272979736 0
0 0.98506683111190796 0
0 0.99527066946029663 0
0.0062526180408895016 0.99873799085617065 0
0.17825128138065338 0.99887353181838989 0
0.51634055376052856 0.9923703670501709 0
0.94639801979064941 0.96162110567092896 0
0.088921099901199341 0.059486612677574158 0.23011736571788788
0.12061776220798492 0.052385233342647552 0.22693940997123718
0.2315630167722702 0.027208231389522552 0.18957050144672394
0.46047201752662659 0.0018041273579001427 0.12285345047712326
0.76376485824584961 9.3347889560391195e-06 0.051041398197412491
0.99680936336517334 0.0011288960231468081 0.0007163552800193429
1 0 0
0.080255173146724701 0.080740399658679962 0.20586316287517548
0.1090131402015686 0.08150751143693924 0.2059047669172287
0.21642625331878662 0.062464110553264618 0.17609155178070068
0.45338726043701172 0.023166311904788017 0.10419793426990509
0.79514288902282715 0.0022238637320697308 0.044436555355787277
1 0 0.0013912724098190665
1 0 0
0.034840796142816544 0.14208219945430756 0.13523557782173157
0.073217697441577911 0.14785568416118622 0.1429535299539566
0.17281098663806915 0.13982281088829041 0.13002879917621613
0.40419381856918335 0.095983065664768219 0.081050574779510498
0.74368661642074585 0.037307903170585632 0.025781294330954552
0.99756675958633423 0.0085540469735860825 0.0019672468770295382
1 0.0017778583569452167 0
8.0153520684689283e-05 0.25202551484107971 0.043541237711906433
0.0081492708995938301 0.27299860119819641 0.046348199248313904
0.088960014283657074 0.28340962529182434 0.058853253722190857
0.30697229504585266 0.26128864288330078 0.059217430651187897
0.65028393268585205 0.21306949853897095 0.020433897152543068
0.98943358659744263 0.16840855777263641 0.0076933619566261768
1 0.12475099414587021 6.3907398725859821e-05
0 0.44356900453567505 0
0 0.48276630043983459 0
0.021271424368023872 0.50840997695922852 0.002255802508443594
0.18086583912372589 0.50708496570587158 0.0072677014395594597
0.50298482179641724 0.47791999578475952 0.00079843855928629637
0.89810717105865479 0.43074005842208862 0.0020175110548734665
1 0.36978286504745483 5.4093903600005433e-05
0 0.69118285179138184 0
0 0.74027734994888306 0
7.6593139965552837e-05 0.76834911108016968 0
0.07104598730802536 0.77772480249404907 0.00029539220849983394
0.32683190703392029 0.76699095964431763 0
0.720694899559021 0.7214815616607666 0
0.99993103742599487 0.65779083967208862 0
0 0.9599311351776123 0
0 0.98810189962387085 0
0 0.99687677621841431 0
0.0058900122530758381 0.99938642978668213 0
0.18132776021957397 0.99949628114700317 0
0.52340209484100342 0.98979014158248901 0
0.93790537118911743 0.95808130502700806 0
0.061849333345890045 0.03066386841237545 0.56408929824829102
0.10124261677265167 0.029035964980721474 0.55359113216400146
0.21294794976711273 0.014463027939200401 0.50977134704589844
0.43108659982681274 0.00033454145886935294 0.40820607542991638
0.73702526092529297 0 0.28407478332519531
0.98659491539001465 0.0035803851205855608 0.17484590411186218
0.99706888198852539 0.001450766809284687 0.054303247481584549
0.054423030465841293 0.057570036500692368 0.52179396152496338
0.088859081268310547 0.056301325559616089 0.5244898796081543
0.19616885483264923 0.040741264820098877 0.49367371201515198
0.4254365861415863 0.01221866998821497 0.41001799702644348
0.77037400007247925 3.2073377951746807e-05 0.31226819753646851
0.99970459938049316 4.5088225306244567e-05 0.20886756479740143
0.99159318208694458 0.0014159857528284192 0.10050027817487717
0.022961769253015518 0.12347476184368134 0.4064689576625824
0.056688003242015839 0.12793457508087158 0.42293718457221985
0.160840705037117 0.11729715019464493 0.41331920027732849
0.37936010956764221 0.08011937141418457 0.3533434271812439
0.72060954570770264 0.03053600899875164 0.26471865177154541
0.99575269222259521 0.011831426061689854 0.1887371838092804
0.99934619665145874 3.6621095205191523e-05 0.094399772584438324
6.4625460254319478e-06 0.23863218724727631 0.23814395070075989
0.003921897616237402 0.26113107800483704 0.25724637508392334
0.087417051196098328 0.2694859504699707 0.26866832375526428
0.2970241904258728 0.25731667876243591 0.25492978096008301
0.6493833065032959 0.21055136620998383 0.21644772589206696
0.97740793228149414 0.16582804918289185 0.16852910816669464
0.99906319379806519 0.1143372654914856 0.10798217356204987
0 0.43669795989990234 0.064752064645290375
0 0.47826552391052246 0.087712183594703674
0.019644808024168015 0.50370967388153076 0.11622074991464615
0.18152889609336853 0.50584816932678223 0.12727002799510956
0.50936532020568848 0.47592461109161377 0.12172099202871323
0.90459394454956055 0.42934876680374146 0.10974260419607162
1 0.37098619341850281 0.074357829988002777
0 0.69023591279983521 0.0015592837007716298
0 0.74483871459960938 0.0054186056368052959
0.00027124740881845355 0.77157342433929443 0.022381920367479324
0.081307142972946167 0.77294695377349854 0.036897141486406326
0.33742040395736694 0.76441729068756104 0.03269340842962265
0.73117941617965698 0.72678637504577637 0.028168996796011925
1 0.6647147536277771 0.025009933859109879
0 0.96033227443695068 0
0 0.99108457565307617 0
0 0.99750185012817383 0
0.019344089552760124 0.99659603834152222 0
0.20084193348884583 0.99809408187866211 0.00011022231046808884
0.54356426000595093 0.99326831102371216 0.0026295681018382311
0.95710402727127075 0.96660107374191284 0.0018110087839886546
0.025245098397135735 0.0016526166582480073 0.95560812950134277
0.062941081821918488 0.0049090515822172165 0.95879155397415161
0.1789461076259613 0.00088487513130530715 0.9074786901473999
0.39289197325706482 0 0.82129585742950439
0.69437789916992188 0 0.70198279619216919
0.98504024744033813 4.2156145354965702e-05 0.58693557977676392
0.99825727939605713 0.0003425897448323667 0.45511463284492493
0.021990532055497169 0.027423650026321411 0.94228494167327881
0.052132774144411087 0.030177965760231018 0.94471067190170288
0.16623811423778534 0.017732327803969383 0.92601579427719116
0.39639431238174438 0.00053826125804334879 0.85810387134552002
0.72360372543334961 0 0.74777311086654663
0.99553406238555908 0 0.63668441772460938
0.99520683288574219 0 0.52715539932250977
0.0077955056913197041 0.09380735456943512 0.85610240697860718
0.029523259028792381 0.10041167587041855 0.86371892690658569
0.12836974859237671 0.092362575232982635 0.85319548845291138
0.35257256031036377 0.058921992778778076 0.79634571075439453
0.68589669466018677 0.022964701056480408 0.70929086208343506
0.98422157764434814 0.01071585901081562 0.61795252561569214
0.99989402294158936 0.00255584716796875 0.51637780666351318
6.1124912463128567e-05 0.21796691417694092 0.66841131448745728
0.0069447238929569721 0.2384641021490097 0.69420129060745239
0.070790939033031464 0.24763675034046173 0.68968546390533447
0.27227967977523804 0.23283754289150238 0.67174088954925537
0.62096822261810303 0.19048072397708893 0.6175505518913269
0.9605671763420105 0.15036827325820923 0.54946541786193848
1 0.11680895090103149 0.46852841973304749
0 0.42012903094291687 0.41928860545158386
0 0.45678442716598511 0.46249622106552124
0.011692256666719913 0.48200264573097229 0.47913172841072083
0.16544429957866669 0.49092701077461243 0.48670133948326111
0.48696666955947876 0.4619850218296051 0.46807974576950073
0.87145459651947021 0.41727223992347717 0.41596192121505737
1 0.36498051881790161 0.36932504177093506
0 0.6800035834312439 0.20788677036762238
0.00033341950620524585 0.7269279956817627 0.25880253314971924
0.00055889057694002986 0.75282561779022217 0.28166443109512329
0.080084152519702911 0.76352214813232422 0.28968161344528198
0.33318641781806946 0.7586326003074646 0.28604492545127869
0.7228541374206543 0.72759711742401123 0.26520448923110962
1 0.66400974988937378 0.2474818080663681
0 0.95535904169082642 0.076032407581806183
0.0023150125052779913 0.98489397764205933 0.099415004253387451
0.00017975451191887259 0.98894643783569336 0.093415804207324982
0.025303065776824951 0.98981672525405884 0.1046769991517067
0.19907784461975098 0.99550873041152954 0.13206250965595245
0.53652054071426392 0.99700713157653809 0.13899272680282593
0.9631463885307312 0.9755057692527771 0.11691662669181824
0 0 1
0.027570925652980804 0 1
0.13392733037471771 0 1
0.33679738640785217 0 1
0.64309084415435791 0 0.99996888637542725
0.95897096395492554 0 0.97120177745819092
0.99697023630142212 8.9757586465566419e-06 0.91502469778060913
0 0.00090837664902210236 1
0.019022040069103241 0.0034133312292397022 1
0.12520071864128113 0.0019395566778257489 1
0.3444945216178894 0 1
0.67052167654037476 0 1
0.97722131013870239 0 0.98802608251571655
0.99770104885101318 7.1895825385581702e-05 0.95824295282363892
0 0.056238554418087006 1
0.010371249169111252 0.067809998989105225 1
0.10040844231843948 0.066318094730377197 1
0.3183838427066803 0.040925133973360062 1
0.65683794021606445 0.013889911584556103 0.99914157390594482
0.97215777635574341 0.0062551908195018768 0.97682672739028931
1 0.011971133761107922 0.92793363332748413
2.2170122974785045e-05 0.18220071494579315 0.98386543989181519
0.0017144745215773582 0.20730932056903839 0.99925559759140015
0.055970031768083572 0.21932148933410645 0.99841725826263428
0.24528874456882477 0.20499107241630554 0.99648004770278931
0.59051305055618286 0.16538377106189728 0.98385787010192871
0.96587824821472168 0.12934638559818268 0.96431517601013184
1 0.11593388766050339 0.89138269424438477
0.0010361166205257177 0.39157873392105103 0.87099599838256836
0 0.42818540334701538 0.9234505295753479
0.0072797141037881374 0.45339983701705933 0.92207413911819458
0.14865970611572266 0.4637618362903595 0.95084571838378906
0.46267417073249817 0.4404967725276947 0.91410166025161743
0.86479085683822632 0.39804592728614807 0.88375341892242432
1 0.34353926777839661 0.83562994003295898
0 0.65651005506515503 0.65728557109832764
0 0.69995790719985962 0.70853060483932495
2.3935356239235261e-06 0.72862464189529419 0.74165439605712891
0.063282936811447144 0.75086295604705811 0.75931912660598755
0.31307542324066162 0.73875445127487183 0.74079626798629761
0.70867699384689331 0.70281827449798584 0.71146512031555176
0.99998384714126587 0.64003473520278931 0.66728633642196655
0 0.94284218549728394 0.40690496563911438
0.0029425825923681259 0.97427916526794434 0.47086238861083984
0.0019395117415115237 0.98408108949661255 0.48167458176612854
0.012327710166573524 0.99578440189361572 0.50219857692718506
0.1747792661190033 0.99112778902053833 0.51505488157272339
0.51971393823623657 0.98680359125137329 0.51074099540710449
0.9536777138710022 0.96887016296386719 0.47139483690261841
0 0 1
0.010839948430657387 0 1
0.10615445673465729 0 1
0.28773421049118042 0 0.9994741678237915
0.59056049585342407 0.00016277538088615984 0.99561303853988647
0.93563222885131836 0.0004327362694311887 0.99629020690917969
1 0.0019869336392730474 1
0 0 1
0.0062546674162149429 0 1
0.10134503245353699 0 1
0.30166634917259216 0 1
0.62301313877105713 0 0.99991071224212646
0.96782225370407104 0.0010071250144392252 0.99751406908035278
1 0.0075471615418791771 1
0 0.023118501529097557 1
0.0064682457596063614 0.038311708718538284 1
0.09100119024515152 0.044336341321468353 1
0.28928264975547791 0.023624824360013008 1
0.60693240165710449 0.00042030483018606901 0.99961298704147339
0.94634783267974854 0.0018998389132320881 0.99965518712997437
1 0.025622230023145676 1
0 0.14113092422485352 1
0.0035548340529203415 0.17308336496353149 1
0.059647295624017715 0.19128702580928802 1
0.23143312335014343 0.17829722166061401 1
0.54984933137893677 0.13542693853378296 0.99958866834640503
0.91595560312271118 0.11528854072093964 1
1 0.12355218082666397 1
0 0.35557246208190918 1
0 0.39195621013641357 1
0.019930865615606308 0.42089918255805969 1
0.14581248164176941 0.43181627988815308 1
0.45193833112716675 0.41027742624282837 0.99998754262924194
0.86129283905029297 0.36786428093910217 1
1 0.33103722333908081 1
0 0.6207728385925293 0.99998599290847778
0 0.66246634721755981 1
0.00065398868173360825 0.69426363706588745 1
0.059750858694314957 0.71279692649841309 1
0.31649228930473328 0.70978593826293945 1
0.69888061285018921 0.67495113611221313 1
0.99065107107162476 0.62115943431854248 0.99999535083770752
0 0.91287422180175781 0.90973347425460815
0 0.953258216381073 0.94727200269699097
0 0.97273463010787964 0.94994902610778809
0.0039362139068543911 0.98075228929519653 0.96654194593429565
0.18930338323116302 0.99075484275817871 0.97719347476959229
0.53186023235321045 0.97847175598144531 0.97594368457794189
0.94463461637496948 0.96183604001998901 0.95863634347915649
