assets/lut/ohadperetz subtle yellow.cube
# Created by: G'MIC (https://gmic.eu)
TITLE "subtle_yellow"
# LUT size
LUT_3D_SIZE 7
# Data domain
DOMAIN_MIN 0.0 0.0 0.0
DOMAIN_MAX 1.0 1.0 1.0
# LUT data points
0.0039838156662881374 0.0011423297692090273 0.0018395368242636323
0.13227967917919159 0 0.00028104594093747437
0.53954702615737915 9.3347889560391195e-06 4.2978921555913985e-05
0.84843772649765015 0 0.00039945114986039698
0.95180696249008179 0 4.0450751839671284e-05
0.96505242586135864 0 0
0.96358126401901245 0 0
0 0.070832662284374237 0
0.051878731697797775 0.054534297436475754 0
0.34316644072532654 0.0089579867199063301 0
0.78483778238296509 1.1668485967675224e-05 0
0.94166702032089233 0 0
0.96124321222305298 0 0
0.95015484094619751 0 0
0 0.22198954224586487 0
0.0045748092234134674 0.18617863953113556 0
0.15253743529319763 0.15903463959693909 8.8979686552193016e-05
0.64962667226791382 0.081221744418144226 0.0021206126548349857
0.95162385702133179 0.049586590379476547 0.0038943721447139978
0.99859380722045898 0.073450259864330292 0.010033491998910904
0.98617732524871826 0.060310736298561096 0.018435340374708176
0 0.5542486310005188 0
0 0.49588698148727417 0
0.026540270075201988 0.46565127372741699 0
0.41087844967842102 0.43346822261810303 0
0.92569160461425781 0.38264721632003784 0.01146386843174696
0.99998480081558228 0.42295339703559875 0.10392701625823975
0.99512237310409546 0.38363972306251526 0.1158374696969986
0.022480325773358345 0.92145371437072754 0.019113712012767792
0.0090721724554896355 0.89443767070770264 0.0077364454045891762
0.012331569567322731 0.8521806001663208 0.0082218395546078682
0.21724595129489899 0.85256165266036987 0.019864115864038467
0.73983287811279297 0.78890413045883179 0.0098500121384859085
0.99965173006057739 0.7758449912071228 0.043668992817401886
0.9825776219367981 0.76491475105285645 0.10128984600305557
0.14388519525527954 1 0.13568927347660065
0.12810021638870239 1 0.12207689136266708
0.087002217769622803 1 0.10181232541799545
0.17562243342399597 1 0.10797896981239319
0.5673641562461853 0.99767220020294189 0.073611468076705933
0.95719325542449951 0.98348879814147949 0.031055854633450508
0.99982297420501709 0.98588508367538452 0.056246664375066757
0.24061322212219238 0.97924667596817017 0.23278798162937164
0.23177649080753326 0.98654776811599731 0.23506787419319153
0.19262512028217316 0.99976819753646851 0.22672431170940399
0.22285248339176178 1 0.22336798906326294
0.47111538052558899 0.99746304750442505 0.1855449378490448
0.90438050031661987 0.99834346771240234 0.091084979474544525
1 1 0.054009530693292618
0.0010764178587123752 0.0040018418803811073 0.12878461182117462
0.11917115747928619 3.8894954741408583e-06 0.11703424155712128
0.52709776163101196 5.4647407523589209e-05 0.020424442365765572
0.86819601058959961 0.00042959474376402795 0.00023531446640845388
0.95762091875076294 0 0.00068046717206016183
0.96285229921340942 0 0
0.96125513315200806 0 0
0 0.072440668940544128 0.036410238593816757
0.044253792613744736 0.047359734773635864 0.041310254484415054
0.31200191378593445 0.01449172105640173 0.011617638170719147
0.77055191993713379 0 1.3463637515087612e-05
0.93555992841720581 0 0
0.95630508661270142 0 0
0.95383334159851074 0 0
0 0.20668779313564301 0.001850562053732574
0.0032379897311329842 0.16985480487346649 0.0042825439013540745
0.14111348986625671 0.14943969249725342 0.0069417166523635387
0.61745345592498779 0.077463142573833466 7.1806067580837407e-07
0.93611335754394531 0.043797094374895096 0.002384380204603076
0.9935605525970459 0.076455198228359222 0.015757795423269272
0.98901981115341187 0.048123303800821304 0.0017031800234690309
0 0.52279925346374512 0
0 0.47388184070587158 0
0.018599925562739372 0.44431406259536743 0
0.38824188709259033 0.41367539763450623 0
0.90413397550582886 0.36385798454284668 0.006434751208871603
0.99996501207351685 0.4007430374622345 0.10071057826280594
0.99555075168609619 0.36525627970695496 0.11440069228410721
0.013672518543899059 0.90699613094329834 0.014296707697212696
0.010396142490208149 0.86498081684112549 0.0058282888494431973
0.0038278317078948021 0.82659351825714111 0.0052160373888909817
0.200661301612854 0.82314163446426392 0.01425781287252903
0.72900980710983276 0.76638984680175781 0.00090810738038271666
0.99856710433959961 0.75512897968292236 0.044670015573501587
0.9952206015586853 0.74896812438964844 0.10737292468547821
0.14177601039409637 1 0.13759569823741913
0.11726512759923935 1 0.10930805653333664
0.086144544184207916 1 0.095850974321365356
0.1718432754278183 1 0.10373367369174957
0.56138426065444946 0.9963194727897644 0.066717840731143951
0.9572334885597229 0.98134690523147583 0.028758404776453972
1 0.97022444009780884 0.051097601652145386
0.23027966916561127 0.99590557813644409 0.22652493417263031
0.2228783518075943 0.99841737747192383 0.22034133970737457
0.20699146389961243 0.99801790714263916 0.21772588789463043
0.23507380485534668 0.99735301733016968 0.21744473278522491
0.46823045611381531 0.99857079982757568 0.180750772356987
0.8811524510383606 0.99990475177764893 0.097136721014976501
1 1 0.054210811853408813
0 0.0021972956601530313 0.60079556703567505
0.058984179049730301 0 0.63044792413711548
0.46465212106704712 0 0.47770020365715027
0.83477312326431274 0 0.33099982142448425
0.94337600469589233 0.00060221354942768812 0.3012566864490509
0.96275734901428223 0.00081127393059432507 0.22348691523075104
0.9648478627204895 0.00032314224517904222 0.16213893890380859
0 0.064343109726905823 0.25329908728599548
0.012198220007121563 0.039153605699539185 0.32947006821632385
0.26642516255378723 0.0064695468172430992 0.28792914748191833
0.73063760995864868 0 0.12642683088779449
0.92393416166305542 0 0.080079607665538788
0.96270424127578735 0 0.058941546827554703
0.96208709478378296 0 0.029656728729605675
0 0.20963361859321594 0.055134747177362442
0.0007267222972586751 0.16753475368022919 0.089491106569766998
0.1307603120803833 0.13987083733081818 0.12820512056350708
0.60716438293457031 0.061556410044431686 0.046249046921730042
0.93696326017379761 0.043882228434085846 0.023492850363254547
0.99771171808242798 0.058904878795146942 0.04861137643456459
0.98177778720855713 0.045415572822093964 0.013880127109587193
0 0.51331216096878052 0
0 0.46110889315605164 0.00023465623962692916
0.018721383064985275 0.43086656928062439 0.016195468604564667
0.36615690588951111 0.39698371291160583 0.012291956692934036
0.90210825204849243 0.33814302086830139 0.016637375578284264
1 0.36927956342697144 0.094359889626502991
0.99767327308654785 0.34810006618499756 0.12457757443189621
0.019951166585087776 0.8976629376411438 0.0091886185109615326
0.0087214149534702301 0.85713469982147217 0.0017360462807118893
0.0045319353230297565 0.81360393762588501 0.00063271616818383336
0.18728569149971008 0.80309486389160156 0.0046801697462797165
0.70767247676849365 0.74605238437652588 8.4551640611607581e-05
0.99549353122711182 0.73363626003265381 0.04180411621928215
0.99965399503707886 0.73310983180999756 0.10331650078296661
0.13031886518001556 1 0.11962299793958664
0.11124357581138611 1 0.10323604196310043
0.089408636093139648 1 0.087103016674518585
0.15641622245311737 1 0.09083983302116394
0.53362661600112915 0.99292421340942383 0.055916145443916321
0.95476847887039185 0.96737939119338989 0.02404988557100296
1 0.96218752861022949 0.045042913407087326
0.23610571026802063 0.99328422546386719 0.22520847618579865
0.23182687163352966 0.99520385265350342 0.22292645275592804
0.22409859299659729 0.9886094331741333 0.21959502995014191
0.21826948225498199 0.99423801898956299 0.20851315557956696
0.42703032493591309 0.99531435966491699 0.17854167520999908
0.87027281522750854 0.99531275033950806 0.096137911081314087
1 1 0.049532018601894379
0 0 0.95473933219909668
0.023638900369405746 0 0.96880656480789185
0.38749068975448608 0.00017366596148349345 0.89004921913146973
0.81195694208145142 0.001073246356099844 0.80506718158721924
0.93931084871292114 0.001592538901604712 0.79272496700286865
0.95904195308685303 0.0018651924328878522 0.77104490995407104
0.95541465282440186 0.0033404631540179253 0.71695041656494141
0 0.039643395692110062 0.73718595504760742
0.0019158157519996166 0.015900660306215286 0.81285363435745239
0.2024046778678894 0.00013493555888999254 0.82769894599914551
0.68494689464569092 0.0010812048567458987 0.68564265966415405
0.91075879335403442 0.00093059166101738811 0.62460297346115112
0.95633625984191895 0.0019608889706432819 0.60750818252563477
0.95724105834960938 0.00080964330118149519 0.53762078285217285
0.0015920602018013597 0.21571993827819824 0.42201381921768188
0.00026426129625178874 0.16850914061069489 0.50669229030609131
0.082790836691856384 0.11506694555282593 0.60090619325637817
0.55636739730834961 0.049186915159225464 0.58203661441802979
0.91898423433303833 0.025215776637196541 0.48639568686485291
0.99624401330947876 0.041776351630687714 0.46189704537391663
0.99107283353805542 0.022403568029403687 0.38491246104240417
0 0.54320746660232544 0.12917545437812805
5.6726792536210269e-05 0.48670446872711182 0.17742824554443359
0.003546352032572031 0.43523189425468445 0.2542232871055603
0.35006541013717651 0.38958501815795898 0.35047605633735657
0.89615058898925781 0.3244946300983429 0.32497069239616394
0.99975985288619995 0.36399272084236145 0.35533437132835388
0.99953144788742065 0.33898058533668518 0.33977532386779785
0.026689566671848297 0.90588843822479248 0.086783841252326965
0.0088024511933326721 0.86356139183044434 0.10157183557748795
0.002287187846377492 0.80543243885040283 0.11356831341981888
0.17908406257629395 0.79410439729690552 0.16603386402130127
0.70270442962646484 0.74025553464889526 0.12382447719573975
0.99384492635726929 0.72295820713043213 0.1496809720993042
0.99956715106964111 0.72333133220672607 0.17739170789718628
0.13582967221736908 1 0.17263416945934296
0.10965568572282791 1 0.16727921366691589
0.08597024530172348 1 0.14824607968330383
0.14445489645004272 1 0.1410246342420578
0.51780503988265991 0.99070602655410767 0.094404898583889008
0.93846100568771362 0.95789253711700439 0.041719458997249603
0.99873435497283936 0.9640430212020874 0.070481061935424805
0.23462226986885071 0.9870980978012085 0.2377946674823761
0.22220098972320557 0.99815160036087036 0.24731223285198212
0.20854920148849487 0.99553155899047852 0.243605837225914
0.20810440182685852 0.99771702289581299 0.20777808129787445
0.41361436247825623 0.99767643213272095 0.18029801547527313
0.82162904739379883 0.99947702884674072 0.076015636324882507
0.99967902898788452 1 0.029053647071123123
0 0 1
0.00039361690869554877 0 1
0.29997175931930542 0 0.95933008193969727
0.78810036182403564 0.0046939174644649029 0.90555977821350098
0.95220547914505005 0.005193792749196291 0.94301527738571167
0.98158448934555054 0.0019931418355554342 0.97938936948776245
0.98230057954788208 0.00048961263382807374 0.98829090595245361
0 0.033727832138538361 0.9944344162940979
1.1967677892243955e-05 0.017770340666174889 0.99840372800827026
0.16269546747207642 0.0013298334088176489 0.99129015207290649
0.63968104124069214 0.00030391916516236961 0.90370607376098633
0.91025704145431519 0.00065530516440048814 0.89361679553985596
0.96049290895462036 0.00057055905926972628 0.93394458293914795
0.96388280391693115 0.0027767703868448734 0.91410082578659058
0.0026255289558321238 0.21866028010845184 0.85702800750732422
0 0.17583630979061127 0.91149026155471802
0.054301436990499496 0.11972621828317642 0.95801019668579102
0.47744792699813843 0.045226451009511948 0.94508373737335205
0.92306059598922729 0.01065362710505724 0.90929478406906128
0.99420344829559326 0.023420894518494606 0.93002206087112427
0.97890067100524902 0.034631617367267609 0.87826573848724365
0 0.57002896070480347 0.58412843942642212
0 0.50856167078018188 0.65426146984100342
2.0823759768973105e-05 0.44656345248222351 0.73958927392959595
0.23310884833335876 0.39639222621917725 0.86560243368148804
0.89047354459762573 0.29377755522727966 0.88783103227615356
0.99998366832733154 0.32238578796386719 0.92194724082946777
0.99492430686950684 0.31901901960372925 0.91300547122955322
0.023136438801884651 0.92596203088760376 0.4371187686920166
0.010788546875119209 0.87813949584960938 0.4862859845161438
0.00034965065424330533 0.81440967321395874 0.53592795133590698
0.096618145704269409 0.79507428407669067 0.62489891052246094
0.65490317344665527 0.71562188863754272 0.66440832614898682
0.99532252550125122 0.68440496921539307 0.64475500583648682
0.99717450141906738 0.69738030433654785 0.66748684644699097
0.12450835108757019 1 0.41032823920249939
0.10872406512498856 1 0.44183608889579773
0.081287994980812073 1 0.46916383504867554
0.11284374445676804 0.99982815980911255 0.49667242169380188
0.47893431782722473 0.97959572076797485 0.48302972316741943
0.91848766803741455 0.95004481077194214 0.35076147317886353
0.9980003833770752 0.94463956356048584 0.34290879964828491
0.22708478569984436 0.99679350852966309 0.38740742206573486
0.22026021778583527 0.99969542026519775 0.44839063286781311
0.19934523105621338 0.9989592432975769 0.45882096886634827
0.19424831867218018 0.99484896659851074 0.41772353649139404
0.38417890667915344 0.99612975120544434 0.38352632522583008
0.80145639181137085 0.99994677305221558 0.21856175363063812
0.99656099081039429 1 0.14987227320671082
0 0 1
0 0 1
0.19803813099861145 0.00011177810665685683 0.97675949335098267
0.74969196319580078 0.0062490128912031651 0.90939253568649292
0.96458637714385986 0.0063721751794219017 0.95715314149856567
1 0.00046705358545295894 1
1 0 1
0 0.041388120502233505 1
0 0.025000164285302162 1
0.039111506193876266 0.0036357205826789141 0.99972891807556152
0.55003094673156738 0.00033008350874297321 0.92632275819778442
0.90696614980697632 0.0022619809024035931 0.91781896352767944
0.99058777093887329 0.00061935721896588802 0.9926447868347168
0.99875777959823608 0 0.99724680185317993
0.0082747964188456535 0.24898527562618256 0.98074281215667725
4.3682025534508284e-06 0.20714063942432404 0.99722051620483398
0.0017131880158558488 0.14151600003242493 1
0.3572823703289032 0.076300166547298431 0.97942245006561279
0.89515352249145508 0.022533208131790161 0.9646306037902832
0.9887622594833374 0.02658366784453392 0.99444878101348877
0.99641543626785278 0.021724849939346313 0.99364900588989258
0 0.60720229148864746 0.90641379356384277
0.00013050752750132233 0.55488383769989014 0.93142431974411011
0.00025814279797486961 0.47476902604103088 0.95288342237472534
0.13941095769405365 0.43241089582443237 0.99314767122268677
0.83604460954666138 0.31203943490982056 1
1 0.30712500214576721 1
0.98850518465042114 0.3233058750629425 1
0.01951102539896965 0.93557071685791016 0.85479050874710083
0.015226880088448524 0.89396387338638306 0.88065850734710693
0.010692865587770939 0.8474966287612915 0.90612959861755371
0.042177475988864899 0.81131064891815186 0.95346248149871826
0.53726881742477417 0.74018388986587524 0.97852969169616699
0.99365365505218506 0.65724414587020874 0.98916870355606079
1 0.66631788015365601 0.99764704704284668
0.1185443326830864 1 0.80778944492340088
0.10937535762786865 1 0.83648097515106201
0.092365354299545288 1 0.87296324968338013
0.09494858980178833 0.99900197982788086 0.90818601846694946
0.38345032930374146 0.98751926422119141 0.92476457357406616
0.88224339485168457 0.91635572910308838 0.88563686609268188
0.99954903125762939 0.90059959888458252 0.86954933404922485
0.22055263817310333 0.99246251583099365 0.76977455615997314
0.21236616373062134 1 0.8097044825553894
0.1946599930524826 0.99873822927474976 0.85460299253463745
0.17026948928833008 0.98246073722839355 0.86899054050445557
0.31661343574523926 0.99280381202697754 0.88460081815719604
0.76567673683166504 0.99839526414871216 0.75956565141677856
0.99271458387374878 0.99609065055847168 0.63950848579406738
0 0 1
0 0 1
0.097284816205501556 0.0017852034652605653 0.99003320932388306
0.66424167156219482 0.00024629480321891606 0.91800671815872192
0.92449718713760376 0 0.9562111496925354
0.99990475177764893 0 1
1 0 1
0 0.037739831954240799 1
0 0.026119202375411987 1
0.001363028772175312 0.011848255060613155 1
0.40475237369537354 0 0.95465302467346191
0.85283631086349487 0 0.92854636907577515
0.98254919052124023 0 0.98754715919494629
1 0 1
0.0088473903015255928 0.26272687315940857 0.99435687065124512
0.0029198590200394392 0.21992433071136475 0.99887257814407349
0 0.16194690763950348 1
0.26364758610725403 0.082714810967445374 0.98125576972961426
0.842873215675354 0.024675138294696808 0.95532554388046265
0.98878961801528931 0.037737440317869186 0.9801795482635498
1 0.069965392351150513 0.99920755624771118
0.0026356116868555546 0.64577478170394897 0.99595433473587036
0.0015066857449710369 0.60113620758056641 0.99837040901184082
4.3083641685370822e-06 0.52211815118789673 0.99662607908248901
0.1042637825012207 0.44080308079719543 0.99756938219070435
0.73772543668746948 0.33026608824729919 0.99926877021789551
1 0.31322547793388367 0.98965162038803101
1 0.34532350301742554 0.99980974197387695
0.032640494406223297 0.95948570966720581 0.99933630228042603
0.01659812219440937 0.92304438352584839 1
0.0062558790668845177 0.88067084550857544 1
0.014061512425541878 0.82835310697555542 1
0.4022642970085144 0.78616082668304443 0.99908185005187988
0.98272848129272461 0.67167174816131592 0.99814224243164062
1 0.65114545822143555 1
0.11434575915336609 1 1
0.096004962921142578 1 1
0.07126210629940033 1 1
0.056479405611753464 1 1
0.26221510767936707 0.99860924482345581 1
0.79527980089187622 0.92874646186828613 0.9991568922996521
1 0.8789210319519043 0.99999535083770752
0.20106148719787598 0.99694788455963135 1
0.18247842788696289 1 1
0.1517452597618103 1 1
0.12903586030006409 0.99965071678161621 1
0.25792369246482849 0.99919641017913818 1
0.68694263696670532 0.99925827980041504 0.99683058261871338
0.98909294605255127 0.99012893438339233 0.97083783149719238
