assets/lut/ohadperetz true colors 8.cube
# Created by: G'MIC (https://gmic.eu)
TITLE "true_colors_8"
# LUT size
LUT_3D_SIZE 7
# Data domain
DOMAIN_MIN 0.0 0.0 0.0
DOMAIN_MAX 1.0 1.0 1.0
# LUT data points
0.017868654802441597 0.01467635203152895 0.0099183479323983192
0.090467728674411774 0.0062158023938536644 0.0102373156696558
0.24238066375255585 0 0.00076473457738757133
0.45195987820625305 0 0
0.6900864839553833 5.9898226027144119e-05 0
0.9557192325592041 0.00065596337663009763 8.3429673395585269e-05
1 0 0
0.00061985087813809514 0.06541607528924942 0.003185077803209424
0.05242219939827919 0.058123227208852768 0.002080580685287714
0.21832822263240814 0.027769500389695168 1.077091019396903e-05
0.43809664249420166 0.0035992341581732035 0
0.68815153837203979 0.00033988204086199403 0.00012660307402256876
0.96122503280639648 0 0
1 0 0
0 0.16787861287593842 9.3347889560391195e-06
0.0013987672282382846 0.17418532073497772 0
0.15082709491252899 0.15893687307834625 0
0.38931781053543091 0.12668596208095551 0.001305314595811069
0.64986497163772583 0.092409901320934296 0.004380454309284687
0.94851535558700562 0.045948896557092667 0.0022597669158130884
1 0.014858844690024853 0
0 0.33055388927459717 0
0 0.34250104427337646 0
0.046497747302055359 0.33693477511405945 8.5179948655422777e-05
0.28889200091362 0.30597269535064697 0.0018061320297420025
0.56189888715744019 0.27413231134414673 0.0026691961102187634
0.87719970941543579 0.23277589678764343 0.0035975438077002764
1 0.15253368020057678 0
2.8782264053006656e-05 0.51146048307418823 0
0 0.52346533536911011 0
0.006905275397002697 0.52439314126968384 0
0.1663506031036377 0.50012487173080444 0
0.44888466596603394 0.46380376815795898 0.00076934217941015959
0.74558544158935547 0.42875540256500244 0.00027712652808986604
1 0.33859744668006897 0
0.0061896531842648983 0.70849013328552246 0.00060987286269664764
0.0023510952014476061 0.72878044843673706 0.00048929848708212376
1.5557981896563433e-05 0.74004280567169189 0
0.070284374058246613 0.72436851263046265 0
0.31703442335128784 0.68172997236251831 0
0.6303449273109436 0.64210331439971924 0
0.9917672872543335 0.56301039457321167 0
0 0.95864319801330566 0
0 0.973713219165802 0
0 0.98489570617675781 0
0 0.98461037874221802 0
0.057428039610385895 0.97144299745559692 0
0.32128581404685974 0.94773232936859131 0.0013325260952115059
0.84662938117980957 0.85851132869720459 0
0.003484329441562295 0.013139537535607815 0.078641377389431
0.051383823156356812 0.007155055645853281 0.095105446875095367
0.24362435936927795 9.3347889560391195e-06 0.048648729920387268
0.44507259130477905 0 0.015067007392644882
0.68736213445663452 0 4.6673943870700896e-05
0.94823604822158813 0 0
1 0 0
0.00076114432886242867 0.059677168726921082 0.058957520872354507
0.049725491553544998 0.05405203253030777 0.052721180021762848
0.2153291255235672 0.029355216771364212 0.029561091214418411
0.43622106313705444 0.011644984595477581 0.0037383732851594687
0.69242244958877563 0.0017910826718434691 0
0.97278732061386108 0 0
1 0 0
0.00039342243690043688 0.16301389038562775 0.023933036252856255
0.0062379278242588043 0.17355133593082428 0.01671905443072319
0.15438182651996613 0.16279599070549011 0.0068666497245430946
0.39210599660873413 0.13290558755397797 0.00013212316844146699
0.64743036031723022 0.097172483801841736 0
0.94618147611618042 0.059771697968244553 0
1 0.020206959918141365 0
0.000100737925095018 0.3303016722202301 0.00013224284339230508
0 0.34609070420265198 7.8089098678901792e-05
0.062323775142431259 0.34139400720596313 0
0.30030086636543274 0.30833661556243896 0.000148773193359375
0.56088948249816895 0.27819454669952393 0
0.86166048049926758 0.23400738835334778 0
1 0.15391647815704346 0
0.0014816882321611047 0.51318609714508057 0
0 0.53018438816070557 0
0.005850174929946661 0.53178006410598755 0
0.17252673208713531 0.50548404455184937 0
0.45418864488601685 0.46822419762611389 0
0.75265073776245117 0.4326193630695343 0
1 0.34659770131111145 0
0.0047075608745217323 0.71583569049835205 0
0 0.73654592037200928 0
0 0.74776625633239746 0
0.0475044846534729 0.73171639442443848 0
0.30189797282218933 0.68845450878143311 0
0.64023762941360474 0.64622372388839722 2.423454679956194e-05
0.99495595693588257 0.57180780172348022 2.297794162586797e-05
0 0.96384310722351074 0
0 0.97857749462127686 0
0 0.98852235078811646 0
0 0.98893123865127563 0
0.025898413732647896 0.98003655672073364 0
0.31297978758811951 0.95671385526657104 0.0014071445912122726
0.82080906629562378 0.89078223705291748 0.00013355928240343928
0 0.020948836579918861 0.23953330516815186
2.3336971935350448e-05 0.014872577041387558 0.24067288637161255
0.12894409894943237 0.0012412725482136011 0.28628155589103699
0.44477191567420959 0 0.17001080513000488
0.66826808452606201 0 0.11939781159162521
0.94131678342819214 0.00010633281635819003 0.059976138174533844
1 0 0.0039331172592937946
0.0001897624897537753 0.06505882740020752 0.19917796552181244
0.0018883050652220845 0.062057659029960632 0.20571869611740112
0.1474226713180542 0.034270942211151123 0.22755894064903259
0.43855932354927063 0.0053367014043033123 0.15717220306396484
0.6806756854057312 0.00052763993153348565 0.12587696313858032
0.96248000860214233 0.0009190727723762393 0.079150915145874023
1 0 0.004907944705337286
0.00013866049994248897 0.16120016574859619 0.15829308331012726
0.0069532953202724457 0.16517648100852966 0.16378240287303925
0.14514872431755066 0.15919770300388336 0.15318234264850616
0.39210990071296692 0.12813092768192291 0.11759344488382339
0.63661521673202515 0.094725348055362701 0.082724116742610931
0.9359707236289978 0.062547095119953156 0.054339975118637085
1 0.015654530376195908 0.0042611663229763508
6.4565618231426924e-05 0.3184916079044342 0.11850165575742722
0 0.33325314521789551 0.12511709332466125
0.05496814101934433 0.33248937129974365 0.087554246187210083
0.29395517706871033 0.30447328090667725 0.040735118091106415
0.55654078722000122 0.27608397603034973 0.026823785156011581
0.84678149223327637 0.23287968337535858 0.0058982698246836662
1 0.14657415449619293 0.00027872720966115594
0.0054185008630156517 0.50376719236373901 0.049547921866178513
0.00092981377383694053 0.52028554677963257 0.053434979170560837
0.0016978693893179297 0.52448868751525879 0.030277865007519722
0.1609547883272171 0.50426095724105835 0.0064463596791028976
0.45762190222740173 0.46809199452400208 0.0061263288371264935
0.75110548734664917 0.43344956636428833 0.00087893614545464516
1 0.34735587239265442 0
0.0057975919917225838 0.71168118715286255 0.01378815621137619
1.4062021364225075e-05 0.72998464107513428 0.0087519027292728424
0 0.74195611476898193 0.0034535427112132311
0.035556390881538391 0.73088610172271729 0
0.30079156160354614 0.69046390056610107 0
0.6339336633682251 0.64772874116897583 0
0.99127113819122314 0.57674610614776611 0.00017544615548104048
0 0.96586483716964722 0
0 0.97852045297622681 0
0 0.98825585842132568 0
0 0.98908919095993042 0
0.042259350419044495 0.97836023569107056 0
0.34587913751602173 0.95343160629272461 0
0.84609425067901611 0.8968772292137146 0.0004645852604880929
0 0.029599791392683983 0.44499382376670837
0 0.024724369868636131 0.43663656711578369
0.010698789730668068 0.012617656961083412 0.48510017991065979
0.22461323440074921 0 0.53193759918212891
0.64998948574066162 0 0.38978666067123413
0.92441189289093018 0 0.30212894082069397
1 0 0.20343926548957825
0.002604316221550107 0.071032233536243439 0.41048187017440796
2.9410568458843045e-05 0.069410525262355804 0.40885007381439209
0.032786291092634201 0.061105076223611832 0.42570319771766663
0.25279173254966736 0.012751216068863869 0.52292227745056152
0.6618533730506897 0 0.40743115544319153
0.95030468702316284 2.5281718990299851e-05 0.32764646410942078
0.99368381500244141 0 0.22207710146903992
0 0.16632145643234253 0.35278651118278503
0.00020446776761673391 0.17532718181610107 0.36204692721366882
0.058556351810693741 0.17115138471126556 0.37520721554756165
0.28720155358314514 0.13941214978694916 0.42694300413131714
0.63660275936126709 0.079077430069446564 0.34513968229293823
0.92294430732727051 0.044021427631378174 0.29976645112037659
0.99304258823394775 0.0016772251110523939 0.19406306743621826
3.4466913348296657e-05 0.31203195452690125 0.31485897302627563
0.00036757226916961372 0.32723194360733032 0.32551991939544678
0.0478680320084095 0.3180338442325592 0.31800201535224915
0.28024166822433472 0.29852357506752014 0.28688615560531616
0.55308723449707031 0.26343604922294617 0.25161835551261902
0.84658294916152954 0.22372603416442871 0.21284310519695282
1 0.12448947131633759 0.13626903295516968
0.0045231091789901257 0.48227420449256897 0.27073320746421814
0.0018600014736875892 0.49870184063911438 0.28492042422294617
0.005213628988713026 0.50017911195755005 0.27357524633407593
0.16893251240253448 0.48684757947921753 0.22572523355484009
0.44101592898368835 0.45967239141464233 0.16645985841751099
0.75028389692306519 0.4268786609172821 0.12765133380889893
1 0.33616098761558533 0.073111258447170258
0.0054579940624535084 0.68880397081375122 0.20057797431945801
6.6211177909281105e-05 0.70106238126754761 0.21770240366458893
0 0.71443766355514526 0.19871887564659119
0.048458188772201538 0.70924514532089233 0.14973290264606476
0.29681429266929626 0.68399703502655029 0.065309621393680573
0.62534588575363159 0.64258456230163574 0.04279664158821106
0.9910585880279541 0.55931800603866577 0.012425500899553299
0 0.95887154340744019 0.062890909612178802
0 0.96843904256820679 0.07538953423500061
0 0.98200047016143799 0.052174780517816544
0 0.98286956548690796 0.020715108141303062
0.046003170311450958 0.97465389966964722 0.0011675965506583452
0.34635937213897705 0.95679754018783569 0.00090623745927587152
0.84053528308868408 0.89744830131530762 0.00026747758965939283
0.0049308775924146175 0.037755224853754044 0.67508941888809204
0.003087720600888133 0.031501755118370056 0.66745555400848389
3.6381741665536538e-05 0.015235422179102898 0.66325902938842773
0.061384342610836029 0.00032914106850512326 0.73027610778808594
0.34645572304725647 0 0.83318555355072021
0.85853350162506104 0 0.66980147361755371
0.99495565891265869 0 0.44921821355819702
0.0096168816089630127 0.078865036368370056 0.64464956521987915
0.0059070214629173279 0.080955415964126587 0.64238953590393066
0.00090209359768778086 0.072821207344532013 0.63219374418258667
0.084136530756950378 0.044827554374933243 0.72133070230484009
0.38743826746940613 0.0093768546357750893 0.82431113719940186
0.89658874273300171 0 0.68436819314956665
0.99743366241455078 5.5111155234044418e-05 0.49380373954772949
0.0027221979107707739 0.17489485442638397 0.58294045925140381
0.00014290903345681727 0.1856037974357605 0.59354710578918457
0.005853062029927969 0.18481047451496124 0.5977519154548645
0.13601711392402649 0.17324662208557129 0.64239197969436646
0.41814321279525757 0.11609560251235962 0.74704259634017944
0.90596729516983032 0.035489924252033234 0.61639899015426636
0.99477642774581909 0.0019400353776291013 0.47694602608680725
0.00073098577558994293 0.31924062967300415 0.51850438117980957
0.00099969003349542618 0.33100482821464539 0.53098112344741821
0.012147118337452412 0.32797655463218689 0.52629387378692627
0.17883682250976562 0.31111899018287659 0.53438472747802734
0.43087828159332275 0.27722907066345215 0.58510571718215942
0.83452510833740234 0.21285325288772583 0.49523243308067322
1 0.11007288098335266 0.39144095778465271
0 0.47859090566635132 0.48258587718009949
1.914828544613556e-06 0.49496015906333923 0.49546509981155396
0.0015429777558892965 0.49645417928695679 0.49307191371917725
0.16064156591892242 0.47393199801445007 0.47024142742156982
0.42645475268363953 0.45005816221237183 0.44259953498840332
0.73874002695083618 0.4107629656791687 0.39730358123779297
0.99911350011825562 0.3235323429107666 0.32197332382202148
0.00063401763327419758 0.6671406626701355 0.43774449825286865
0.0024166631046682596 0.68610715866088867 0.45624437928199768
0 0.69171082973480225 0.45474228262901306
0.063009805977344513 0.67595899105072021 0.42968654632568359
0.2958986759185791 0.66776424646377563 0.36179488897323608
0.61124742031097412 0.63277131319046021 0.30169060826301575
0.98886632919311523 0.55474221706390381 0.22805963456630707
0.001849634456448257 0.94403308629989624 0.25672116875648499
0.0052397334948182106 0.95716702938079834 0.28243964910507202
0.00082176056457683444 0.97221601009368896 0.26140940189361572
7.3242190410383046e-05 0.96696352958679199 0.24021907150745392
0.056672669947147369 0.96293026208877563 0.17672835290431976
0.3575541079044342 0.95004594326019287 0.13051512837409973
0.85253983736038208 0.91079318523406982 0.053494516760110855
0.0073998095467686653 0.044598538428544998 0.94543230533599854
0.0066947187297046185 0.03965466096997261 0.94211786985397339
0 0.023122226819396019 0.92303264141082764
0.00061433081282302737 0.0062215765938162804 0.93240475654602051
0.11460307985544205 0.00024880800629034638 0.99124813079833984
0.44606328010559082 0 0.9999542236328125
0.99983662366867065 0 0.83086478710174561
0.011585714295506477 0.088465973734855652 0.92238843441009521
0.007162176538258791 0.092353940010070801 0.93088942766189575
0 0.08741983026266098 0.91723209619522095
0.0036004309076815844 0.072487853467464447 0.94867491722106934
0.15810045599937439 0.039804883301258087 0.99042260646820068
0.51857143640518188 0.0015627243556082249 0.99990922212600708
1 0 0.82768863439559937
0.0025125541724264622 0.18489976227283478 0.86315888166427612
0.00038589775795117021 0.19781318306922913 0.87870514392852783
0 0.19846180081367493 0.87726223468780518
0.043060347437858582 0.19096614420413971 0.88860583305358887
0.21659587323665619 0.16175083816051483 0.94582027196884155
0.541168212890625 0.091955371201038361 0.9941941499710083
1 0.00013535443576984107 0.811565101146698
0 0.32736319303512573 0.78804850578308105
0 0.34152403473854065 0.79647916555404663
0.0010288612684234977 0.33973610401153564 0.80017638206481934
0.086996294558048248 0.32459327578544617 0.80568015575408936
0.26795867085456848 0.31311789155006409 0.82979494333267212
0.57678306102752686 0.25391888618469238 0.93439459800720215
1 0.094406649470329285 0.71762382984161377
0.0015023174928501248 0.48793822526931763 0.71841573715209961
0.0046471538953483105 0.5037236213684082 0.73609441518783569
0.001687846495769918 0.50507384538650513 0.72662299871444702
0.09929414838552475 0.48164466023445129 0.71303761005401611
0.32770988345146179 0.46598389744758606 0.70988881587982178
0.60400426387786865 0.42564043402671814 0.77699786424636841
0.9977651834487915 0.30543920397758484 0.61960196495056152
0 0.66433882713317871 0.66572058200836182
0 0.68209564685821533 0.68546801805496216
0 0.68600606918334961 0.68681067228317261
0.060969006270170212 0.6689949631690979 0.6691858172416687
0.30846410989761353 0.64823764562606812 0.63959574699401855
0.59674072265625 0.62149643898010254 0.60878235101699829
0.98102843761444092 0.54233747720718384 0.53598260879516602
9.6220130217261612e-05 0.92539578676223755 0.51698654890060425
0.0024821262340992689 0.94397896528244019 0.53273528814315796
0.0022936502937227488 0.95534199476242065 0.53422564268112183
0.0048330267891287804 0.94855904579162598 0.52343356609344482
0.10586792975664139 0.93746155500411987 0.50592535734176636
0.35848903656005859 0.93991273641586304 0.46192997694015503
0.85164576768875122 0.91763520240783691 0.37688928842544556
0 0.055721074342727661 1
0 0.049985278397798538 1
0 0.039348423480987549 1
0 0.024782875552773476 1
4.5955883251735941e-05 0.0096297618001699448 1
0.10251878947019577 0.0026419395580887794 0.99984323978424072
0.66208064556121826 0.0005665050121024251 0.99485963582992554
0 0.10787948966026306 1
0 0.10943543910980225 1
0 0.10713234543800354 1
0 0.095547482371330261 1
0.0027715496253222227 0.069627918303012848 1
0.16986528038978577 0.035160619765520096 0.99964046478271484
0.73192465305328369 0.0091704428195953369 0.99965184926986694
0 0.20195399224758148 1
0 0.21083226799964905 1
0 0.21402296423912048 1
0 0.20872937142848969 1
0.030016222968697548 0.19693051278591156 1
0.20163442194461823 0.16473501920700073 0.99796026945114136
0.75884681940078735 0.045663647353649139 0.99712628126144409
0 0.33726891875267029 1
0 0.34964287281036377 1
0 0.35194593667984009 1
0.00022367590281646699 0.34398543834686279 1
0.081747300922870636 0.33579620718955994 1
0.26390308141708374 0.31450816988945007 0.98984390497207642
0.78616237640380859 0.17991380393505096 0.99300557374954224
0 0.49228966236114502 0.99846404790878296
0 0.50727146863937378 0.99999856948852539
0 0.50986278057098389 1
0.0049002254381775856 0.49728748202323914 0.99989604949951172
0.15123404562473297 0.48732233047485352 0.99838829040527344
0.32316169142723083 0.47765019536018372 0.99934852123260498
0.80413079261779785 0.36155250668525696 0.99032795429229736
0 0.66436773538589478 0.98044538497924805
0 0.68177086114883423 0.99080550670623779
0 0.69180262088775635 0.99021357297897339
0.014144433662295341 0.67905300855636597 0.99140119552612305
0.18551841378211975 0.66071432828903198 0.97601062059402466
0.42753437161445618 0.64088213443756104 0.97630882263183594
0.84120047092437744 0.5601426362991333 0.97433805465698242
0 0.91088306903839111 0.90832233428955078
0 0.93764317035675049 0.90796440839767456
0 0.94969683885574341 0.91096270084381104
0.00051173788961023092 0.93904274702072144 0.91312652826309204
0.058686081320047379 0.93380087614059448 0.89825636148452759
0.36890575289726257 0.92790597677230835 0.89754992723464966
0.8573681116104126 0.9168771505355835 0.87627941370010376
