assets/lut/ohadperetz true colors 8.cube
# Created by: G'MIC (https://gmic.eu)
TITLE "true_colors_8"
# LUT size
LUT_3D_SIZE 5
# Data domain
DOMAIN_MIN 0.0 0.0 0.0
DOMAIN_MAX 1.0 1.0 1.0
# LUT data points
0.017868654802441597 0.01467635203152895 0.0099183479323983192
0.1540340781211853 0.0020354625303298235 0.0043258219957351685
0.45195987820625305 0 0
0.82159507274627686 0.0020701838657259941 0.00011376773909432814
1 0 0
0 0.10561875253915787 0.0016770455986261368
0.090180628001689911 0.096902050077915192 0
0.42185094952583313 0.048282846808433533 0.00026331882691010833
0.82454067468643188 0.011041364632546902 0.0023434208706021309
1 0 0
0 0.33055388927459717 0
0.00031006758217699826 0.34411492943763733 0
0.28889200091362 0.30597269535064697 0.0018061320297420025
0.71276235580444336 0.25655829906463623 0.00534845981746912
1 0.15253368020057678 0
0.0042785345576703548 0.6064336895942688 0.00049241009401157498
0 0.62696540355682373 0
0.12113092094659805 0.60628730058670044 0
0.53658628463745117 0.54877883195877075 0
0.9996829628944397 0.44912925362586975 0
0 0.95864319801330566 0
0 0.98081827163696289 0
0 0.98461037874221802 0
0.17471805214881897 0.95995193719863892 0.00052240409422665834
0.84662938117980957 0.85851132869720459 0
7.0010914896556642e-06 0.017270764335989952 0.14513412117958069
0.084368161857128143 0.0017013848992064595 0.16742761433124542
0.44843092560768127 0 0.068506963551044464
0.81652456521987915 0 0.0076014501973986626
1 0 0
0 0.099766060709953308 0.09807528555393219
0.085755124688148499 0.095346786081790924 0.092430472373962402
0.41996189951896667 0.058264877647161484 0.047483660280704498
0.82614487409591675 0.021525708958506584 0.017400912940502167
1 0.00050318101420998573 0
0.00095098157180473208 0.32604783773422241 0.030226448550820351
0.0055944407358765602 0.34390637278556824 0.025171197950839996
0.29683029651641846 0.30772796273231506 0.00016991110169328749
0.70461291074752808 0.25957605242729187 0
1 0.15273274481296539 0
0.007725689560174942 0.60935556888580322 0
0 0.63390815258026123 0
0.10293788462877274 0.61464470624923706 0
0.54181474447250366 0.55485600233078003 0
0.99888092279434204 0.45903259515762329 0
0 0.96605473756790161 0
0 0.98560172319412231 0
0 0.98992717266082764 0
0.15564970672130585 0.96800351142883301 0
0.83548331260681152 0.89747703075408936 0.00042257871245965362
0 0.029599791392683983 0.44499382376670837
0 0.020353997126221657 0.44765362143516541
0.22461323440074921 0 0.53193759918212891
0.7922254204750061 3.0338062060764059e-05 0.33355757594108582
1 0 0.20343926548957825
0.00032742071198299527 0.1093549057841301 0.38524162769317627
0.0050719017162919044 0.1125507727265358 0.39404824376106262
0.28064888715744019 0.063353188335895538 0.4917280375957489
0.8105919361114502 0.0049534817226231098 0.35452163219451904
0.98727750778198242 0 0.21850523352622986
3.4466913348296657e-05 0.31203195452690125 0.31485897302627563
0.00086648977594450116 0.32617071270942688 0.32717525959014893
0.28024166822433472 0.29852357506752014 0.28688615560531616
0.68824678659439087 0.24685728549957275 0.23771959543228149
1 0.12448947131633759 0.13626903295516968
0.0062637180089950562 0.57914060354232788 0.24092128872871399
0 0.599853515625 0.2527584433555603
0.10594181716442108 0.59281164407730103 0.19165830314159393
0.5284726619720459 0.54991894960403442 0.097051031887531281
0.99953597784042358 0.44407927989959717 0.036963727325201035
0 0.95887154340744019 0.062890909612178802
0 0.9761161208152771 0.067250661551952362
0 0.98286956548690796 0.020715108141303062
0.18055601418018341 0.96505630016326904 0.00040094711584970355
0.84053528308868408 0.89744830131530762 0.00026747758965939283
0.011479396373033524 0.040793862193822861 0.80689108371734619
0.00082876166561618447 0.028112314641475677 0.7933967113494873
0.021522432565689087 0.0016067355172708631 0.82511419057846069
0.40956294536590576 0 0.97525984048843384
0.99775052070617676 0 0.62363570928573608
0.010002884082496166 0.12364113330841064 0.75153100490570068
3.1908821256365627e-05 0.13272461295127869 0.75826066732406616
0.065416045486927032 0.11742781102657318 0.79715383052825928
0.46666768193244934 0.02957388199865818 0.96344316005706787
0.99950838088989258 3.5544002457754686e-05 0.63173305988311768
9.3706919869873673e-05 0.32316663861274719 0.64175987243652344
0 0.33790570497512817 0.65371203422546387
0.13563571870326996 0.31734940409660339 0.65313047170639038
0.51719218492507935 0.26316747069358826 0.75367206335067749
1 0.10118599981069565 0.52132207155227661
0 0.56902700662612915 0.57230848073959351
0.00085547950584441423 0.59140253067016602 0.59305959939956665
0.10142641514539719 0.56708735227584839 0.56566870212554932
0.50972110033035278 0.53341251611709595 0.52254891395568848
0.9872480034828186 0.43431481719017029 0.43266040086746216
0.0013296089600771666 0.93083900213241577 0.389680415391922
0.0070702196098864079 0.95908576250076294 0.40335944294929504
0.0034891015384346247 0.95950531959533691 0.37829619646072388
0.20559437572956085 0.94754993915557861 0.31881451606750488
0.85418975353240967 0.90812259912490845 0.20900402963161469
0 0.055721074342727661 1
0 0.045437518507242203 1
0 0.024782875552773476 1
0.020034894347190857 0.0048234974965453148 1
0.66208064556121826 0.0005665050121024251 0.99485963582992554
0 0.14834924042224884 1
0 0.15630239248275757 1
0 0.14825369417667389 1
0.091835319995880127 0.1131916269659996 1
0.74633800983428955 0.015909262001514435 0.99903422594070435
0 0.33726891875267029 1
0 0.35297149419784546 1
0.00022367590281646699 0.34398543834686279 1
0.16479833424091339 0.32886135578155518 0.99827414751052856
0.78616237640380859 0.17991380393505096 0.99300557374954224
0 0.57518976926803589 0.99010753631591797
0 0.59583818912506104 0.99741154909133911
0.01127415057271719 0.58304983377456665 0.99734693765640259
0.28135621547698975 0.56324034929275513 0.99211931228637695
0.82931762933731079 0.45135846734046936 0.994762122631073
0 0.91088306903839111 0.90832233428955078
0 0.94608861207962036 0.91104364395141602
0.00051173788961023092 0.93904274702072144 0.91312652826309204
0.19336885213851929 0.93030440807342529 0.89999860525131226
0.8573681116104126 0.9168771505355835 0.87627941370010376
