assets/lut/ohadperetz vintage warmth 1.cube
# Created by: G'MIC (https://gmic.eu)
TITLE "vintage_warmth_1"
# LUT size
LUT_3D_SIZE 7
# Data domain
DOMAIN_MIN 0.0 0.0 0.0
DOMAIN_MAX 1.0 1.0 1.0
# LUT data points
0.059053592383861542 0.055154778063297272 0.054820101708173752
0.054634183645248413 0.050618909299373627 0.048692993819713593
0.12646496295928955 0.058950789272785187 0.048713639378547668
0.42549708485603333 0.071757867932319641 0.069230489432811737
0.66223591566085815 0.18979661166667938 0.16514506936073303
0.78331559896469116 0.33242964744567871 0.20829357206821442
0.79392677545547485 0.35003882646560669 0.21047514677047729
0.052541323006153107 0.05106600746512413 0.050018370151519775
0.060212496668100357 0.0572955422103405 0.054468251764774323
0.15027564764022827 0.067457996308803558 0.041139312088489532
0.46297898888587952 0.091823190450668335 0.080371856689453125
0.69964563846588135 0.22030456364154816 0.18202519416809082
0.791096031665802 0.35962140560150146 0.20729523897171021
0.80900335311889648 0.37107810378074646 0.21224699914455414
0.060755904763936996 0.1139884814620018 0.081199824810028076
0.067835971713066101 0.12777462601661682 0.081274397671222687
0.14988858997821808 0.13166791200637817 0.044236697256565094
0.44391968846321106 0.15328003466129303 0.064604200422763824
0.69975632429122925 0.24427458643913269 0.17335124313831329
0.78867346048355103 0.36869511008262634 0.19912260770797729
0.80757474899291992 0.39031714200973511 0.20281331241130829
0.037764888256788254 0.27743244171142578 0.13580635190010071
0.057119332253932953 0.28865343332290649 0.13757064938545227
0.10549257695674896 0.29150876402854919 0.11582551896572113
0.4288695752620697 0.32660269737243652 0.073377378284931183
0.71771132946014404 0.41469308733940125 0.15030360221862793
0.79239535331726074 0.51368534564971924 0.16932104527950287
0.80825150012969971 0.51745390892028809 0.1749410480260849
0.05677693709731102 0.51017099618911743 0.22839158773422241
0.07709909975528717 0.52724611759185791 0.22905568778514862
0.12145841866731644 0.53834015130996704 0.21281735599040985
0.3878541886806488 0.64371609687805176 0.19752056896686554
0.70912736654281616 0.62142705917358398 0.14496815204620361
0.78098863363265991 0.65770727396011353 0.15494298934936523
0.79606908559799194 0.65629297494888306 0.15849067270755768
0.097723819315433502 0.74949604272842407 0.3074800968170166
0.11794646084308624 0.76090502738952637 0.31176617741584778
0.16276668012142181 0.7750510573387146 0.29777058959007263
0.37046146392822266 0.83330667018890381 0.28093177080154419
0.67187899351119995 0.89360177516937256 0.28181079030036926
0.77750951051712036 0.82744604349136353 0.20032049715518951
0.79449033737182617 0.79244029521942139 0.16666674613952637
0.13824672996997833 0.88909578323364258 0.36367517709732056
0.15059490501880646 0.8974948525428772 0.36140337586402893
0.18585386872291565 0.90659999847412109 0.35232323408126831
0.35922354459762573 0.92638486623764038 0.32940232753753662
0.62076985836029053 0.95014005899429321 0.31445389986038208
0.7870781421661377 0.9605826735496521 0.31663364171981812
0.81814777851104736 0.95249319076538086 0.28755480051040649
0.054565370082855225 0.056573636829853058 0.058108042925596237
0.048501662909984589 0.049393478780984879 0.050276394933462143
0.12428303062915802 0.062024135142564774 0.05428333580493927
0.41552063822746277 0.073912829160690308 0.081665351986885071
0.67041468620300293 0.19193238019943237 0.18179447948932648
0.78391194343566895 0.33390602469444275 0.22154359519481659
0.79831486940383911 0.35577818751335144 0.22421540319919586
0.050052627921104431 0.052289493381977081 0.053204584866762161
0.054451018571853638 0.053740661591291428 0.05405610054731369
0.14741620421409607 0.068961247801780701 0.044896818697452545
0.46279028058052063 0.092809237539768219 0.091009847819805145
0.69732904434204102 0.22529388964176178 0.19373565912246704
0.79170221090316772 0.36140045523643494 0.22081770002841949
0.81149005889892578 0.37004822492599487 0.22524480521678925
0.060762695968151093 0.1141648069024086 0.087722033262252808
0.066147841513156891 0.1258188933134079 0.089785568416118622
0.14770416915416718 0.12665577232837677 0.054538533091545105
0.45755785703659058 0.16036725044250488 0.079505488276481628
0.69799983501434326 0.24679303169250488 0.18592868745326996
0.79170358180999756 0.37592959403991699 0.21342289447784424
0.81037521362304688 0.38402572274208069 0.21883691847324371
0.041384946554899216 0.27889564633369446 0.15152314305305481
0.064238861203193665 0.2976880669593811 0.1539207398891449
0.1120637059211731 0.29854133725166321 0.13295775651931763
0.44107240438461304 0.33001017570495605 0.08556859940290451
0.72685807943344116 0.41504886746406555 0.16720137000083923
0.79504787921905518 0.51595282554626465 0.18266424536705017
0.80998706817626953 0.51705151796340942 0.19039851427078247
0.062707357108592987 0.5190129280090332 0.24640652537345886
0.085697174072265625 0.53230303525924683 0.24186503887176514
0.12560015916824341 0.54267704486846924 0.2277052104473114
0.38042864203453064 0.65284734964370728 0.21111421287059784
0.71820509433746338 0.62705695629119873 0.16060744225978851
0.78359878063201904 0.65843623876571655 0.16855640709400177
0.79978030920028687 0.65780210494995117 0.17039370536804199
0.10161259770393372 0.74926626682281494 0.32251995801925659
0.12330795079469681 0.76535922288894653 0.32661530375480652
0.17013432085514069 0.77563250064849854 0.31344190239906311
0.35023161768913269 0.83518147468566895 0.29167428612709045
0.67881351709365845 0.89926731586456299 0.2981608510017395
0.77603638172149658 0.8312612771987915 0.20673662424087524
0.79500067234039307 0.79565489292144775 0.17907203733921051
0.13835461437702179 0.88772499561309814 0.37407884001731873
0.15148173272609711 0.89555400609970093 0.37335246801376343
0.19042257964611053 0.90551567077636719 0.36502605676651001
0.34675845503807068 0.93098527193069458 0.34090691804885864
0.61599624156951904 0.95740222930908203 0.32723650336265564
0.79932910203933716 0.96971637010574341 0.33294248580932617
0.82975625991821289 0.96530580520629883 0.31996408104896545
0.051191739737987518 0.11654485017061234 0.13754880428314209
0.051660798490047455 0.10945044457912445 0.1310415118932724
0.10239706933498383 0.092597469687461853 0.10312183201313019
0.38061085343360901 0.10411897301673889 0.11033911257982254
0.65864706039428711 0.21063901484012604 0.20271159708499908
0.78363996744155884 0.33509975671768188 0.24352829158306122
0.80513137578964233 0.35803893208503723 0.24970152974128723
0.053744550794363022 0.11026959866285324 0.13281692564487457
0.058899838477373123 0.11501701176166534 0.1357620507478714
0.12502528727054596 0.11620882898569107 0.12241629511117935
0.41610130667686462 0.14242519438266754 0.12795381247997284
0.69774079322814941 0.24445681273937225 0.21923059225082397
0.79098081588745117 0.36380878090858459 0.24558462202548981
0.81267446279525757 0.37475162744522095 0.25366240739822388
0.055006064474582672 0.12454995512962341 0.12797534465789795
0.061681888997554779 0.13477320969104767 0.14071828126907349
0.12257996946573257 0.13552114367485046 0.11769283562898636
0.42077982425689697 0.15712685883045197 0.09829026460647583
0.68599671125411987 0.23781788349151611 0.20506797730922699
0.78994417190551758 0.37008175253868103 0.236689493060112
0.80770856142044067 0.38854843378067017 0.24152572453022003
0.039833277463912964 0.2818244993686676 0.20661486685276031
0.059493299573659897 0.30395442247390747 0.22409501671791077
0.1029423251748085 0.29306870698928833 0.17919015884399414
0.41158846020698547 0.31809738278388977 0.11004634201526642
0.7135469913482666 0.40253037214279175 0.18817982077598572
0.7964099645614624 0.50241106748580933 0.20914015173912048
0.8148006796836853 0.50374025106430054 0.21503211557865143
0.071836300194263458 0.52948886156082153 0.29510587453842163
0.089627884328365326 0.54355406761169434 0.29983067512512207
0.12235565483570099 0.53747421503067017 0.27047672867774963
0.36102816462516785 0.62630653381347656 0.23363934457302094
0.71199542284011841 0.61975008249282837 0.18490514159202576
0.78778719902038574 0.65356045961380005 0.19076967239379883
0.80494862794876099 0.65615904331207275 0.19411112368106842
0.11194034665822983 0.76035332679748535 0.37042695283889771
0.12775667011737823 0.76870834827423096 0.37031424045562744
0.16599255800247192 0.76905065774917603 0.34917756915092468
0.36355116963386536 0.82320135831832886 0.32302117347717285
0.66940039396286011 0.89169669151306152 0.31712353229522705
0.78679478168487549 0.8345676064491272 0.24605557322502136
0.79951244592666626 0.79129892587661743 0.20131343603134155
0.14185558259487152 0.89120686054229736 0.40268442034721375
0.15631499886512756 0.89456921815872192 0.40448284149169922
0.19095055758953094 0.90459680557250977 0.39634227752685547
0.35128304362297058 0.92507392168045044 0.3705495297908783
0.60470205545425415 0.94474393129348755 0.3531290590763092
0.7984386682510376 0.96341019868850708 0.35230237245559692
0.83381015062332153 0.96113210916519165 0.34224194288253784
0.049676168709993362 0.30309945344924927 0.39451009035110474
0.04506085067987442 0.28285369277000427 0.36726325750350952
0.067845650017261505 0.23073343932628632 0.28943115472793579
0.21573726832866669 0.20213013887405396 0.21327531337738037
0.62558615207672119 0.29608961939811707 0.2760988175868988
0.79100054502487183 0.38584256172180176 0.3160196840763092
0.81815528869628906 0.40362972021102905 0.32101470232009888
0.03311532735824585 0.27898871898651123 0.36969286203384399
0.050674259662628174 0.28892999887466431 0.3769974410533905
0.095100268721580505 0.26375368237495422 0.32669982314109802
0.25028437376022339 0.24701684713363647 0.23839111626148224
0.66010236740112305 0.34751233458518982 0.30012229084968567
0.80574607849121094 0.4308178722858429 0.3469187319278717
0.82998287677764893 0.43274283409118652 0.34432432055473328
0.036882542073726654 0.2586902379989624 0.33624514937400818
0.049006145447492599 0.2634429931640625 0.33955451846122742
0.078611604869365692 0.25958377122879028 0.32403242588043213
0.26169103384017944 0.25430938601493835 0.24241973459720612
0.65310251712799072 0.34787601232528687 0.28781974315643311
0.80055618286132812 0.42647191882133484 0.31317904591560364
0.82505375146865845 0.43320658802986145 0.30696010589599609
0.047176599502563477 0.3004683256149292 0.3376501202583313
0.062049191445112228 0.30820479989051819 0.34643277525901794
0.090255677700042725 0.31719660758972168 0.33540061116218567
0.29787811636924744 0.33360651135444641 0.27614012360572815
0.68817818164825439 0.3986319899559021 0.25629732012748718
0.7958371639251709 0.46460732817649841 0.25810921192169189
0.8161349892616272 0.47112694382667542 0.25980421900749207
0.11322159320116043 0.58363330364227295 0.50590556859970093
0.13115671277046204 0.5981757640838623 0.52071315050125122
0.14945755898952484 0.58550924062728882 0.46365430951118469
0.2705923318862915 0.59338903427124023 0.33706986904144287
0.67484152317047119 0.6296384334564209 0.22554831206798553
0.78969430923461914 0.6645500659942627 0.22178463637828827
0.80793416500091553 0.66679853200912476 0.21850694715976715
0.14315178990364075 0.77070087194442749 0.54727822542190552
0.15803767740726471 0.78483515977859497 0.56325030326843262
0.18689115345478058 0.77712005376815796 0.51525568962097168
0.27969023585319519 0.79540538787841797 0.38915643095970154
0.62070357799530029 0.86241477727890015 0.35203772783279419
0.77919888496398926 0.8304564356803894 0.25557911396026611
0.80119949579238892 0.79364633560180664 0.22494062781333923
0.16608081758022308 0.88309133052825928 0.59500312805175781
0.16981965303421021 0.89200454950332642 0.57372754812240601
0.20829774439334869 0.89600872993469238 0.54992902278900146
0.30196473002433777 0.91920775175094604 0.43632388114929199
0.58047473430633545 0.94104290008544922 0.4001559317111969
0.78204041719436646 0.96024733781814575 0.3895399272441864
0.83604919910430908 0.9583277702331543 0.36369147896766663
0.093454949557781219 0.50194746255874634 0.64889085292816162
0.10199737548828125 0.49229216575622559 0.63177245855331421
0.12169092148542404 0.45225000381469727 0.57149052619934082
0.1665714830160141 0.41187396645545959 0.48242899775505066
0.5431675910949707 0.39932441711425781 0.32821953296661377
0.80029773712158203 0.50250536203384399 0.53677880764007568
0.86223137378692627 0.54696112871170044 0.64199072122573853
0.093302689492702484 0.49794983863830566 0.64350157976150513
0.11091166734695435 0.50884747505187988 0.65173786878585815
0.13561411201953888 0.48511144518852234 0.60807228088378906
0.18606065213680267 0.44900014996528625 0.51701647043228149
0.59525865316390991 0.44522100687026978 0.39036321640014648
0.8294176459312439 0.54495620727539062 0.60853868722915649
0.87269246578216553 0.56494271755218506 0.65581721067428589
0.0871100053191185 0.47444236278533936 0.61088377237319946
0.10403482615947723 0.48851987719535828 0.62436836957931519
0.11862994730472565 0.47681194543838501 0.60605806112289429
0.18494343757629395 0.44493493437767029 0.51522672176361084
0.57320767641067505 0.44176420569419861 0.36421406269073486
0.82393163442611694 0.55437600612640381 0.57922625541687012
0.87519371509552002 0.57971209287643433 0.64539188146591187
0.081776879727840424 0.45588025450706482 0.58144593238830566
0.099005438387393951 0.46486020088195801 0.58538562059402466
0.12151306867599487 0.46972230076789856 0.58678668737411499
0.16777640581130981 0.47912830114364624 0.58375084400177002
0.59084159135818481 0.48502442240715027 0.44208022952079773
0.83145171403884888 0.57309496402740479 0.57855772972106934
0.86953294277191162 0.58191657066345215 0.58837860822677612
0.10331417620182037 0.52258574962615967 0.61516708135604858
0.12183160334825516 0.53888672590255737 0.63151496648788452
0.14852067828178406 0.54952126741409302 0.62619006633758545
0.20399951934814453 0.59334313869476318 0.63396221399307251
0.63427436351776123 0.6566627025604248 0.55375921726226807
0.84955310821533203 0.68004423379898071 0.51231867074966431
0.86261290311813354 0.66403532028198242 0.44133487343788147
0.17766062915325165 0.77956265211105347 0.8000451922416687
0.19343569874763489 0.78404176235198975 0.80933845043182373
0.21464583277702332 0.786529541015625 0.78267127275466919
0.24004466831684113 0.79166346788406372 0.7144855260848999
0.55737125873565674 0.82990485429763794 0.54273813962936401
0.79980683326721191 0.83387500047683716 0.3894345760345459
0.82905036211013794 0.80859977006912231 0.32745775580406189
0.19253717362880707 0.87767899036407471 0.81248611211776733
0.20948374271392822 0.8787459135055542 0.82790905237197876
0.22860787808895111 0.88446778059005737 0.79670184850692749
0.26778990030288696 0.89235472679138184 0.70669782161712646
0.52150517702102661 0.93902075290679932 0.55173963308334351
0.76588481664657593 0.95992779731750488 0.47679552435874939
0.85131114721298218 0.95815891027450562 0.4285011887550354
0.16000795364379883 0.66198402643203735 0.83211368322372437
0.17137338221073151 0.66102856397628784 0.82603609561920166
0.18715119361877441 0.64312630891799927 0.79847568273544312
0.20495857298374176 0.6187208890914917 0.76293098926544189
0.39235228300094604 0.61280465126037598 0.69857931137084961
0.79274445772171021 0.59066420793533325 0.73259961605072021
0.87658774852752686 0.59592872858047485 0.76113075017929077
0.16364336013793945 0.67304885387420654 0.83976572751998901
0.18147763609886169 0.68377947807312012 0.84709924459457397
0.19995488226413727 0.67313194274902344 0.82689565420150757
0.21992598474025726 0.64855647087097168 0.79472440481185913
0.47309580445289612 0.65206003189086914 0.74438321590423584
0.83458656072616577 0.63122296333312988 0.79363727569580078
0.8905671238899231 0.62801069021224976 0.79898995161056519
0.15201234817504883 0.65740227699279785 0.82098591327667236
0.16943567991256714 0.66903537511825562 0.83033782243728638
0.19008342921733856 0.66625326871871948 0.82198041677474976
0.22582228481769562 0.63731539249420166 0.77413016557693481
0.43683040142059326 0.64579445123672485 0.72772800922393799
0.8180423378944397 0.63165116310119629 0.76483923196792603
0.89104121923446655 0.63406866788864136 0.77674120664596558
0.14057549834251404 0.64190983772277832 0.8009943962097168
0.15660923719406128 0.65150696039199829 0.80940538644790649
0.17382171750068665 0.64429551362991333 0.80043917894363403
0.19658516347408295 0.6352536678314209 0.7847592830657959
0.42411509156227112 0.63871437311172485 0.72261112928390503
0.80305123329162598 0.63820379972457886 0.75712770223617554
0.89357048273086548 0.65408837795257568 0.78171700239181519
0.13133037090301514 0.62817537784576416 0.77809584140777588
0.14674028754234314 0.63787519931793213 0.78743106126785278
0.17265938222408295 0.64243465662002563 0.78202581405639648
0.2081286758184433 0.65411698818206787 0.78680896759033203
0.45914587378501892 0.69716376066207886 0.77722865343093872
0.83090126514434814 0.71644800901412964 0.79409754276275635
0.91616106033325195 0.72338289022445679 0.81078678369522095
0.15322487056255341 0.70517653226852417 0.82999324798583984
0.16956540942192078 0.71307921409606934 0.83542817831039429
0.19692173600196838 0.72502511739730835 0.83443403244018555
0.22972124814987183 0.74368816614151001 0.83476364612579346
0.39942243695259094 0.79411405324935913 0.82868599891662598
0.84315627813339233 0.83796054124832153 0.74531310796737671
0.92784231901168823 0.82669723033905029 0.71663099527359009
0.18981494009494781 0.83878910541534424 0.91686296463012695
0.20494316518306732 0.84017980098724365 0.920146644115448
0.22967272996902466 0.84635633230209351 0.91453713178634644
0.25971117615699768 0.87207269668579102 0.90175056457519531
0.37602469325065613 0.90184158086776733 0.83815211057662964
0.75547212362289429 0.94736087322235107 0.69495433568954468
0.89164263010025024 0.95654737949371338 0.6016002893447876
0.17618237435817719 0.70196080207824707 0.87827718257904053
0.18480391800403595 0.70104110240936279 0.87340271472930908
0.20447783172130585 0.69604182243347168 0.86125141382217407
0.22133642435073853 0.68771684169769287 0.85189181566238403
0.31596100330352783 0.68897551298141479 0.8193860650062561
0.80069100856781006 0.66502827405929565 0.89062023162841797
0.89322113990783691 0.65070366859436035 0.87350064516067505
0.1772562712430954 0.71029645204544067 0.8847317099571228
0.18633808195590973 0.71148818731307983 0.88788235187530518
0.2087414413690567 0.71068501472473145 0.87989169359207153
0.22553800046443939 0.69978415966033936 0.86788809299468994
0.41922423243522644 0.71033501625061035 0.82120978832244873
0.83653682470321655 0.67711091041564941 0.89874875545501709
0.90483647584915161 0.67037343978881836 0.89473527669906616
0.1747233122587204 0.72064769268035889 0.89708220958709717
0.18605931103229523 0.7175060510635376 0.89080256223678589
0.20497281849384308 0.71787267923355103 0.89027124643325806
0.23395706713199615 0.71098905801773071 0.87502425909042358
0.39634555578231812 0.71998870372772217 0.83116436004638672
0.81084221601486206 0.69972789287567139 0.89334559440612793
0.90434020757675171 0.68546885251998901 0.88504707813262939
0.16792237758636475 0.72362184524536133 0.89304035902023315
0.18154285848140717 0.72188937664031982 0.88973569869995117
0.20002631843090057 0.72188282012939453 0.89174902439117432
0.22161564230918884 0.71691668033599854 0.88272470235824585
0.33950278162956238 0.72066193819046021 0.85793423652648926
0.78967523574829102 0.71352070569992065 0.89490276575088501
0.90741348266601562 0.70206141471862793 0.88836777210235596
0.16256043314933777 0.7333226203918457 0.90331602096557617
0.17733018100261688 0.73434650897979736 0.90076595544815063
0.19970226287841797 0.73374283313751221 0.89573687314987183
0.22528891265392303 0.73675787448883057 0.89404064416885376
0.32558944821357727 0.74219566583633423 0.88099145889282227
0.77281731367111206 0.75567185878753662 0.89707690477371216
0.91997730731964111 0.74584376811981201 0.91524791717529297
0.1627996414899826 0.7469831109046936 0.90656334161758423
0.17866447567939758 0.75494736433029175 0.91185051202774048
0.20036520063877106 0.74727702140808105 0.89861583709716797
0.23011384904384613 0.75972998142242432 0.90496665239334106
0.31153625249862671 0.77755743265151978 0.90331083536148071
0.77979058027267456 0.8330957293510437 0.89512330293655396
0.94471067190170288 0.83665037155151367 0.91437357664108276
0.16814787685871124 0.7627142071723938 0.89249938726425171
0.18472570180892944 0.77862918376922607 0.9196784496307373
0.20980614423751831 0.78800612688064575 0.92481774091720581
0.24089759588241577 0.8086540699005127 0.92407906055450439
0.28935596346855164 0.83083420991897583 0.92984801530838013
0.73762840032577515 0.9002305269241333 0.90760338306427002
0.94737380743026733 0.95816731452941895 0.86981081962585449
