assets/lut/ohadperetz subtle yellow.cube
# Created by: G'MIC (https://gmic.eu)
TITLE "subtle_yellow"
# LUT size
LUT_3D_SIZE 5
# Data domain
DOMAIN_MIN 0.0 0.0 0.0
DOMAIN_MAX 1.0 1.0 1.0
# LUT data points
0.0039838156662881374 0.0011423297692090273 0.0018395368242636323
0.31621703505516052 8.1679398135747761e-05 2.2753547455067746e-05
0.84843772649765015 0 0.00039945114986039698
0.96423369646072388 0 0
0.96358126401901245 0 0
0 0.12575154006481171 0
0.086390569806098938 0.096814818680286407 0
0.72409713268280029 0.010043036192655563 0.002240289468318224
0.96875673532485962 0.001064300537109375 0
0.96158498525619507 0.0026302861515432596 0.00050874595763161778
0 0.5542486310005188 0
0.00044048533891327679 0.47240513563156128 0
0.41087844967842102 0.43346822261810303 0
0.99763786792755127 0.40116456151008606 0.052865661680698395
0.99512237310409546 0.38363972306251526 0.1158374696969986
0.074158750474452972 0.9979204535484314 0.067929886281490326
0.044903263449668884 0.99045157432556152 0.043300479650497437
0.17839184403419495 0.9858132004737854 0.055996119976043701
0.87251830101013184 0.90680384635925293 0.015613975003361702
0.98933863639831543 0.90051907300949097 0.074384085834026337
0.24061322212219238 0.97924667596817017 0.23278798162937164
0.21256949007511139 0.99614733457565308 0.23101413249969482
0.22285248339176178 1 0.22336798906326294
0.69521516561508179 0.99683552980422974 0.13758063316345215
1 1 0.054009530693292618
0.00018280628137290478 0.0048661176115274429 0.32294163107872009
0.25815939903259277 0 0.27131107449531555
0.85590726137161255 0 0.068303816020488739
0.96283388137817383 0 0.045873485505580902
0.96384453773498535 0 0.017848923802375793
0 0.12516149878501892 0.048694506287574768
0.074948348104953766 0.082834102213382721 0.076759934425354004
0.68917191028594971 0.0080820871517062187 0.00038115557981655002
0.96254432201385498 0.0022164289839565754 0
0.96818709373474121 0.0019377015996724367 0
0 0.51099693775177002 0
4.9276914069196209e-05 0.44392508268356323 7.6967124186921865e-05
0.37735998630523682 0.40040203928947449 4.8469096327607986e-06
0.99394959211349487 0.36252015829086304 0.040737509727478027
0.99813437461853027 0.35565066337585449 0.11434046179056168
0.062959529459476471 0.99757552146911621 0.056526616215705872
0.039383579045534134 0.98075199127197266 0.033666409552097321
0.16038922965526581 0.96460807323455811 0.046612158417701721
0.85495549440383911 0.88564342260360718 0.0068865609355270863
1 0.87549084424972534 0.070754945278167725
0.23148493468761444 0.99681007862091064 0.22626350820064545
0.22251339256763458 0.99631160497665405 0.21857200562953949
0.22811630368232727 0.99486994743347168 0.21515209972858429
0.66737991571426392 0.99662762880325317 0.1390264630317688
1 1 0.053564183413982391
0 0 0.95473933219909668
0.14689947664737701 0.0001954471372300759 0.94557315111160278
0.81195694208145142 0.001073246356099844 0.80506718158721924
0.95849514007568359 0.0015318627702072263 0.78616243600845337
0.95541465282440186 0.0033404631540179253 0.71695041656494141
0.00011646046186797321 0.10699860751628876 0.60022151470184326
0.025836555287241936 0.047887060791254044 0.72136491537094116
0.61633521318435669 0.0019550847355276346 0.63432282209396362
0.95662951469421387 0.0006248773424886167 0.54617142677307129
0.96947765350341797 0 0.44779512286186218
0 0.54320746660232544 0.12917545437812805
1.6156365063579869e-06 0.45672628283500671 0.20726200938224792
0.35006541013717651 0.38958501815795898 0.35047605633735657
0.99385792016983032 0.33881071209907532 0.3366733193397522
0.99953144788742065 0.33898058533668518 0.33977532386779785
0.072475031018257141 0.99559706449508667 0.12208681553602219
0.035412315279245377 0.97199553251266479 0.11916596442461014
0.14430223405361176 0.95516663789749146 0.13646130263805389
0.83401012420654297 0.87083691358566284 0.062059111893177032
0.99943715333938599 0.86481654644012451 0.11315098404884338
0.23462226986885071 0.9870980978012085 0.2377946674823761
0.21732304990291595 0.99728769063949585 0.25017669796943665
0.20810440182685852 0.99771702289581299 0.20777808129787445
0.61555701494216919 0.99787825345993042 0.13528747856616974
0.99967902898788452 1 0.029053647071123123
0 0 1
0.035058144479990005 0 0.99945509433746338
0.76732468605041504 0.0067078233696520329 0.91027688980102539
0.99131202697753906 0.0063796998001635075 0.98895519971847534
0.9989478588104248 0 1
0.00052351108752191067 0.11722575128078461 0.99319261312484741
0.00080059276660904288 0.06107432022690773 1
0.5019911527633667 0.0021022872533649206 0.94819545745849609
0.94350773096084595 3.8506004784721881e-05 0.94402867555618286
0.97902941703796387 5.4258460295386612e-05 0.95345973968505859
0 0.58778709173202515 0.78604882955551147
0 0.49239316582679749 0.85321390628814697
0.19653809070587158 0.40903902053833008 0.96437853574752808
0.99831914901733398 0.28590571880340576 0.99706399440765381
0.9905693531036377 0.31539216637611389 0.99945735931396484
0.063386566936969757 0.99871492385864258 0.63300871849060059
0.04493408277630806 0.98057913780212402 0.69205689430236816
0.075666464865207672 0.93966001272201538 0.77405822277069092
0.78992080688476562 0.8297196626663208 0.79107999801635742
0.99802803993225098 0.8190232515335083 0.78225880861282349
0.22331181168556213 0.9966888427734375 0.56182074546813965
0.21100333333015442 1 0.64355438947677612
0.18370532989501953 0.98731327056884766 0.64959442615509033
0.55797231197357178 0.99719685316085815 0.56068384647369385
0.9961007833480835 0.99931997060775757 0.35911542177200317
0 0 1
0.00041831520502455533 0 1
0.66424167156219482 0.00024629480321891606 0.91800671815872192
0.98154562711715698 0 0.99127298593521118
1 0 1
8.2397462392691523e-05 0.12354835122823715 0.99985110759735107
0 0.079399779438972473 1
0.30813777446746826 0.0051320544444024563 0.97189098596572876
0.93194472789764404 0 0.95431488752365112
1 0.0074454811401665211 0.999980628490448
0.0026356116868555546 0.64577478170394897 0.99595433473587036
0.00025679645477794111 0.56398910284042358 0.99739587306976318
0.1042637825012207 0.44080308079719543 0.99756938219070435
0.97290211915969849 0.29672425985336304 0.99864423274993896
1 0.34532350301742554 0.99980974197387695
0.069423392415046692 1 0.99977189302444458
0.044787388294935226 0.99340027570724487 1
0.027278212830424309 0.96351641416549683 1
0.618277907371521 0.87533992528915405 0.99819153547286987
1 0.77694296836853027 1
0.20106148719787598 0.99694788455963135 1
0.16847056150436401 1 1
0.12903586030006409 0.99965071678161621 1
0.44237366318702698 0.99808049201965332 0.99941909313201904
0.98909294605255127 0.99012893438339233 0.97083783149719238
