assets/lut/ohadperetz vintage warmth 1.cube
# Created by: G'MIC (https://gmic.eu)
TITLE "vintage_warmth_1"
# LUT size
LUT_3D_SIZE 13
# Data domain
DOMAIN_MIN 0.0 0.0 0.0
DOMAIN_MAX 1.0 1.0 1.0
# LUT data points
0.059053592383861542 0.055154778063297272 0.054820101708173752
0.057077787816524506 0.053191583603620529 0.051113247871398926
0.054634183645248413 0.050618909299373627 0.048692993819713593
0.069568336009979248 0.054025895893573761 0.050844542682170868
0.12646496295928955 0.058950789272785187 0.048713639378547668
0.24484680593013763 0.056366566568613052 0.032635409384965897
0.42549708485603333 0.071757867932319641 0.069230489432811737
0.56195086240768433 0.1219853088259697 0.12058329582214355
0.66223591566085815 0.18979661166667938 0.16514506936073303
0.74441051483154297 0.26137396693229675 0.19842496514320374
0.78331559896469116 0.33242964744567871 0.20829357206821442
0.79134631156921387 0.34711608290672302 0.21014823019504547
0.79392677545547485 0.35003882646560669 0.21047514677047729
0.05676601454615593 0.053456652909517288 0.051848720759153366
0.057221222668886185 0.053420841693878174 0.051239792257547379
0.056946370750665665 0.052851688116788864 0.050079762935638428
0.067456863820552826 0.053939338773488998 0.049424819648265839
0.13682140409946442 0.060387074947357178 0.041404798626899719
0.27330419421195984 0.062240228056907654 0.03654518723487854
0.45216017961502075 0.079950429499149323 0.076908856630325317
0.59482723474502563 0.13415521383285522 0.13830648362636566
0.68814826011657715 0.20665465295314789 0.17838333547115326
0.75593602657318115 0.28578305244445801 0.20215922594070435
0.7887645959854126 0.34847483038902283 0.20868213474750519
0.79595541954040527 0.35659646987915039 0.21105118095874786
0.80080080032348633 0.35900402069091797 0.21176236867904663
0.052541323006153107 0.05106600746512413 0.050018370151519775
0.055695522576570511 0.054445214569568634 0.05206737294793129
0.060212496668100357 0.0572955422103405 0.054468251764774323
0.072546832263469696 0.058693304657936096 0.052911151200532913
0.15027564764022827 0.067457996308803558 0.041139312088489532
0.29372704029083252 0.072479993104934692 0.040439844131469727
0.46297898888587952 0.091823190450668335 0.080371856689453125
0.60391348600387573 0.14444810152053833 0.14163124561309814
0.69964563846588135 0.22030456364154816 0.18202519416809082
0.75847840309143066 0.30019229650497437 0.20102962851524353
0.791096031665802 0.35962140560150146 0.20729523897171021
0.8015209436416626 0.36925065517425537 0.20971931517124176
0.80900335311889648 0.37107810378074646 0.21224699914455414
0.053685955703258514 0.061468474566936493 0.056107241660356522
0.057038955390453339 0.067316077649593353 0.059084709733724594
0.061899341642856598 0.071429923176765442 0.061691030859947205
0.079703614115715027 0.07849603146314621 0.060201309621334076
0.14723442494869232 0.08303813636302948 0.037162899971008301
0.27971795201301575 0.089301452040672302 0.025886176154017448
0.45057499408721924 0.11148981004953384 0.073684796690940857
0.5940544605255127 0.15171712636947632 0.13327723741531372
0.69454789161682129 0.22360600531101227 0.17664951086044312
0.75917059183120728 0.30466058850288391 0.19799694418907166
0.79044437408447266 0.3656579852104187 0.20277769863605499
0.80242419242858887 0.37887376546859741 0.20529034733772278
0.80882519483566284 0.38012337684631348 0.20877626538276672
0.060755904763936996 0.1139884814620018 0.081199824810028076
0.062374729663133621 0.12093520909547806 0.082032099366188049
0.067835971713066101 0.12777462601661682 0.081274397671222687
0.085572667419910431 0.12809272110462189 0.075154609978199005
0.14988858997821808 0.13166791200637817 0.044236697256565094
0.26604148745536804 0.127714604139328 0.017670828849077225
0.44391968846321106 0.15328003466129303 0.064604200422763824
0.59870487451553345 0.18886032700538635 0.12823691964149475
0.69975632429122925 0.24427458643913269 0.17335124313831329
0.76191598176956177 0.31215611100196838 0.19555744528770447
0.78867346048355103 0.36869511008262634 0.19912260770797729
0.80210655927658081 0.38315841555595398 0.202043816447258
0.80757474899291992 0.39031714200973511 0.20281331241130829
0.045885693281888962 0.19259122014045715 0.10590364038944244
0.051099710166454315 0.19658415019512177 0.10545966774225235
0.062278971076011658 0.20093640685081482 0.10379451513290405
0.077191732823848724 0.19801637530326843 0.095465794205665588
0.13028866052627563 0.20429691672325134 0.073541842401027679
0.250730961561203 0.20196537673473358 0.038377080112695694
0.44763657450675964 0.21713165938854218 0.057069171220064163
0.61244511604309082 0.26892611384391785 0.12143968790769577
0.71328836679458618 0.32725158333778381 0.16496942937374115
0.77255982160568237 0.38522183895111084 0.18635694682598114
0.79173314571380615 0.42155513167381287 0.18814992904663086
0.80318337678909302 0.4244629442691803 0.19174540042877197
0.80792593955993652 0.43036109209060669 0.19270859658718109
0.037764888256788254 0.27743244171142578 0.13580635190010071
0.045359831303358078 0.28353419899940491 0.13649009168148041
0.057119332253932953 0.28865343332290649 0.13757064938545227
0.069725945591926575 0.2839844822883606 0.13061618804931641
0.10549257695674896 0.29150876402854919 0.11582551896572113
0.22327478229999542 0.3265349268913269 0.096168234944343567
0.4288695752620697 0.32660269737243652 0.073377378284931183
0.61818808317184448 0.34957760572433472 0.11205686628818512
0.71771132946014404 0.41469308733940125 0.15030360221862793
0.77111721038818359 0.47481513023376465 0.16663557291030884
0.79239535331726074 0.51368534564971924 0.16932104527950287
0.80379611253738403 0.51806199550628662 0.1723969578742981
0.80825150012969971 0.51745390892028809 0.1749410480260849
0.045750934630632401 0.39272579550743103 0.18293343484401703
0.054629769176244736 0.40270242094993591 0.18440425395965576
0.063833571970462799 0.40089237689971924 0.18225114047527313
0.075135283172130585 0.39304295182228088 0.17506687343120575
0.10591692477464676 0.40846002101898193 0.1644776314496994
0.20726132392883301 0.45667651295661926 0.15578474104404449
0.39830505847930908 0.50792962312698364 0.14253595471382141
0.61146396398544312 0.48117789626121521 0.12096726894378662
0.71933794021606445 0.50123566389083862 0.13732244074344635
0.76849395036697388 0.54929977655410767 0.15301807224750519
0.78614294528961182 0.58523851633071899 0.15850690007209778
0.79713684320449829 0.59309470653533936 0.16006441414356232
0.80050200223922729 0.59116101264953613 0.16268609464168549
0.05677693709731102 0.51017099618911743 0.22839158773422241
0.065273717045783997 0.52694958448410034 0.23290333151817322
0.07709909975528717 0.52724611759185791 0.22905568778514862
0.094998076558113098 0.52733451128005981 0.22112233936786652
0.12145841866731644 0.53834015130996704 0.21281735599040985
0.20732185244560242 0.57790255546569824 0.20562723278999329
0.3878541886806488 0.64371609687805176 0.19752056896686554
0.58218389749526978 0.66674429178237915 0.17446014285087585
0.70912736654281616 0.62142705917358398 0.14496815204620361
0.7644118070602417 0.6312706470489502 0.14976829290390015
0.78098863363265991 0.65770727396011353 0.15494298934936523
0.79198312759399414 0.65824359655380249 0.15723179280757904
0.79606908559799194 0.65629297494888306 0.15849067270755768
0.075034737586975098 0.63221955299377441 0.26806503534317017
0.082376100122928619 0.64403188228607178 0.27262663841247559
0.092989020049571991 0.65031206607818604 0.27238821983337402
0.11278765648603439 0.65641087293624878 0.26685112714767456
0.14172558486461639 0.66194814443588257 0.25597864389419556
0.21530722081661224 0.68956923484802246 0.24700523912906647
0.38252276182174683 0.7483101487159729 0.24050429463386536
0.56357890367507935 0.7908625602722168 0.23284128308296204
0.68771260976791382 0.77747434377670288 0.20291274785995483
0.75199741125106812 0.74093550443649292 0.17234598100185394
0.77627319097518921 0.73050922155380249 0.16032847762107849
0.78743308782577515 0.72251743078231812 0.15927362442016602
0.79537010192871094 0.71894431114196777 0.15873280167579651
0.097723819315433502 0.74949604272842407 0.3074800968170166
0.10465464740991592 0.75851559638977051 0.31170117855072021
0.11794646084308624 0.76090502738952637 0.31176617741584778
0.13629831373691559 0.7634197473526001 0.30703344941139221
0.16276668012142181 0.7750510573387146 0.29777058959007263
0.21390818059444427 0.79607963562011719 0.28701332211494446
0.37046146392822266 0.83330667018890381 0.28093177080154419
0.54053515195846558 0.87073647975921631 0.2801726758480072
0.67187899351119995 0.89360177516937256 0.28181079030036926
0.7532997727394104 0.87714630365371704 0.25995627045631409
0.77750951051712036 0.82744604349136353 0.20032049715518951
0.78526508808135986 0.80260640382766724 0.17336763441562653
0.79449033737182617 0.79244029521942139 0.16666674613952637
0.12430614233016968 0.8409419059753418 0.34364083409309387
0.1313345730304718 0.85104608535766602 0.34734505414962769
0.14331330358982086 0.85897278785705566 0.34844142198562622
0.15957581996917725 0.859139084815979 0.34296348690986633
0.1807723343372345 0.86781740188598633 0.33736744523048401
0.22877538204193115 0.88032656908035278 0.32526102662086487
0.36078932881355286 0.9017711877822876 0.31652653217315674
0.50844532251358032 0.92421573400497437 0.31093162298202515
0.63977223634719849 0.94063818454742432 0.30930182337760925
0.73607766628265381 0.94516098499298096 0.31109026074409485
0.79263836145401001 0.93432170152664185 0.28889763355255127
0.79701066017150879 0.90488529205322266 0.24063152074813843
0.79687762260437012 0.88731002807617188 0.2040252685546875
0.13824672996997833 0.88909578323364258 0.36367517709732056
0.14186392724514008 0.89287984371185303 0.36320203542709351
0.15059490501880646 0.8974948525428772 0.36140337586402893
0.16623832285404205 0.90030950307846069 0.35728269815444946
0.18585386872291565 0.90659999847412109 0.35232323408126831
0.24131625890731812 0.91670382022857666 0.34176433086395264
0.35922354459762573 0.92638486623764038 0.32940232753753662
0.4975922703742981 0.93864518404006958 0.31939685344696045
0.62076985836029053 0.95014005899429321 0.31445389986038208
0.71507114171981812 0.95561540126800537 0.31656661629676819
0.7870781421661377 0.9605826735496521 0.31663364171981812
0.81140315532684326 0.95767438411712646 0.30278593301773071
0.81814777851104736 0.95249319076538086 0.28755480051040649
0.057918861508369446 0.056063782423734665 0.055355880409479141
0.053270198404788971 0.051067560911178589 0.050580386072397232
0.047204591333866119 0.045400403439998627 0.044884100556373596
0.064217299222946167 0.050075829029083252 0.04774024710059166
0.12587271630764008 0.058752667158842087 0.048711784183979034
0.24323822557926178 0.056814007461071014 0.035047583281993866
0.42553350329399109 0.075715444982051849 0.076072677969932556
0.56540566682815552 0.12265930324792862 0.12871032953262329
0.66688203811645508 0.19287562370300293 0.17255975306034088
0.74299865961074829 0.26591277122497559 0.20284901559352875
0.78488409519195557 0.33850258588790894 0.2132098376750946
0.79340678453445435 0.35251855850219727 0.21521131694316864
0.79775792360305786 0.35581335425376892 0.21556565165519714
0.053947135806083679 0.052057050168514252 0.05172315239906311
0.051892641931772232 0.049552183598279953 0.048550266772508621
0.049661867320537567 0.047283906489610672 0.046750146895647049
0.065905027091503143 0.052701570093631744 0.050264365971088409
0.13636669516563416 0.059748228639364243 0.041334204375743866
0.27286490797996521 0.061809122562408447 0.038070961833000183
0.45357003808021545 0.079514853656291962 0.082352779805660248
0.58736330270767212 0.13047896325588226 0.13919678330421448
0.68918997049331665 0.21141883730888367 0.18166553974151611
0.75888371467590332 0.29051879048347473 0.20712605118751526
0.79035276174545288 0.3519989550113678 0.21342733502388
0.79916352033615112 0.36016282439231873 0.21465387940406799
0.8044133186340332 0.36288365721702576 0.21550245583057404
0.048707190901041031 0.048143483698368073 0.047979541122913361
0.049876764416694641 0.048541754484176636 0.047969218343496323
0.055824518203735352 0.053406465798616409 0.051959078758955002
0.073629043996334076 0.061064522713422775 0.055178876966238022
0.15068545937538147 0.065982893109321594 0.038465194404125214
0.28531858325004578 0.069371990859508514 0.038354206830263138
0.46464124321937561 0.093784019351005554 0.085020802915096283
0.60342156887054443 0.14918309450149536 0.14472807943820953
0.69901102781295776 0.22207137942314148 0.1856696754693985
0.75916874408721924 0.29858648777008057 0.20641390979290009
0.78981029987335205 0.35721758008003235 0.21211116015911102
0.80314558744430542 0.36837825179100037 0.21348173916339874
0.81137800216674805 0.37087243795394897 0.21543310582637787
0.052196085453033447 0.063174180686473846 0.057114005088806152
0.055531356483697891 0.067728988826274872 0.059965483844280243
0.063166990876197815 0.072579368948936462 0.062611311674118042
0.083026781678199768 0.080209009349346161 0.062677793204784393
0.15419214963912964 0.083297312259674072 0.042165208607912064
0.28073394298553467 0.087492518126964569 0.030528198927640915
0.45564755797386169 0.11344810575246811 0.075766861438751221
0.59874314069747925 0.15685237944126129 0.13923291862010956
0.69449812173843384 0.2236420214176178 0.18115359544754028
0.75675076246261597 0.30386418104171753 0.20245712995529175
0.79095196723937988 0.36805441975593567 0.20850522816181183
0.80331826210021973 0.37739738821983337 0.21051539480686188
0.81099307537078857 0.37896418571472168 0.21247650682926178
0.060454275459051132 0.11735491454601288 0.083581097424030304
0.061488371342420578 0.12183760106563568 0.084568753838539124
0.068938359618186951 0.12746064364910126 0.08410954475402832
0.087428778409957886 0.12914422154426575 0.076646752655506134
0.14761798083782196 0.12743774056434631 0.046185154467821121
0.27872124314308167 0.12778389453887939 0.023699577897787094
0.45658606290817261 0.1578376293182373 0.069838732481002808
0.60261571407318115 0.19670562446117401 0.13403068482875824
0.69998413324356079 0.24665780365467072 0.17765533924102783
0.76314777135848999 0.31574335694313049 0.2005908340215683
0.7912217378616333 0.37272930145263672 0.20509025454521179
0.80304491519927979 0.38506865501403809 0.20719516277313232
0.80854421854019165 0.38799512386322021 0.20937545597553253
0.046744119375944138 0.19617076218128204 0.10954754054546356
0.050193067640066147 0.19673958420753479 0.10724008828401566
0.061464495956897736 0.20114830136299133 0.1079491525888443
0.082563705742359161 0.20318682491779327 0.099263273179531097
0.12748853862285614 0.20427751541137695 0.078653000295162201
0.26605287194252014 0.20621879398822784 0.045798178762197495
0.45664262771606445 0.22157423198223114 0.06364130973815918
0.61521238088607788 0.27125599980354309 0.12772390246391296
0.71272391080856323 0.3299497663974762 0.16882705688476562
0.77229732275009155 0.38909462094306946 0.18877880275249481
0.79363322257995605 0.42631238698959351 0.19186209142208099
0.80311876535415649 0.43187373876571655 0.19582654535770416
0.80796509981155396 0.43218567967414856 0.1994776725769043
0.042101062834262848 0.28631871938705444 0.1455395370721817
0.051638778299093246 0.29521629214286804 0.14558935165405273
0.062019661068916321 0.29577326774597168 0.14458823204040527
0.077962689101696014 0.29350656270980835 0.13668434321880341
0.1100531667470932 0.2992154061794281 0.12293384224176407
0.23424080014228821 0.33272990584373474 0.10168647021055222
0.43879479169845581 0.3292185366153717 0.07759375125169754
0.62659627199172974 0.35310184955596924 0.11936560273170471
0.72220146656036377 0.41556873917579651 0.15609855949878693
0.77492403984069824 0.47906196117401123 0.17057701945304871
0.79494202136993408 0.51651972532272339 0.17281809449195862
0.80332916975021362 0.52193647623062134 0.17689727246761322
0.80699014663696289 0.51876282691955566 0.18151696026325226
0.049218975007534027 0.39858877658843994 0.19066181778907776
0.059979382902383804 0.40755340456962585 0.19126300513744354
0.07061285525560379 0.40658804774284363 0.18833298981189728
0.084975853562355042 0.40331581234931946 0.18036255240440369
0.1103762611746788 0.41052457690238953 0.16957502067089081
0.20616482198238373 0.46467232704162598 0.16227295994758606
0.40820086002349854 0.51427584886550903 0.14690826833248138
0.61730396747589111 0.48764458298683167 0.12657816708087921
0.72726404666900635 0.50413841009140015 0.14359201490879059
0.77310359477996826 0.55729770660400391 0.15697365999221802
0.78845959901809692 0.59045213460922241 0.16143366694450378
0.79721713066101074 0.59519213438034058 0.16524338722229004
0.8014875054359436 0.59108000993728638 0.16932502388954163
0.059481542557477951 0.51482540369033813 0.23474684357643127
0.068837754428386688 0.52484238147735596 0.23639602959156036
0.082421004772186279 0.52885937690734863 0.23323579132556915
0.10073024034500122 0.53005588054656982 0.22525389492511749
0.13058973848819733 0.54246121644973755 0.21745532751083374
0.21751412749290466 0.58755230903625488 0.21034316718578339
0.37819895148277283 0.65412896871566772 0.20430277287960052
0.58812195062637329 0.6740487813949585 0.18607380986213684
0.71410477161407471 0.62456411123275757 0.15238481760025024
0.76642680168151855 0.6369442343711853 0.15489120781421661
0.7817654013633728 0.65881991386413574 0.16020950675010681
0.79253250360488892 0.65880364179611206 0.16299881041049957
0.79719650745391846 0.656474769115448 0.16432863473892212
0.077078469097614288 0.63732486963272095 0.27425292134284973
0.083520539104938507 0.64718502759933472 0.27763593196868896
0.097305417060852051 0.65333384275436401 0.27697658538818359
0.11914084851741791 0.65698474645614624 0.27115461230278015
0.1474488377571106 0.66573917865753174 0.26232722401618958
0.21982598304748535 0.69692790508270264 0.2517344057559967
0.36798000335693359 0.7506975531578064 0.2436596155166626
0.56450283527374268 0.79345065355300903 0.2400219589471817
0.69510692358016968 0.78712993860244751 0.21702727675437927
0.75803691148757935 0.74506562948226929 0.18002320826053619
0.77703374624252319 0.73483163118362427 0.16729725897312164
0.78841447830200195 0.72682082653045654 0.16638849675655365
0.79568225145339966 0.72009718418121338 0.16390705108642578
0.099636286497116089 0.74837654829025269 0.31269064545631409
0.10554546117782593 0.76424723863601685 0.31730759143829346
0.12029680609703064 0.76642268896102905 0.31676021218299866
0.14003381133079529 0.76717966794967651 0.31277620792388916
0.16554924845695496 0.77642327547073364 0.30451181530952454
0.21867208182811737 0.79852151870727539 0.29177999496459961
0.35331785678863525 0.83232539892196655 0.28305196762084961
0.52670454978942871 0.87145274877548218 0.28558596968650818
0.67575597763061523 0.89952147006988525 0.28832799196243286
0.75826174020767212 0.88771247863769531 0.27126982808113098
0.776417076587677 0.83500868082046509 0.20324830710887909
0.78522568941116333 0.80791044235229492 0.1780456006526947
0.79560679197311401 0.79434484243392944 0.17456856369972229
0.12706029415130615 0.84676384925842285 0.35002550482749939
0.13342958688735962 0.85686081647872925 0.35299023985862732
0.14393684267997742 0.86082762479782104 0.35307574272155762
0.15904933214187622 0.86263316869735718 0.34918427467346191
0.17950589954853058 0.87188947200775146 0.34442958235740662
0.24640445411205292 0.88151043653488159 0.33032190799713135
0.35928547382354736 0.90289169549942017 0.31958633661270142
0.49575194716453552 0.92717581987380981 0.31527963280677795
0.6396174430847168 0.93905997276306152 0.31313380599021912
0.7385329008102417 0.94697833061218262 0.31536152958869934
0.79127705097198486 0.93862730264663696 0.29606562852859497
0.7992091178894043 0.90701282024383545 0.24693620204925537
0.80812734365463257 0.89750832319259644 0.23507371544837952
0.13819071650505066 0.88894093036651611 0.3658871054649353
0.14210247993469238 0.89011591672897339 0.36541396379470825
0.15081082284450531 0.89653265476226807 0.36531591415405273
0.16536961495876312 0.89873051643371582 0.36094382405281067
0.18304862082004547 0.9064210057258606 0.35688972473144531
0.25924253463745117 0.91635823249816895 0.34522417187690735
0.36729055643081665 0.92719072103500366 0.3315071165561676
0.48981836438179016 0.93978965282440186 0.32218343019485474
0.6147952675819397 0.95266437530517578 0.31969413161277771
0.71655023097991943 0.96071910858154297 0.32249042391777039
0.79360878467559814 0.96740645170211792 0.32464516162872314
0.81513059139251709 0.9643552303314209 0.31527075171470642
0.82695561647415161 0.96515625715255737 0.31026315689086914
0.054565370082855225 0.056573636829853058 0.058108042925596237
0.050937607884407043 0.052045516669750214 0.053173858672380447
0.048501662909984589 0.049393478780984879 0.050276394933462143
0.061726141721010208 0.053212348371744156 0.052590884268283844
0.12428303062915802 0.062024135142564774 0.05428333580493927
0.23705831170082092 0.057082455605268478 0.040586493909358978
0.41552063822746277 0.073912829160690308 0.081665351986885071
0.56561684608459473 0.11791686713695526 0.13686367869377136
0.67041468620300293 0.19193238019943237 0.18179447948932648
0.74628841876983643 0.26714873313903809 0.21299527585506439
0.78391194343566895 0.33390602469444275 0.22154359519481659
0.79499179124832153 0.35273543000221252 0.22322425246238708
0.79831486940383911 0.35577818751335144 0.22421540319919586
0.051166176795959473 0.052250389009714127 0.05317249521613121
0.047785080969333649 0.047702580690383911 0.047787461429834366
0.050588317215442657 0.0504593625664711 0.050943531095981598
0.071169175207614899 0.05950348824262619 0.058194778859615326
0.13471852242946625 0.063825689256191254 0.048208799213171005
0.27092015743255615 0.06303221732378006 0.042728543281555176
0.4517272412776947 0.081664100289344788 0.08804214745759964
0.5859561562538147 0.13501489162445068 0.14629015326499939
0.69268596172332764 0.21356876194477081 0.19107617437839508
0.76211845874786377 0.29321417212486267 0.21853843331336975
0.78969508409500122 0.34959045052528381 0.22310954332351685
0.79996639490127563 0.36040890216827393 0.2243923544883728
0.806182861328125 0.36308413743972778 0.22535073757171631
0.050052627921104431 0.052289493381977081 0.053204584866762161
0.049463532865047455 0.050362620502710342 0.050953149795532227
0.054451018571853638 0.053740661591291428 0.05405610054731369
0.07337130606174469 0.062768451869487762 0.059369735419750214
0.14741620421409607 0.068961247801780701 0.044896818697452545
0.29002803564071655 0.06969432532787323 0.045680999755859375
0.46279028058052063 0.092809237539768219 0.091009847819805145
0.59620541334152222 0.14820744097232819 0.15026675164699554
0.69732904434204102 0.22529388964176178 0.19373565912246704
0.76296317577362061 0.30289939045906067 0.2170175164937973
0.79170221090316772 0.36140045523643494 0.22081770002841949
0.80326533317565918 0.36838021874427795 0.22314555943012238
0.81149005889892578 0.37004822492599487 0.22524480521678925
0.054485335946083069 0.064828671514987946 0.062102209776639938
0.057974543422460556 0.070309430360794067 0.066231563687324524
0.063184387981891632 0.071862407028675079 0.066494092345237732
0.083950921893119812 0.081384457647800446 0.067118160426616669
0.15338705480098724 0.085781201720237732 0.048316612839698792
0.28476491570472717 0.091029644012451172 0.038410816341638565
0.45542201399803162 0.11615291237831116 0.083243183791637421
0.59082412719726562 0.16272608935832977 0.14403811097145081
0.69431787729263306 0.22719261050224304 0.18978424370288849
0.75820839405059814 0.30740630626678467 0.21144683659076691
0.79148828983306885 0.37008386850357056 0.21707074344158173
0.80331242084503174 0.37672564387321472 0.21957585215568542
0.81103575229644775 0.37761420011520386 0.22200371325016022
0.060762695968151093 0.1141648069024086 0.087722033262252808
0.060697562992572784 0.12303768843412399 0.090871475636959076
0.066147841513156891 0.1258188933134079 0.089785568416118622
0.087267167866230011 0.12907426059246063 0.082298547029495239
