assets/lut/others vibrant.cube
# Created by: G'MIC (https://gmic.eu)
TITLE "vibrant"
# LUT size
LUT_3D_SIZE 5
# Data domain
DOMAIN_MIN 0.0 0.0 0.0
DOMAIN_MAX 1.0 1.0 1.0
# LUT data points
0.0042969048954546452 0.0042482861317694187 0.001775150652974844
0.17195615172386169 0.0034900291357189417 0.0077039529569447041
0.69272971153259277 0.00087922037346288562 0.004070925060659647
0.9841688871383667 0.0039215688593685627 0.0036158543080091476
0.99607843160629272 0.0038957183714956045 0.0088899945840239525
0.004805845208466053 0.14426741003990173 0.0047336951829493046
0.17126691341400146 0.14798572659492493 0.0048887217417359352
0.6956784725189209 0.14346842467784882 0.0043650907464325428
0.98367166519165039 0.14021676778793335 0.0039490344934165478
0.99747687578201294 0.13993744552135468 0.0041728750802576542
0.00030813779449090362 0.57120978832244873 0.004774819128215313
0.1703057736158371 0.55804914236068726 0.003851916640996933
0.69744884967803955 0.5616297721862793 0.011527671478688717
0.96792143583297729 0.54214310646057129 0.006636930163949728
0.99860858917236328 0.55826205015182495 0.0063145654276013374
0.0039409562014043331 0.90614932775497437 0.0047618793323636055
0.17228707671165466 0.91171467304229736 0.0037666920106858015
0.70332872867584229 0.90586519241333008 0.0083753401413559914
0.97440528869628906 0.90032070875167847 0.0045339395292103291
1 0.89278066158294678 0.0059846015647053719
0.00037590475403703749 1 0.0027652066200971603
0.1808256208896637 0.99946093559265137 0.0036114412359893322
0.69266128540039062 0.99778133630752563 0.003709007753059268
0.98021090030670166 0.99620538949966431 0.0059828963130712509
0.998779296875 1 0.0069189630448818207
0.0015565610956400633 0.0049328822642564774 0.20609557628631592
0.17373226583003998 0.0010705237509682775 0.20956979691982269
0.69187599420547485 0.0039215688593685627 0.20997186005115509
0.98079997301101685 0.002254291670396924 0.21053697168827057
0.99870342016220093 0.0025135115720331669 0.20784342288970947
0.0066592199727892876 0.15806442499160767 0.20685936510562897
0.17573915421962738 0.13380551338195801 0.20893479883670807
0.69976067543029785 0.14556750655174255 0.21590003371238708
0.97942698001861572 0.13600984215736389 0.21355883777141571
1 0.14611677825450897 0.20764768123626709
0.0041272928938269615 0.56245964765548706 0.21472321450710297
0.18035730719566345 0.56113940477371216 0.21103194355964661
0.69955754280090332 0.55852776765823364 0.21307028830051422
0.97933387756347656 0.55999332666397095 0.21296107769012451
0.99653893709182739 0.56846809387207031 0.20305497944355011
0.0039264154620468616 0.90833127498626709 0.21640747785568237
0.1719701737165451 0.90921920537948608 0.2072075754404068
0.69041270017623901 0.90477263927459717 0.2075534462928772
0.98031723499298096 0.90139091014862061 0.21117061376571655
1 0.90611010789871216 0.21455630660057068
0.0039215688593685627 0.99608540534973145 0.21008734405040741
0.17898590862751007 1 0.21219520270824432
0.69076436758041382 0.9999687671661377 0.21159335970878601
0.98407948017120361 0.99553102254867554 0.21018849313259125
1 1 0.20677170157432556
0.0077298632822930813 0.0039215688593685627 0.45267066359519958
0.16757985949516296 0.00056234619114547968 0.4498521089553833
0.69899529218673706 0.0023924135603010654 0.45951098203659058
0.97747683525085449 0.0039312625303864479 0.44510355591773987
0.9962114691734314 0.0066385604441165924 0.44817033410072327
0.0032407124526798725 0.13880187273025513 0.44763508439064026
0.16997219622135162 0.13402168452739716 0.45086893439292908
0.70293879508972168 0.13523267209529877 0.444061279296875
0.9802250862121582 0.13982264697551727 0.45065894722938538
0.99706155061721802 0.14096744358539581 0.44722703099250793
0.0039560357108712196 0.5457342267036438 0.4540143609046936
0.18120579421520233 0.54921835660934448 0.44988131523132324
0.70033138990402222 0.5576741099357605 0.45352628827095032
0.97616827487945557 0.55703479051589966 0.44743499159812927
0.99607843160629272 0.56629592180252075 0.44889846444129944
0.0042052026838064194 0.89881616830825806 0.45389875769615173
0.17683812975883484 0.90766823291778564 0.4481145441532135
0.69576865434646606 0.90849262475967407 0.45510926842689514
0.98160916566848755 0.90334427356719971 0.4551720917224884
0.99936801195144653 0.9054909348487854 0.45380109548568726
0.0013793047983199358 0.99730098247528076 0.44728401303291321
0.18501049280166626 0.99993813037872314 0.45140367746353149
0.70418316125869751 0.9997362494468689 0.45410087704658508
0.97645920515060425 0.99914896488189697 0.45118221640586853
1 0.99881488084793091 0.45607426762580872
0.003907566424459219 0.00017915613716468215 0.72626227140426636
0.1789001077413559 0.00080823712050914764 0.72597825527191162
0.70423382520675659 0.0038445566315203905 0.72947424650192261
0.97587060928344727 0.0039215688593685627 0.72282087802886963
0.99977767467498779 0.0039215688593685627 0.72898882627487183
0.0037579704076051712 0.14676599204540253 0.73268228769302368
0.17308822274208069 0.13573150336742401 0.72992110252380371
0.69956016540527344 0.13485859334468842 0.72471284866333008
0.97210115194320679 0.13756383955478668 0.72862166166305542
0.99715465307235718 0.13794498145580292 0.72310358285903931
0.003785047447308898 0.54027801752090454 0.73006027936935425
0.1740582287311554 0.56032520532608032 0.7245524525642395
0.70102745294570923 0.55509781837463379 0.72799861431121826
0.98018598556518555 0.55649542808532715 0.73073297739028931
0.99789285659790039 0.54891276359558105 0.72669750452041626
0.0043717925436794758 0.89686375856399536 0.72660493850708008
0.18177644908428192 0.90709573030471802 0.72606343030929565
0.70196270942687988 0.9079400897026062 0.73189806938171387
0.9708830714225769 0.89966869354248047 0.7263910174369812
0.99999517202377319 0.89627474546432495 0.73853760957717896
0.0080199595540761948 0.99694359302520752 0.72710692882537842
0.17773626744747162 0.99918824434280396 0.72866272926330566
0.69935506582260132 0.99607843160629272 0.72515112161636353
0.98139256238937378 0.99998438358306885 0.73052644729614258
1 0.99999302625656128 0.74997234344482422
0.0039215688593685627 0.0051312018185853958 0.98979133367538452
0.17071962356567383 0.0013155619380995631 0.99366223812103271
0.7055279016494751 0.0014126497553661466 0.99424952268600464
0.97536486387252808 0 0.98940837383270264
1 2.8004365958622657e-05 0.99319207668304443
0.0039215688593685627 0.1359110027551651 0.99013715982437134
0.17231717705726624 0.13694082200527191 0.99149543046951294
0.70453423261642456 0.13779041171073914 0.99089449644088745
0.97516512870788574 0.13795831799507141 0.98997145891189575
0.99959790706634521 0.14212200045585632 0.99291890859603882
0.0039215688593685627 0.54882341623306274 0.98522448539733887
0.17220364511013031 0.5531388521194458 0.99383509159088135
0.70273679494857788 0.56307148933410645 0.99141788482666016
0.97735816240310669 0.55837541818618774 0.99144464731216431
0.99688899517059326 0.5546526312828064 0.98861479759216309
0.0043304893188178539 0.9050147533416748 0.99085009098052979
0.17713016271591187 0.89824461936950684 0.97622942924499512
0.70138251781463623 0.90673148632049561 0.99384057521820068
0.97626036405563354 0.90540546178817749 0.99296241998672485
1 0.89797180891036987 0.99273163080215454
0 0.99534314870834351 0.98841249942779541
0.16329832375049591 0.99609243869781494 0.99480777978897095
0.70086371898651123 0.99936544895172119 0.99385529756546021
0.9713560938835144 1 0.9944489598274231
1 1 0.99266999959945679
