assets/lut/others rotated crush.cube
# Created by: G'MIC (https://gmic.eu)
TITLE "rotated_crush"
# LUT size
LUT_3D_SIZE 7
# Data domain
DOMAIN_MIN 0.0 0.0 0.0
DOMAIN_MAX 1.0 1.0 1.0
# LUT data points
0.0039215688593685627 0 0
0.0043647317215800285 0 0.00082059373380616307
0.014529419131577015 0 0.10471583157777786
0.036071281880140305 0 0.26009765267372131
0.11168324947357178 0.0003449982323218137 0.46353441476821899
0.20194214582443237 0 0.68452554941177368
0.3041745126247406 0.00096381694311276078 0.90898436307907104
0.0049515669234097004 0.003744462039321661 0
0.010959235951304436 0.003404340473935008 0.0024116516578942537
0.11552898585796356 0.012005510739982128 0.087449111044406891
0.27081933617591858 0.0013610839378088713 0.28434556722640991
0.40590861439704895 0.0010720196878537536 0.49493259191513062
0.5441213846206665 0.00072950473986566067 0.71363860368728638
0.6556166410446167 0.00074075435986742377 0.94517713785171509
0.090823248028755188 0.078882567584514618 0.0005950927734375
0.11704858392477036 0.035256538540124893 0.010051966644823551
0.17179416120052338 0.098447717726230621 0.10054424405097961
0.3080240786075592 0.08409041166305542 0.20815050601959229
0.51523041725158691 0.082767486572265625 0.40313798189163208
0.74625343084335327 0.064261987805366516 0.67367470264434814
0.96730488538742065 0.076641947031021118 0.9618193507194519
0.24979418516159058 0.23443570733070374 0
0.28464090824127197 0.1608281284570694 0.0088890222832560539
0.32950380444526672 0.17463366687297821 0.080984674394130707
0.37708321213722229 0.28038886189460754 0.27650487422943115
0.57966512441635132 0.26715472340583801 0.39693227410316467
0.78700172901153564 0.25207868218421936 0.57089674472808838
0.97828954458236694 0.26512151956558228 0.81292128562927246
0.45584967732429504 0.42714878916740417 0
0.47936755418777466 0.33247140049934387 0.0050934734754264355
0.53841060400009155 0.30241471529006958 0.06857338547706604
0.56131565570831299 0.35542842745780945 0.26081979274749756
0.63179147243499756 0.50602126121520996 0.50943011045455933
0.83113813400268555 0.50013357400894165 0.6179007887840271
0.99514800310134888 0.48602819442749023 0.76859903335571289
0.66456472873687744 0.64865344762802124 0
0.70253324508666992 0.52330338954925537 0.006209938321262598
0.7494397759437561 0.4578213095664978 0.072450451552867889
0.78750574588775635 0.45913338661193848 0.24222679436206818
0.84533733129501343 0.57267361879348755 0.49456033110618591
0.90647447109222412 0.74901342391967773 0.75065577030181885
0.9961172342300415 0.73877567052841187 0.84120070934295654
0.90474849939346313 0.8931390643119812 0.0018478842684999108
0.93709594011306763 0.74677228927612305 0.002115840557962656
0.96229708194732666 0.64284950494766235 0.064647689461708069
0.99067527055740356 0.6179012656211853 0.24781130254268646
0.98839253187179565 0.6715967059135437 0.48666122555732727
0.99212491512298584 0.80528146028518677 0.73811835050582886
0.99776256084442139 0.98754853010177612 0.98358720541000366
0.0033245310187339783 0 0
0.003800500649958849 0 0.0076319677755236626
0.0066747479140758514 0.0037636552006006241 0.13206645846366882
0.014892144128680229 0.0026609532069414854 0.30940154194831848
0.052022222429513931 0.0033768150024116039 0.51102477312088013
0.12588222324848175 0.0011168087366968393 0.70798635482788086
0.23668891191482544 3.5005457903025672e-05 0.94166386127471924
0.0025439991150051355 0.0063264733180403709 0.00066272512776777148
0.013826796784996986 0.012775465846061707 0.011753067374229431
0.026218833401799202 0.0010451222769916058 0.11383064091205597
0.066332995891571045 9.5741424956941046e-06 0.30531355738639832
0.13730119168758392 0 0.49127158522605896
0.26117068529129028 0.00060014909831807017 0.72326755523681641
0.42482626438140869 0.00078237196430563927 0.94985705614089966
0.046208895742893219 0.11265463382005692 0.00031056124134920537
0.091339230537414551 0.088734522461891174 0.0020656809210777283
0.16305719316005707 0.090948723256587982 0.10059656202793121
0.31060689687728882 0.038545958697795868 0.2545655369758606
0.49937942624092102 0.015450735576450825 0.50085365772247314
0.65002703666687012 0.036997821182012558 0.74442529678344727
0.80784708261489868 0.096367597579956055 0.96838706731796265
0.20002339780330658 0.28576672077178955 0.00022768507187720388
0.28540146350860596 0.27577090263366699 0.003763475688174367
0.3165912926197052 0.17261318862438202 0.036999929696321487
0.37754744291305542 0.28172269463539124 0.28730347752571106
0.56143897771835327 0.23506109416484833 0.40514290332794189
0.7915922999382019 0.21905636787414551 0.64176011085510254
0.9899476170539856 0.276032954454422 0.94155669212341309
0.39007562398910522 0.48676696419715881 0.00038959278026595712
0.48138427734375 0.4713747501373291 0.0030591478571295738
0.52582323551177979 0.34561598300933838 0.012269502505660057
0.56284862756729126 0.3441469669342041 0.21242925524711609
0.62918287515640259 0.50672334432601929 0.51092040538787842
0.83078694343566895 0.49193879961967468 0.61905336380004883
0.99135744571685791 0.49305593967437744 0.8401564359664917
0.61990261077880859 0.71281713247299194 0.0037616805639117956
0.69442856311798096 0.67942619323730469 0.00058158423053100705
0.75571995973587036 0.55321800708770752 0.034647397696971893
0.78322362899780273 0.49546915292739868 0.21803687512874603
0.8248978853225708 0.57383626699447632 0.47980737686157227
0.9024660587310791 0.76788723468780518 0.77158284187316895
0.9964408278465271 0.77423191070556641 0.88070470094680786
0.84480041265487671 0.94082927703857422 0.0041061253286898136
0.93539756536483765 0.91957706212997437 0.0029932507313787937
0.96582365036010742 0.78322511911392212 0.092618457973003387
0.98276335000991821 0.71664392948150635 0.27931895852088928
0.98628473281860352 0.72573602199554443 0.50207901000976562
0.99555552005767822 0.83397805690765381 0.75824779272079468
0.99691271781921387 0.99020481109619141 0.98961722850799561
0 0.0038616703823208809 0.0039215688593685627
0 0.016027592122554779 0.013195427134633064
0.0032919491641223431 0.0096379900351166725 0.15149448812007904
0.011660197749733925 0.0041301054880023003 0.33103454113006592
0.023740297183394432 0.0024094225373119116 0.53200227022171021
0.10423725843429565 0 0.75685316324234009
0.19660235941410065 0.0048846076242625713 0.98011404275894165
0.0042298859916627407 0.025141682475805283 0.0040168613195419312
0.0040668710134923458 0.013885438442230225 0.0085184583440423012
0.017271647229790688 0.032857362180948257 0.14711324870586395
0.041269771754741669 0.0084616122767329216 0.32454326748847961
0.075120948255062103 0.00075664144242182374 0.52293616533279419
0.19397702813148499 0.0044500315561890602 0.75199466943740845
0.34297013282775879 0.015895335003733635 0.9603237509727478
0.031138671562075615 0.1480058878660202 0.007619521114975214
0.084069438278675079 0.15598393976688385 0.031143937259912491
0.1433066725730896 0.14267522096633911 0.12933531403541565
0.18828302621841431 0.033802330493927002 0.31939405202865601
0.27556261420249939 0.033016923815011978 0.53505116701126099
0.41729217767715454 0.05842386931180954 0.76213616132736206
0.56797033548355103 0.12946878373622894 0.97764128446578979
0.17118950188159943 0.32917377352714539 0.008977583609521389
0.22933091223239899 0.32574751973152161 0.010299293324351311
0.32301858067512512 0.30346989631652832 0.040211096405982971
0.38110339641571045 0.30672109127044678 0.30994042754173279
0.55497151613235474 0.2474023699760437 0.49951332807540894
0.76693588495254517 0.24988919496536255 0.77966582775115967
0.92869007587432861 0.30980193614959717 0.98151427507400513
0.35798853635787964 0.52969503402709961 0.0048760208301246166
0.42566457390785217 0.52184599637985229 0.0080882357433438301
0.51648008823394775 0.49982121586799622 0.029756104573607445
0.56936174631118774 0.42351508140563965 0.24375948309898376
0.6375049352645874 0.5313417911529541 0.53982412815093994
0.82285082340240479 0.5040128231048584 0.67940378189086914
0.99574559926986694 0.52998596429824829 0.933735191822052
0.56612199544906616 0.75690561532974243 0.0054789823479950428
0.63874518871307373 0.75055456161499023 0.0039989096112549305
0.74593561887741089 0.7295106053352356 0.061172589659690857
0.7920757532119751 0.61457818746566772 0.25239083170890808
0.82339102029800415 0.6127699613571167 0.49311175942420959
0.90761369466781616 0.78970611095428467 0.79467403888702393
0.99800533056259155 0.79523420333862305 0.92449444532394409
0.76771736145019531 0.9668961763381958 0.0037780462298542261
0.87486386299133301 0.96107792854309082 0.017801247537136078
0.97698050737380981 0.96056878566741943 0.13627758622169495
0.9810107946395874 0.85272294282913208 0.29876291751861572
0.99566906690597534 0.80523991584777832 0.53936094045639038
0.9981081485748291 0.87065553665161133 0.78799444437026978
0.99999135732650757 0.9906996488571167 0.99172306060791016
0.00040148565312847495 0.0087568843737244606 0.0039215688593685627
0.00012952019460499287 0.023304285481572151 0.013111608102917671
9.6848430985119194e-05 0.069861330091953278 0.17538410425186157
0.010546306148171425 0.019674398005008698 0.35996958613395691
0.021946161985397339 0.012127581052482128 0.56886130571365356
0.073674671351909637 0.00099229998886585236 0.79450291395187378
0.15829670429229736 0.0036896499805152416 0.9933362603187561
0.0053789177909493446 0.036096803843975067 0.0043338551186025143
0.0057447245344519615 0.044024776667356491 0.0078014596365392208
0.018899476155638695 0.1497504711151123 0.16369064152240753
0.063835591077804565 0.091517128050327301 0.35273295640945435
0.08407217264175415 0.027494078502058983 0.56412196159362793
0.17070180177688599 0.011758901178836823 0.79082846641540527
0.30908697843551636 0.06043783575296402 0.98264592885971069
0.0088636511936783791 0.18033382296562195 0.0080688474699854851
0.047661665827035904 0.17950083315372467 0.020749485120177269
0.1235734224319458 0.21113264560699463 0.14833861589431763
0.19328306615352631 0.20581309497356415 0.35843536257743835
0.24151365458965302 0.12804099917411804 0.57250195741653442
0.33599653840065002 0.12072619050741196 0.78295618295669556
0.49673697352409363 0.19100327789783478 0.97895455360412598
0.13587953150272369 0.36568695306777954 0.010693718679249287
0.20868341624736786 0.37379863858222961 0.053783386945724487
0.28227809071540833 0.36231216788291931 0.18963669240474701
0.35664910078048706 0.36021241545677185 0.34134897589683533
0.44981157779693604 0.27324774861335754 0.56366133689880371
0.56367546319961548 0.28283333778381348 0.79673165082931519
0.72808408737182617 0.3509405255317688 0.98638355731964111
0.30906260013580322 0.57265394926071167 0.0043328376486897469
0.36839935183525085 0.56936937570571899 0.028776191174983978
0.4502696692943573 0.56130087375640869 0.12368002533912659
0.55746734142303467 0.5444025993347168 0.28580689430236816
0.62924849987030029 0.55210733413696289 0.55417585372924805
0.82674837112426758 0.53829622268676758 0.77990007400512695
0.97676748037338257 0.5575067400932312 0.98157250881195068
0.50620740652084351 0.80362516641616821 0.0007079928764142096
0.57219856977462769 0.80756694078445435 0.024087300524115562
0.69093185663223267 0.79190045595169067 0.12903393805027008
0.78709477186203003 0.76941388845443726 0.28821533918380737
0.82739818096160889 0.68323326110839844 0.52460205554962158
0.90540242195129395 0.82600325345993042 0.82879161834716797
0.99653279781341553 0.81831091642379761 0.97093957662582397
0.71250706911087036 0.98624473810195923 0.0034797070547938347
0.81523919105529785 0.98297441005706787 0.056113988161087036
0.91998445987701416 0.98301428556442261 0.18244896829128265
0.97902411222457886 0.96682101488113403 0.34233126044273376
0.99558335542678833 0.90422528982162476 0.56815600395202637
0.99753415584564209 0.92804408073425293 0.81956702470779419
1 0.9895283579826355 0.99553495645523071
0.0052335551008582115 0.010134812444448471 0.0040833717212080956
0.0034679039381444454 0.051796019077301025 0.006318455096334219
0.0016906887758523226 0.18867093324661255 0.19973547756671906
0.013167781755328178 0.1365206390619278 0.39399191737174988
0.023898165673017502 0.041572496294975281 0.61006695032119751
0.067950382828712463 0.014598158188164234 0.84963005781173706
0.13386170566082001 0.012956537306308746 0.99143999814987183
0.0042591467499732971 0.056836701929569244 0.0039215688593685627
0.0030646978411823511 0.059800002723932266 0.0075202942825853825
0.021988857537508011 0.20611429214477539 0.14933805167675018
0.077825449407100677 0.26875975728034973 0.39895585179328918
0.12408077716827393 0.18000863492488861 0.60532462596893311
0.17034304141998291 0.10041182488203049 0.83439898490905762
0.27427074313163757 0.11517767608165741 0.99266892671585083
0.014950486831367016 0.22125332057476044 0.0066350600682199001
0.041512150317430496 0.21815398335456848 0.024428633973002434
0.1165141686797142 0.24292367696762085 0.12964032590389252
0.21195924282073975 0.36399129033088684 0.37455976009368896
0.26593545079231262 0.28701075911521912 0.61172473430633545
0.32253161072731018 0.2299254834651947 0.83753842115402222
0.44564801454544067 0.25746262073516846 0.98897784948348999
0.080087475478649139 0.38061392307281494 0.0068896124139428139
0.17177267372608185 0.38741058111190796 0.069852791726589203
0.26981422305107117 0.40245252847671509 0.19628159701824188
0.34417569637298584 0.40716978907585144 0.34650495648384094
0.42421355843544006 0.43837684392929077 0.6139068603515625
0.5005531907081604 0.38705068826675415 0.8452906608581543
0.63221859931945801 0.41629835963249207 0.99375826120376587
0.2652953565120697 0.60708940029144287 0.016408193856477737
0.33787131309509277 0.60373711585998535 0.10998403280973434
0.4329075813293457 0.60529732704162598 0.24748006463050842
0.52136307954788208 0.60496801137924194 0.40836450457572937
0.61601114273071289 0.60686570405960083 0.60493427515029907
0.73371422290802002 0.57677996158599854 0.83511024713516235
0.88459968566894531 0.60780817270278931 0.99100655317306519
0.4507504403591156 0.83469223976135254 0.014478332363069057
0.53948706388473511 0.85197973251342773 0.097445979714393616
0.6220056414604187 0.83901828527450562 0.22723336517810822
0.74345123767852783 0.8433038592338562 0.39159852266311646
0.82740134000778198 0.81913971900939941 0.57656514644622803
0.90715241432189941 0.83917766809463501 0.84193170070648193
0.99345129728317261 0.83683335781097412 0.98801547288894653
0.66922503709793091 0.99444586038589478 0.011375726200640202
0.75731247663497925 0.99270159006118774 0.11214488744735718
0.85558366775512695 0.99198508262634277 0.25388655066490173
0.95694679021835327 0.99319291114807129 0.4169979989528656
0.99278652667999268 0.98103934526443481 0.59447234869003296
0.99683922529220581 0.98349577188491821 0.83962875604629517
0.99697029590606689 0.99462997913360596 0.99140703678131104
0.0039215688593685627 0.0095389867201447487 0.0001983642578125
0.0032535926438868046 0.063996843993663788 0.0044603236019611359
0.00047505696420557797 0.22651943564414978 0.14354684948921204
0.0088022565469145775 0.31038704514503479 0.43789499998092651
0.011788925155997276 0.20696879923343658 0.64421039819717407
0.051436882466077805 0.082067035138607025 0.86972934007644653
0.11468181014060974 0.06602148711681366 0.99231892824172974
0.0037320156116038561 0.077716037631034851 0.0052925110794603825
0.001112769590690732 0.089935421943664551 0.0028364444151520729
0.023576026782393456 0.23593993484973907 0.12692293524742126
0.085854187607765198 0.4042847752571106 0.41713768243789673
0.14849084615707397 0.36504438519477844 0.64679831266403198
0.19467215240001678 0.2342601865530014 0.87426209449768066
0.2610950767993927 0.18413017690181732 0.99057549238204956
0.010089350864291191 0.2491864413022995 0.0056867711246013641
0.041063420474529266 0.2315487265586853 0.02656339667737484
0.12793731689453125 0.27692610025405884 0.14340472221374512
0.21240565180778503 0.42518937587738037 0.35322612524032593
0.28749948740005493 0.49643683433532715 0.63326966762542725
0.34413626790046692 0.3671988844871521 0.87874287366867065
0.42685139179229736 0.33318299055099487 0.99707496166229248
0.052205748856067657 0.40948846936225891 0.011992929503321648
0.15827558934688568 0.42114540934562683 0.085349768400192261
0.25620207190513611 0.43230623006820679 0.21203033626079559
0.34669685363769531 0.45333436131477356 0.35310447216033936
0.44778263568878174 0.61298900842666626 0.63652509450912476
0.50679069757461548 0.52828580141067505 0.88207459449768066
0.59373205900192261 0.50821006298065186 0.99411779642105103
0.21348711848258972 0.64382326602935791 0.017948225140571594
0.30418843030929565 0.63309860229492188 0.13319317996501923
0.40768006443977356 0.64255219697952271 0.29933825135231018
0.51855337619781494 0.65617614984512329 0.4478117823600769
0.60645192861557007 0.67778956890106201 0.62215322256088257
0.69927525520324707 0.71399998664855957 0.88046860694885254
0.7884821891784668 0.68866288661956787 0.99797183275222778
0.42180800437927246 0.88427352905273438 0.046256572008132935
0.50262725353240967 0.8821532130241394 0.17090408504009247
0.59975177049636841 0.87949031591415405 0.32891467213630676
0.6831851601600647 0.8759874701499939 0.49391207098960876
0.78328794240951538 0.86798328161239624 0.68651604652404785
0.88302421569824219 0.88678783178329468 0.88128483295440674
0.98094409704208374 0.88341391086578369 0.99481117725372314
0.61542767286300659 0.99985241889953613 0.056172959506511688
0.71585714817047119 0.99188172817230225 0.18915842473506927
0.81059515476226807 0.99192672967910767 0.34292575716972351
0.90960252285003662 0.9957650899887085 0.50598001480102539
0.98124480247497559 0.99577879905700684 0.66949462890625
0.98988133668899536 0.9939342737197876 0.88227403163909912
0.99917197227478027 0.99845099449157715 0.9923056960105896
0 0.017125356942415237 0
0 0.098546572029590607 0.00244878139346838
0.00066897820215672255 0.25832715630531311 0.11813534051179886
0.0060750474222004414 0.44239279627799988 0.45606780052185059
0.0098796319216489792 0.39948731660842896 0.67931628227233887
0.043890349566936493 0.28593093156814575 0.90566897392272949
0.11133318394422531 0.14034499228000641 0.99607044458389282
0.0043441322632133961 0.10832644999027252 0.0039664474315941334
0.0020163890440016985 0.12540532648563385 0.0037488152738660574
0.041851446032524109 0.27085426449775696 0.12980236113071442
0.10019197314977646 0.46012979745864868 0.38378897309303284
0.15890759229660034 0.54890531301498413 0.68925017118453979
0.2155877947807312 0.46773448586463928 0.91894745826721191
0.25947415828704834 0.298807293176651 0.9971083402633667
0.01079921331256628 0.27537551522254944 0.0039215688593685627
0.069407381117343903 0.28467819094657898 0.046602465212345123
0.13996849954128265 0.30581706762313843 0.15266354382038116
0.23292833566665649 0.45961788296699524 0.35591301321983337
0.31160566210746765 0.64730775356292725 0.67279541492462158
0.37703561782836914 0.62951171398162842 0.91848063468933105
0.41441875696182251 0.4415106475353241 0.99863183498382568
0.045438937842845917 0.46211066842079163 0.0041691199876368046
0.16127340495586395 0.45836517214775085 0.09615471214056015
0.25015255808830261 0.44607079029083252 0.22689767181873322
0.35426750779151917 0.48935145139694214 0.36244890093803406
0.45840376615524292 0.68395698070526123 0.63657617568969727
0.53148990869522095 0.77239531278610229 0.91417253017425537
0.58605396747589111 0.61220854520797729 0.99703347682952881
0.17192602157592773 0.6746211051940918 0.015073978342115879
0.29949399828910828 0.67710971832275391 0.15444926917552948
0.41331148147583008 0.69439238309860229 0.31559741497039795
0.50142455101013184 0.6804998517036438 0.4545256495475769
0.60054570436477661 0.71607744693756104 0.61780154705047607
0.70672523975372314 0.88736498355865479 0.90850341320037842
0.77348965406417847 0.8041347861289978 0.99927949905395508
0.35396429896354675 0.91307145357131958 0.046043515205383301
0.48259663581848145 0.92179059982299805 0.21190139651298523
0.59338933229446411 0.93508082628250122 0.39024689793586731
0.68451488018035889 0.92517942190170288 0.54779148101806641
0.77349138259887695 0.92365443706512451 0.70669710636138916
0.88501888513565063 0.93775707483291626 0.89785224199295044
0.96245080232620239 0.96723836660385132 0.99796056747436523
0.59424424171447754 1 0.10443076491355896
0.69108313322067261 0.99505597352981567 0.24349081516265869
0.78649652004241943 0.99602526426315308 0.41798046231269836
0.87028491497039795 0.99859315156936646 0.57957059144973755
0.97140884399414062 0.99809437990188599 0.75690364837646484
0.99251794815063477 0.99911534786224365 0.95618641376495361
0.99812662601470947 0.99648547172546387 0.99602240324020386
