assets/lut/others black and white.cube
# Created by: G'MIC (https://gmic.eu)
TITLE "black_and_white"
# LUT size
LUT_3D_SIZE 5
# Data domain
DOMAIN_MIN 0.0 0.0 0.0
DOMAIN_MAX 1.0 1.0 1.0
# LUT data points
0.025726048275828362 0.025726048275828362 0.025726048275828362
0.078072056174278259 0.078072056174278259 0.078072056174278259
0.12962928414344788 0.12962928414344788 0.12962928414344788
0.18306490778923035 0.18306490778923035 0.18306490778923035
0.23295703530311584 0.23295703530311584 0.23295703530311584
0.19684402644634247 0.19684402644634247 0.19684402644634247
0.2506415843963623 0.2506415843963623 0.2506415843963623
0.30269631743431091 0.30269631743431091 0.30269631743431091
0.35319733619689941 0.35319733619689941 0.35319733619689941
0.39859265089035034 0.39859265089035034 0.39859265089035034
0.36254289746284485 0.36254289746284485 0.36254289746284485
0.41643095016479492 0.41643095016479492 0.41643095016479492
0.4677160382270813 0.4677160382270813 0.4677160382270813
0.51657164096832275 0.51657164096832275 0.51657164096832275
0.56192409992218018 0.56192409992218018 0.56192409992218018
0.52948015928268433 0.52948015928268433 0.52948015928268433
0.58145618438720703 0.58145618438720703 0.58145618438720703
0.63044250011444092 0.63044250011444092 0.63044250011444092
0.67838490009307861 0.67838490009307861 0.67838490009307861
0.72430425882339478 0.72430425882339478 0.72430425882339478
0.69404846429824829 0.69404846429824829 0.69404846429824829
0.74494814872741699 0.74494814872741699 0.74494814872741699
0.79228764772415161 0.79228764772415161 0.79228764772415161
0.84014678001403809 0.84014678001403809 0.84014678001403809
0.88549536466598511 0.88549536466598511 0.88549536466598511
0.049967985600233078 0.049967985600233078 0.049967985600233078
0.09871731698513031 0.09871731698513031 0.09871731698513031
0.14912280440330505 0.14912280440330505 0.14912280440330505
0.20152725279331207 0.20152725279331207 0.20152725279331207
0.25030115246772766 0.25030115246772766 0.25030115246772766
0.21993584930896759 0.21993584930896759 0.21993584930896759
0.27042859792709351 0.27042859792709351 0.27042859792709351
0.32114133238792419 0.32114133238792419 0.32114133238792419
0.37198501825332642 0.37198501825332642 0.37198501825332642
0.42008119821548462 0.42008119821548462 0.42008119821548462
0.38428637385368347 0.38428637385368347 0.38428637385368347
0.43566787242889404 0.43566787242889404 0.43566787242889404
0.48618400096893311 0.48618400096893311 0.48618400096893311
0.53586733341217041 0.53586733341217041 0.53586733341217041
0.5836295485496521 0.5836295485496521 0.5836295485496521
0.5500141978263855 0.5500141978263855 0.5500141978263855
0.59990942478179932 0.59990942478179932 0.59990942478179932
0.64838147163391113 0.64838147163391113 0.64838147163391113
0.69700336456298828 0.69700336456298828 0.69700336456298828
0.74528360366821289 0.74528360366821289 0.74528360366821289
0.71319186687469482 0.71319186687469482 0.71319186687469482
0.76275628805160522 0.76275628805160522 0.76275628805160522
0.81038743257522583 0.81038743257522583 0.81038743257522583
0.85935020446777344 0.85935020446777344 0.85935020446777344
0.9067692756652832 0.9067692756652832 0.9067692756652832
0.067553743720054626 0.067553743720054626 0.067553743720054626
0.11525696516036987 0.11525696516036987 0.11525696516036987
0.16444037854671478 0.16444037854671478 0.16444037854671478
0.21487554907798767 0.21487554907798767 0.21487554907798767
0.26335734128952026 0.26335734128952026 0.26335734128952026
0.24066838622093201 0.24066838622093201 0.24066838622093201
0.28932923078536987 0.28932923078536987 0.28932923078536987
0.33817386627197266 0.33817386627197266 0.33817386627197266
0.38859337568283081 0.38859337568283081 0.38859337568283081
0.43738418817520142 0.43738418817520142 0.43738418817520142
0.40625530481338501 0.40625530481338501 0.40625530481338501
0.45546379685401917 0.45546379685401917 0.45546379685401917
0.50454705953598022 0.50454705953598022 0.50454705953598022
0.55448383092880249 0.55448383092880249 0.55448383092880249
0.60291790962219238 0.60291790962219238 0.60291790962219238
0.56886464357376099 0.56886464357376099 0.56886464357376099
0.61767935752868652 0.61767935752868652 0.61767935752868652
0.66652798652648926 0.66652798652648926 0.66652798652648926
0.71585768461227417 0.71585768461227417 0.71585768461227417
0.76432710886001587 0.76432710886001587 0.76432710886001587
0.72900325059890747 0.72900325059890747 0.72900325059890747
0.77843785285949707 0.77843785285949707 0.77843785285949707
0.82779288291931152 0.82779288291931152 0.82779288291931152
0.87677663564682007 0.87677663564682007 0.87677663564682007
0.92445522546768188 0.92445522546768188 0.92445522546768188
0.082908868789672852 0.082908868789672852 0.082908868789672852
0.13330532610416412 0.13330532610416412 0.13330532610416412
0.17988300323486328 0.17988300323486328 0.17988300323486328
0.23041632771492004 0.23041632771492004 0.23041632771492004
0.27717369794845581 0.27717369794845581 0.27717369794845581
0.26018589735031128 0.26018589735031128 0.26018589735031128
0.30928453803062439 0.30928453803062439 0.30928453803062439
0.35657435655593872 0.35657435655593872 0.35657435655593872
0.4061853289604187 0.4061853289604187 0.4061853289604187
0.45326986908912659 0.45326986908912659 0.45326986908912659
0.4265005886554718 0.4265005886554718 0.4265005886554718
0.47594666481018066 0.47594666481018066 0.47594666481018066
0.52419757843017578 0.52419757843017578 0.52419757843017578
0.57322269678115845 0.57322269678115845 0.57322269678115845
0.62055730819702148 0.62055730819702148 0.62055730819702148
0.5875130295753479 0.5875130295753479 0.5875130295753479
0.63637208938598633 0.63637208938598633 0.63637208938598633
0.6851990818977356 0.6851990818977356 0.6851990818977356
0.73489069938659668 0.73489069938659668 0.73489069938659668
0.78242653608322144 0.78242653608322144 0.78242653608322144
0.74608486890792847 0.74608486890792847 0.74608486890792847
0.79388993978500366 0.79388993978500366 0.79388993978500366
0.84402084350585938 0.84402084350585938 0.84402084350585938
0.89398890733718872 0.89398890733718872 0.89398890733718872
0.94070661067962646 0.94070661067962646 0.94070661067962646
0.099051535129547119 0.099051535129547119 0.099051535129547119
0.14878943562507629 0.14878943562507629 0.14878943562507629
0.19412922859191895 0.19412922859191895 0.19412922859191895
0.24251894652843475 0.24251894652843475 0.24251894652843475
0.28533804416656494 0.28533804416656494 0.28533804416656494
0.27526050806045532 0.27526050806045532 0.27526050806045532
0.32645556330680847 0.32645556330680847 0.32645556330680847
0.3730824887752533 0.3730824887752533 0.3730824887752533
0.42051097750663757 0.42051097750663757 0.42051097750663757
0.46453163027763367 0.46453163027763367 0.46453163027763367
0.44205945730209351 0.44205945730209351 0.44205945730209351
0.493541419506073 0.493541419506073 0.493541419506073
0.54167252779006958 0.54167252779006958 0.54167252779006958
0.58938777446746826 0.58938777446746826 0.58938777446746826
0.63401156663894653 0.63401156663894653 0.63401156663894653
0.60296821594238281 0.60296821594238281 0.60296821594238281
0.65406137704849243 0.65406137704849243 0.65406137704849243
0.70304787158966064 0.70304787158966064 0.70304787158966064
0.75180459022521973 0.75180459022521973 0.75180459022521973
0.79764801263809204 0.79764801263809204 0.79764801263809204
0.76071316003799438 0.76071316003799438 0.76071316003799438
0.81146562099456787 0.81146562099456787 0.81146562099456787
0.86088383197784424 0.86088383197784424 0.86088383197784424
0.91073346138000488 0.91073346138000488 0.91073346138000488
0.95744031667709351 0.95744031667709351 0.95744031667709351
