assets/lut/others rotate muted.cube
# Created by: G'MIC (https://gmic.eu)
TITLE "rotate_muted"
# LUT size
LUT_3D_SIZE 13
# Data domain
DOMAIN_MIN 0.0 0.0 0.0
DOMAIN_MAX 1.0 1.0 1.0
# LUT data points
0.037656102329492569 0.032562419772148132 0.036441609263420105
0.039305444806814194 0.052956316620111465 0.075750432908535004
0.040154028683900833 0.059723872691392899 0.1341124027967453
0.040319062769412994 0.060538660734891891 0.20872765779495239
0.036910410970449448 0.054210558533668518 0.27681106328964233
0.047003202140331268 0.051111709326505661 0.33865362405776978
0.05929126963019371 0.072403818368911743 0.4047301709651947
0.089191332459449768 0.093915440142154694 0.47682267427444458
0.13736476004123688 0.13292866945266724 0.54124385118484497
0.2014068067073822 0.19879423081874847 0.60518902540206909
0.26141476631164551 0.26387512683868408 0.6672598123550415
0.31616660952568054 0.32680124044418335 0.7238316535949707
0.37040379643440247 0.39335408806800842 0.78158724308013916
0.08381546288728714 0.043507922440767288 0.044950596988201141
0.10367364436388016 0.087685935199260712 0.10918601602315903
0.11067210137844086 0.10063578188419342 0.16779638826847076
0.10477395355701447 0.080154716968536377 0.21612589061260223
0.092622451484203339 0.046186245977878571 0.27875891327857971
0.091124922037124634 0.036438420414924622 0.3383561372756958
0.10468605160713196 0.056623704731464386 0.39624109864234924
0.12864390015602112 0.075703486800193787 0.45999816060066223
0.18228024244308472 0.12973548471927643 0.52923297882080078
0.24201644957065582 0.20417967438697815 0.59700757265090942
0.29623496532440186 0.27300116419792175 0.65795254707336426
0.34398353099822998 0.32202330231666565 0.71388113498687744
0.40397024154663086 0.38642421364784241 0.78020316362380981
0.1250128298997879 0.041096288710832596 0.044386245310306549
0.14865425229072571 0.086041092872619629 0.10744587332010269
0.17937277257442474 0.14222018420696259 0.18535305559635162
0.18850357830524445 0.14637482166290283 0.23917144536972046
0.19320467114448547 0.13677500188350677 0.29674041271209717
0.17909091711044312 0.10994511097669601 0.35159838199615479
0.1530112624168396 0.072854287922382355 0.38552713394165039
0.17929542064666748 0.089024126529693604 0.45370683073997498
0.24531775712966919 0.15847772359848022 0.54206246137619019
0.26675900816917419 0.19102382659912109 0.57454341650009155
0.3086124062538147 0.24080966413021088 0.6284792423248291
0.35948598384857178 0.29105141758918762 0.69120925664901733
0.43073382973670959 0.36884650588035583 0.7704511284828186
0.16299708187580109 0.045778851956129074 0.047838367521762848
0.17314344644546509 0.072343014180660248 0.097752168774604797
0.22994579374790192 0.1725715845823288 0.20152862370014191
0.27001851797103882 0.23265400528907776 0.28243562579154968
0.29578328132629395 0.24459537863731384 0.33347201347351074
0.30586346983909607 0.2478940486907959 0.38590559363365173
0.28905436396598816 0.22440792620182037 0.42800277471542358
0.29942303895950317 0.21437637507915497 0.48630747199058533
0.31770136952400208 0.21210983395576477 0.53854078054428101
0.32038456201553345 0.21355336904525757 0.57079273462295532
0.34013468027114868 0.23905879259109497 0.62140834331512451
0.40923994779586792 0.31008869409561157 0.71115964651107788
0.46707555651664734 0.37111440300941467 0.77172046899795532
0.21327340602874756 0.065824590623378754 0.067334331572055817
0.20455321669578552 0.070562355220317841 0.099399998784065247
0.26048481464385986 0.17088252305984497 0.20001064240932465
0.317636638879776 0.26422008872032166 0.29717147350311279
0.35699141025543213 0.30264893174171448 0.35957467555999756
0.40542176365852356 0.36383849382400513 0.42177394032478333
0.42593216896057129 0.38461339473724365 0.47537919878959656
0.42114043235778809 0.35186946392059326 0.52198803424835205
0.41737136244773865 0.30820953845977783 0.56157618761062622
0.42192891240119934 0.30676072835922241 0.60761314630508423
0.42782106995582581 0.32705897092819214 0.65427911281585693
0.47568228840827942 0.37596690654754639 0.72442996501922607
0.51302969455718994 0.40174773335456848 0.76400536298751831
0.2641603946685791 0.098217666149139404 0.103921078145504
0.24876695871353149 0.087717108428478241 0.11423639208078384
0.28390556573867798 0.14891229569911957 0.18594974279403687
0.34456157684326172 0.2526908814907074 0.29036799073219299
0.40716642141342163 0.35137531161308289 0.39166402816772461
0.45752018690109253 0.41395831108093262 0.45586100220680237
0.49354672431945801 0.45513933897018433 0.50765734910964966
0.51490086317062378 0.47128313779830933 0.55734151601791382
0.51758724451065063 0.44857251644134521 0.60123056173324585
0.51856023073196411 0.4292510449886322 0.64632159471511841
0.52882665395736694 0.44228050112724304 0.69461518526077271
0.55703055858612061 0.4665776789188385 0.74247831106185913
0.58506530523300171 0.48274391889572144 0.78269535303115845
0.36258304119110107 0.18459367752075195 0.19152893126010895
0.32198899984359741 0.14687122404575348 0.17466703057289124
0.35302457213401794 0.1955961287021637 0.23462249338626862
0.38844731450080872 0.2739747166633606 0.31192168593406677
0.45329451560974121 0.38038438558578491 0.41832622885704041
0.50542581081390381 0.45076751708984375 0.49278396368026733
0.54136085510253906 0.49335452914237976 0.54220718145370483
0.57407301664352417 0.53159570693969727 0.58704513311386108
0.60197561979293823 0.55694913864135742 0.63634902238845825
0.61551123857498169 0.55419009923934937 0.68800300359725952
0.62953650951385498 0.55828869342803955 0.73507732152938843
0.64905619621276855 0.56735575199127197 0.7787289023399353
0.66752821207046509 0.5750880241394043 0.81855016946792603
0.42757454514503479 0.24857516586780548 0.25115674734115601
0.38659995794296265 0.20721980929374695 0.23338282108306885
0.35357189178466797 0.18643002212047577 0.22481480240821838
0.40589877963066101 0.26917281746864319 0.31066057085990906
0.48335021734237671 0.37869638204574585 0.42407509684562683
0.55035167932510376 0.47892746329307556 0.52320027351379395
0.58935296535491943 0.53145498037338257 0.58019012212753296
0.60386258363723755 0.55073434114456177 0.6069830060005188
0.63503396511077881 0.58467197418212891 0.65176969766616821
0.68815439939498901 0.63688468933105469 0.71949547529220581
0.71988683938980103 0.66016644239425659 0.77445429563522339
0.73510652780532837 0.66206091642379761 0.81828117370605469
0.75173383951187134 0.66716021299362183 0.85983657836914062
0.50801604986190796 0.32801491022109985 0.32499384880065918
0.48918360471725464 0.30777829885482788 0.32906526327133179
0.41332098841667175 0.23435747623443604 0.27481192350387573
0.43507540225982666 0.27863010764122009 0.32773864269256592
0.5037766695022583 0.37199077010154724 0.42991739511489868
0.57584124803543091 0.47753116488456726 0.53200948238372803
0.63228762149810791 0.56067299842834473 0.61103737354278564
0.64669203758239746 0.58298146724700928 0.6394035816192627
0.66793721914291382 0.60975569486618042 0.67196714878082275
0.71926438808441162 0.66180914640426636 0.732993483543396
0.77345913648605347 0.71397608518600464 0.80106747150421143
0.81032001972198486 0.74367719888687134 0.85832089185714722
0.83564972877502441 0.75885629653930664 0.9053381085395813
0.5764961838722229 0.39917823672294617 0.39463907480239868
0.56664443016052246 0.38654521107673645 0.40295150876045227
0.52757465839385986 0.34428015351295471 0.38334807753562927
0.49796950817108154 0.32931816577911377 0.37846589088439941
0.53452569246292114 0.3878815770149231 0.4455447793006897
0.59833258390426636 0.47723257541656494 0.53798490762710571
0.66433167457580566 0.57033360004425049 0.62887066602706909
0.69762825965881348 0.6195676326751709 0.67958754301071167
0.7188916802406311 0.64799392223358154 0.71166795492172241
0.7481502890586853 0.68051618337631226 0.75073003768920898
0.79917681217193604 0.73095798492431641 0.81298953294754028
0.85690087080001831 0.78771179914474487 0.88255929946899414
0.91133284568786621 0.83963495492935181 0.94966429471969604
0.63844966888427734 0.46618309617042542 0.46242812275886536
0.6367107629776001 0.46003928780555725 0.47308355569839478
0.59161251783370972 0.40859347581863403 0.44510066509246826
0.53838157653808594 0.35969051718711853 0.40773710608482361
0.55752623081207275 0.39716485142707825 0.45271676778793335
0.61908739805221558 0.47773817181587219 0.54171299934387207
0.68837654590606689 0.57167083024978638 0.63867205381393433
0.74532526731491089 0.64835304021835327 0.71684545278549194
0.77646452188491821 0.69038331508636475 0.75842541456222534
0.79884517192840576 0.71894282102584839 0.79031151533126831
0.82882976531982422 0.75079363584518433 0.82954645156860352
0.88112735748291016 0.80460387468338013 0.89289039373397827
0.94113278388977051 0.86635887622833252 0.96222221851348877
0.69274187088012695 0.52010840177536011 0.51537960767745972
0.69848370552062988 0.52081561088562012 0.53261846303939819
0.67333072423934937 0.48825907707214355 0.52113860845565796
0.58071953058242798 0.39868414402008057 0.44388100504875183
0.57706934213638306 0.40186393260955811 0.46035414934158325
0.63153886795043945 0.46876877546310425 0.53817051649093628
0.70157492160797119 0.56419169902801514 0.63414657115936279
0.77171206474304199 0.65495967864990234 0.72582155466079712
0.83529239892959595 0.73751538991928101 0.80704981088638306
0.86843115091323853 0.77999025583267212 0.85036617517471313
0.87641876935958862 0.79170727729797363 0.86761713027954102
0.90496456623077393 0.82271581888198853 0.90606158971786499
0.95083016157150269 0.87038028240203857 0.96217942237854004
0.73494356870651245 0.55586153268814087 0.55480343103408813
0.74595344066619873 0.56299769878387451 0.57652193307876587
0.73432016372680664 0.54861807823181152 0.57793748378753662
0.67312353849411011 0.48817616701126099 0.53198802471160889
0.59664952754974365 0.42080765962600708 0.4760536253452301
0.64440274238586426 0.47876256704330444 0.54560267925262451
0.71094834804534912 0.55762839317321777 0.62782484292984009
0.7838941216468811 0.64348840713500977 0.71646010875701904
0.87225168943405151 0.7580682635307312 0.83264857530593872
0.92505103349685669 0.83034628629684448 0.90188425779342651
0.93143481016159058 0.8448907732963562 0.91748732328414917
0.9488295316696167 0.86432230472564697 0.94384884834289551
0.96897447109222412 0.88367319107055664 0.97303217649459839
0.040492188185453415 0.057157911360263824 0.038745250552892685
0.032242193818092346 0.05849335715174675 0.064600579440593719
0.036506742238998413 0.067765749990940094 0.12330061942338943
0.029616052284836769 0.071044698357582092 0.19281284511089325
0.020853243768215179 0.070491984486579895 0.26694434881210327
0.032759107649326324 0.083512850105762482 0.33307886123657227
0.039078205823898315 0.098267830908298492 0.3992542028427124
0.07489757239818573 0.12682698667049408 0.46274125576019287
0.13930505514144897 0.17645283043384552 0.52567607164382935
0.20060507953166962 0.23822726309299469 0.601307213306427
0.25046741962432861 0.28687247633934021 0.64922952651977539
0.30344867706298828 0.34272196888923645 0.70269680023193359
0.35892137885093689 0.40435680747032166 0.76643472909927368
0.083389654755592346 0.076521418988704681 0.043367229402065277
0.10460130125284195 0.10858531296253204 0.10793467611074448
0.10183325409889221 0.099464312195777893 0.16107349097728729
0.075891532003879547 0.057272277772426605 0.20673573017120361
0.06502494215965271 0.063959203660488129 0.27447110414505005
0.083943277597427368 0.086297757923603058 0.34196794033050537
0.10200396925210953 0.10190454870462418 0.40131667256355286
0.14368167519569397 0.14080281555652618 0.47572511434555054
0.19719512760639191 0.19679740071296692 0.54494202136993408
0.25244355201721191 0.2539820671081543 0.61031514406204224
0.30742138624191284 0.30963057279586792 0.67081654071807861
0.36400690674781799 0.36653053760528564 0.73189139366149902
0.41888749599456787 0.42341524362564087 0.79334980249404907
0.13397705554962158 0.089568838477134705 0.046349171549081802
0.1580388993024826 0.12203539907932281 0.1128365769982338
0.15882067382335663 0.11862698942422867 0.17029306292533875
0.15485857427120209 0.10750075429677963 0.23172053694725037
0.16175824403762817 0.11521536111831665 0.2927493155002594
0.15250568091869354 0.10308840870857239 0.34722021222114563
0.14938567578792572 0.093755967915058136 0.39344453811645508
0.18955330550670624 0.13742932677268982 0.46717581152915955
0.24645920097827911 0.20268046855926514 0.54741817712783813
0.28428032994270325 0.2452729344367981 0.59752649068832397
0.3397468626499176 0.30455657839775085 0.66468149423599243
0.40178504586219788 0.3666471540927887 0.7359166145324707
0.4667963981628418 0.42873749136924744 0.80733537673950195
0.16386209428310394 0.073930405080318451 0.031315598636865616
0.18565519154071808 0.10196436196565628 0.095018364489078522
0.21646809577941895 0.14855621755123138 0.1781127005815506
0.24811491370201111 0.2117237001657486 0.27008667588233948
0.27153724431991577 0.23038941621780396 0.3250335156917572
0.26559272408485413 0.21087077260017395 0.37352180480957031
0.26028087735176086 0.19824905693531036 0.42590877413749695
0.2903684675693512 0.22495687007904053 0.49397414922714233
0.29614943265914917 0.21548417210578918 0.53365617990493774
0.32060039043426514 0.23981711268424988 0.5852283239364624
0.37465000152587891 0.30228778719902039 0.66247844696044922
0.41784754395484924 0.34719797968864441 0.71562409400939941
0.48045295476913452 0.40985697507858276 0.78564596176147461
0.23933771252632141 0.11748875677585602 0.076196931302547455
0.23277013003826141 0.11773809045553207 0.11332457512617111
0.25134104490280151 0.15223941206932068 0.17670413851737976
0.30814561247825623 0.25730946660041809 0.28404021263122559
0.34966287016868591 0.31303516030311584 0.35583990812301636
0.38418430089950562 0.35475942492485046 0.41377696394920349
0.39600643515586853 0.36078968644142151 0.46777129173278809
0.39537110924720764 0.34047257900238037 0.51965010166168213
0.38347861170768738 0.29929834604263306 0.5533369779586792
0.39492160081863403 0.30235859751701355 0.59893286228179932
0.42615842819213867 0.33823850750923157 0.65916675329208374
0.45608276128768921 0.36584490537643433 0.70449167490005493
0.4979148805141449 0.40531870722770691 0.76248252391815186
0.27600640058517456 0.13924594223499298 0.10614719986915588
0.28176677227020264 0.14760309457778931 0.14254523813724518
0.29003140330314636 0.16143949329853058 0.18916577100753784
0.35171234607696533 0.26775467395782471 0.30043208599090576
0.4095180332660675 0.36384424567222595 0.39828917384147644
0.44867074489593506 0.415191650390625 0.45035263895988464
0.47892275452613831 0.44699743390083313 0.49811944365501404
0.48911738395690918 0.4452880322933197 0.54655689001083374
0.48295491933822632 0.41639122366905212 0.58763718605041504
0.49645164608955383 0.41987887024879456 0.63934171199798584
0.52193325757980347 0.44338762760162354 0.69335198402404785
0.55568283796310425 0.47195571660995483 0.74811530113220215
0.56715047359466553 0.47534024715423584 0.77723878622055054
0.33024561405181885 0.18464285135269165 0.15942664444446564
0.37776416540145874 0.23266954720020294 0.23130980134010315
0.36450526118278503 0.22037546336650848 0.2482864111661911
0.38439306616783142 0.27347704768180847 0.30913865566253662
0.45566621422767639 0.38368403911590576 0.41974014043807983
0.49604657292366028 0.44312360882759094 0.48297363519668579
0.52990883588790894 0.48305702209472656 0.53074407577514648
0.55626928806304932 0.50907713174819946 0.57563656568527222
0.57550102472305298 0.52277535200119019 0.62267184257507324
0.6035885214805603 0.54382842779159546 0.68358749151229858
0.62610173225402832 0.56037932634353638 0.73487585783004761
0.64159846305847168 0.56530219316482544 0.77801346778869629
0.65217572450637817 0.5651860237121582 0.81029081344604492
0.39220133423805237 0.24151590466499329 0.21687716245651245
0.40885883569717407 0.25827008485794067 0.2575436532497406
0.41696897149085999 0.26487839221954346 0.28967529535293579
0.41916981339454651 0.28034627437591553 0.31887352466583252
0.49029910564422607 0.38188040256500244 0.42318013310432434
0.5341675877571106 0.45468378067016602 0.49899524450302124
0.57560211420059204 0.51317256689071655 0.56279492378234863
0.59623932838439941 0.53768187761306763 0.6018180251121521
0.63204950094223022 0.57746344804763794 0.65153926610946655
0.6965218186378479 0.64743280410766602 0.72402739524841309
0.71786487102508545 0.66078996658325195 0.77317041158676147
0.72457730770111084 0.65349185466766357 0.81184965372085571
0.73494899272918701 0.65138816833496094 0.84628117084503174
0.48335245251655579 0.32712897658348083 0.30283349752426147
0.46122285723686218 0.30493444204330444 0.30295941233634949
0.44276931881904602 0.28377020359039307 0.30633029341697693
0.44974151253700256 0.29813796281814575 0.33612444996833801
0.50602757930755615 0.37659290432929993 0.42389777302742004
0.55800127983093262 0.45489919185638428 0.50655531883239746
0.61604446172714233 0.53870320320129395 0.58887112140655518
0.64843261241912842 0.58228796720504761 0.64117765426635742
0.68417346477508545 0.62430989742279053 0.68880277872085571
0.73686701059341431 0.68183618783950806 0.74881166219711304
0.77800869941711426 0.72212374210357666 0.80379790067672729
0.80534321069717407 0.74079185724258423 0.85406708717346191
0.82322984933853149 0.74744272232055664 0.89414894580841064
0.55756491422653198 0.39917075634002686 0.37640446424484253
0.5525435209274292 0.39246881008148193 0.38984617590904236
0.53376847505569458 0.37084540724754333 0.39080131053924561
0.48868468403816223 0.32884055376052856 0.36610731482505798
0.5200236439704895 0.37737756967544556 0.42621901631355286
0.58634930849075317 0.46718668937683105 0.52133619785308838
0.64883303642272949 0.55513644218444824 0.60869318246841431
0.70367252826690674 0.63087785243988037 0.68658757209777832
0.73729449510574341 0.66950929164886475 0.73019039630889893
0.77034038305282593 0.70526939630508423 0.77183407545089722
0.810077965259552 0.74695605039596558 0.8207058310508728
0.85987871885299683 0.79587632417678833 0.88249820470809937
0.90526717901229858 0.83627736568450928 0.94195514917373657
0.62162601947784424 0.45961973071098328 0.44174134731292725
0.63915860652923584 0.47643899917602539 0.47535023093223572
0.62966525554656982 0.46443206071853638 0.4820607602596283
0.58908158540725708 0.42474821209907532 0.45665180683135986
0.56812995672225952 0.41412067413330078 0.46066302061080933
0.61084610223770142 0.47580817341804504 0.5310479998588562
0.67109513282775879 0.55913901329040527 0.61577653884887695
0.73568320274353027 0.64518094062805176 0.7024456262588501
0.78575825691223145 0.70696878433227539 0.76628237962722778
0.81379419565200806 0.73971563577651978 0.80330604314804077
0.83631938695907593 0.76546812057495117 0.83379930257797241
0.88102161884307861 0.81168514490127563 0.88844555616378784
0.93767732381820679 0.86725670099258423 0.95612514019012451
0.70257705450057983 0.53749555349349976 0.52161818742752075
0.71373510360717773 0.54876750707626343 0.54818391799926758
0.68748456239700317 0.52213513851165771 0.53756064176559448
0.66404825448989868 0.49732264876365662 0.52850377559661865
0.60042542219161987 0.43666315078735352 0.48357173800468445
0.62789565324783325 0.4801388680934906 0.53507977724075317
0.69039493799209595 0.56152725219726562 0.61964768171310425
0.75614738464355469 0.64376425743103027 0.70419591665267944
0.83300113677978516 0.74057972431182861 0.8006598949432373
0.87592971324920654 0.79432940483093262 0.85598433017730713
0.88253873586654663 0.80555820465087891 0.87020647525787354
0.91017323732376099 0.83561462163925171 0.90789437294006348
0.95190441608428955 0.87643927335739136 0.96018880605697632
0.76832878589630127 0.59755778312683105 0.58507233858108521
0.77115398645401001 0.59971106052398682 0.59950077533721924
0.74410206079483032 0.575764000415802 0.59012597799301147
0.73620223999023438 0.56700515747070312 0.59722477197647095
0.6445428729057312 0.47690117359161377 0.52345949411392212
0.64907956123352051 0.49251919984817505 0.54786354303359985
0.71014785766601562 0.56529217958450317 0.62513953447341919
0.77161341905593872 0.63912850618362427 0.70365458726882935
0.857288658618927 0.75042986869812012 0.81311070919036865
0.92448562383651733 0.83682572841644287 0.89871883392333984
0.93964099884033203 0.85731106996536255 0.92347663640975952
0.96250861883163452 0.88240915536880493 0.95582610368728638
0.97072941064834595 0.89093661308288574 0.97026032209396362
0.038527663797140121 0.08349483460187912 0.040672887116670609
0.043748952448368073 0.095272094011306763 0.075372032821178436
0.065795913338661194 0.12275706231594086 0.13856345415115356
0.03599872812628746 0.10498640686273575 0.15287630259990692
0.032993018627166748 0.10649310797452927 0.22317980229854584
0.056960940361022949 0.13095138967037201 0.30723050236701965
0.05622902512550354 0.13670751452445984 0.36576420068740845
0.072711020708084106 0.1580236554145813 0.42514652013778687
0.11227210611104965 0.1947442889213562 0.47748503088951111
0.19208414852619171 0.27340152859687805 0.58718240261077881
0.22266864776611328 0.30125638842582703 0.62380772829055786
0.28042125701904297 0.35386824607849121 0.68254011869430542
0.35591515898704529 0.42745402455329895 0.76500338315963745
0.091309398412704468 0.11396794021129608 0.048885747790336609
0.1047050803899765 0.13253507018089294 0.094689942896366119
0.10669349133968353 0.13847412168979645 0.15109910070896149
0.079043641686439514 0.10865957289934158 0.18393710255622864
0.067480124533176422 0.1146828904747963 0.26696053147315979
0.093506067991256714 0.14158529043197632 0.34285497665405273
0.11740468442440033 0.16453740000724792 0.40760806202888489
0.14541400969028473 0.19385020434856415 0.47451907396316528
0.18646426498889923 0.23319055140018463 0.52984023094177246
0.25203454494476318 0.29588067531585693 0.60975015163421631
0.30554667115211487 0.34692153334617615 0.67171365022659302
0.36823487281799316 0.4031413197517395 0.73738658428192139
0.4171174168586731 0.44950732588768005 0.79038166999816895
0.16906806826591492 0.15956661105155945 0.067677788436412811
0.16637891530990601 0.1600777804851532 0.10129008442163467
0.14924807846546173 0.14005178213119507 0.15056566894054413
0.14630961418151855 0.12831516563892365 0.21998697519302368
0.1484905481338501 0.14138072729110718 0.29462862014770508
0.15167377889156342 0.14758008718490601 0.34996569156646729
0.17483067512512207 0.16670404374599457 0.41308104991912842
0.2130415141582489 0.21467046439647675 0.49081701040267944
0.25178277492523193 0.25790673494338989 0.55220550298690796
0.30310520529747009 0.30984798073768616 0.62051445245742798
0.36339321732521057 0.3704274594783783 0.69545465707778931
0.41892492771148682 0.41958692669868469 0.75347739458084106
0.47506493330001831 0.46919658780097961 0.81385886669158936
0.20283205807209015 0.1540752500295639 0.064862765371799469
0.20960909128189087 0.16281607747077942 0.11207878589630127
0.21217568218708038 0.1682702898979187 0.17010043561458588
0.23023103177547455 0.20039258897304535 0.24755242466926575
0.24574925005435944 0.22496791183948517 0.31183373928070068
0.24168884754180908 0.20655021071434021 0.36190429329872131
0.25145566463470459 0.20456220209598541 0.42388045787811279
0.28469949960708618 0.24114258587360382 0.49675324559211731
0.29907980561256409 0.25503909587860107 0.54357230663299561
0.33757081627845764 0.29858285188674927 0.60554027557373047
0.39690333604812622 0.36315211653709412 0.68406683206558228
0.44318312406539917 0.40641024708747864 0.73814100027084351
0.49959647655487061 0.45862600207328796 0.80071425437927246
0.2469647079706192 0.1642727255821228 0.088979490101337433
0.25220760703086853 0.16936631500720978 0.13010399043560028
0.27160781621932983 0.1959395706653595 0.19408527016639709
0.29695022106170654 0.24930024147033691 0.2637806236743927
0.33147415518760681 0.30731165409088135 0.33674681186676025
0.36057215929031372 0.33784037828445435 0.39937233924865723
0.37441489100456238 0.34074550867080688 0.458690345287323
