assets/lut/others color rich.cube
# Created by: G'MIC (https://gmic.eu)
TITLE "color_rich"
# LUT size
LUT_3D_SIZE 5
# Data domain
DOMAIN_MIN 0.0 0.0 0.0
DOMAIN_MAX 1.0 1.0 1.0
# LUT data points
0.024070918560028076 0.029417179524898529 0.072009727358818054
0.23139218986034393 0.03170815110206604 0.069114595651626587
0.50638782978057861 0.026757963001728058 0.071329273283481598
0.82574939727783203 0.022362085059285164 0.06791955977678299
0.97372716665267944 0.018892265856266022 0.065821580588817596
0.01862202025949955 0.25844553112983704 0.066285304725170135
0.22269012033939362 0.25440359115600586 0.062974490225315094
0.48303899168968201 0.24933771789073944 0.064886800944805145
0.8085930347442627 0.24176003038883209 0.058699648827314377
0.9805978536605835 0.23649260401725769 0.066299021244049072
0.014365042559802532 0.51508963108062744 0.062244430184364319
0.202835813164711 0.51176828145980835 0.063208639621734619
0.45608532428741455 0.50359445810317993 0.055793687701225281
0.78292739391326904 0.49390745162963867 0.050060182809829712
0.97680330276489258 0.49021241068840027 0.059582788497209549
0.015634723007678986 0.7655632495880127 0.050901688635349274
0.19874565303325653 0.76243144273757935 0.059767972677946091
0.44009992480278015 0.75886374711990356 0.061409641057252884
0.75194376707077026 0.75382691621780396 0.059290926903486252
0.98200744390487671 0.74702674150466919 0.055959977209568024
0.020576640963554382 0.97394150495529175 0.056856162846088409
0.18785850703716278 0.96894377470016479 0.047374125570058823
0.41986843943595886 0.96920496225357056 0.057806260883808136
0.72224664688110352 0.96705448627471924 0.054723374545574188
0.98774313926696777 0.96612560749053955 0.054229989647865295
0.024859709665179253 0.027119729667901993 0.30109930038452148
0.23182524740695953 0.023657720535993576 0.2985176146030426
0.50644040107727051 0.023841049522161484 0.29147142171859741
0.80960708856582642 0.020877674221992493 0.2861960232257843
0.97915136814117432 0.023674789816141129 0.28370097279548645
0.023046111688017845 0.26016277074813843 0.28774750232696533
0.21749722957611084 0.25554710626602173 0.27963405847549438
0.48362341523170471 0.24452674388885498 0.26789334416389465
0.80675441026687622 0.24168895184993744 0.27314355969429016
0.98392915725708008 0.2373993992805481 0.26688215136528015
0.013192360289394855 0.5138428807258606 0.26750916242599487
0.20232290029525757 0.51122927665710449 0.2666904628276825
0.45765981078147888 0.50120311975479126 0.25537204742431641
0.78666406869888306 0.49229714274406433 0.25714379549026489
0.98682600259780884 0.48676317930221558 0.25383886694908142
0.016117844730615616 0.76495784521102905 0.25711920857429504
0.19236919283866882 0.76365029811859131 0.25251811742782593
0.43657922744750977 0.75910395383834839 0.25733247399330139
0.76067805290222168 0.75302523374557495 0.24574959278106689
0.98328506946563721 0.7468559741973877 0.25006380677223206
0.017534861341118813 0.98021668195724487 0.24945294857025146
0.17828510701656342 0.9676787257194519 0.23772166669368744
0.41854774951934814 0.97583699226379395 0.2314399927854538
0.74010723829269409 0.97276842594146729 0.22507351636886597
0.98981684446334839 0.9682610034942627 0.23085173964500427
0.023223802447319031 0.030430018901824951 0.52602380514144897
0.2375275194644928 0.022104972973465919 0.52262312173843384
0.49882137775421143 0.023770606145262718 0.51829427480697632
0.81679409742355347 0.021274028345942497 0.51657778024673462
0.98702692985534668 0.023712128400802612 0.51510882377624512
0.017913982272148132 0.25396203994750977 0.51363199949264526
0.22372819483280182 0.25021073222160339 0.50863134860992432
0.48178353905677795 0.24662074446678162 0.50491458177566528
0.80052155256271362 0.24137794971466064 0.50910931825637817
0.98319774866104126 0.23564191162586212 0.50136768817901611
0.016997437924146652 0.50703442096710205 0.49804791808128357
0.20845811069011688 0.49849721789360046 0.49794873595237732
0.45876872539520264 0.49517256021499634 0.49034634232521057
0.7778591513633728 0.49467447400093079 0.49071356654167175
0.98014873266220093 0.48507225513458252 0.48286476731300354
0.014860520139336586 0.76387542486190796 0.4886091947555542
0.19480881094932556 0.75688809156417847 0.49001491069793701
0.4415995180606842 0.75322204828262329 0.4798169732093811
0.7539985179901123 0.74888873100280762 0.47887808084487915
0.98456710577011108 0.74066996574401855 0.47500285506248474
0.016436588019132614 0.96641069650650024 0.47308003902435303
0.18134346604347229 0.96971809864044189 0.47038736939430237
0.40925338864326477 0.97473990917205811 0.46245831251144409
0.71352982521057129 0.97038030624389648 0.45768389105796814
0.98276644945144653 0.96551167964935303 0.456257164478302
0.026787597686052322 0.029838427901268005 0.7609749436378479
0.22931340336799622 0.029319807887077332 0.7622305154800415
0.49730917811393738 0.028624920174479485 0.75342971086502075
0.81736326217651367 0.023161765187978745 0.74637079238891602
0.98502182960510254 0.025307388976216316 0.74133598804473877
0.022128339856863022 0.25676298141479492 0.74398773908615112
0.2154710590839386 0.24702554941177368 0.74113005399703979
0.47949498891830444 0.24566192924976349 0.74470460414886475
0.81194251775741577 0.23751667141914368 0.73664361238479614
0.98519670963287354 0.23351655900478363 0.72893542051315308
0.023166103288531303 0.50637805461883545 0.73466998338699341
0.20363958179950714 0.49700909852981567 0.72652304172515869
0.45291072130203247 0.49727135896682739 0.73102962970733643
0.78729444742202759 0.49320527911186218 0.71839338541030884
0.98055911064147949 0.48548972606658936 0.70828229188919067
0.018791871145367622 0.76253962516784668 0.71738779544830322
0.18617039918899536 0.7602158784866333 0.71259981393814087
0.4358576238155365 0.75153040885925293 0.70967394113540649
0.74898916482925415 0.74824720621109009 0.70708900690078735
0.98898983001708984 0.73874062299728394 0.70352107286453247
0.01784992590546608 0.96899509429931641 0.7004052996635437
0.17835196852684021 0.96907693147659302 0.69510692358016968
0.41316133737564087 0.9706922173500061 0.69442951679229736
0.71550428867340088 0.97026538848876953 0.69032734632492065
0.98813700675964355 0.96437281370162964 0.68992286920547485
0.020082855597138405 0.029284758493304253 0.92968994379043579
0.22452545166015625 0.03013681061565876 0.93267649412155151
0.50106924772262573 0.021414110437035561 0.92998862266540527
0.82444202899932861 0.025345312431454659 0.9378780722618103
0.97889184951782227 0.023070152848958969 0.93810617923736572
0.022539205849170685 0.25551566481590271 0.92763376235961914
0.21525335311889648 0.24669955670833588 0.93067252635955811
0.47466036677360535 0.24188776314258575 0.92696672677993774
0.79814553260803223 0.23882183432579041 0.93047475814819336
0.98307263851165771 0.23178808391094208 0.93424493074417114
0.016629401594400406 0.50664657354354858 0.93765205144882202
0.20056687295436859 0.49925771355628967 0.92407351732254028
0.44757282733917236 0.49548178911209106 0.93247675895690918
0.77117371559143066 0.48945614695549011 0.93032842874526978
0.97769057750701904 0.48547184467315674 0.92727875709533691
0.016045603901147842 0.75947153568267822 0.92551767826080322
0.18993325531482697 0.75518923997879028 0.93078988790512085
0.42874845862388611 0.75318628549575806 0.94072514772415161
0.74658417701721191 0.74859648942947388 0.92474287748336792
0.98682546615600586 0.73817950487136841 0.92389780282974243
0.014890034683048725 0.97358900308609009 0.92349576950073242
0.17808611690998077 0.96651893854141235 0.91680991649627686
0.40697917342185974 0.96671098470687866 0.92169898748397827
0.71458226442337036 0.96682846546173096 0.91401785612106323
0.97077637910842896 0.963733971118927 0.91596502065658569
