assets/lut/others super warm.cube
# Created by: G'MIC (https://gmic.eu)
TITLE "super_warm"
# LUT size
LUT_3D_SIZE 7
# Data domain
DOMAIN_MIN 0.0 0.0 0.0
DOMAIN_MAX 1.0 1.0 1.0
# LUT data points
0.02537117712199688 0.019362745806574821 0.035329975187778473
0.13411474227905273 0.015492547303438187 0.031732626259326935
0.26515066623687744 0.016464682295918465 0.030349761247634888
0.44181913137435913 0.018865862861275673 0.02898751012980938
0.64072918891906738 0.018122969195246696 0.02845255471765995
0.82177561521530151 0.015441176481544971 0.026621231809258461
0.96768546104431152 0.016732474789023399 0.024683529511094093
0.025992285460233688 0.095543593168258667 0.032712001353502274
0.15125147998332977 0.093304216861724854 0.030138636007905006
0.30092233419418335 0.095702275633811951 0.027337377890944481
0.48653528094291687 0.09594370424747467 0.023970510810613632
0.6802527904510498 0.096545889973640442 0.023161765187978745
0.84591293334960938 0.091532565653324127 0.023085828870534897
0.97356539964675903 0.096316047012805939 0.020275773480534554
0.027621744200587273 0.16199743747711182 0.027572287246584892
0.16919079422950745 0.16593137383460999 0.02667694166302681
0.33811929821968079 0.16049790382385254 0.026360230520367622
0.53810340166091919 0.15994887053966522 0.023120475932955742
0.71805483102798462 0.17006024718284607 0.02454020269215107
0.86257904767990112 0.1575239896774292 0.025259727612137794
0.97553670406341553 0.15929263830184937 0.021654870361089706
0.030238162726163864 0.26260849833488464 0.027288878336548805
0.18566851317882538 0.27250409126281738 0.026359707117080688
0.36957406997680664 0.26548153162002563 0.024333834648132324
0.5887865424156189 0.25404909253120422 0.021826082840561867
0.75423198938369751 0.27550244331359863 0.024404892697930336
0.87827223539352417 0.26260554790496826 0.018782582134008408
0.97856098413467407 0.25971314311027527 0.018769986927509308
0.02852712944149971 0.47126805782318115 0.026030058041214943
0.20562170445919037 0.46925106644630432 0.025581778958439827
0.41134971380233765 0.47109609842300415 0.017710262909531593
0.62550622224807739 0.47021174430847168 0.019835378974676132
0.78681564331054688 0.47259023785591125 0.023155571892857552
0.89484822750091553 0.47206535935401917 0.015809467062354088
0.97671413421630859 0.49563699960708618 0.01151688490062952
0.04177214577794075 0.70635098218917847 0.024742066860198975
0.22911834716796875 0.70503461360931396 0.021695440635085106
0.4526403546333313 0.70705503225326538 0.017723891884088516
0.67299813032150269 0.70787429809570312 0.019135987386107445
0.81632339954376221 0.70751482248306274 0.02246386930346489
0.90124672651290894 0.71676445007324219 0.020912274718284607
0.97671568393707275 0.73923474550247192 0.013172433711588383
0.04145335778594017 0.93979471921920776 0.020706925541162491
0.24332661926746368 0.93604493141174316 0.019856531172990799
0.47291645407676697 0.938934326171875 0.014371235854923725
0.70694035291671753 0.93892914056777954 0.014901314862072468
0.83210170269012451 0.9369240403175354 0.01608358696103096
0.89985591173171997 0.94282478094100952 0.019858416169881821
0.97777009010314941 0.94521975517272949 0.015449913218617439
0.024489428848028183 0.018886866047978401 0.19940809905529022
0.14767684042453766 0.01671283133327961 0.18532447516918182
0.30023470520973206 0.016819598153233528 0.17631836235523224
0.48728689551353455 0.018678193911910057 0.1618129163980484
0.67867743968963623 0.018536226823925972 0.14863400161266327
0.84240686893463135 0.015810439363121986 0.13708366453647614
0.97192835807800293 0.015441176481544971 0.12450090050697327
0.027607353404164314 0.096530035138130188 0.18727290630340576
0.16628319025039673 0.096444465219974518 0.17288307845592499
0.33351501822471619 0.096568629145622253 0.15998479723930359
0.5319061279296875 0.096998892724514008 0.14468270540237427
0.7178611159324646 0.095868147909641266 0.13227224349975586
0.86371457576751709 0.091137588024139404 0.12475186586380005
0.97520822286605835 0.091864928603172302 0.11032768338918686
0.029926689341664314 0.16366720199584961 0.17146800458431244
0.18276894092559814 0.16434530913829803 0.15839631855487823
0.37039908766746521 0.16588938236236572 0.14698326587677002
0.58194112777709961 0.16648197174072266 0.13338690996170044
0.75555598735809326 0.16557516157627106 0.12268394231796265
0.88128852844238281 0.15525178611278534 0.11384705454111099
0.97554880380630493 0.1682666540145874 0.10129035264253616
0.033732276409864426 0.26085785031318665 0.15949591994285583
0.19801320135593414 0.25981473922729492 0.14454230666160583
0.40565410256385803 0.26834699511528015 0.13211372494697571
0.62717986106872559 0.2670535147190094 0.1188773512840271
0.78411900997161865 0.26541531085968018 0.11085066199302673
0.89653664827346802 0.26066657900810242 0.10144884884357452
0.97945618629455566 0.2967967689037323 0.096505559980869293
0.036633361130952835 0.46601995825767517 0.14734476804733276
0.2236592024564743 0.46280154585838318 0.13190528750419617
0.44990807771682739 0.46825063228607178 0.11304892599582672
0.67435503005981445 0.47076427936553955 0.098685517907142639
0.81673955917358398 0.47195911407470703 0.094217874109745026
0.90576040744781494 0.48816573619842529 0.0916428342461586
0.97719019651412964 0.5304597020149231 0.096505247056484222
0.042368736118078232 0.70843774080276489 0.13017195463180542
0.24949285387992859 0.70748519897460938 0.11715292930603027
0.4915614128112793 0.71057116985321045 0.10168756544589996
0.71353000402450562 0.71589845418930054 0.094150051474571228
0.8318975567817688 0.7222101092338562 0.091771714389324188
0.90217745304107666 0.73862689733505249 0.092170864343643188
0.97671568393707275 0.75948029756546021 0.096692226827144623
0.043222628533840179 0.94033980369567871 0.11942240595817566
0.26207491755485535 0.94028943777084351 0.10587038844823837
0.50986534357070923 0.94031864404678345 0.096493244171142578
0.73198914527893066 0.94092297554016113 0.092804074287414551
0.82699376344680786 0.94622617959976196 0.089301750063896179
0.89798974990844727 0.95170015096664429 0.089187145233154297
0.97842490673065186 0.95280146598815918 0.088510669767856598
0.027735317125916481 0.017021851614117622 0.34543457627296448
0.16687484085559845 0.016438622027635574 0.31519657373428345
0.33014422655105591 0.017125701531767845 0.2947748601436615
0.53096383810043335 0.017789833247661591 0.26753625273704529
0.71723932027816772 0.016048401594161987 0.23765097558498383
0.86143183708190918 0.015441176481544971 0.21008665859699249
0.97212296724319458 0.015783840790390968 0.19092214107513428
0.029946524649858475 0.096900016069412231 0.31644898653030396
0.18466871976852417 0.096568629145622253 0.2898106575012207
0.36795544624328613 0.09901873767375946 0.26703730225563049
0.57365518808364868 0.10048660635948181 0.24196678400039673
0.75175005197525024 0.09419453889131546 0.20907673239707947
0.87818688154220581 0.092649452388286591 0.18845072388648987
0.97437924146652222 0.096078269183635712 0.17648574709892273
0.031047865748405457 0.16940554976463318 0.29010471701622009
0.20117983222007751 0.16739873588085175 0.26357203722000122
0.40405094623565674 0.17097011208534241 0.24184064567089081
0.62455379962921143 0.16739335656166077 0.22178752720355988
0.78967195749282837 0.16188296675682068 0.19168157875537872
0.89225345849990845 0.17082391679286957 0.17335422337055206
0.97596073150634766 0.19732820987701416 0.1640637069940567
0.034054670482873917 0.26353251934051514 0.2752646803855896
0.21673820912837982 0.26553541421890259 0.24225296080112457
0.44099605083465576 0.27298757433891296 0.21603161096572876
0.67855453491210938 0.25683265924453735 0.19536621868610382
0.81696838140487671 0.26297199726104736 0.17416802048683167
0.89944899082183838 0.30317527055740356 0.16799645125865936
0.97671568393707275 0.35474804043769836 0.16474346816539764
0.03963286429643631 0.4707261323928833 0.24570795893669128
0.23964665830135345 0.46741244196891785 0.21418371796607971
0.47676083445549011 0.4731021523475647 0.1860404908657074
0.71863400936126709 0.47610944509506226 0.1739300936460495
0.83382111787796021 0.48650309443473816 0.15949317812919617
0.90071576833724976 0.52897614240646362 0.15484204888343811
0.97604143619537354 0.57629179954528809 0.16890080273151398
0.045895744115114212 0.71029412746429443 0.20973432064056396
0.26491716504096985 0.70681333541870117 0.19041736423969269
0.50922685861587524 0.71261411905288696 0.16910010576248169
0.73126405477523804 0.72467947006225586 0.17038170993328094
0.83025133609771729 0.73675167560577393 0.16119898855686188
0.89977467060089111 0.76027047634124756 0.15083104372024536
0.97969084978103638 0.78125423192977905 0.16831226646900177
0.047711241990327835 0.93863862752914429 0.18523241579532623
0.2747531533241272 0.93627244234085083 0.17420759797096252
0.51397836208343506 0.93883717060089111 0.16511684656143188
0.72553026676177979 0.94417893886566162 0.16607803106307983
0.82533234357833862 0.94935059547424316 0.15774092078208923
0.8959653377532959 0.95369470119476318 0.14850948750972748
0.97878098487854004 0.95686632394790649 0.15193502604961395
0.027895236387848854 0.015441176481544971 0.46736136078834534
0.18557554483413696 0.017026115208864212 0.43145522475242615
0.36472123861312866 0.017452225089073181 0.40508171916007996
0.57166355848312378 0.017662063241004944 0.37208491563796997
0.75168025493621826 0.015441176481544971 0.33189034461975098
0.88275277614593506 0.015443330630660057 0.29281944036483765
0.97796893119812012 0.018114799633622169 0.27239200472831726
0.030631331726908684 0.093048065900802612 0.43393650650978088
0.20028932392597198 0.09200083464384079 0.40043044090270996
0.40413391590118408 0.097582198679447174 0.37017104029655457
0.61919736862182617 0.09972304105758667 0.33455204963684082
0.78675466775894165 0.090139575302600861 0.29301127791404724
0.89505118131637573 0.095701135694980621 0.25985220074653625
0.97854292392730713 0.11121834814548492 0.25322923064231873
0.033411961048841476 0.16844965517520905 0.39633679389953613
0.21786798536777496 0.16131789982318878 0.36262792348861694
0.43641921877861023 0.16867241263389587 0.32858934998512268
0.6765444278717041 0.17029280960559845 0.30044633150100708
0.81586891412734985 0.16914243996143341 0.26900354027748108
0.8976934552192688 0.19503434002399445 0.25092816352844238
0.97379028797149658 0.2354462593793869 0.24508301913738251
0.035403802990913391 0.26740950345993042 0.36520668864250183
0.23428890109062195 0.26360228657722473 0.33107233047485352
0.47336006164550781 0.25808912515640259 0.29827362298965454
0.7264288067817688 0.26546719670295715 0.27303999662399292
0.8283570408821106 0.3001057505607605 0.25882565975189209
0.89912921190261841 0.34692490100860596 0.26321092247962952
0.97671568393707275 0.39420726895332336 0.27083709836006165
0.041496485471725464 0.47262606024742126 0.32684728503227234
0.25429147481918335 0.4711354672908783 0.29581260681152344
0.4988025426864624 0.47250083088874817 0.27230080962181091
0.73849630355834961 0.49519935250282288 0.26681384444236755
0.82873952388763428 0.52992063760757446 0.25989556312561035
0.89604175090789795 0.57200831174850464 0.26070857048034668
0.97750759124755859 0.60610473155975342 0.27991166710853577
0.045877732336521149 0.70637255907058716 0.29724755883216858
0.27278202772140503 0.70770204067230225 0.28032708168029785
0.51239597797393799 0.7160714864730835 0.25497657060623169
0.72996759414672852 0.73983097076416016 0.27200543880462646
0.82357954978942871 0.75999468564987183 0.27045115828514099
0.90139186382293701 0.78381407260894775 0.25576034188270569
0.98006957769393921 0.80033403635025024 0.25513988733291626
0.045676916837692261 0.93642628192901611 0.26267126202583313
0.27529585361480713 0.93776679039001465 0.26590791344642639
0.5143895149230957 0.94197988510131836 0.26217570900917053
0.73554283380508423 0.94948118925094604 0.26268130540847778
0.83028864860534668 0.95321357250213623 0.26752617955207825
0.89950978755950928 0.95697307586669922 0.26108267903327942
0.97674602270126343 0.9608684778213501 0.2581784725189209
0.02969728410243988 0.017043827101588249 0.60269039869308472
0.20130974054336548 0.017765732482075691 0.57756328582763672
0.40161189436912537 0.015569050796329975 0.55211895704269409
0.61873650550842285 0.018757345154881477 0.52480697631835938
0.78150272369384766 0.019357001408934593 0.50122356414794922
0.8960149884223938 0.017529925331473351 0.47744157910346985
0.9815673828125 0.019019871950149536 0.47044619917869568
0.035097591578960419 0.094096988439559937 0.57627189159393311
0.21923957765102386 0.087516367435455322 0.55053019523620605
0.44285231828689575 0.090914919972419739 0.52489131689071655
0.66882598400115967 0.096664309501647949 0.49833947420120239
0.81580418348312378 0.095291242003440857 0.48130390048027039
0.90441709756851196 0.10881051421165466 0.46746376156806946
0.97935783863067627 0.12825571000576019 0.4624384343624115
0.038776010274887085 0.15642374753952026 0.55008786916732788
0.24093306064605713 0.14205057919025421 0.51969939470291138
0.47706213593482971 0.14953373372554779 0.49204331636428833
0.72631293535232544 0.17399142682552338 0.47721391916275024
0.83605837821960449 0.19604091346263885 0.46664118766784668
0.90154540538787842 0.23196649551391602 0.46813133358955383
0.97458952665328979 0.26766154170036316 0.46728384494781494
0.041568111628293991 0.26439136266708374 0.52676039934158325
0.26361915469169617 0.25378131866455078 0.4965343177318573
0.50757497549057007 0.24597913026809692 0.47639891505241394
0.74573737382888794 0.29950383305549622 0.47395050525665283
0.83695173263549805 0.35109522938728333 0.46975642442703247
0.90458214282989502 0.3972933292388916 0.46991536021232605
0.97994494438171387 0.44247925281524658 0.47392314672470093
0.046046402305364609 0.47610363364219666 0.5001104474067688
0.2758212685585022 0.48091262578964233 0.47839552164077759
0.52259761095046997 0.49191188812255859 0.46746048331260681
0.74005699157714844 0.53956645727157593 0.46944728493690491
0.82459747791290283 0.57243281602859497 0.46839267015457153
0.89633125066757202 0.60891145467758179 0.4714168906211853
0.97954833507537842 0.64489215612411499 0.47395175695419312
0.04722963273525238 0.71097195148468018 0.48171547055244446
0.27570062875747681 0.72263026237487793 0.4688359797000885
0.52075457572937012 0.73583525419235229 0.46170583367347717
0.73772484064102173 0.76121008396148682 0.47596448659896851
0.82894748449325562 0.78339040279388428 0.47158092260360718
0.89940774440765381 0.80599051713943481 0.46875
0.98152422904968262 0.82176452875137329 0.46887409687042236
0.047906555235385895 0.94003587961196899 0.47100380063056946
0.27859413623809814 0.94717395305633545 0.46974626183509827
0.5203743577003479 0.94704478979110718 0.4655056893825531
0.73608040809631348 0.95026201009750366 0.47349703311920166
0.827018141746521 0.9596136212348938 0.4709775447845459
0.89746099710464478 0.96314603090286255 0.47110745310783386
0.97672504186630249 0.96968710422515869 0.47882300615310669
0.032692734152078629 0.016742976382374763 0.76220482587814331
0.21628363430500031 0.01639772392809391 0.74855971336364746
0.43545809388160706 0.015441176481544971 0.73302334547042847
0.67932164669036865 0.016294995322823524 0.71971219778060913
0.80859804153442383 0.018609737977385521 0.71182763576507568
0.89754170179367065 0.016158998012542725 0.70870810747146606
0.97700256109237671 0.01926841028034687 0.70686805248260498
0.037833090871572495 0.095132417976856232 0.74883002042770386
0.2365906685590744 0.088407285511493683 0.73551231622695923
0.47772780060768127 0.087557338178157806 0.72095769643783569
0.71692168712615967 0.094952449202537537 0.71032679080963135
0.8271515965461731 0.10791558772325516 0.70525211095809937
0.89951050281524658 0.12708453834056854 0.7063097357749939
0.98055708408355713 0.14350666105747223 0.70634561777114868
0.043965913355350494 0.15166419744491577 0.73614096641540527
0.26056230068206787 0.14307570457458496 0.72396910190582275
0.49853456020355225 0.15811403095722198 0.71010506153106689
0.73236006498336792 0.19428505003452301 0.70441257953643799
0.84133046865463257 0.22823144495487213 0.70518749952316284
0.90433913469314575 0.26780840754508972 0.70987337827682495
0.97919034957885742 0.3035556972026825 0.7102895975112915
0.046235673129558563 0.25597769021987915 0.72195202112197876
0.27773123979568481 0.25966373085975647 0.71648824214935303
0.51071774959564209 0.28863677382469177 0.70890897512435913
0.74415868520736694 0.34314125776290894 0.70876443386077881
0.84611779451370239 0.39714464545249939 0.70723217725753784
0.90777289867401123 0.4493270218372345 0.71029412746429443
0.98042064905166626 0.49372667074203491 0.71028262376785278
0.044406607747077942 0.47904390096664429 0.70672380924224854
0.27357706427574158 0.50543534755706787 0.71041959524154663
0.50907605886459351 0.53889423608779907 0.7086716890335083
0.72727566957473755 0.57430946826934814 0.70199823379516602
0.8249933123588562 0.60927599668502808 0.70188981294631958
0.89957553148269653 0.64755785465240479 0.71029412746429443
0.98063725233078003 0.6817595362663269 0.70976811647415161
0.04722239077091217 0.72102463245391846 0.70717555284500122
0.26986408233642578 0.74296241998672485 0.7115064263343811
0.50562942028045654 0.75961172580718994 0.70970779657363892
0.73286491632461548 0.78067517280578613 0.70664530992507935
0.82831710577011108 0.80287569761276245 0.70387792587280273
0.89559119939804077 0.82479768991470337 0.7080199122428894
0.97944092750549316 0.83946937322616577 0.70639950037002563
0.043324742466211319 0.94533401727676392 0.70370924472808838
0.26701098680496216 0.95120996236801147 0.70700442790985107
0.50340986251831055 0.9536433219909668 0.70632380247116089
0.72491109371185303 0.95571678876876831 0.711822509765625
0.82454055547714233 0.96218264102935791 0.7030913233757019
0.89732325077056885 0.96343481540679932 0.70281553268432617
0.97673904895782471 0.96763902902603149 0.70309656858444214
0.037920348346233368 0.019362745806574821 0.94622272253036499
0.23594711720943451 0.019362745806574821 0.94123250246047974
0.47563344240188599 0.01927083358168602 0.93709409236907959
0.71753400564193726 0.018264949321746826 0.93646919727325439
0.82318031787872314 0.016556862741708755 0.93519943952560425
0.90102559328079224 0.020654849708080292 0.93756371736526489
0.98063725233078003 0.024043334648013115 0.93313014507293701
0.038468677550554276 0.095836862921714783 0.94396597146987915
0.25679966807365417 0.095943436026573181 0.94111144542694092
0.49916639924049377 0.096662543714046478 0.93588662147521973
0.73692649602890015 0.1060359999537468 0.93773758411407471
0.82982373237609863 0.12539881467819214 0.93577420711517334
0.90481334924697876 0.1435675323009491 0.9393080472946167
0.97653079032897949 0.167332723736763 0.9390798807144165
0.044429298490285873 0.16461719572544098 0.9419136643409729
0.27393758296966553 0.1677929013967514 0.93978643417358398
0.50555264949798584 0.19319020211696625 0.9391254186630249
0.72670239210128784 0.23196309804916382 0.93729716539382935
0.826823890209198 0.26652181148529053 0.93466812372207642
0.9030383825302124 0.29880198836326599 0.93534940481185913
0.98063725233078003 0.33716759085655212 0.93449699878692627
0.04836026206612587 0.25742357969284058 0.93753063678741455
0.28166690468788147 0.29720926284790039 0.9378199577331543
0.50730746984481812 0.34556087851524353 0.93869465589523315
0.73655855655670166 0.39582955837249756 0.93841403722763062
0.83339428901672363 0.44175615906715393 0.93565171957015991
0.90411317348480225 0.49518248438835144 0.93739837408065796
0.97511285543441772 0.54153072834014893 0.93327087163925171
0.04611823707818985 0.50194370746612549 0.93729013204574585
0.27411025762557983 0.53810542821884155 0.93686968088150024
0.51091665029525757 0.57400417327880859 0.93603432178497314
0.73054009675979614 0.6117020845413208 0.93801641464233398
0.82520955801010132 0.64967268705368042 0.93532449007034302
0.9032367467880249 0.68150919675827026 0.93863815069198608
0.98059678077697754 0.71519577503204346 0.93753951787948608
0.048065830022096634 0.73867309093475342 0.94351249933242798
0.27516031265258789 0.75997841358184814 0.94641554355621338
0.51011830568313599 0.78037470579147339 0.93788933753967285
0.74313199520111084 0.79932868480682373 0.93438839912414551
0.82945883274078369 0.81901758909225464 0.93186992406845093
0.90047931671142578 0.84107726812362671 0.93869835138320923
0.97571218013763428 0.85815984010696411 0.93578875064849854
0.046309348195791245 0.95086550712585449 0.93229752779006958
0.27546769380569458 0.9538300633430481 0.94041424989700317
0.50333845615386963 0.96131372451782227 0.94039630889892578
0.72564148902893066 0.96869146823883057 0.93818503618240356
0.82584971189498901 0.9705321192741394 0.93406862020492554
0.9024733304977417 0.97072011232376099 0.93275672197341919
0.97671568393707275 0.96933424472808838 0.93364351987838745
