assets/lut/others vintage.cube
# Created by: G'MIC (https://gmic.eu)
TITLE "vintage"
# LUT size
LUT_3D_SIZE 5
# Data domain
DOMAIN_MIN 0.0 0.0 0.0
DOMAIN_MAX 1.0 1.0 1.0
# LUT data points
0.044447671622037888 0.029253283515572548 0.32211405038833618
0.15585476160049438 0.040010176599025726 0.3357749879360199
0.52978819608688354 0.038363810628652573 0.34357637166976929
0.90261787176132202 0.038422230631113052 0.33948114514350891
0.94822388887405396 0.045611333101987839 0.34548777341842651
0.032355617731809616 0.17152301967144012 0.3220708966255188
0.15731783211231232 0.19994278252124786 0.33227923512458801
0.54512482881546021 0.19657523930072784 0.33684375882148743
0.89677345752716064 0.1903289407491684 0.33123475313186646
0.94748532772064209 0.18954278528690338 0.3485320508480072
0.051536917686462402 0.50976765155792236 0.32077500224113464
0.16854596138000488 0.52641743421554565 0.33694285154342651
0.52787631750106812 0.51252669095993042 0.33207458257675171
0.90615105628967285 0.50483477115631104 0.33128213882446289
0.94008392095565796 0.52573823928833008 0.3477357029914856
0.054697658866643906 0.85322296619415283 0.32002037763595581
0.15679669380187988 0.86188817024230957 0.33399114012718201
0.51697218418121338 0.85375416278839111 0.32989555597305298
0.90144520998001099 0.8595958948135376 0.3308962881565094
0.94735509157180786 0.87253910303115845 0.34394919872283936
0.073075331747531891 0.93560832738876343 0.35081207752227783
0.17508743703365326 0.95277714729309082 0.36068806052207947
0.55517220497131348 0.95011430978775024 0.36311599612236023
0.93049728870391846 0.94749158620834351 0.36244511604309082
0.95378124713897705 0.95342379808425903 0.37861299514770508
0.036735892295837402 0.056319847702980042 0.38861426711082458
0.12337241321802139 0.070448555052280426 0.39616614580154419
0.50417816638946533 0.059107881039381027 0.40461254119873047
0.87219369411468506 0.084006577730178833 0.38611361384391785
0.9382057785987854 0.061856422573328018 0.42702826857566833
0.043789613991975784 0.17034697532653809 0.41006767749786377
0.16009925305843353 0.19697301089763641 0.42549905180931091
0.5260193943977356 0.19457504153251648 0.42914965748786926
0.88856679201126099 0.18328090012073517 0.42483806610107422
0.94704771041870117 0.19553810358047485 0.43836656212806702
0.043290995061397552 0.49576681852340698 0.41233032941818237
0.17497479915618896 0.50786536931991577 0.42798981070518494
0.52091145515441895 0.50989001989364624 0.42748692631721497
0.8976900577545166 0.51087212562561035 0.42349937558174133
0.94852441549301147 0.53212219476699829 0.43828615546226501
0.043716460466384888 0.85418868064880371 0.40879043936729431
0.16276790201663971 0.85437864065170288 0.42350193858146667
0.534210205078125 0.85811692476272583 0.42450723052024841
0.89238929748535156 0.85767942667007446 0.42415690422058105
0.94716042280197144 0.87765014171600342 0.43888008594512939
0.059417650103569031 0.93915313482284546 0.44903954863548279
0.17953595519065857 0.94187092781066895 0.45948067307472229
0.55039745569229126 0.94754254817962646 0.45612338185310364
0.92879253625869751 0.95020973682403564 0.45737418532371521
0.95174342393875122 0.95625215768814087 0.47262704372406006
0.027466747909784317 0.06113230437040329 0.50079315900802612
0.13634184002876282 0.067117385566234589 0.51878637075424194
0.49324518442153931 0.072707980871200562 0.51078253984451294
0.87571388483047485 0.074745148420333862 0.51020145416259766
0.93814826011657715 0.066814884543418884 0.5392724871635437
0.043065506964921951 0.17373175919055939 0.52585774660110474
0.16774322092533112 0.19633714854717255 0.53659379482269287
0.52568286657333374 0.19322595000267029 0.53850090503692627
0.89497101306915283 0.19178622961044312 0.5402563214302063
0.94853192567825317 0.19889158010482788 0.55674880743026733
0.034568503499031067 0.49736550450325012 0.53028994798660278
0.17854252457618713 0.51222765445709229 0.54062485694885254
0.53939944505691528 0.51694720983505249 0.54412937164306641
0.89218711853027344 0.51533466577529907 0.54449784755706787
0.94791090488433838 0.52900922298431396 0.55803030729293823
0.036090672016143799 0.85394620895385742 0.52755522727966309
0.16900408267974854 0.85748696327209473 0.54059433937072754
0.53437280654907227 0.85873579978942871 0.54244744777679443
0.90296441316604614 0.86123061180114746 0.54583215713500977
0.95155882835388184 0.87242168188095093 0.55455011129379272
0.078402020037174225 0.93459761142730713 0.5607340931892395
0.18035951256752014 0.94722378253936768 0.57415992021560669
0.56011426448822021 0.94867974519729614 0.57289326190948486
0.92833530902862549 0.95078939199447632 0.5700262188911438
0.94339609146118164 0.95917046070098877 0.59347951412200928
0.041623808443546295 0.045725610107183456 0.62799334526062012
0.1358325183391571 0.05837046355009079 0.63794642686843872
0.50867772102355957 0.074338607490062714 0.6279180645942688
0.87100064754486084 0.083149991929531097 0.62272053956985474
0.93203055858612061 0.069365017116069794 0.65618371963500977
0.046402517706155777 0.16998124122619629 0.64635306596755981
0.1673135906457901 0.19703765213489532 0.65221893787384033
0.53579378128051758 0.186688631772995 0.65799754858016968
0.89282828569412231 0.19331103563308716 0.65443974733352661
0.94731330871582031 0.19969378411769867 0.67454004287719727
0.048013094812631607 0.49889174103736877 0.64731323719024658
0.17076635360717773 0.51478558778762817 0.65721035003662109
0.53471106290817261 0.50499206781387329 0.66747230291366577
0.89573121070861816 0.52122724056243896 0.6606714129447937
0.9443662166595459 0.52501404285430908 0.67770040035247803
0.044725783169269562 0.85399234294891357 0.64902347326278687
0.1509709358215332 0.85903245210647583 0.65705764293670654
0.52691656351089478 0.85988813638687134 0.65768468379974365
0.89118766784667969 0.85982054471969604 0.65982180833816528
0.94660019874572754 0.87565481662750244 0.67453086376190186
0.066832415759563446 0.93796586990356445 0.6839718222618103
0.1750427782535553 0.94656705856323242 0.69044768810272217
0.56435269117355347 0.94870370626449585 0.69126850366592407
0.92933160066604614 0.94648712873458862 0.69221317768096924
0.9622880220413208 0.95028430223464966 0.70707869529724121
0.051686648279428482 0.058849964290857315 0.70041638612747192
0.12551423907279968 0.08051706850528717 0.70982962846755981
0.50612163543701172 0.069210991263389587 0.71777141094207764
0.87826436758041382 0.078015826642513275 0.71574217081069946
0.93112927675247192 0.07063477486371994 0.74041128158569336
0.052879109978675842 0.1673625260591507 0.73294806480407715
0.1602485179901123 0.18697352707386017 0.74335068464279175
0.52248561382293701 0.1945517361164093 0.73954492807388306
0.90014320611953735 0.18524858355522156 0.74480980634689331
0.95644152164459229 0.19360066950321198 0.75550967454910278
0.04386475682258606 0.50110524892807007 0.73336696624755859
0.15324290096759796 0.5146937370300293 0.74294561147689819
0.51909953355789185 0.5149109959602356 0.74201023578643799
0.89790636301040649 0.50829732418060303 0.74821162223815918
0.95283609628677368 0.53097295761108398 0.76034843921661377
0.040945988148450851 0.85792797803878784 0.73145782947540283
0.16344290971755981 0.85607874393463135 0.74088484048843384
0.52197641134262085 0.85854911804199219 0.74313074350357056
0.90819293260574341 0.85131663084030151 0.74604040384292603
0.94804888963699341 0.87047463655471802 0.7548363208770752
0.054227776825428009 0.97311884164810181 0.73710572719573975
0.16279520094394684 0.98018604516983032 0.74299675226211548
0.52845209836959839 0.97878760099411011 0.74508154392242432
0.91540694236755371 0.97320663928985596 0.74065226316452026
0.95491927862167358 0.9907345175743103 0.75750571489334106
