assets/lut/others mono tinted.cube
# Created by: G'MIC (https://gmic.eu)
TITLE "mono_tinted"
# LUT size
LUT_3D_SIZE 5
# Data domain
DOMAIN_MIN 0.0 0.0 0.0
DOMAIN_MAX 1.0 1.0 1.0
# LUT data points
0.098639033734798431 0.027077065780758858 0.031916555017232895
0.17010615766048431 0.10628528892993927 0.10498251765966415
0.25089696049690247 0.17883345484733582 0.17573004961013794
0.34394243359565735 0.2391122430562973 0.22816233336925507
0.43302255868911743 0.30749991536140442 0.28839069604873657
0.23610042035579681 0.18311990797519684 0.17048192024230957
0.31073758006095886 0.25200524926185608 0.2230398952960968
0.40487417578697205 0.32522180676460266 0.28107860684394836
0.5182182788848877 0.40240088105201721 0.34644415974617004
0.61850941181182861 0.4764426052570343 0.4080217182636261
0.3534122109413147 0.35310176014900208 0.2839239239692688
0.44914275407791138 0.42931267619132996 0.343790203332901
0.56874841451644897 0.51713371276855469 0.40581899881362915
0.69958591461181641 0.60561907291412354 0.46437257528305054
0.80699068307876587 0.69163161516189575 0.52193325757980347
0.48593536019325256 0.55202531814575195 0.39978787302970886
0.60271519422531128 0.64823728799819946 0.46266341209411621
0.74217009544372559 0.75003451108932495 0.5343468189239502
0.8843340277671814 0.84441936016082764 0.60048019886016846
0.96785974502563477 0.92242592573165894 0.65903812646865845
0.60826981067657471 0.74668806791305542 0.52191460132598877
0.75293546915054321 0.84433937072753906 0.58687561750411987
0.898948073387146 0.92583310604095459 0.65035194158554077
0.99308979511260986 0.98774725198745728 0.71956539154052734
1 1 0.79122793674468994
0.12903660535812378 0.057301301509141922 0.05867297574877739
0.20415070652961731 0.13847428560256958 0.14328397810459137
0.28039351105690002 0.2011064738035202 0.21257470548152924
0.37595435976982117 0.26670399308204651 0.27259328961372375
0.47194373607635498 0.33495762944221497 0.34106925129890442
0.25854593515396118 0.21013817191123962 0.20538729429244995
0.33777502179145813 0.28297638893127441 0.27272877097129822
0.43637946248054504 0.35544323921203613 0.33719959855079651
0.55643600225448608 0.43533459305763245 0.40807819366455078
0.66220861673355103 0.51215082406997681 0.48240786790847778
0.38052469491958618 0.38459873199462891 0.33461841940879822
0.47976112365722656 0.46523049473762512 0.40244805812835693
0.60606414079666138 0.55635929107666016 0.47316667437553406
0.74166756868362427 0.64547008275985718 0.54523521661758423
0.84965747594833374 0.73393404483795166 0.62037080526351929
0.51097393035888672 0.59090888500213623 0.47591468691825867
0.63803672790527344 0.69413131475448608 0.54563575983047485
0.787841796875 0.79790663719177246 0.62787759304046631
0.9228784441947937 0.88788807392120361 0.70334053039550781
0.98485994338989258 0.9536057710647583 0.77066636085510254
0.64409631490707397 0.7871406078338623 0.60795360803604126
0.79096692800521851 0.88347399234771729 0.68549680709838867
0.9321213960647583 0.95761311054229736 0.76278305053710938
0.99935972690582275 0.99691230058670044 0.8375200629234314
1 0.99903583526611328 0.89275038242340088
0.16197109222412109 0.095595642924308777 0.094249963760375977
0.23264773190021515 0.16714471578598022 0.17382040619850159
0.31165096163749695 0.22519081830978394 0.25034990906715393
0.4113481342792511 0.28936600685119629 0.32310464978218079
0.50582897663116455 0.3557220995426178 0.40180429816246033
0.27943268418312073 0.24188351631164551 0.24907228350639343
0.36977285146713257 0.31526634097099304 0.32842990756034851
0.46729603409767151 0.38574525713920593 0.40062054991722107
0.583598792552948 0.45983836054801941 0.47082361578941345
0.69822055101394653 0.54024100303649902 0.55938971042633057
0.40796586871147156 0.41845160722732544 0.39833459258079529
0.51025325059890747 0.4978083074092865 0.47485288977622986
0.63553792238235474 0.58664554357528687 0.55115282535552979
0.77636861801147461 0.67793840169906616 0.6374855637550354
0.88687998056411743 0.76954871416091919 0.72514796257019043
0.54284960031509399 0.63087326288223267 0.55454748868942261
0.67052936553955078 0.72784578800201416 0.64367783069610596
0.81895548105239868 0.83398532867431641 0.72821164131164551
0.9501766562461853 0.9141918420791626 0.81277662515640259
0.99703258275985718 0.97746813297271729 0.885467529296875
0.66935384273529053 0.8261454701423645 0.707763671875
0.81803768873214722 0.91508489847183228 0.79839080572128296
0.95840919017791748 0.9805837869644165 0.87880319356918335
0.99919646978378296 0.99578487873077393 0.94425058364868164
1 0.9998658299446106 0.98444068431854248
0.18636484444141388 0.12376909703016281 0.13384468853473663
0.25429224967956543 0.19104534387588501 0.2156330794095993
0.34178400039672852 0.25302416086196899 0.29597952961921692
0.44242948293685913 0.32046109437942505 0.38372695446014404
0.53919726610183716 0.38405242562294006 0.46798112988471985
0.30323114991188049 0.26641029119491577 0.29404661059379578
0.39485436677932739 0.34389710426330566 0.38362607359886169
0.50372499227523804 0.42060533165931702 0.46972343325614929
0.62272733449935913 0.49609202146530151 0.55274820327758789
0.73501741886138916 0.57689589262008667 0.64404988288879395
0.43445864319801331 0.44687110185623169 0.45946270227432251
0.54179364442825317 0.54025179147720337 0.55007565021514893
0.67229223251342773 0.62935274839401245 0.63968968391418457
0.81457364559173584 0.71979433298110962 0.73539727926254272
0.9155699610710144 0.80583935976028442 0.82080531120300293
0.56636941432952881 0.66862261295318604 0.63342666625976562
0.70038485527038574 0.77271741628646851 0.73448735475540161
0.852031409740448 0.86881041526794434 0.82169175148010254
0.97287511825561523 0.9414142370223999 0.90700560808181763
1 0.9904511570930481 0.96612507104873657
0.69882500171661377 0.86469584703445435 0.80241107940673828
0.85136675834655762 0.94733083248138428 0.8937610387802124
0.9816473126411438 0.99574357271194458 0.96628332138061523
1 0.99720531702041626 0.99943834543228149
1 1 1
0.20988424122333527 0.14298595488071442 0.15941937267780304
0.27889847755432129 0.21058972179889679 0.24739269912242889
0.37094134092330933 0.27792763710021973 0.3322049081325531
0.47776082158088684 0.34513601660728455 0.41783222556114197
0.57107603549957275 0.41006883978843689 0.5049445629119873
0.33277285099029541 0.29470130801200867 0.32948154211044312
0.41923296451568604 0.36981627345085144 0.42142772674560547
0.53932267427444458 0.4533819854259491 0.51575398445129395
0.66587448120117188 0.53169411420822144 0.60608315467834473
0.76566231250762939 0.60402125120162964 0.69274461269378662
0.46015128493309021 0.48458215594291687 0.50754356384277344
0.57445698976516724 0.57829123735427856 0.60089719295501709
0.70646870136260986 0.66286152601242065 0.6915898323059082
0.85265177488327026 0.75976049900054932 0.79117143154144287
0.94065690040588379 0.83673077821731567 0.8722609281539917
0.58697909116744995 0.69525116682052612 0.67907929420471191
0.73831772804260254 0.81554627418518066 0.78395766019821167
0.88521784543991089 0.90236181020736694 0.87448948621749878
0.99004310369491577 0.96607083082199097 0.95244395732879639
1 0.99886834621429443 0.99653762578964233
0.72641903162002563 0.88208848237991333 0.84773480892181396
0.87883585691452026 0.96582388877868652 0.93345582485198975
0.98963731527328491 0.99753409624099731 0.9935423731803894
1 1 1
1 1 1
