assets/lut/others vintage brighter.cube
# Created by: G'MIC (https://gmic.eu)
TITLE "vintage_brighter"
# LUT size
LUT_3D_SIZE 7
# Data domain
DOMAIN_MIN 0.0 0.0 0.0
DOMAIN_MAX 1.0 1.0 1.0
# LUT data points
0 0 0.18483360111713409
0.066335223615169525 0.00011765723320422694 0.1881241649389267
0.2845815122127533 4.9007641791831702e-05 0.1849018782377243
0.49080926179885864 1.4002182979311328e-05 0.18615196645259857
0.70580494403839111 0 0.18834775686264038
0.91874837875366211 0.0001036550456774421 0.18866300582885742
1 0 0.17786890268325806
0.00075845158426091075 0.061070207506418228 0.18350943922996521
0.055873870849609375 0.066835604608058929 0.18616245687007904
0.28007155656814575 0.068199500441551208 0.18895526230335236
0.49144172668457031 0.068534702062606812 0.18726462125778198
0.7074626088142395 0.072648018598556519 0.18837831914424896
0.91160440444946289 0.06874808669090271 0.18959765136241913
1 0.072888441383838654 0.18182334303855896
0.00070711021544411778 0.26546397805213928 0.18545243144035339
0.048701565712690353 0.2643454372882843 0.18658991158008575
0.24825374782085419 0.25529909133911133 0.18859493732452393
0.48091891407966614 0.2585388720035553 0.1862608939409256
0.71763277053833008 0.27180179953575134 0.18546740710735321
0.92209821939468384 0.28530141711235046 0.18461264669895172
0.99815851449966431 0.28293558955192566 0.18412624299526215
0 0.49192893505096436 0.18624803423881531
0.047019045799970627 0.48925331234931946 0.18615196645259857
0.24604587256908417 0.47733542323112488 0.18615663051605225
0.4791472852230072 0.48501956462860107 0.18450962007045746
0.7248578667640686 0.49738019704818726 0.18482564389705658
0.93959891796112061 0.49724730849266052 0.1886371374130249
1 0.49522602558135986 0.18859435617923737
0 0.69528007507324219 0.18473170697689056
0.059805955737829208 0.70508843660354614 0.18509382009506226
0.27344989776611328 0.69982999563217163 0.18845908343791962
0.50035154819488525 0.71334332227706909 0.18974609673023224
0.73224025964736938 0.72490048408508301 0.18850022554397583
0.93271839618682861 0.70874834060668945 0.18640166521072388
0.99952781200408936 0.70398980379104614 0.18651244044303894
0 0.87874621152877808 0.18542446196079254
0.068647183477878571 0.91487270593643188 0.18671363592147827
0.28719541430473328 0.91765308380126953 0.18873788416385651
0.49885636568069458 0.92795610427856445 0.19365029036998749
0.72534173727035522 0.9291425347328186 0.19354294240474701
0.93226289749145508 0.90631920099258423 0.18948931992053986
0.99997663497924805 0.89580255746841431 0.18821808695793152
0 0.97913014888763428 0.18468482792377472
0.076335936784744263 0.99984562397003174 0.19023886322975159
0.28739306330680847 1 0.1862606555223465
0.49051585793495178 1 0.18635751307010651
0.71557152271270752 0.99999064207077026 0.18785592913627625
0.93182379007339478 0.99931508302688599 0.1903887540102005
1 0.99897009134292603 0.18618734180927277
0 0 0.34612217545509338
0.064883016049861908 0 0.34999999403953552
0.27128058671951294 0 0.34729307889938354
0.48977270722389221 0 0.34607842564582825
0.70787423849105835 0 0.34953349828720093
0.91368973255157471 0 0.34908819198608398
1 0 0.33973947167396545
0 0.056031964719295502 0.3458963930606842
0.054172888398170471 0.05249316617846489 0.34950944781303406
0.26156178116798401 0.052416078746318817 0.34607842564582825
0.48586335778236389 0.057586491107940674 0.34607842564582825
0.71043622493743896 0.062732875347137451 0.34998467564582825
0.91847831010818481 0.066053725779056549 0.34999999403953552
1 0.079030431807041168 0.34524276852607727
0 0.24701856076717377 0.34607842564582825
0.052141614258289337 0.24494306743144989 0.34607842564582825
0.24529479444026947 0.24390794336795807 0.34759047627449036
0.4751112163066864 0.25506821274757385 0.34975656867027283
0.71400958299636841 0.26907205581665039 0.34999999403953552
0.93140053749084473 0.27999871969223022 0.35154339671134949
1 0.28353503346443176 0.35018375515937805
0 0.47525450587272644 0.3474847674369812
0.058329682797193527 0.4751775860786438 0.34980276226997375
0.25276464223861694 0.47652256488800049 0.34997165203094482
0.47624367475509644 0.48953166604042053 0.35087540745735168
0.71523445844650269 0.49672988057136536 0.35229861736297607
0.93552738428115845 0.49409002065658569 0.35232090950012207
1 0.49296528100967407 0.35190340876579285
0 0.69546365737915039 0.34813612699508667
0.067515864968299866 0.7057490348815918 0.34915181994438171
0.27460506558418274 0.71499788761138916 0.35256144404411316
0.49640995264053345 0.72711396217346191 0.35434660315513611
0.73403781652450562 0.72767478227615356 0.35319536924362183
0.94271910190582275 0.70881122350692749 0.34706407785415649
1 0.70440006256103516 0.34678900241851807
0 0.89423340559005737 0.35013812780380249
0.073567241430282593 0.92467886209487915 0.35313180088996887
0.28329211473464966 0.92878538370132446 0.35518190264701843
0.50152945518493652 0.93189603090286255 0.35782113671302795
0.73658889532089233 0.92960923910140991 0.35594213008880615
0.94159746170043945 0.9236939549446106 0.35145065188407898
0.99989098310470581 0.92027729749679565 0.35069194436073303
0 0.99737900495529175 0.34731990098953247
0.078402712941169739 1 0.35449638962745667
0.28341236710548401 1 0.3530600368976593
0.49589106440544128 1 0.35248467326164246
0.7231258749961853 1 0.35198476910591125
0.92093950510025024 1 0.3529091477394104
0.99749934673309326 1 0.34935024380683899
0 0 0.49356648325920105
0.074719943106174469 0 0.50027191638946533
0.27951246500015259 0 0.4949154257774353
0.49522951245307922 0 0.49252098798751831
0.71434932947158813 0 0.4948221743106842
0.91742402315139771 0 0.49546957015991211
1 0 0.48652219772338867
0 0.061174772679805756 0.49276271462440491
0.062594637274742126 0.059914249926805496 0.49645841121673584
0.27086600661277771 0.051170662045478821 0.49313870072364807
0.49010616540908813 0.059979263693094254 0.49357122182846069
0.71747702360153198 0.067323900759220123 0.49727258086204529
0.92541962862014771 0.067028701305389404 0.49841725826263428
1 0.080716781318187714 0.49383640289306641
0 0.2513427734375 0.49154064059257507
0.05701923742890358 0.25386393070220947 0.49247586727142334
0.25273874402046204 0.25093555450439453 0.49243462085723877
0.477977454662323 0.26469135284423828 0.49543988704681396
0.71489483118057251 0.27868711948394775 0.49873921275138855
0.93023866415023804 0.27960014343261719 0.49860921502113342
1 0.28150004148483276 0.49727734923362732
0 0.47870379686355591 0.49355483055114746
0.066863179206848145 0.48243421316146851 0.49507105350494385
0.26488766074180603 0.48453834652900696 0.4954051673412323
0.4775175154209137 0.4959094226360321 0.49926602840423584
0.71064794063568115 0.50032681226730347 0.50184756517410278
0.93215465545654297 0.49522095918655396 0.50000768899917603
1 0.49215686321258545 0.50015270709991455
0 0.70610803365707397 0.49867919087409973
0.076942116022109985 0.72028619050979614 0.50226318836212158
0.28301000595092773 0.72790563106536865 0.5013471245765686
0.49309775233268738 0.73422300815582275 0.50287854671478271
0.726265549659729 0.73018354177474976 0.50261545181274414
0.93644952774047852 0.71561521291732788 0.49865871667861938
1 0.71000456809997559 0.49791666865348816
0 0.90928739309310913 0.50093698501586914
0.078351505100727081 0.9419364333152771 0.50623732805252075
0.28371652960777283 0.93966907262802124 0.50503247976303101
0.49597254395484924 0.93804639577865601 0.50591212511062622
0.72435182332992554 0.93296092748641968 0.50364512205123901
0.92551487684249878 0.92399638891220093 0.50036388635635376
0.99715542793273926 0.92111694812774658 0.49942848086357117
0 0.99880808591842651 0.49374496936798096
0.078732870519161224 1 0.50267058610916138
0.2829129695892334 1 0.50173103809356689
0.4926973283290863 1 0.50137215852737427
0.71171367168426514 1 0.49969348311424255
0.90296953916549683 1 0.49778586626052856
0.98876136541366577 1 0.49336701631546021
0 0 0.61779499053955078
0.067489981651306152 0.00014199649740476161 0.62342149019241333
0.27362519502639771 0 0.61655890941619873
0.49350073933601379 0 0.61465573310852051
0.71523886919021606 0 0.61691486835479736
0.9183509349822998 0 0.61839491128921509
1 0 0.61002534627914429
0.00029035081388428807 0.058896668255329132 0.61783266067504883
0.053851872682571411 0.072104267776012421 0.61962723731994629
0.26624074578285217 0.06294124573469162 0.61556357145309448
0.4904123842716217 0.065615788102149963 0.61673563718795776
0.71780705451965332 0.068880431354045868 0.62103140354156494
0.92737829685211182 0.068535670638084412 0.62349224090576172
1 0.085559919476509094 0.61777883768081665
0 0.26840627193450928 0.61764705181121826
0.059808559715747833 0.27843368053436279 0.61720472574234009
0.25735610723495483 0.26722651720046997 0.61359226703643799
0.4851195216178894 0.27088826894760132 0.61830514669418335
0.71991479396820068 0.2765134871006012 0.62433433532714844
0.93638211488723755 0.27623403072357178 0.62363171577453613
1 0.27932018041610718 0.62014496326446533
0 0.49030280113220215 0.61658412218093872
0.060962840914726257 0.4942631721496582 0.61590397357940674
0.2672702968120575 0.4900786280632019 0.61617225408554077
0.48487883806228638 0.49536848068237305 0.62163937091827393
0.7154194712638855 0.49843677878379822 0.62836503982543945
0.93772387504577637 0.49668461084365845 0.6253666877746582
1 0.49310755729675293 0.62327271699905396
0 0.70786035060882568 0.61982589960098267
0.071851663291454315 0.72171491384506226 0.62451404333114624
0.28132691979408264 0.72818195819854736 0.62312048673629761
0.49274030327796936 0.73294848203659058 0.62437981367111206
0.71945232152938843 0.72986257076263428 0.6276695728302002
0.93094819784164429 0.72158640623092651 0.62528389692306519
1 0.71386843919754028 0.62301230430603027
0 0.9032781720161438 0.62303394079208374
0.078123070299625397 0.93738478422164917 0.62810277938842773
0.28530389070510864 0.94080579280853271 0.62448787689208984
0.4911472499370575 0.93578970432281494 0.62590408325195312
0.70787990093231201 0.93200361728668213 0.62849181890487671
0.92195999622344971 0.92716401815414429 0.62549018859863281
0.99999785423278809 0.91976916790008545 0.62313294410705566
0 0.98767685890197754 0.61427795886993408
0.080750301480293274 1 0.62305355072021484
0.28624579310417175 1 0.62204146385192871
0.49045398831367493 1 0.62337660789489746
0.69900989532470703 1 0.62364190816879272
0.90447664260864258 1 0.62035632133483887
0.99942809343338013 1 0.61370539665222168
0 0 0.71040880680084229
0.072210438549518585 0 0.71017676591873169
0.2671356201171875 0 0.70735913515090942
0.49065929651260376 0 0.70465683937072754
0.71528857946395874 0 0.70731490850448608
0.91946583986282349 0 0.71034926176071167
1 0.0061564575880765915 0.70565760135650635
0.0010746376356109977 0.063611246645450592 0.71637994050979614
0.064153142273426056 0.066069193184375763 0.70972567796707153
0.26562404632568359 0.072234630584716797 0.70721924304962158
0.49043500423431396 0.072679899632930756 0.70822411775588989
0.71454071998596191 0.074259169399738312 0.71230065822601318
0.92559218406677246 0.071669608354568481 0.71321767568588257
1 0.096447981894016266 0.71040832996368408
0.0074169682338833809 0.28107869625091553 0.71879088878631592
0.079819470643997192 0.28472834825515747 0.71304589509963989
0.27162840962409973 0.28222104907035828 0.70850300788879395
0.49593991041183472 0.28240469098091125 0.71120351552963257
0.72095340490341187 0.2820381224155426 0.71727931499481201
0.93140006065368652 0.2783280611038208 0.71713101863861084
1 0.28196847438812256 0.71325284242630005
0 0.49604469537734985 0.71495532989501953
0.079831726849079132 0.49600681662559509 0.71563315391540527
0.27802962064743042 0.49235939979553223 0.71193331480026245
0.4972662627696991 0.49585318565368652 0.71353328227996826
0.71894216537475586 0.49797907471656799 0.72003567218780518
0.9233090877532959 0.49783223867416382 0.71843570470809937
1 0.4937920868396759 0.7134087085723877
0 0.70013910531997681 0.7119019627571106
0.079237468540668488 0.70665222406387329 0.71879357099533081
0.28477641940116882 0.71452528238296509 0.71672511100769043
0.49562668800354004 0.72195237874984741 0.71622323989868164
0.71351563930511475 0.72227996587753296 0.71711289882659912
0.91482627391815186 0.72064399719238281 0.71592491865158081
1 0.71128451824188232 0.7122189998626709
0 0.89322257041931152 0.71196997165679932
0.080339066684246063 0.91903227567672729 0.71656084060668945
0.28497186303138733 0.92840802669525146 0.71579283475875854
0.4912322461605072 0.92861241102218628 0.7164008617401123
0.70169341564178467 0.92585712671279907 0.71777772903442383
0.91414171457290649 0.92771506309509277 0.71504032611846924
1 0.91291683912277222 0.71201092004776001
0 0.99411129951477051 0.70488965511322021
0.082598038017749786 1 0.7147412896156311
0.28613319993019104 1 0.71529066562652588
0.49237850308418274 1 0.71629709005355835
0.69826275110244751 1 0.71510845422744751
0.90702176094055176 1 0.71111190319061279
1 1 0.70350325107574463
0 0 0.77626603841781616
0.082337744534015656 0 0.77672535181045532
0.27580606937408447 0 0.77554225921630859
0.49631106853485107 0 0.77106118202209473
0.71895426511764526 0 0.77102541923522949
0.92167389392852783 0 0.77522110939025879
1 0.011644281446933746 0.77530074119567871
0 0.072771869599819183 0.78110849857330322
0.075327001512050629 0.061490960419178009 0.77682411670684814
0.2798161506652832 0.068993315100669861 0.77530479431152344
0.49822941422462463 0.076696388423442841 0.7732507586479187
0.7133636474609375 0.07658405601978302 0.77480494976043701
0.91387653350830078 0.06486346572637558 0.77469056844711304
1 0.091907784342765808 0.77646756172180176
0 0.28393480181694031 0.78347384929656982
0.074570000171661377 0.2823273241519928 0.77913403511047363
0.28249672055244446 0.28448894619941711 0.77625709772109985
0.50352895259857178 0.28705328702926636 0.77789926528930664
0.71928554773330688 0.28755864500999451 0.78200763463973999
0.92567187547683716 0.28485107421875 0.78199225664138794
1 0.2832566499710083 0.77846932411193848
0 0.49612674117088318 0.78209507465362549
0.076868228614330292 0.49642536044120789 0.78140711784362793
0.27985104918479919 0.49284672737121582 0.77837657928466797
0.50006639957427979 0.49195662140846252 0.77980190515518188
0.71866369247436523 0.49458256363868713 0.78243547677993774
0.91959154605865479 0.49690753221511841 0.77965474128723145
1 0.48976424336433411 0.77514994144439697
0 0.6978766918182373 0.77680099010467529
0.074237555265426636 0.70256519317626953 0.77766090631484985
0.2805837094783783 0.70517098903656006 0.77738028764724731
0.49523916840553284 0.70524579286575317 0.77956187725067139
0.71117424964904785 0.70478469133377075 0.77978169918060303
0.91333413124084473 0.70901393890380859 0.7751275897026062
1 0.69840675592422485 0.77298641204833984
0 0.89744430780410767 0.77589750289916992
0.07751031219959259 0.92553800344467163 0.77937710285186768
0.28065031766891479 0.9221651554107666 0.7792285680770874
0.49206447601318359 0.92302018404006958 0.78034824132919312
0.70379465818405151 0.91993659734725952 0.77708971500396729
0.91074228286743164 0.92067551612854004 0.77140408754348755
1 0.89884030818939209 0.77382093667984009
0 0.99837476015090942 0.77147549390792847
0.079447127878665924 1 0.78226554393768311
0.28181025385856628 1 0.78366267681121826
0.49328422546386719 1 0.78233540058135986
0.70501613616943359 1 0.77780723571777344
0.91042584180831909 1 0.77246773242950439
1 0.99996030330657959 0.76800942420959473
0 0.0046321945264935493 0.82721728086471558
0.075368545949459076 0.00046673943870700896 0.82996320724487305
0.28007352352142334 0.00022792442177888006 0.82979798316955566
0.49922481179237366 0.0032329484820365906 0.82552289962768555
0.71179908514022827 0 0.82339620590209961
0.90298575162887573 0 0.82818055152893066
0.9992600679397583 0 0.82791250944137573
0 0.094087980687618256 0.82920461893081665
0.066801659762859344 0.070995360612869263 0.82846748828887939
0.281972736120224 0.075079329311847687 0.82935786247253418
0.50119245052337646 0.09148675948381424 0.82591956853866577
0.7077794075012207 0.074525825679302216 0.82295936346054077
0.88518458604812622 0.06017671525478363 0.82563477754592896
0.99368226528167725 0.061050653457641602 0.82705235481262207
0 0.28405341506004333 0.83121341466903687
0.067071385681629181 0.27524086833000183 0.82914680242538452
0.27941375970840454 0.27061361074447632 0.82840043306350708
0.49947497248649597 0.27782312035560608 0.82854920625686646
0.70915693044662476 0.27864053845405579 0.82890373468399048
0.90122044086456299 0.27150607109069824 0.82769274711608887
0.99999064207077026 0.26189491152763367 0.82637059688568115
0 0.49202442169189453 0.83074039220809937
0.071950234472751617 0.49433237314224243 0.82917582988739014
0.27631166577339172 0.48754787445068359 0.82765829563140869
0.49395844340324402 0.48531365394592285 0.82876837253570557
0.70727705955505371 0.49077951908111572 0.83087754249572754
0.91729795932769775 0.49587675929069519 0.82591354846954346
1 0.48325243592262268 0.82192611694335938
0 0.69187754392623901 0.8267139196395874
0.068478241562843323 0.70725816488265991 0.82657134532928467
0.27583479881286621 0.70570909976959229 0.82604163885116577
0.49179363250732422 0.6982494592666626 0.82722800970077515
0.70632600784301758 0.69912028312683105 0.82713830471038818
0.91953480243682861 0.70334458351135254 0.82281899452209473
1 0.68928122520446777 0.82070493698120117
0 0.87468963861465454 0.82537424564361572
0.070544958114624023 0.91644978523254395 0.83037024736404419
0.27669826149940491 0.9189942479133606 0.83122074604034424
0.49212634563446045 0.91972160339355469 0.83100974559783936
0.70587819814682007 0.9165986180305481 0.82807356119155884
0.91683870553970337 0.92319458723068237 0.82617759704589844
1 0.89099323749542236 0.82450222969055176
0 0.97344315052032471 0.82022607326507568
0.071541398763656616 0.99983721971511841 0.83172363042831421
0.27763622999191284 1 0.83598566055297852
0.49389010667800903 1 0.83633899688720703
0.71029412746429443 1 0.832164466381073
0.91728931665420532 1 0.828258216381073
1 0.99047499895095825 0.82167941331863403
