assets/lut/others smooth fade.cube
# Created by: G'MIC (https://gmic.eu)
TITLE "smooth_fade"
# LUT size
LUT_3D_SIZE 13
# Data domain
DOMAIN_MIN 0.0 0.0 0.0
DOMAIN_MAX 1.0 1.0 1.0
# LUT data points
0.19128066301345825 0.20611786842346191 0.26373583078384399
0.26200222969055176 0.20249249041080475 0.25921899080276489
0.33764252066612244 0.19848030805587769 0.2544131875038147
0.41880884766578674 0.19435378909111023 0.24982249736785889
0.50316137075424194 0.18954336643218994 0.24558508396148682
0.58891475200653076 0.18413692712783813 0.24130024015903473
0.67325824499130249 0.17865599691867828 0.23681861162185669
0.75184535980224609 0.17343291640281677 0.23162530362606049
0.82104754447937012 0.16868387162685394 0.22620736062526703
0.87854784727096558 0.16382612287998199 0.22156274318695068
0.9238472580909729 0.15869763493537903 0.21762058138847351
0.95967453718185425 0.1524665355682373 0.21379898488521576
0.99037545919418335 0.14592035114765167 0.20908863842487335
0.18105293810367584 0.27441626787185669 0.25568351149559021
0.24949020147323608 0.27005016803741455 0.25131621956825256
0.32430192828178406 0.26541417837142944 0.24612404406070709
0.40585604310035706 0.26053440570831299 0.2413540780544281
0.49104511737823486 0.25483620166778564 0.23673225939273834
0.57617712020874023 0.24798111617565155 0.23213471472263336
0.65933704376220703 0.24075499176979065 0.2271919846534729
0.73831969499588013 0.23545938730239868 0.22203774750232697
0.81005758047103882 0.23187264800071716 0.21669545769691467
0.87068718671798706 0.22788570821285248 0.21205388009548187
0.91903823614120483 0.22304832935333252 0.20827563107013702
0.95746690034866333 0.21675857901573181 0.20453368127346039
0.98962754011154175 0.21010841429233551 0.20028172433376312
0.17113539576530457 0.34314584732055664 0.24831081926822662
0.23698459565639496 0.3385063111782074 0.24260368943214417
0.31018233299255371 0.33367288112640381 0.23682884871959686
0.39291059970855713 0.32860255241394043 0.23211215436458588
0.47859048843383789 0.32239869236946106 0.22720444202423096
0.56312650442123413 0.31500443816184998 0.22242216765880585
0.64562743902206421 0.30746489763259888 0.2172544002532959
0.72475916147232056 0.30193319916725159 0.21190477907657623
0.79788601398468018 0.29820543527603149 0.20666241645812988
0.86162596940994263 0.29417753219604492 0.20174641907215118
0.91433227062225342 0.28911107778549194 0.19769087433815002
0.95680218935012817 0.28290054202079773 0.19408757984638214
0.9915810227394104 0.27572381496429443 0.18968372046947479
0.16368237137794495 0.41529145836830139 0.2389071136713028
0.22697104513645172 0.40992316603660583 0.23341353237628937
0.29867222905158997 0.40445885062217712 0.22766512632369995
0.38011080026626587 0.39908507466316223 0.22249431908130646
0.46529415249824524 0.39288622140884399 0.21755622327327728
0.54988473653793335 0.38580548763275146 0.21267507970333099
0.63251549005508423 0.37884783744812012 0.20709747076034546
0.71220701932907104 0.37308624386787415 0.20177671313285828
0.78650170564651489 0.36832666397094727 0.19636282324790955
0.85298222303390503 0.36346590518951416 0.19144897162914276
0.90979617834091187 0.35770651698112488 0.18712836503982544
0.95727252960205078 0.35110825300216675 0.1835387796163559
0.9942011833190918 0.34415814280509949 0.17933639883995056
0.15464907884597778 0.48876193165779114 0.22818282246589661
0.21774625778198242 0.48331010341644287 0.22348745167255402
0.28781738877296448 0.47748842835426331 0.21862038969993591
0.36689910292625427 0.47158938646316528 0.21352246403694153
0.45098680257797241 0.46546301245689392 0.20800578594207764
0.53594338893890381 0.45900717377662659 0.20262424647808075
0.61967682838439941 0.45253419876098633 0.19710046052932739
0.70017296075820923 0.44659906625747681 0.19154331088066101
0.77544760704040527 0.44092914462089539 0.18670271337032318
0.84393423795700073 0.43510395288467407 0.18177329003810883
0.90425676107406616 0.42867875099182129 0.17754115164279938
0.95622462034225464 0.42175596952438354 0.17388486862182617
0.99515259265899658 0.41501703858375549 0.16940750181674957
0.14440138638019562 0.56291240453720093 0.21743591129779816
0.20676176249980927 0.55737656354904175 0.21369794011116028
0.27588057518005371 0.55124801397323608 0.20925846695899963
0.35351791977882385 0.54509210586547852 0.20404358208179474
0.43682089447975159 0.53904622793197632 0.19848817586898804
0.52228063344955444 0.53287863731384277 0.19274738430976868
0.60692644119262695 0.526894211769104 0.18701818585395813
0.68825423717498779 0.52094656229019165 0.1818331778049469
0.76449096202850342 0.51483887434005737 0.1770530492067337
0.83412444591522217 0.50840485095977783 0.17231652140617371
0.89683037996292114 0.50162702798843384 0.16844707727432251
0.95181339979171753 0.49443167448043823 0.16435672342777252
0.99438756704330444 0.48800647258758545 0.15968216955661774
0.13363048434257507 0.63649976253509521 0.20740576088428497
0.19510990381240845 0.63089311122894287 0.20374013483524323
0.26355117559432983 0.6243634819984436 0.19929194450378418
0.34038498997688293 0.61826246976852417 0.19426444172859192
0.42313393950462341 0.61222326755523682 0.18869648873806
0.50866150856018066 0.60624736547470093 0.18298324942588806
0.5940137505531311 0.60055619478225708 0.17725853621959686
0.67617183923721313 0.5946691632270813 0.17218136787414551
0.75310999155044556 0.58861064910888672 0.16744163632392883
0.82385319471359253 0.58227890729904175 0.16332224011421204
0.88764137029647827 0.57550877332687378 0.15925814211368561
0.94450211524963379 0.56890767812728882 0.15477940440177917
0.99126130342483521 0.5618395209312439 0.14993663132190704
0.12335635721683502 0.70792305469512939 0.19832025468349457
0.18419399857521057 0.70215225219726562 0.19398622214794159
0.2518913745880127 0.69568037986755371 0.18928055465221405
0.32790389657020569 0.68955397605895996 0.18414926528930664
0.40986648201942444 0.68351048231124878 0.17881026864051819
0.49533301591873169 0.67761504650115967 0.1732848584651947
0.58096534013748169 0.67202889919281006 0.16797497868537903
0.66380757093429565 0.66657835245132446 0.1628984808921814
0.74148571491241455 0.66058897972106934 0.15848606824874878
0.81284433603286743 0.65507173538208008 0.15421368181705475
0.87734085321426392 0.648945152759552 0.15006455779075623
0.93534618616104126 0.64252132177352905 0.14548739790916443
0.98609369993209839 0.63529878854751587 0.14037565886974335
0.11491751670837402 0.77461737394332886 0.18949136137962341
0.1749589741230011 0.769561767578125 0.18457223474979401
0.24163039028644562 0.76360726356506348 0.17940357327461243
0.31601321697235107 0.75744009017944336 0.17419742047786713
0.39697250723838806 0.75163918733596802 0.16892237961292267
0.48204326629638672 0.74596083164215088 0.16359001398086548
0.56805920600891113 0.74045878648757935 0.15867860615253448
0.65186339616775513 0.73510897159576416 0.15389415621757507
0.73046743869781494 0.73019510507583618 0.1493680328130722
0.802143394947052 0.72497463226318359 0.14516302943229675
0.86705529689788818 0.71960675716400146 0.14105968177318573
0.9256635308265686 0.7139473557472229 0.13659907877445221
0.978965163230896 0.70679777860641479 0.13131113350391388
0.10644885897636414 0.8343125581741333 0.18035611510276794
0.16650258004665375 0.83102327585220337 0.17515970766544342
0.23166841268539429 0.82668107748031616 0.1696498841047287
0.30435648560523987 0.82131630182266235 0.16442893445491791
0.38408142328262329 0.81590050458908081 0.15924321115016937
0.46876311302185059 0.81035149097442627 0.15404973924160004
0.55545341968536377 0.80481666326522827 0.14921675622463226
0.64055711030960083 0.79975706338882446 0.14473499357700348
0.71997374296188354 0.79538661241531372 0.14040850102901459
0.79224574565887451 0.7907792329788208 0.13619709014892578
0.8570868968963623 0.78636318445205688 0.1319814920425415
0.91618186235427856 0.78091925382614136 0.12771241366863251
0.97048389911651611 0.77407336235046387 0.12259950488805771
0.098733134567737579 0.88710522651672363 0.17084525525569916
0.15773293375968933 0.88710075616836548 0.16553762555122375
0.22142447531223297 0.88470256328582764 0.15991885960102081
0.2924448549747467 0.88015109300613403 0.15494976937770844
0.37111398577690125 0.8751869797706604 0.15009552240371704
0.45557910203933716 0.87005919218063354 0.14498360455036163
0.54312592744827271 0.86445599794387817 0.14025251567363739
0.62949603796005249 0.85971176624298096 0.13554501533508301
0.71019619703292847 0.85588395595550537 0.13125941157341003
0.78266298770904541 0.85189223289489746 0.12729759514331818
0.84810894727706909 0.84748834371566772 0.12345383316278458
0.90748023986816406 0.84256988763809204 0.11940120905637741
0.9624553918838501 0.83558827638626099 0.11417044699192047
0.091333620250225067 0.93649846315383911 0.16146208345890045
0.1494622677564621 0.93794804811477661 0.15608164668083191
0.21147544682025909 0.93771123886108398 0.15057665109634399
0.28104466199874878 0.93430894613265991 0.14636026322841644
0.35867920517921448 0.92924582958221436 0.14198656380176544
0.44288265705108643 0.92420202493667603 0.13689631223678589
0.53034520149230957 0.91884410381317139 0.1316162645816803
0.61729204654693604 0.91470515727996826 0.12676967680454254
0.69902521371841431 0.91127663850784302 0.12220782041549683
0.77253162860870361 0.90757858753204346 0.11860364675521851
0.8388705849647522 0.90334123373031616 0.11514200270175934
0.89964795112609863 0.89813339710235596 0.11106804013252258
0.95492196083068848 0.89139121770858765 0.10542379319667816
0.084114193916320801 0.98282229900360107 0.15179444849491119
0.14208453893661499 0.9847143292427063 0.1471266895532608
0.20317181944847107 0.98528796434402466 0.14209721982479095
0.27117201685905457 0.98317694664001465 0.1384255588054657
0.34748402237892151 0.97949540615081787 0.13426285982131958
0.43058961629867554 0.97467172145843506 0.12880563735961914
0.51708406209945679 0.96975821256637573 0.12297853827476501
0.60305041074752808 0.96556985378265381 0.11728271842002869
0.68477010726928711 0.96259433031082153 0.11307654529809952
0.75945776700973511 0.95943683385848999 0.10939594358205795
0.82772481441497803 0.95526242256164551 0.1061902791261673
0.89012128114700317 0.94992977380752563 0.10226166993379593
0.94622278213500977 0.94335895776748657 0.095971442759037018
0.18966227769851685 0.20551459491252899 0.32988613843917847
0.25961482524871826 0.20151506364345551 0.32541128993034363
0.335214763879776 0.1974639892578125 0.32058641314506531
0.41716042160987854 0.19344745576381683 0.31567814946174622
0.50219446420669556 0.18846040964126587 0.31101813912391663
0.58755344152450562 0.18245081603527069 0.30653047561645508
0.67095088958740234 0.17624296247959137 0.30175614356994629
0.75003260374069214 0.17101311683654785 0.29700449109077454
0.82193624973297119 0.16668938100337982 0.29246461391448975
0.88229608535766602 0.16240745782852173 0.28831979632377625
0.92978924512863159 0.15787625312805176 0.28454133868217468
0.96678227186203003 0.15288116037845612 0.28073084354400635
0.99534910917282104 0.1471700519323349 0.27604657411575317
0.18021239340305328 0.27340778708457947 0.32262662053108215
0.24795252084732056 0.26872003078460693 0.31779670715332031
0.32222306728363037 0.26395490765571594 0.31262069940567017
0.40383210778236389 0.25901216268539429 0.30759808421134949
0.48927953839302063 0.25321200489997864 0.30280455946922302
0.575031578540802 0.24631661176681519 0.29789954423904419
0.65879499912261963 0.23950217664241791 0.29296031594276428
0.73858803510665894 0.23409296572208405 0.28799083828926086
0.81177425384521484 0.23016157746315002 0.28322166204452515
0.87438476085662842 0.22631670534610748 0.27890056371688843
0.92508894205093384 0.22184988856315613 0.27498796582221985
0.96486109495162964 0.2166045606136322 0.27130880951881409
0.9952552318572998 0.21041859686374664 0.26699361205101013
0.17086371779441833 0.34222590923309326 0.31456318497657776
0.23692139983177185 0.33719894289970398 0.30937144160270691
0.30932962894439697 0.33191689848899841 0.30400750041007996
0.39036497473716736 0.32644325494766235 0.29906174540519714
0.47568133473396301 0.32014700770378113 0.29410398006439209
0.56141847372055054 0.31309697031974792 0.28882318735122681
0.64524167776107788 0.30630797147750854 0.28368335962295532
0.72588944435119629 0.30085912346839905 0.27848583459854126
0.79980969429016113 0.29663956165313721 0.27338755130767822
0.86508142948150635 0.29251444339752197 0.26857307553291321
0.91939187049865723 0.2876279354095459 0.26455292105674744
0.96365654468536377 0.28188920021057129 0.26083841919898987
0.99614953994750977 0.27589619159698486 0.25657379627227783
0.16238056123256683 0.41385480761528015 0.30548813939094543
0.22621317207813263 0.40831223130226135 0.30043134093284607
0.29775187373161316 0.40277543663978577 0.29506745934486389
0.37751299142837524 0.39686986804008484 0.2900252640247345
0.46224364638328552 0.39054837822914124 0.28495129942893982
0.54793673753738403 0.38373589515686035 0.27960947155952454
0.63201719522476196 0.37727516889572144 0.27415511012077332
0.71269792318344116 0.37164479494094849 0.26874533295631409
0.7878757119178772 0.3667304515838623 0.26346787810325623
0.85540151596069336 0.36165758967399597 0.25836774706840515
0.91387039422988892 0.35615143179893494 0.25401881337165833
0.96320551633834839 0.35008549690246582 0.25020325183868408
0.9973793625831604 0.34395924210548401 0.24597539007663727
0.15309518575668335 0.48774933815002441 0.29530584812164307
0.21631418168544769 0.48216918110847473 0.29077073931694031
0.28646829724311829 0.47590112686157227 0.28606989979743958
0.36470282077789307 0.46977543830871582 0.28096732497215271
0.44866734743118286 0.46346360445022583 0.27550876140594482
0.53440308570861816 0.45703238248825073 0.26996791362762451
0.61903339624404907 0.45102196931838989 0.26445060968399048
0.70034623146057129 0.44519701600074768 0.25898557901382446
0.77666085958480835 0.43950521945953369 0.25348612666130066
0.84606671333312988 0.43364164233207703 0.24852107465267181
0.90768122673034668 0.42734056711196899 0.24406366050243378
0.96127688884735107 0.4209686815738678 0.24006529152393341
0.99764430522918701 0.41463342308998108 0.23563031852245331
0.14293856918811798 0.56274193525314331 0.28514567017555237
0.20542646944522858 0.55671250820159912 0.28113853931427002
0.27452647686004639 0.55030196905136108 0.27665925025939941
0.35177788138389587 0.54389560222625732 0.27158904075622559
0.4350847601890564 0.53748404979705811 0.26609262824058533
0.52102917432785034 0.53148347139358521 0.26040416955947876
0.60645806789398193 0.52562135457992554 0.25462818145751953
0.68847918510437012 0.51982402801513672 0.24927081167697906
0.76534295082092285 0.5136789083480835 0.2438170313835144
0.83602571487426758 0.50734144449234009 0.23911833763122559
0.89957541227340698 0.5007132887840271 0.23465083539485931
0.95579385757446289 0.4940483570098877 0.23033100366592407
0.99633616209030151 0.48765155673027039 0.22566908597946167
0.13306516408920288 0.63691383600234985 0.27526292204856873
0.19452334940433502 0.63088381290435791 0.27147069573402405
0.26257491111755371 0.62394392490386963 0.26689746975898743
0.33896574378013611 0.61725896596908569 0.26194852590560913
0.421751469373703 0.61106413602828979 0.25648674368858337
0.5077589750289917 0.60516804456710815 0.25084176659584045
0.59379094839096069 0.59949243068695068 0.24518494307994843
0.67654711008071899 0.59374868869781494 0.23972815275192261
0.75390797853469849 0.5877496600151062 0.23473832011222839
0.82502514123916626 0.58142256736755371 0.22993549704551697
0.88965088129043579 0.57488042116165161 0.22549048066139221
0.94727921485900879 0.56832730770111084 0.22097888588905334
0.9931531548500061 0.56165164709091187 0.21591499447822571
0.12376942485570908 0.70844835042953491 0.26597851514816284
0.18427392840385437 0.70247596502304077 0.26183640956878662
0.25138458609580994 0.69546800851821899 0.25723129510879517
0.32660695910453796 0.68864613771438599 0.25226855278015137
0.40875661373138428 0.68240648508071899 0.24657590687274933
0.49458509683609009 0.67653149366378784 0.24144525825977325
0.58079612255096436 0.67098891735076904 0.23590067028999329
0.6641535758972168 0.66547322273254395 0.23075151443481445
0.74215739965438843 0.65999698638916016 0.22581182420253754
0.81359672546386719 0.65423434972763062 0.22115391492843628
0.87861162424087524 0.64837837219238281 0.21662136912345886
0.93714714050292969 0.64210045337677002 0.21184781193733215
0.98762995004653931 0.6351814866065979 0.20662161707878113
0.11568005383014679 0.77438509464263916 0.25689229369163513
0.17500974237918854 0.76928609609603882 0.25226220488548279
0.2409927099943161 0.76314425468444824 0.24754989147186279
0.31466299295425415 0.75669008493423462 0.24217107892036438
0.39584788680076599 0.75042837858200073 0.23685601353645325
0.48133400082588196 0.74447900056838989 0.23201973736286163
0.56783616542816162 0.73901426792144775 0.22674961388111115
0.65177398920059204 0.73394286632537842 0.22149102389812469
0.73047792911529541 0.72907733917236328 0.21674729883670807
0.80238163471221924 0.72427588701248169 0.21229124069213867
0.86756438016891479 0.71909552812576294 0.20780901610851288
0.92634040117263794 0.71350997686386108 0.20301723480224609
0.97980350255966187 0.70656031370162964 0.19772687554359436
0.10674679279327393 0.8338775634765625 0.24765077233314514
0.16577155888080597 0.83049672842025757 0.24269704520702362
0.23005621135234833 0.82589614391326904 0.23769232630729675
0.30267429351806641 0.82039511203765869 0.23215357959270477
0.38264712691307068 0.81432604789733887 0.22720678150653839
0.46796229481697083 0.80850809812545776 0.22242605686187744
0.55500334501266479 0.80309611558914185 0.21755757927894592
0.63985937833786011 0.79843020439147949 0.21269126236438751
0.71922796964645386 0.79430568218231201 0.20773044228553772
0.79168123006820679 0.79021614789962769 0.20314887166023254
0.85675382614135742 0.78571498394012451 0.19884999096393585
0.91582900285720825 0.78055429458618164 0.19435957074165344
0.97005438804626465 0.77397912740707397 0.18912726640701294
0.09862188994884491 0.88685876131057739 0.2379242479801178
0.15639978647232056 0.88655054569244385 0.23296931385993958
0.21923236548900604 0.88397741317749023 0.22781920433044434
0.29036456346511841 0.8793213963508606 0.22270165383815765
0.36947721242904663 0.8739084005355835 0.21791844069957733
0.45444750785827637 0.86794084310531616 0.21315054595470428
0.54199910163879395 0.86267572641372681 0.20802800357341766
0.62789732217788696 0.85833984613418579 0.20310068130493164
0.70843243598937988 0.85475045442581177 0.1983930915594101
0.78150045871734619 0.85126191377639771 0.19401301443576813
0.84708178043365479 0.84708660840988159 0.19002515077590942
0.90661907196044922 0.84232211112976074 0.18578504025936127
0.96124732494354248 0.8356626033782959 0.18079583346843719
0.091409079730510712 0.93645137548446655 0.22793227434158325
0.14790762960910797 0.93777579069137573 0.22314681112766266
0.20887483656406403 0.93717044591903687 0.21827992796897888
0.27857440710067749 0.9338194727897644 0.21376335620880127
0.35675975680351257 0.92858994007110596 0.20930270850658417
0.44120696187019348 0.92306631803512573 0.20439587533473969
0.52872186899185181 0.91802030801773071 0.1992134153842926
0.61519211530685425 0.91399765014648438 0.19383150339126587
0.69665032625198364 0.91075700521469116 0.18907701969146729
0.77064794301986694 0.90727114677429199 0.18498671054840088
0.83742332458496094 0.9031866192817688 0.18139657378196716
0.89804983139038086 0.898173987865448 0.17739017307758331
0.95366257429122925 0.89180034399032593 0.17226192355155945
0.084320724010467529 0.98285269737243652 0.21754080057144165
0.14083114266395569 0.98475366830825806 0.21346250176429749
0.20097784698009491 0.98553109169006348 0.20884802937507629
0.26902544498443604 0.98347991704940796 0.20488330721855164
0.34552264213562012 0.97968524694442749 0.20071534812450409
0.42879828810691833 0.97458022832870483 0.19561906158924103
0.51532560586929321 0.96988612413406372 0.19000744819641113
0.60138118267059326 0.9661521315574646 0.18444149196147919
0.68296641111373901 0.9629824161529541 0.17955844104290009
0.7580377459526062 0.95961201190948486 0.17575295269489288
0.82640862464904785 0.95533788204193115 0.17233310639858246
0.88842129707336426 0.95024216175079346 0.16823795437812805
0.94506621360778809 0.94397753477096558 0.16270416975021362
0.18771401047706604 0.20455409586429596 0.39489132165908813
0.25627812743186951 0.20004531741142273 0.39034414291381836
0.33183345198631287 0.19603736698627472 0.38571116328239441
0.41482076048851013 0.19242140650749207 0.380565345287323
0.50075280666351318 0.18732514977455139 0.37555268406867981
0.58608400821685791 0.1809266060590744 0.37095755338668823
0.66916263103485107 0.17464050650596619 0.36629348993301392
0.74836045503616333 0.1690850555896759 0.36195981502532959
0.82088238000869751 0.16463395953178406 0.35781559348106384
0.88356459140777588 0.16046327352523804 0.353924959897995
0.93345600366592407 0.15633967518806458 0.35020622611045837
0.97149145603179932 0.15210968255996704 0.34625241160392761
0.99741113185882568 0.14705666899681091 0.34153932332992554
0.17858920991420746 0.27213883399963379 0.38767522573471069
0.24609838426113129 0.26716816425323486 0.38291546702384949
0.32021310925483704 0.26235565543174744 0.37793499231338501
0.40149223804473877 0.25717923045158386 0.372905433177948
0.48711791634559631 0.25130060315132141 0.36785760521888733
0.57325732707977295 0.24459980428218842 0.36266541481018066
0.65736651420593262 0.23817647993564606 0.35778367519378662
0.73765665292739868 0.23283593356609344 0.35318207740783691
0.81131476163864136 0.22838538885116577 0.34873288869857788
0.87554383277893066 0.2242138534784317 0.34456416964530945
0.92801249027252197 0.2198922336101532 0.3406221866607666
0.9695701003074646 0.21532528102397919 0.33669313788414001
0.9976806640625 0.21019086241722107 0.3321673572063446
0.16997352242469788 0.34085795283317566 0.3794744610786438
0.23588657379150391 0.33565810322761536 0.37464907765388489
0.30841937661170959 0.33024284243583679 0.3696710467338562
0.3879895806312561 0.32429331541061401 0.36498662829399109
0.47282618284225464 0.31786444783210754 0.35984978079795837
0.5593072772026062 0.311259925365448 0.35441398620605469
0.64398479461669922 0.30500179529190063 0.34919589757919312
0.72435611486434937 0.29959574341773987 0.34430789947509766
0.79912978410720825 0.29497566819190979 0.33941853046417236
0.86546617746353149 0.29035159945487976 0.33463612198829651
0.92139154672622681 0.28543102741241455 0.33026865124702454
0.9676201343536377 0.28026372194290161 0.32622620463371277
0.99824428558349609 0.27486914396286011 0.32185506820678711
0.16119270026683807 0.41211211681365967 0.37031850218772888
0.22567442059516907 0.40686249732971191 0.36579382419586182
0.29674741625785828 0.40090855956077576 0.36097320914268494
0.37523496150970459 0.39471155405044556 0.35622653365135193
0.45925560593605042 0.38810840249061584 0.3511258065700531
0.54548001289367676 0.3816467821598053 0.34566661715507507
0.63018059730529785 0.37567901611328125 0.34038427472114563
0.71113830804824829 0.37025207281112671 0.33514589071273804
0.78664553165435791 0.36500850319862366 0.32992294430732727
0.85510671138763428 0.35967406630516052 0.32461449503898621
0.91480952501296997 0.35393577814102173 0.31981900334358215
0.96597188711166382 0.34823128581047058 0.31561762094497681
0.99852710962295532 0.34263193607330322 0.31125789880752563
0.15115796029567719 0.48650851845741272 0.36066386103630066
0.21506844460964203 0.48050403594970703 0.35653576254844666
0.28507781028747559 0.47440981864929199 0.35195347666740417
0.36273083090782166 0.46780136227607727 0.34710827469825745
0.44614997506141663 0.46132844686508179 0.34196069836616516
0.53215992450714111 0.45512181520462036 0.33657041192054749
0.61711966991424561 0.44924470782279968 0.33111703395843506
0.69852942228317261 0.44358575344085693 0.3257715106010437
0.77496445178985596 0.43787845969200134 0.32016211748123169
