assets/lut/others summer.cube
# Created by: G'MIC (https://gmic.eu)
TITLE "summer"
# LUT size
LUT_3D_SIZE 5
# Data domain
DOMAIN_MIN 0.0 0.0 0.0
DOMAIN_MAX 1.0 1.0 1.0
# LUT data points
0.27215230464935303 0.034040428698062897 0.26229187846183777
0.44393381476402283 0.032890051603317261 0.26140704751014709
0.61764705181121826 0.03471037745475769 0.26217889785766602
0.79483187198638916 0.031914997845888138 0.26249998807907104
0.97333437204360962 0.031845182180404663 0.26249998807907104
0.27414214611053467 0.26359701156616211 0.26572051644325256
0.44526964426040649 0.26249998807907104 0.26312723755836487
0.62149971723556519 0.26260975003242493 0.26249998807907104
0.80000412464141846 0.26249998807907104 0.26642155647277832
0.97824406623840332 0.26249238848686218 0.26251938939094543
0.27074867486953735 0.49988096952438354 0.25972768664360046
0.44441652297973633 0.49803921580314636 0.25858867168426514
0.61807197332382202 0.49720799922943115 0.25857841968536377
0.79564118385314941 0.49787899851799011 0.26255396008491516
0.97053366899490356 0.49845907092094421 0.262582927942276
0.26757106184959412 0.73251050710678101 0.25857841968536377
0.44394317269325256 0.73022001981735229 0.25808295607566833
0.61385619640350342 0.73064953088760376 0.25465685129165649
0.79136204719543457 0.7296568751335144 0.25857841968536377
0.96899509429931641 0.73357844352722168 0.26249998807907104
0.27243250608444214 0.95757949352264404 0.26503553986549377
0.45031258463859558 0.957691490650177 0.26703360676765442
0.62181484699249268 0.95849800109863281 0.26459255814552307
0.79770755767822266 0.95742136240005493 0.26488971710205078
0.97291666269302368 0.95805788040161133 0.2662557065486908
0.27414214611053467 0.034593261778354645 0.38223040103912354
0.44393381476402283 0.034512538462877274 0.37833318114280701
0.61764705181121826 0.034803923219442368 0.37784251570701599
0.79528188705444336 0.034803923219442368 0.37830707430839539
0.96790468692779541 0.03266703337430954 0.37830883264541626
0.27390474081039429 0.2660946249961853 0.38223040103912354
0.44389143586158752 0.26573887467384338 0.37879505753517151
0.61764705181121826 0.26642155647277832 0.37830883264541626
0.79690015316009521 0.26600658893585205 0.38013216853141785
0.97291666269302368 0.2648145854473114 0.379049152135849
0.27022057771682739 0.49970325827598572 0.37634977698326111
0.44003462791442871 0.49803921580314636 0.37438726425170898
0.61369615793228149 0.49803921580314636 0.37375181913375854
0.79315555095672607 0.49527132511138916 0.37824216485023499
0.97167152166366577 0.49790763854980469 0.38165163993835449
0.26629900932312012 0.73357844352722168 0.37438726425170898
0.43780133128166199 0.73357844352722168 0.37059387564659119
0.60980391502380371 0.73321717977523804 0.36929422616958618
0.79017233848571777 0.7296568751335144 0.37438726425170898
0.96899509429931641 0.73007380962371826 0.37841558456420898
0.27008584141731262 0.95884746313095093 0.37849980592727661
0.4435972273349762 0.958088219165802 0.38142845034599304
0.61633354425430298 0.95888477563858032 0.37727987766265869
0.79512530565261841 0.95735293626785278 0.37804147601127625
0.9690021276473999 0.95777714252471924 0.37835434079170227
0.27026376128196716 0.034803923219442368 0.49667391180992126
0.44001224637031555 0.034751411527395248 0.49095144867897034
0.61741656064987183 0.034803923219442368 0.49122655391693115
0.79660022258758545 0.03472963348031044 0.49411764740943909
0.97011590003967285 0.031486868858337402 0.49411764740943909
0.27022057771682739 0.26642155647277832 0.49424690008163452
0.44003289937973022 0.27018612623214722 0.49411764740943909
0.61764705181121826 0.26642155647277832 0.49411764740943909
0.79528188705444336 0.26642155647277832 0.49411764740943909
0.96899509429931641 0.26987844705581665 0.49411764740943909
0.27022057771682739 0.49803921580314636 0.49022355675697327
0.44001224637031555 0.50162035226821899 0.49102011322975159
0.61375671625137329 0.49803921580314636 0.49019607901573181
0.79368418455123901 0.49803060293197632 0.49399262666702271
0.97102254629135132 0.49803921580314636 0.4980047345161438
0.27022057771682739 0.7296568751335144 0.4938139021396637
0.44001224637031555 0.73357605934143066 0.49007037281990051
0.61256885528564453 0.73083627223968506 0.48638120293617249
0.79308062791824341 0.7296568751335144 0.49088570475578308
0.97291666269302368 0.72573530673980713 0.49803921580314636
0.27406749129295349 0.95786994695663452 0.49594190716743469
0.44493165612220764 0.95884746313095093 0.49530121684074402
0.61767697334289551 0.95860022306442261 0.49444201588630676
0.79887658357620239 0.95735293626785278 0.49411764740943909
0.97142326831817627 0.95735293626785278 0.49803921580314636
0.26930403709411621 0.030882352963089943 0.60992646217346191
0.44393381476402283 0.030882352963089943 0.60992646217346191
0.62007445096969604 0.030882352963089943 0.61045378446578979
0.79528188705444336 0.034803923219442368 0.61008298397064209
0.96899509429931641 0.034803923219442368 0.60991948843002319
0.26631087064743042 0.26646238565444946 0.60973161458969116
0.44393381476402283 0.26642155647277832 0.61384803056716919
0.62156862020492554 0.26642155647277832 0.61384803056716919
0.79528188705444336 0.2666880190372467 0.61384803056716919
0.97043424844741821 0.2703431248664856 0.61384803056716919
0.2665458619594574 0.50018793344497681 0.60736346244812012
0.44393381476402283 0.49803921580314636 0.61362189054489136
0.61749821901321411 0.49803921580314636 0.60992646217346191
0.79430878162384033 0.49803921580314636 0.60992646217346191
0.96899509429931641 0.50174689292907715 0.61384803056716919
0.27022057771682739 0.7296568751335144 0.61243468523025513
0.44094637036323547 0.7296605110168457 0.60993856191635132
0.61372548341751099 0.72993093729019165 0.60609167814254761
0.79358083009719849 0.7296568751335144 0.60992646217346191
0.96899509429931641 0.73150014877319336 0.61384803056716919
0.27022057771682739 0.95735293626785278 0.61116522550582886
0.44393381476402283 0.95857787132263184 0.61384803056716919
0.61836403608322144 0.95909559726715088 0.61358475685119629
0.79915660619735718 0.95735293626785278 0.60995447635650635
0.97316455841064453 0.95835453271865845 0.61205065250396729
0.27022057771682739 0.034745577722787857 0.72573530673980713
0.443878173828125 0.030882352963089943 0.72568726539611816
0.62016761302947998 0.030882352963089943 0.72573530673980713
0.79145544767379761 0.034803923219442368 0.72573530673980713
0.96899509429931641 0.034803923219442368 0.72833651304244995
0.26978108286857605 0.26951208710670471 0.72547918558120728
0.44400927424430847 0.26256319880485535 0.72658360004425049
0.61981761455535889 0.26424804329872131 0.7258141040802002
0.79528188705444336 0.26642155647277832 0.72944027185440063
0.97291666269302368 0.26642155647277832 0.73344701528549194
0.27388527989387512 0.50098073482513428 0.72573530673980713
0.44392332434654236 0.49548026919364929 0.72563380002975464
0.61393612623214722 0.49803921580314636 0.72181373834609985
0.79167431592941284 0.49930647015571594 0.72573530673980713
0.96899509429931641 0.50141841173171997 0.72835361957550049
0.27024158835411072 0.72690802812576294 0.7296568751335144
0.44391927123069763 0.7296568751335144 0.72854727506637573
0.61372548341751099 0.7296568751335144 0.72544306516647339
0.79136365652084351 0.73099303245544434 0.72573530673980713
0.96899509429931641 0.73284953832626343 0.72588467597961426
0.27053815126419067 0.95735293626785278 0.72731053829193115
0.44393381476402283 0.95929741859436035 0.7296568751335144
0.61786210536956787 0.96021103858947754 0.7296568751335144
0.79557341337203979 0.95735293626785278 0.72830700874328613
0.96929401159286499 0.95799952745437622 0.72573530673980713
