assets/lut/others warm highlight.cube
# Created by: G'MIC (https://gmic.eu)
TITLE "warm_highlight"
# LUT size
LUT_3D_SIZE 7
# Data domain
DOMAIN_MIN 0.0 0.0 0.0
DOMAIN_MAX 1.0 1.0 1.0
# LUT data points
0.12566430866718292 0.11110697686672211 0.079275481402873993
0.20576359331607819 0.10878439247608185 0.078630067408084869
0.48199960589408875 0.11907707899808884 0.085827186703681946
0.77178913354873657 0.11259240657091141 0.078446395695209503
0.92306333780288696 0.11304955929517746 0.079135909676551819
0.98402363061904907 0.11116397380828857 0.079793728888034821
1 0.12534190714359283 0.091153584420681
0.13876669108867645 0.20778627693653107 0.092948973178863525
0.22443939745426178 0.19870765507221222 0.085734620690345764
0.50612533092498779 0.20848304033279419 0.093048200011253357
0.77778172492980957 0.20460078120231628 0.089809626340866089
0.92068272829055786 0.1905466616153717 0.079221583902835846
0.98396879434585571 0.16990520060062408 0.064511723816394806
1 0.18369072675704956 0.076493822038173676
0.13580001890659332 0.41833704710006714 0.087919034063816071
0.21112379431724548 0.40950685739517212 0.08283107727766037
0.4757722020149231 0.4027022123336792 0.080612421035766602
0.77156490087509155 0.40721392631530762 0.083978436887264252
0.92399615049362183 0.40320888161659241 0.081884421408176422
0.98521620035171509 0.39734047651290894 0.078771181404590607
1 0.39558953046798706 0.078754588961601257
0.10654543340206146 0.63589197397232056 0.067251048982143402
0.19175544381141663 0.6394532322883606 0.068138062953948975
0.47438988089561462 0.65304630994796753 0.07737421989440918
0.74861139059066772 0.63318389654159546 0.068117253482341766
0.92069095373153687 0.64530158042907715 0.077435165643692017
0.98443174362182617 0.63251060247421265 0.070879347622394562
1 0.63001775741577148 0.076492175459861755
0.11706617474555969 0.85659325122833252 0.071077205240726471
0.20471599698066711 0.86563527584075928 0.078440360724925995
0.49863484501838684 0.8708730936050415 0.087966874241828918
0.76621562242507935 0.86582005023956299 0.08583514392375946
0.91363811492919922 0.84761393070220947 0.071291588246822357
0.98098009824752808 0.83941614627838135 0.062272105365991592
0.99999064207077026 0.86359483003616333 0.084917478263378143
0.13415525853633881 0.9705880880355835 0.086817905306816101
0.23566068708896637 0.97036373615264893 0.089088186621665955
0.51236963272094727 0.97299730777740479 0.097716160118579865
0.76235681772232056 0.96944040060043335 0.088235087692737579
0.92155569791793823 0.97018831968307495 0.083483047783374786
0.98211437463760376 0.96922600269317627 0.085260964930057526
1 0.97251540422439575 0.10203142464160919
0.1306401789188385 0.99985766410827637 0.08941815048456192
0.22305154800415039 1 0.091012142598628998
0.50076478719711304 1 0.090020738542079926
0.75459408760070801 0.99973046779632568 0.074144415557384491
0.90883874893188477 0.99952375888824463 0.077018827199935913
0.97793960571289062 0.99868166446685791 0.0592498779296875
0.99770969152450562 0.99937456846237183 0.071718402206897736
0.1285371333360672 0.10623297840356827 0.12973202764987946
0.22242821753025055 0.11255559325218201 0.1368473619222641
0.50049525499343872 0.11609940230846405 0.14570851624011993
0.788654625415802 0.12511877715587616 0.15570762753486633
0.92845100164413452 0.13448429107666016 0.16490496695041656
0.98354864120483398 0.12809810042381287 0.15586790442466736
0.99842673540115356 0.12487100064754486 0.16387152671813965
0.14055518805980682 0.21263326704502106 0.1379115879535675
0.22332912683486938 0.20597068965435028 0.13620127737522125
0.50004035234451294 0.21348990499973297 0.14938813447952271
0.78959149122238159 0.22437915205955505 0.17073796689510345
0.93176364898681641 0.24124740064144135 0.160061314702034
0.98528391122817993 0.22554604709148407 0.15239050984382629
0.99986803531646729 0.21274302899837494 0.1390250027179718
0.14766018092632294 0.42108175158500671 0.14739999175071716
0.22963601350784302 0.4189113974571228 0.14922045171260834
0.51675945520401001 0.42440304160118103 0.14881347119808197
0.77946776151657104 0.43191260099411011 0.16135400533676147
0.92488682270050049 0.43949398398399353 0.15431632101535797
0.98563939332962036 0.42722871899604797 0.13956618309020996
1 0.44262844324111938 0.14885345101356506
0.1217450425028801 0.65438258647918701 0.12859334051609039
0.22304752469062805 0.6659083366394043 0.13734038174152374
0.50824379920959473 0.67060679197311401 0.15332245826721191
0.77139461040496826 0.67539507150650024 0.15643094480037689
0.9283519983291626 0.67677408456802368 0.14574730396270752
0.98523908853530884 0.66759258508682251 0.13389430940151215
0.99922424554824829 0.65891861915588379 0.12946674227714539
0.12085328996181488 0.86150979995727539 0.13237084448337555
0.21732859313488007 0.86556720733642578 0.1417095959186554
0.50503963232040405 0.86924201250076294 0.15433971583843231
0.78640192747116089 0.87945026159286499 0.17219673097133636
0.92250359058380127 0.86655241250991821 0.15087646245956421
0.98003488779067993 0.8641362190246582 0.1378350704908371
0.99948781728744507 0.86329036951065063 0.13049525022506714
0.12386948615312576 0.96331870555877686 0.13346481323242188
0.24028344452381134 0.96508532762527466 0.14773580431938171
0.50502020120620728 0.96581530570983887 0.15220259130001068
0.77780580520629883 0.9708220362663269 0.16728319227695465
0.92363560199737549 0.96867507696151733 0.15905196964740753
0.97575682401657104 0.96682453155517578 0.15282854437828064
0.99995332956314087 0.96493935585021973 0.12376662343740463
0.12889337539672852 0.99607843160629272 0.13642591238021851
0.24084644019603729 0.99757188558578491 0.16821269690990448
0.51167827844619751 0.99834364652633667 0.1755865216255188
0.79140239953994751 0.99906951189041138 0.17649804055690765
0.91557115316390991 0.99669957160949707 0.16520805656909943
0.9703209400177002 0.99607843160629272 0.15049761533737183
0.99839580059051514 0.9957466721534729 0.13291798532009125
0.15512698888778687 0.13114438951015472 0.31344088912010193
0.26620402932167053 0.14856220781803131 0.33095899224281311
0.54672133922576904 0.15966884791851044 0.33867326378822327
0.808735191822052 0.16404074430465698 0.33856290578842163
0.92653113603591919 0.15015117824077606 0.33267045021057129
0.98100996017456055 0.14255227148532867 0.33578619360923767
0.99783259630203247 0.14970587193965912 0.32005214691162109
0.15861104428768158 0.23409232497215271 0.30811652541160583
0.26353922486305237 0.22668418288230896 0.34288415312767029
0.54225724935531616 0.24739429354667664 0.3321387767791748
0.78438061475753784 0.25541782379150391 0.33606907725334167
0.91868472099304199 0.25794884562492371 0.33253371715545654
0.98226737976074219 0.2352709174156189 0.32755392789840698
0.99765753746032715 0.24777127802371979 0.31468284130096436
0.16729578375816345 0.43328273296356201 0.3155243992805481
0.26270326972007751 0.45620813965797424 0.34108862280845642
0.55222624540328979 0.45610430836677551 0.33232772350311279
0.79119998216629028 0.46670770645141602 0.32676541805267334
0.9236757755279541 0.46907174587249756 0.33310228586196899
0.97964668273925781 0.45947703719139099 0.33559873700141907
0.9976850152015686 0.44944471120834351 0.32856771349906921
0.16128456592559814 0.68576127290725708 0.32338067889213562
0.27546370029449463 0.68962877988815308 0.33225157856941223
0.55964702367782593 0.69111967086791992 0.33105888962745667
0.79901361465454102 0.69559955596923828 0.32893240451812744
0.92154771089553833 0.69023263454437256 0.32867234945297241
0.98027443885803223 0.68895417451858521 0.32904043793678284
0.9960978627204895 0.69050920009613037 0.32843729853630066
0.15371586382389069 0.8595852255821228 0.31152570247650146
0.27150848507881165 0.86480712890625 0.32910299301147461
0.56246715784072876 0.87974685430526733 0.33921831846237183
0.78570771217346191 0.88179260492324829 0.32970300316810608
0.92140257358551025 0.87320125102996826 0.32485046982765198
0.97971099615097046 0.86914891004562378 0.32806822657585144
0.99612748622894287 0.86725872755050659 0.31525221467018127
0.15969361364841461 0.9607231616973877 0.31185391545295715
0.27265402674674988 0.96634387969970703 0.32439443469047546
0.54189836978912354 0.96830564737319946 0.33387258648872375
0.78780090808868408 0.96537685394287109 0.33376267552375793
0.91774076223373413 0.96810251474380493 0.34028643369674683
0.97704172134399414 0.96203899383544922 0.32860973477363586
0.99546980857849121 0.95906680822372437 0.30712604522705078
0.16889162361621857 0.99435663223266602 0.31993564963340759
0.27932044863700867 0.99426746368408203 0.33136990666389465
0.54976862668991089 0.99282479286193848 0.34342977404594421
0.79763132333755493 0.99633693695068359 0.33728119730949402
0.90959161520004272 0.99607843160629272 0.33778387308120728
0.96854418516159058 0.99455982446670532 0.32275521755218506
0.99547779560089111 0.99207907915115356 0.29942888021469116
0.17552362382411957 0.15722343325614929 0.51030969619750977
0.27580350637435913 0.15183469653129578 0.49286165833473206
0.55543309450149536 0.15392446517944336 0.52427667379379272
0.79871374368667603 0.15201935172080994 0.52953493595123291
0.92929160594940186 0.15063464641571045 0.49826866388320923
0.9830634593963623 0.15013563632965088 0.53125214576721191
0.99834173917770386 0.16005772352218628 0.50344157218933105
0.17323070764541626 0.24399545788764954 0.52677327394485474
0.26714843511581421 0.23627555370330811 0.52091485261917114
0.53635567426681519 0.25914153456687927 0.49868121743202209
0.78173130750656128 0.25298050045967102 0.52129536867141724
0.92488962411880493 0.25682765245437622 0.52875345945358276
0.98366469144821167 0.25020870566368103 0.53256100416183472
0.99745935201644897 0.26947027444839478 0.51511234045028687
0.17962010204792023 0.44981637597084045 0.52947002649307251
0.26800298690795898 0.46318119764328003 0.50210869312286377
0.53601348400115967 0.47922360897064209 0.49191904067993164
0.77825939655303955 0.46861356496810913 0.50617086887359619
0.92588067054748535 0.47002711892127991 0.52478289604187012
0.97987180948257446 0.47994875907897949 0.53640180826187134
0.99706339836120605 0.46014797687530518 0.53724819421768188
0.17662538588047028 0.69400864839553833 0.53026002645492554
0.27569562196731567 0.71040481328964233 0.50754129886627197
0.56226217746734619 0.69589608907699585 0.51620972156524658
0.80140799283981323 0.68441605567932129 0.52915036678314209
0.92434865236282349 0.68696874380111694 0.51941192150115967
0.97949326038360596 0.70538228750228882 0.52810263633728027
0.99634832143783569 0.71472996473312378 0.53662264347076416
0.17447645962238312 0.87043505907058716 0.52769249677658081
0.26914894580841064 0.87604451179504395 0.54049921035766602
0.56517362594604492 0.87906074523925781 0.54455661773681641
0.7922789454460144 0.87567198276519775 0.51871955394744873
0.92504203319549561 0.87667125463485718 0.49376389384269714
0.98148906230926514 0.87263816595077515 0.51220452785491943
0.99646997451782227 0.88174128532409668 0.49313139915466309
0.17538408935070038 0.95692569017410278 0.51509660482406616
0.27375268936157227 0.96847426891326904 0.50756645202636719
0.54889523983001709 0.96788561344146729 0.54496973752975464
0.77760273218154907 0.96030092239379883 0.53821110725402832
0.91977936029434204 0.96508890390396118 0.52871787548065186
0.97859305143356323 0.96532905101776123 0.53137952089309692
0.99534314870834351 0.95142906904220581 0.49865573644638062
0.17251306772232056 0.99338817596435547 0.5158766508102417
0.29044944047927856 0.99698615074157715 0.52697354555130005
0.54794573783874512 0.99519574642181396 0.54480850696563721
0.77590095996856689 0.99393153190612793 0.54537636041641235
0.91852658987045288 0.99696344137191772 0.54492080211639404
0.97329449653625488 0.99585944414138794 0.52752745151519775
0.99498277902603149 0.99372130632400513 0.48597961664199829
0.17578604817390442 0.14185400307178497 0.78435170650482178
0.26157486438751221 0.1580403596162796 0.78332614898681641
0.56250303983688354 0.14403697848320007 0.76166689395904541
0.80245423316955566 0.14963357150554657 0.7698405385017395
0.92336177825927734 0.14926590025424957 0.77581220865249634
0.98108887672424316 0.15105588734149933 0.76644712686538696
0.9980500340461731 0.14809130132198334 0.77989614009857178
0.17773857712745667 0.22945652902126312 0.7878267765045166
0.26183384656906128 0.23025600612163544 0.79170709848403931
0.53756749629974365 0.24604795873165131 0.77839809656143188
0.78480559587478638 0.23969720304012299 0.77302843332290649
0.92948043346405029 0.25265976786613464 0.77213907241821289
0.98180747032165527 0.25990086793899536 0.77023106813430786
0.99819588661193848 0.26902711391448975 0.76724046468734741
0.16038593649864197 0.44884145259857178 0.80001801252365112
0.26408201456069946 0.47095927596092224 0.7918739914894104
0.53198236227035522 0.45502907037734985 0.76670229434967041
0.78622406721115112 0.4508245587348938 0.78056561946868896
0.92489880323410034 0.46216800808906555 0.76329153776168823
0.98123049736022949 0.46968448162078857 0.77242344617843628
0.99996697902679443 0.44840735197067261 0.78328663110733032
0.16101719439029694 0.68615257740020752 0.78815442323684692
0.27754026651382446 0.68817144632339478 0.78750705718994141
0.54289251565933228 0.67897921800613403 0.76842999458312988
0.79369252920150757 0.6861686110496521 0.78366988897323608
0.92084646224975586 0.69553786516189575 0.7590632438659668
0.98203194141387939 0.70480072498321533 0.77415817975997925
0.99972915649414062 0.69909369945526123 0.78332185745239258
0.15986733138561249 0.87470871210098267 0.77994996309280396
0.27653005719184875 0.87243092060089111 0.78709959983825684
0.55112391710281372 0.86700832843780518 0.78489887714385986
0.79712045192718506 0.87167710065841675 0.77961611747741699
0.92494499683380127 0.87818312644958496 0.77059167623519897
0.98180198669433594 0.87620633840560913 0.78746026754379272
0.99779152870178223 0.87640255689620972 0.78443801403045654
0.16276098787784576 0.96668201684951782 0.77500683069229126
0.25697967410087585 0.97260755300521851 0.7757449746131897
0.53760766983032227 0.96667367219924927 0.77144908905029297
0.7935711145401001 0.9672999382019043 0.78021889925003052
0.91825950145721436 0.96335446834564209 0.75696194171905518
0.98279231786727905 0.9670911431312561 0.79232501983642578
0.99607843160629272 0.94796687364578247 0.78456580638885498
0.16481110453605652 0.99627590179443359 0.77645736932754517
0.28010439872741699 0.99606674909591675 0.75884008407592773
0.53580641746520996 0.99710202217102051 0.78722065687179565
0.77143383026123047 0.99505573511123657 0.79048275947570801
0.91953462362289429 0.99481213092803955 0.78474807739257812
0.97571814060211182 0.99478936195373535 0.77414709329605103
0.99684292078018188 0.99319511651992798 0.79084289073944092
0.12440251559019089 0.10564465820789337 0.94287091493606567
0.25070479512214661 0.11703696101903915 0.94229757785797119
0.51389193534851074 0.11677371710538864 0.9514501690864563
0.7764165997505188 0.13083173334598541 0.94509416818618774
0.91620016098022461 0.13300430774688721 0.93264812231063843
0.98111462593078613 0.13388986885547638 0.93577200174331665
1 0.13704033195972443 0.93572783470153809
0.1316569596529007 0.19972522556781769 0.94321513175964355
0.23724105954170227 0.21586562693119049 0.94486486911773682
0.50749474763870239 0.21926687657833099 0.94668149948120117
0.79289299249649048 0.23370680212974548 0.95221030712127686
0.92426943778991699 0.23959951102733612 0.94856387376785278
0.98191839456558228 0.23378702998161316 0.93992441892623901
0.9996451735496521 0.23983383178710938 0.94658917188644409
0.14945963025093079 0.42550155520439148 0.94935911893844604
0.25168618559837341 0.42346006631851196 0.95007961988449097
0.50886893272399902 0.44185706973075867 0.94762778282165527
0.78334170579910278 0.47102820873260498 0.94606500864028931
0.92303574085235596 0.45609387755393982 0.94228261709213257
0.98438215255737305 0.45026624202728271 0.94807130098342896
0.9998738169670105 0.43482008576393127 0.94440704584121704
0.12058670818805695 0.64927726984024048 0.94646042585372925
0.23220241069793701 0.6672743558883667 0.9508662223815918
0.4956853985786438 0.66103589534759521 0.95144081115722656
0.78241437673568726 0.67328381538391113 0.94157391786575317
0.92891412973403931 0.68022972345352173 0.94790458679199219
0.98442560434341431 0.65805160999298096 0.950489342212677
0.99992084503173828 0.66010874509811401 0.94484597444534302
0.1241484135389328 0.85990047454833984 0.94244498014450073
0.21569295227527618 0.86194682121276855 0.94446629285812378
0.50951731204986572 0.86501657962799072 0.94019138813018799
0.77800875902175903 0.87147337198257446 0.94079732894897461
0.92128241062164307 0.85780924558639526 0.93859094381332397
0.97438544034957886 0.85751819610595703 0.92641884088516235
0.99648845195770264 0.85314023494720459 0.934550940990448
0.12898926436901093 0.96519744396209717 0.93952381610870361
0.22134663164615631 0.96584171056747437 0.94671785831451416
0.50323539972305298 0.96681469678878784 0.94059973955154419
0.77961164712905884 0.96708196401596069 0.93932241201400757
0.91951465606689453 0.95874875783920288 0.93776649236679077
0.97346574068069458 0.94919383525848389 0.92646420001983643
0.99449968338012695 0.93492180109024048 0.93419474363327026
0.13355188071727753 0.99627411365509033 0.93710500001907349
0.24442729353904724 0.99834144115447998 0.94187033176422119
0.5175776481628418 0.99835348129272461 0.94096416234970093
0.76480454206466675 0.99922400712966919 0.9392704963684082
0.91145557165145874 0.99522846937179565 0.93629926443099976
0.97570693492889404 0.98894816637039185 0.93689757585525513
0.99466037750244141 0.98837804794311523 0.93756735324859619
0.12217420339584351 0.11488146334886551 0.99929404258728027
0.22173464298248291 0.11410592496395111 0.99954688549041748
0.51449787616729736 0.13484562933444977 1
0.75584137439727783 0.11178603768348694 0.9996941089630127
0.92362725734710693 0.11485978960990906 0.99818593263626099
0.98308736085891724 0.12105867266654968 0.99638146162033081
1 0.11977824568748474 0.99849611520767212
0.13480985164642334 0.20652984082698822 0.9998016357421875
0.22991542518138885 0.21100433170795441 0.9999159574508667
0.52387493848800659 0.2135007381439209 0.9999813437461853
0.77174085378646851 0.20034924149513245 0.99956762790679932
0.91949892044067383 0.18257376551628113 0.99971628189086914
0.9829103946685791 0.18339011073112488 0.99932551383972168
1 0.18007436394691467 0.99913245439529419
0.1300894170999527 0.41428342461585999 1
0.21106643974781036 0.40821453928947449 1
0.49665963649749756 0.42267808318138123 1
0.7651360034942627 0.40638905763626099 0.99999570846557617
0.92993700504302979 0.41413477063179016 1
0.98392397165298462 0.39684665203094482 1
1 0.39389932155609131 1
0.11176068335771561 0.64420491456985474 0.99986696243286133
0.1954357773065567 0.63916486501693726 1
0.45364224910736084 0.64115303754806519 1
0.75544005632400513 0.64013385772705078 0.99893820285797119
0.92349261045455933 0.65256547927856445 0.99960577487945557
0.98305940628051758 0.63739252090454102 0.99820977449417114
1 0.63500112295150757 0.99933707714080811
0.11932934075593948 0.85840189456939697 0.99956822395324707
0.19827656447887421 0.85653412342071533 0.99968552589416504
0.47477704286575317 0.86630237102508545 0.99999427795410156
0.76193797588348389 0.85989260673522949 0.99788457155227661
0.90751492977142334 0.83993816375732422 0.99550682306289673
0.97335624694824219 0.84427309036254883 0.99510878324508667
0.9954954981803894 0.86474525928497314 0.99906325340270996
0.14031080901622772 0.96890449523925781 0.99831551313400269
0.2243904322385788 0.97094690799713135 0.99985134601593018
0.50671392679214478 0.96958369016647339 0.99942052364349365
0.78978317975997925 0.96850097179412842 0.99750632047653198
0.91409802436828613 0.94049316644668579 0.99225729703903198
0.969657301902771 0.93615400791168213 0.99244576692581177
0.99192297458648682 0.94213098287582397 0.99594384431838989
0.14081847667694092 1 0.99775582551956177
0.22936514019966125 1 0.99766594171524048
0.4775272011756897 1 0.99931246042251587
0.7804487943649292 0.99730825424194336 0.99376016855239868
0.92445379495620728 0.99638760089874268 0.990520179271698
0.97163486480712891 0.99040931463241577 0.99230688810348511
0.99317145347595215 0.98835784196853638 0.99602454900741577
