assets/lut/others sunny alt.cube
# Created by: G'MIC (https://gmic.eu)
TITLE "sunny_alt"
# LUT size
LUT_3D_SIZE 13
# Data domain
DOMAIN_MIN 0.0 0.0 0.0
DOMAIN_MAX 1.0 1.0 1.0
# LUT data points
0.22090359032154083 0.030882352963089943 0.03333466500043869
0.25090029835700989 0.031072743237018585 0.032801222056150436
0.28291347622871399 0.034568965435028076 0.03244921937584877
0.32148793339729309 0.034803923219442368 0.033208839595317841
0.36849454045295715 0.034282416105270386 0.034202799201011658
0.42265459895133972 0.031128169968724251 0.03486926481127739
0.48301804065704346 0.030882352963089943 0.034878600388765335
0.54965817928314209 0.030882352963089943 0.034754332154989243
0.6216881275177002 0.030882352963089943 0.032552815973758698
0.69987648725509644 0.030882352963089943 0.030882352963089943
0.78339171409606934 0.030882352963089943 0.030922025442123413
0.86937797069549561 0.031071396544575691 0.031926307827234268
0.95353037118911743 0.031630095094442368 0.032444555312395096
0.21894308924674988 0.10813957452774048 0.034005019813776016
0.24865449965000153 0.10893595218658447 0.033410120755434036
0.28127777576446533 0.11063453555107117 0.033045869320631027
0.32055249810218811 0.11016154289245605 0.03287862241268158
0.36782184243202209 0.10835966467857361 0.033266987651586533
0.4225715696811676 0.1076769232749939 0.033808600157499313
0.48354542255401611 0.10684281587600708 0.034191325306892395
0.55039715766906738 0.10679031163454056 0.033945120871067047
0.6228412389755249 0.10743927210569382 0.031888101249933243
0.70118165016174316 0.10795774310827255 0.030882352963089943
0.78391528129577637 0.10808823257684708 0.030882352963089943
0.86874294281005859 0.10988714545965195 0.030929788947105408
0.95216184854507446 0.11175990104675293 0.032127007842063904
0.21729782223701477 0.18745838105678558 0.034007351845502853
0.24717104434967041 0.18794251978397369 0.033488687127828598
0.28091856837272644 0.18659009039402008 0.032937157899141312
0.32124096155166626 0.18519608676433563 0.032414216548204422
0.36943051218986511 0.18319791555404663 0.032406825572252274
0.42432144284248352 0.18151862919330597 0.032229658216238022
0.48563915491104126 0.18139553070068359 0.032535180449485779
0.55238622426986694 0.18164892494678497 0.03313649445772171
0.62494409084320068 0.18261700868606567 0.032319236546754837
0.70241403579711914 0.18373247981071472 0.030960353091359138
0.78419047594070435 0.18517938256263733 0.030882352963089943
0.86721998453140259 0.1868617981672287 0.030882352963089943
0.95110231637954712 0.18921568989753723 0.031712371855974197
0.21795982122421265 0.26642155647277832 0.033313855528831482
0.24770487844944 0.26594823598861694 0.033218953758478165
0.28157413005828857 0.26319155097007751 0.03267422690987587
0.32321909070014954 0.26024976372718811 0.032414216548204422
0.37134337425231934 0.2585807740688324 0.032409548759460449
0.426409512758255 0.25819453597068787 0.032423552125692368
0.4876289963722229 0.25789293646812439 0.032991804182529449
0.55437666177749634 0.25857841968536377 0.033926647156476974
0.62618249654769897 0.25922182202339172 0.034264255315065384
0.70291966199874878 0.25940260291099548 0.033505160361528397
0.78432208299636841 0.26074796915054321 0.032371774315834045
0.86697304248809814 0.26266545057296753 0.032209973782300949
0.95102512836456299 0.26591014862060547 0.032629065215587616
0.21965427696704865 0.3438841700553894 0.033210784196853638
0.25042542815208435 0.34355965256690979 0.033210784196853638
0.285043865442276 0.34013310074806213 0.032874342054128647
0.32597836852073669 0.33606421947479248 0.032432883977890015
0.37337660789489746 0.33578431606292725 0.032751239836215973
0.42739450931549072 0.33566510677337646 0.03357270359992981
0.48873588442802429 0.33570423722267151 0.034514348953962326
0.55574268102645874 0.33627724647521973 0.034798476845026016
0.62722355127334595 0.33701637387275696 0.034803923219442368
0.70357966423034668 0.33672454953193665 0.034803923219442368
0.78451424837112427 0.33629986643791199 0.034803681075572968
0.86770713329315186 0.33949410915374756 0.034700971096754074
0.95215499401092529 0.34052267670631409 0.034556280821561813
0.22137139737606049 0.42486363649368286 0.033862769603729248
0.25314438343048096 0.42311137914657593 0.033989161252975464
0.28849014639854431 0.41916355490684509 0.033510275185108185
0.3283098042011261 0.41518303751945496 0.033270098268985748
0.37404128909111023 0.41443833708763123 0.033851128071546555
0.42696768045425415 0.41523438692092896 0.034889400005340576
0.48804360628128052 0.41613811254501343 0.035537779331207275
0.55526226758956909 0.41681444644927979 0.035879861563444138
0.62681812047958374 0.41738814115524292 0.035503942519426346
0.70336264371871948 0.41694939136505127 0.035744115710258484
0.78462296724319458 0.41632768511772156 0.036400124430656433
0.86855453252792358 0.41707637906074524 0.036616023629903793
0.95401710271835327 0.4176582396030426 0.036289889365434647
0.22289285063743591 0.50579941272735596 0.035312652587890625
0.2553589940071106 0.50447171926498413 0.035625770688056946
0.28956794738769531 0.50078493356704712 0.035190042108297348
0.32883554697036743 0.49733695387840271 0.035084445029497147
0.37328022718429565 0.49669826030731201 0.035531211644411087
0.42527186870574951 0.49786490201950073 0.036091718822717667
0.48550510406494141 0.49900099635124207 0.036328781396150589
0.55293971300125122 0.49948641657829285 0.03624146431684494
0.62545371055603027 0.49953949451446533 0.035881489515304565
0.70262730121612549 0.49884504079818726 0.036604158580303192
0.78439891338348389 0.49784210324287415 0.037639155983924866
0.86852174997329712 0.49788644909858704 0.037858132272958755
0.95414763689041138 0.4978485107421875 0.037349969148635864
0.22372792661190033 0.58446097373962402 0.036118362098932266
0.25598108768463135 0.58380353450775146 0.036335784941911697
0.29099076986312866 0.58081620931625366 0.03588518500328064
0.32929763197898865 0.57843917608261108 0.035539217293262482
0.37262368202209473 0.57803875207901001 0.035810507833957672
0.42305141687393188 0.5790400505065918 0.036111749708652496
0.48319479823112488 0.57959210872650146 0.035900026559829712
0.55104547739028931 0.57962101697921753 0.035544391721487045
0.6250109076499939 0.57923042774200439 0.035647552460432053
0.70233559608459473 0.57900989055633545 0.036923680454492569
0.78403079509735107 0.57831662893295288 0.038383603096008301
0.86744946241378784 0.57790470123291016 0.038824401795864105
0.95237326622009277 0.57634991407394409 0.038711756467819214
0.22364488244056702 0.65668076276779175 0.036292806267738342
0.25575548410415649 0.65713906288146973 0.036218516528606415
0.2906150221824646 0.6544269323348999 0.035329196602106094
0.32940924167633057 0.65215331315994263 0.03490283340215683
0.37258827686309814 0.65233373641967773 0.03497517853975296
0.42306464910507202 0.65384775400161743 0.035028852522373199
0.48246338963508606 0.65443092584609985 0.034868545830249786
0.55012595653533936 0.65377670526504517 0.034803923219442368
0.625 0.65279430150985718 0.035173483192920685
0.70241338014602661 0.6517760157585144 0.037007693201303482
0.78407859802246094 0.6514514684677124 0.038558047264814377
0.86654770374298096 0.65179896354675293 0.039180770516395569
0.95038396120071411 0.65094596147537231 0.039409831166267395
0.22202758491039276 0.71732199192047119 0.035779345780611038
0.25401008129119873 0.71959877014160156 0.035272352397441864
0.28890201449394226 0.71750128269195557 0.034807153046131134
0.32821595668792725 0.71530932188034058 0.034803923219442368
0.37243944406509399 0.7158779501914978 0.03457210585474968
0.42318075895309448 0.71812176704406738 0.033890862017869949
0.48234188556671143 0.71851420402526855 0.033754926174879074
0.54982942342758179 0.71657377481460571 0.034277088940143585
0.62462306022644043 0.71490645408630371 0.03477790579199791
0.70265763998031616 0.71387654542922974 0.035881701856851578
0.78431570529937744 0.71425151824951172 0.037865132093429565
0.86678344011306763 0.71611428260803223 0.038667984306812286
0.95018404722213745 0.71635979413986206 0.038487199693918228
0.22079798579216003 0.76460552215576172 0.034904271364212036
0.2520115077495575 0.76839971542358398 0.034803923219442368
0.28726840019226074 0.76650625467300415 0.034769695252180099
0.3267970085144043 0.76422768831253052 0.034287590533494949
0.37138062715530396 0.76487904787063599 0.033522140234708786
0.4227660596370697 0.76715332269668579 0.032741904258728027
0.48199060559272766 0.76739269495010376 0.032476447522640228
0.54920631647109985 0.76481878757476807 0.032821446657180786
0.62368237972259521 0.76289451122283936 0.033789929002523422
0.70274394750595093 0.76184922456741333 0.034707013517618179
0.78503072261810303 0.76295769214630127 0.035861954092979431
0.86834061145782471 0.76577824354171753 0.037170469760894775
0.95230573415756226 0.76800143718719482 0.036596380174160004
0.2218734472990036 0.79832565784454346 0.034803923219442368
0.25274407863616943 0.80151158571243286 0.034803923219442368
0.28684282302856445 0.7997632622718811 0.034318514168262482
0.32604232430458069 0.79773968458175659 0.033356253057718277
0.37111881375312805 0.79802262783050537 0.033210784196853638
0.42266488075256348 0.79943996667861938 0.032681230455636978
0.48174893856048584 0.79966002702713013 0.032414216548204422
0.54869318008422852 0.79822301864624023 0.032068513333797455
0.62325918674468994 0.79692637920379639 0.031893201172351837
0.70318424701690674 0.79658865928649902 0.032894313335418701
0.78534740209579468 0.79759162664413452 0.034473374485969543
0.86856615543365479 0.80016607046127319 0.035548325628042221
0.95233255624771118 0.80185973644256592 0.035449564456939697
0.22482943534851074 0.82240772247314453 0.034123841673135757
0.25568979978561401 0.82364964485168457 0.034581441432237625
0.28928697109222412 0.82221734523773193 0.033576592803001404
0.32797014713287354 0.81973040103912354 0.032796163111925125
0.37303012609481812 0.81973040103912354 0.032887179404497147
0.42453888058662415 0.82026141881942749 0.03264077752828598
0.48301881551742554 0.820900559425354 0.032190375030040741
0.54975253343582153 0.82064008712768555 0.031274519860744476
0.62453514337539673 0.82094931602478027 0.030882352963089943
0.70424813032150269 0.82133907079696655 0.031195113435387611
0.78592371940612793 0.82268798351287842 0.033247344195842743
0.86796951293945312 0.82362627983093262 0.034932289272546768
0.95041799545288086 0.8233637809753418 0.035288147628307343
0.22173804044723511 0.030882352963089943 0.11423923075199127
0.25101077556610107 0.030882352963089943 0.11398018896579742
0.28264081478118896 0.031379476189613342 0.11331956088542938
0.3204311728477478 0.032532095909118652 0.11394576728343964
0.36690178513526917 0.032230585813522339 0.11482557654380798
0.42248773574829102 0.030924748629331589 0.11516667157411575
0.48250794410705566 0.030882352963089943 0.11367003619670868
0.54915988445281982 0.030882352963089943 0.11200980097055435
0.62118291854858398 0.030882352963089943 0.11194704473018646
0.69952797889709473 0.030882352963089943 0.10977420955896378
0.78362125158309937 0.030882352963089943 0.10993243753910065
0.86950856447219849 0.031320907175540924 0.11173173785209656
0.95218753814697266 0.033263679593801498 0.11217491328716278
0.22006095945835114 0.10808823257684708 0.11586523801088333
0.24972039461135864 0.10776455700397491 0.1153339296579361
0.2819058895111084 0.10737783461809158 0.11438994854688644
0.32014372944831848 0.10793304443359375 0.11337114125490189
0.36666882038116455 0.10808946192264557 0.11248746514320374
0.42248773574829102 0.10808823257684708 0.11205282807350159
0.48240408301353455 0.10808823257684708 0.11200980097055435
0.54937213659286499 0.10808823257684708 0.11200980097055435
0.62141972780227661 0.10808823257684708 0.1113126277923584
0.70055854320526123 0.10808823257684708 0.10813736170530319
0.78434395790100098 0.10808823257684708 0.10808823257684708
0.8692055344581604 0.11061700433492661 0.10852812230587006
0.95161944627761841 0.11200980097055435 0.11185503005981445
0.21908582746982574 0.18530368804931641 0.11584481596946716
0.24886083602905273 0.1847291886806488 0.11545509099960327
0.281686931848526 0.18360824882984161 0.11436836421489716
0.32115072011947632 0.18290118873119354 0.11270727962255478
0.36814647912979126 0.18294587731361389 0.11200980097055435
0.42248955368995667 0.18325883150100708 0.11200980097055435
0.48342686891555786 0.18409338593482971 0.11200980097055435
0.55039793252944946 0.18512137234210968 0.11200980097055435
0.62255698442459106 0.18529291450977325 0.11148875951766968
0.70149862766265869 0.18529412150382996 0.10830739140510559
0.78403127193450928 0.18529412150382996 0.10808823257684708
0.8679313063621521 0.18690234422683716 0.10821687430143356
0.95123791694641113 0.18919594585895538 0.1116437241435051
0.21903526782989502 0.26409217715263367 0.11526256054639816
0.24918113648891449 0.26259878277778625 0.11511962115764618
0.28319078683853149 0.26069632172584534 0.11438197642564774
0.32315081357955933 0.25867503881454468 0.11297128349542618
0.3701634407043457 0.25857841968536377 0.11206278949975967
0.42385241389274597 0.25868189334869385 0.11200980097055435
0.48495915532112122 0.26015731692314148 0.11200980097055435
0.55124849081039429 0.26195719838142395 0.11200980097055435
0.6235816478729248 0.26257792115211487 0.11200782656669617
0.70148038864135742 0.26249784231185913 0.11148060858249664
0.78359770774841309 0.26249688863754272 0.1104319840669632
0.86720734834671021 0.26257491111755371 0.11136673390865326
0.95149266719818115 0.26486691832542419 0.11253882199525833
0.2200310230255127 0.34370920062065125 0.11507353186607361
0.2510276734828949 0.34187784790992737 0.11507353186607361
0.2850537896156311 0.33894187211990356 0.11476237326860428
0.32505148649215698 0.3358401358127594 0.114152692258358
0.37167710065841675 0.33578431606292725 0.11379503458738327
0.42600545287132263 0.33623281121253967 0.11349894106388092
0.48578527569770813 0.33842247724533081 0.11354561895132065
0.55193781852722168 0.33986982703208923 0.11331360787153244
0.62371951341629028 0.34058234095573425 0.11253257840871811
0.7011379599571228 0.33972921967506409 0.11223228275775909
0.78322213888168335 0.33967339992523193 0.11271336674690247
0.86766904592514038 0.33970588445663452 0.11409974843263626
0.95342850685119629 0.33991298079490662 0.1154758557677269
0.22120429575443268 0.42475935816764832 0.11557906121015549
0.2526606023311615 0.42260473966598511 0.11578424274921417
0.28798156976699829 0.41905006766319275 0.1155550479888916
0.32711857557296753 0.41597825288772583 0.11535279452800751
0.37223720550537109 0.41534227132797241 0.11553955078125
0.42578572034835815 0.41700989007949829 0.11575155705213547
0.48553216457366943 0.41856834292411804 0.11589819192886353
0.55170124769210815 0.41988000273704529 0.1159265860915184
0.62383347749710083 0.42010414600372314 0.11586436629295349
0.70112782716751099 0.4187566339969635 0.11575724184513092
0.78317916393280029 0.41731059551239014 0.11590878665447235
0.86880409717559814 0.41721934080123901 0.11597122251987457
0.95534926652908325 0.41786769032478333 0.11693701893091202
0.22190900146961212 0.50594395399093628 0.11591659486293793
0.25460055470466614 0.50459253787994385 0.11592921614646912
0.28883171081542969 0.50122445821762085 0.11591862887144089
0.32780802249908447 0.4983421266078949 0.11591318249702454
0.37239450216293335 0.49779266119003296 0.11592673510313034
0.4236341118812561 0.49944797158241272 0.11593136936426163
0.48383602499961853 0.50064659118652344 0.11593136936426163
0.55058735609054565 0.50131696462631226 0.11593136936426163
0.62320661544799805 0.50110870599746704 0.11593136936426163
0.70112007856369019 0.49995160102844238 0.11593136936426163
0.78330808877944946 0.49871644377708435 0.11593136936426163
0.86874020099639893 0.49830049276351929 0.11705741286277771
0.95508527755737305 0.49824565649032593 0.11834010481834412
0.22236135601997375 0.58533191680908203 0.11593136936426163
0.25522029399871826 0.58450496196746826 0.11593136936426163
0.28955981135368347 0.582267165184021 0.11593136936426163
0.32823538780212402 0.57920891046524048 0.11593136936426163
0.37242648005485535 0.57916486263275146 0.11593136936426163
0.42283689975738525 0.58043980598449707 0.11593136936426163
0.4822770357131958 0.58232146501541138 0.11592995375394821
0.54962003231048584 0.58270537853240967 0.1159265860915184
0.62217491865158081 0.58097773790359497 0.11593077331781387
0.70129239559173584 0.57916665077209473 0.11593136936426163
0.78362476825714111 0.57916665077209473 0.11626265197992325
0.86775344610214233 0.57916665077209473 0.11934344470500946
0.9536207914352417 0.57890897989273071 0.11942344903945923
0.22187846899032593 0.6574520468711853 0.11593136936426163
0.25479808449745178 0.65825599431991577 0.11593136936426163
0.28930297493934631 0.65632694959640503 0.11575204879045486
0.32883983850479126 0.65437227487564087 0.11515431106090546
0.37242648005485535 0.65455430746078491 0.11547752469778061
0.42279410362243652 0.65586394071578979 0.11560101807117462
0.48157349228858948 0.65689289569854736 0.1152656078338623
0.54901009798049927 0.6560627818107605 0.11493857949972153
0.62180912494659424 0.65461826324462891 0.11562906950712204
0.7017822265625 0.6534239649772644 0.11593136936426163
0.78364032506942749 0.65269607305526733 0.11691294610500336
0.86738145351409912 0.65283513069152832 0.11982063204050064
0.95214378833770752 0.65232348442077637 0.11944998800754547
0.22039361298084259 0.71909290552139282 0.11592772603034973
0.25254920125007629 0.72067338228225708 0.1157921701669693
0.28861173987388611 0.71998399496078491 0.11451215296983719
0.32773914933204651 0.71732085943222046 0.11350139230489731
0.37164384126663208 0.71862834692001343 0.11377833038568497
0.42239630222320557 0.72059667110443115 0.11379587650299072
0.48117339611053467 0.72068047523498535 0.11266778409481049
0.54839402437210083 0.7198413610458374 0.11203242093324661
0.62125265598297119 0.71705740690231323 0.11268292367458344
0.70191472768783569 0.71626102924346924 0.11560408771038055
0.78430294990539551 0.71598678827285767 0.11610838770866394
0.86792892217636108 0.71658539772033691 0.11830281466245651
0.95206379890441895 0.71664094924926758 0.11706140637397766
0.21879470348358154 0.76700115203857422 0.11551090329885483
0.25055885314941406 0.76976102590560913 0.11498309671878815
0.28509649634361267 0.76791787147521973 0.11389598250389099
0.32516959309577942 0.76609861850738525 0.11348038911819458
0.3696034848690033 0.76658457517623901 0.11334581673145294
0.42037144303321838 0.76945573091506958 0.11249905824661255
0.47969645261764526 0.7697678804397583 0.11200980097055435
0.54708510637283325 0.76791292428970337 0.11200980097055435
0.62108176946640015 0.76578933000564575 0.11200980097055435
0.70146089792251587 0.76492762565612793 0.11297278106212616
0.78502178192138672 0.76475918292999268 0.11574847996234894
0.86888062953948975 0.76557391881942749 0.11593136936426163
0.95331102609634399 0.76611495018005371 0.11593136936426163
0.21904595196247101 0.80113762617111206 0.11293252557516098
0.25002208352088928 0.80275547504425049 0.11410209536552429
0.28481945395469666 0.80011183023452759 0.11406990140676498
0.32376822829246521 0.79829913377761841 0.11377618461847305
0.36844706535339355 0.7988440990447998 0.11306348443031311
0.41989931464195251 0.80065774917602539 0.1120295524597168
0.47951069474220276 0.80191659927368164 0.11200980097055435
0.54669475555419922 0.80101829767227173 0.11200972646474838
0.62108081579208374 0.80012762546539307 0.11200126260519028
0.70139598846435547 0.79916757345199585 0.11200966686010361
0.78504902124404907 0.7986760139465332 0.11357882618904114
0.86911767721176147 0.79973912239074707 0.11585438996553421
0.95357644557952881 0.80007255077362061 0.11475168913602829
0.22085575759410858 0.82529956102371216 0.11098045110702515
0.25191196799278259 0.82413583993911743 0.11197985708713531
0.28564947843551636 0.82110810279846191 0.11216451972723007
0.32454672455787659 0.81807345151901245 0.11294694989919662
0.36991804838180542 0.81908535957336426 0.11218806356191635
0.42222541570663452 0.82091563940048218 0.11200980097055435
0.48136076331138611 0.82318544387817383 0.11200863867998123
0.54835271835327148 0.82364809513092041 0.1114007830619812
0.62234592437744141 0.82364189624786377 0.11043434590101242
0.70257067680358887 0.82364046573638916 0.11170636117458344
0.78505402803421021 0.82365018129348755 0.11208843439817429
0.86863738298416138 0.82365196943283081 0.11384598910808563
0.95228707790374756 0.82351678609848022 0.1127869114279747
0.22287321090698242 0.030860811471939087 0.19164271652698517
0.25224950909614563 0.030000455677509308 0.19222497940063477
0.28338342905044556 0.029711270704865456 0.1918756365776062
0.32016882300376892 0.030747253447771072 0.19205601513385773
0.36682847142219543 0.030882352963089943 0.19153638184070587
0.42248773574829102 0.030882352963089943 0.19034913182258606
0.48408988118171692 0.030882352963089943 0.18910786509513855
0.55085998773574829 0.030882352963089943 0.18856093287467957
0.62302678823471069 0.030882352963089943 0.18834331631660461
0.70169574022293091 0.030882352963089943 0.18768802285194397
0.78572171926498413 0.030882352963089943 0.18707025051116943
0.87088525295257568 0.030930163338780403 0.18787126243114471
0.95301401615142822 0.032821100205183029 0.18912141025066376
0.22219035029411316 0.10691326111555099 0.19310808181762695
0.25189405679702759 0.10435500741004944 0.19313725829124451
0.2838442325592041 0.10386949777603149 0.19288787245750427
0.32114264369010925 0.10556416213512421 0.19153167307376862
0.36710891127586365 0.1080482006072998 0.18969698250293732
0.42248773574829102 0.10831367969512939 0.18895772099494934
0.48307007551193237 0.10842093825340271 0.18834927678108215
0.55039387941360474 0.10808823257684708 0.18774141371250153
0.62336498498916626 0.10808823257684708 0.18644800782203674
0.70248806476593018 0.10808823257684708 0.18524044752120972
0.78645402193069458 0.10808823257684708 0.18396380543708801
0.87129658460617065 0.10862436890602112 0.18412086367607117
0.95328682661056519 0.11152521520853043 0.18822209537029266
0.22122655808925629 0.18337120115756989 0.19313725829124451
0.25145724415779114 0.18115304410457611 0.19313725829124451
0.28466019034385681 0.18012997508049011 0.19291704893112183
0.32307541370391846 0.18130481243133545 0.19057632982730865
0.36869964003562927 0.18317057192325592 0.18921568989753723
0.42248773574829102 0.18522645533084869 0.18865256011486053
0.48332676291465759 0.18546122312545776 0.18791644275188446
0.55024898052215576 0.18584282696247101 0.18734721839427948
0.62317168712615967 0.1856217235326767 0.18592844903469086
0.70229357481002808 0.18529412150382996 0.18506820499897003
0.78564465045928955 0.18529412150382996 0.18382284045219421
0.87029552459716797 0.18541222810745239 0.18451984226703644
0.95349240303039551 0.18717287480831146 0.18815687298774719
0.22068105638027191 0.26185223460197449 0.19313725829124451
0.25159141421318054 0.25945895910263062 0.19313725829124451
0.28517007827758789 0.25831937789916992 0.19301803410053253
0.32427424192428589 0.25853431224822998 0.19145599007606506
0.37040016055107117 0.25863298773765564 0.18942329287528992
0.42287716269493103 0.26108524203300476 0.18911725282669067
0.48373028635978699 0.2624976634979248 0.18880501389503479
0.55024510622024536 0.2644745409488678 0.18828098475933075
0.62172073125839233 0.26581919193267822 0.18746957182884216
0.70065265893936157 0.26272913813591003 0.18615013360977173
0.78395229578018188 0.26193428039550781 0.18584400415420532
0.86906373500823975 0.26136639714241028 0.18723711371421814
0.95407849550247192 0.2623278796672821 0.18982464075088501
0.22094297409057617 0.34153971076011658 0.19313725829124451
0.25221702456474304 0.33938854932785034 0.19313725829124451
0.28624039888381958 0.33677405118942261 0.19313725829124451
0.32567951083183289 0.33578971028327942 0.19300584495067596
0.3717329204082489 0.33581876754760742 0.19217245280742645
