assets/lut/others nostalgic.cube
# Created by: G'MIC (https://gmic.eu)
TITLE "nostalgic"
# LUT size
LUT_3D_SIZE 5
# Data domain
DOMAIN_MIN 0.0 0.0 0.0
DOMAIN_MAX 1.0 1.0 1.0
# LUT data points
0.1592702716588974 0.026398992165923119 0.14039114117622375
0.30731451511383057 0.02702648751437664 0.13977192342281342
0.57952731847763062 0.028178824111819267 0.14150352776050568
0.9113842248916626 0.026104362681508064 0.1411169171333313
1 0.028409875929355621 0.14285941421985626
0.1664549857378006 0.23281723260879517 0.1432071328163147
0.30804517865180969 0.23367749154567719 0.14130377769470215
0.56444710493087769 0.22067739069461823 0.14164850115776062
0.91327172517776489 0.22481332719326019 0.1433776319026947
0.99854826927185059 0.24290920794010162 0.14304156601428986
0.16298715770244598 0.5806577205657959 0.14791300892829895
0.31156206130981445 0.57554560899734497 0.15049920976161957
0.55944275856018066 0.57440811395645142 0.14492884278297424
0.90948778390884399 0.57538044452667236 0.14817076921463013
0.99971508979797363 0.57856446504592896 0.14203095436096191
0.16040678322315216 0.81879138946533203 0.14728313684463501
0.3091646134853363 0.82898205518722534 0.14510470628738403
0.57462000846862793 0.82310110330581665 0.15129439532756805
0.91126525402069092 0.8371964693069458 0.15199129283428192
0.99918419122695923 0.83563172817230225 0.14277401566505432
0.15940172970294952 0.95404452085494995 0.14584572613239288
0.31598249077796936 0.95329105854034424 0.14779092371463776
0.59098827838897705 0.96017390489578247 0.14755381643772125
0.92294937372207642 0.95948445796966553 0.14878949522972107
0.98603832721710205 0.94785594940185547 0.14871424436569214
0.16483905911445618 0.0265172328799963 0.27436745166778564
0.32022944092750549 0.035151567310094833 0.28183692693710327
0.58735042810440063 0.026364270597696304 0.2728937566280365
0.92024177312850952 0.026260031387209892 0.26853567361831665
0.99905598163604736 0.024509819224476814 0.26322963833808899
0.16564165055751801 0.23280096054077148 0.27356967329978943
0.31895938515663147 0.24232834577560425 0.27713623642921448
0.59230148792266846 0.24824199080467224 0.2823270857334137
0.91143256425857544 0.23865056037902832 0.27123287320137024
0.99821513891220093 0.23440434038639069 0.26907813549041748
0.16315282881259918 0.60744667053222656 0.27983543276786804
0.31651070713996887 0.61367738246917725 0.29247808456420898
0.59675371646881104 0.60515600442886353 0.28170153498649597
0.92527979612350464 0.61205458641052246 0.28040391206741333
0.99906456470489502 0.60416781902313232 0.27605745196342468
0.16492268443107605 0.84202581644058228 0.28541415929794312
0.3210853636264801 0.84218752384185791 0.28233715891838074
0.59657293558120728 0.8417123556137085 0.28051972389221191
0.92110705375671387 0.84891873598098755 0.28241315484046936
0.99937701225280762 0.84306269884109497 0.27318057417869568
0.15970823168754578 0.95954489707946777 0.28928682208061218
0.31580805778503418 0.95971286296844482 0.29827654361724854
0.59995299577713013 0.96341288089752197 0.28567212820053101
0.91608238220214844 0.96172553300857544 0.2923942506313324
0.99901479482650757 0.96148186922073364 0.28111514449119568
0.16227389872074127 0.031557314097881317 0.55686122179031372
0.32824739813804626 0.033539086580276489 0.56013768911361694
0.61274081468582153 0.029946645721793175 0.54559183120727539
0.92270845174789429 0.0304592065513134 0.53899246454238892
0.99985760450363159 0.032539039850234985 0.53620797395706177
0.15954184532165527 0.24175083637237549 0.5526806116104126
0.31784573197364807 0.24360494315624237 0.54576414823532104
0.61897718906402588 0.25521060824394226 0.55566573143005371
0.92421507835388184 0.24677689373493195 0.54253381490707397
0.9996875524520874 0.25104978680610657 0.53563910722732544
0.15981625020503998 0.61325877904891968 0.55161517858505249
0.31911474466323853 0.61594748497009277 0.55177146196365356
0.60606598854064941 0.62348788976669312 0.55098795890808105
0.92520749568939209 0.61880975961685181 0.54121321439743042
0.99994450807571411 0.61217713356018066 0.53795367479324341
0.16499839723110199 0.84688657522201538 0.55149573087692261
0.32674336433410645 0.85796111822128296 0.56608790159225464
0.60658037662506104 0.85366439819335938 0.55258530378341675
0.926768958568573 0.85056942701339722 0.54822254180908203
0.99969178438186646 0.84650158882141113 0.53388047218322754
0.16074864566326141 0.96596163511276245 0.55656766891479492
0.31829288601875305 0.9658769965171814 0.54979056119918823
0.60392051935195923 0.96712440252304077 0.54609793424606323
0.92405736446380615 0.96508097648620605 0.54437685012817383
0.99880039691925049 0.95980584621429443 0.54353237152099609
0.16354168951511383 0.02990112267434597 0.7332882285118103
0.32046106457710266 0.032745018601417542 0.73849791288375854
0.59461992979049683 0.029254583641886711 0.73027646541595459
0.91887527704238892 0.030397228896617889 0.72971260547637939
0.99713903665542603 0.032272577285766602 0.73022311925888062
0.16362929344177246 0.24048735201358795 0.73183023929595947
0.3184477686882019 0.24696202576160431 0.73176711797714233
0.6011928915977478 0.24631161987781525 0.73588961362838745
0.91971302032470703 0.2476772665977478 0.73417025804519653
0.99906432628631592 0.23621894419193268 0.72382932901382446
0.16197986900806427 0.61063838005065918 0.73156201839447021
0.31920191645622253 0.60023033618927002 0.733367919921875
0.59846645593643188 0.60757488012313843 0.73347353935241699
0.92638719081878662 0.60436123609542847 0.73086971044540405
0.99967962503433228 0.60616493225097656 0.72991669178009033
0.1625669002532959 0.84096449613571167 0.71882593631744385
0.31577134132385254 0.8419991135597229 0.72801655530929565
0.59538882970809937 0.84372812509536743 0.73074930906295776
0.92675888538360596 0.84669262170791626 0.73905903100967407
0.99651455879211426 0.84924650192260742 0.74231439828872681
0.15973798930644989 0.96283793449401855 0.72892719507217407
0.31583485007286072 0.96085447072982788 0.72244358062744141
0.59506720304489136 0.9542766809463501 0.72575086355209351
0.89666122198104858 0.9569472074508667 0.73489665985107422
0.98825567960739136 0.95547306537628174 0.72644281387329102
0.16018408536911011 0.032335497438907623 0.88756769895553589
0.31504425406455994 0.032564021646976471 0.88480985164642334
0.58113551139831543 0.026124691590666771 0.8855101466178894
0.91360658407211304 0.023404873907566071 0.88723492622375488
0.99697047472000122 0.025561584159731865 0.89023762941360474
0.15939940512180328 0.22758294641971588 0.88272041082382202
0.30938068032264709 0.22466282546520233 0.88578313589096069
0.57173401117324829 0.22157423198223114 0.88291782140731812
0.91831809282302856 0.23267517983913422 0.88297384977340698
0.99925768375396729 0.22048716247081757 0.88751506805419922
0.15833145380020142 0.56455451250076294 0.88686573505401611
0.30732724070549011 0.5655815601348877 0.88260078430175781
0.55984055995941162 0.5653654932975769 0.88229262828826904
0.91176676750183105 0.56830483675003052 0.88771295547485352
0.99978405237197876 0.56643205881118774 0.87765306234359741
0.15721151232719421 0.83418649435043335 0.8912622332572937
0.3097783625125885 0.82930451631546021 0.88850253820419312
0.57628858089447021 0.82496875524520874 0.88745427131652832
0.90859746932983398 0.82029706239700317 0.88602113723754883
0.99297535419464111 0.82080769538879395 0.88224774599075317
0.15766662359237671 0.95841461420059204 0.88932669162750244
0.31078371405601501 0.95419949293136597 0.88428425788879395
0.56098908185958862 0.95909804105758667 0.88971763849258423
0.90683728456497192 0.95943015813827515 0.88892942667007446
0.99530190229415894 0.95537543296813965 0.89011073112487793
