assets/lut/others fade.cube
# Created by: G'MIC (https://gmic.eu)
TITLE "fade"
# LUT size
LUT_3D_SIZE 5
# Data domain
DOMAIN_MIN 0.0 0.0 0.0
DOMAIN_MAX 1.0 1.0 1.0
# LUT data points
0.24163973331451416 0.31874459981918335 0.35800516605377197
0.40413370728492737 0.35493007302284241 0.38349047303199768
0.53650623559951782 0.35269895195960999 0.39456692337989807
0.73396950960159302 0.36683455109596252 0.41047203540802002
0.98380130529403687 0.38453978300094604 0.42844077944755554
0.30858057737350464 0.56084036827087402 0.40689536929130554
0.43894141912460327 0.55430120229721069 0.42057698965072632
0.58784008026123047 0.56512004137039185 0.43516942858695984
0.79807215929031372 0.57023483514785767 0.44789102673530579
0.99994868040084839 0.59384036064147949 0.46647527813911438
0.3083001971244812 0.68934738636016846 0.43223893642425537
0.45952555537223816 0.71408742666244507 0.44931486248970032
0.62404471635818481 0.72852152585983276 0.4644453227519989
0.84979128837585449 0.73582690954208374 0.47764062881469727
1 0.76677179336547852 0.49485200643539429
0.34634965658187866 0.88890421390533447 0.46458446979522705
0.48552423715591431 0.88496643304824829 0.48055019974708557
0.66859722137451172 0.92275130748748779 0.49899443984031677
0.90247857570648193 0.9329717755317688 0.50928205251693726
1 0.9500771164894104 0.53001230955123901
0.36283957958221436 1 0.49903383851051331
0.54041451215744019 1 0.5219835638999939
0.74069982767105103 1 0.53185927867889404
0.97462743520736694 1 0.548911452293396
1 1 0.56221854686737061
0.26681673526763916 0.30662056803703308 0.49916645884513855
0.39875254034996033 0.33338481187820435 0.51713806390762329
0.54025614261627197 0.35706296563148499 0.53062039613723755
0.74704927206039429 0.38269868493080139 0.54813110828399658
0.98319143056869507 0.37380269169807434 0.55887281894683838
0.30907765030860901 0.55752897262573242 0.54537498950958252
0.43919709324836731 0.54141753911972046 0.55102246999740601
0.59290248155593872 0.55235075950622559 0.56551128625869751
0.82145410776138306 0.58745968341827393 0.58397036790847778
1 0.59727805852890015 0.59756290912628174
0.33656129240989685 0.7054675817489624 0.57092714309692383
0.46580442786216736 0.7175147533416748 0.58316648006439209
0.62921476364135742 0.72509777545928955 0.59507721662521362
0.87376433610916138 0.74339526891708374 0.60856169462203979
1 0.77631986141204834 0.62623381614685059
0.31379130482673645 0.87751597166061401 0.59299677610397339
0.48977822065353394 0.90548324584960938 0.61303806304931641
0.6689305305480957 0.91937321424484253 0.62517029047012329
0.91605085134506226 0.93065428733825684 0.64041531085968018
1 0.95076256990432739 0.65923333168029785
0.40902340412139893 1 0.6419447660446167
0.54947370290756226 1 0.65338689088821411
0.7398187518119812 1 0.65870678424835205
0.98211252689361572 1 0.67512953281402588
1 1 0.68875259160995483
0.25211390852928162 0.32795813679695129 0.62715768814086914
0.40413334965705872 0.34960812330245972 0.64493250846862793
0.54220747947692871 0.3552386462688446 0.65593492984771729
0.75159001350402832 0.38126340508460999 0.6711847186088562
0.98577916622161865 0.39951428771018982 0.68825912475585938
0.27376189827919006 0.54077965021133423 0.66096204519271851
0.43941459059715271 0.56966352462768555 0.68127977848052979
0.5943228006362915 0.56344223022460938 0.6921989917755127
0.8274194598197937 0.5801689624786377 0.70422923564910889
0.99719560146331787 0.59900802373886108 0.72323215007781982
0.35789352655410767 0.71358954906463623 0.69666075706481934
0.47183805704116821 0.73020559549331665 0.70723313093185425
0.63372147083282471 0.73433417081832886 0.71778374910354614
0.87416654825210571 0.74944049119949341 0.72943925857543945
1 0.78183245658874512 0.74816721677780151
0.35599079728126526 0.90490949153900146 0.71843498945236206
0.49847123026847839 0.92284303903579712 0.73119747638702393
0.68156987428665161 0.92406642436981201 0.74432432651519775
0.92964154481887817 0.93576371669769287 0.75601309537887573
1 0.96700495481491089 0.77796763181686401
0.3627941906452179 0.99955719709396362 0.75039064884185791
0.5404549241065979 1 0.76624119281768799
0.75261735916137695 1 0.78184515237808228
0.98035985231399536 0.99998944997787476 0.79281890392303467
1 1 0.80342507362365723
0.26017209887504578 0.32244515419006348 0.74299222230911255
0.41723611950874329 0.35983321070671082 0.76671761274337769
0.54632294178009033 0.36262774467468262 0.77676969766616821
0.75338387489318848 0.37295734882354736 0.78618282079696655
0.99192458391189575 0.39914527535438538 0.80006557703018188
0.28706064820289612 0.55647188425064087 0.78439593315124512
0.44827288389205933 0.56763255596160889 0.79860532283782959
0.60084724426269531 0.58499765396118164 0.81255203485488892
0.82926803827285767 0.58152657747268677 0.82243919372558594
1 0.59799003601074219 0.8341943621635437
0.31662118434906006 0.70692908763885498 0.81026732921600342
0.47135823965072632 0.72248005867004395 0.82416707277297974
0.6378292441368103 0.73963171243667603 0.83776324987411499
0.88113856315612793 0.75305861234664917 0.84733062982559204
1 0.78151798248291016 0.85889005661010742
0.37236413359642029 0.90691804885864258 0.83757120370864868
0.50224989652633667 0.91838359832763672 0.85049247741699219
0.68170630931854248 0.92213577032089233 0.8591078519821167
0.93215286731719971 0.95582097768783569 0.87525904178619385
1 0.9718393087387085 0.89382755756378174
0.4256034791469574 1 0.8709341287612915
0.54850167036056519 1 0.8776097297668457
0.7648804783821106 1 0.88682299852371216
0.98281675577163696 1 0.89835429191589355
1 1 0.90157628059387207
0.27272728085517883 0.33755895495414734 0.8609769344329834
0.41891521215438843 0.36059114336967468 0.87886911630630493
0.55933701992034912 0.38098013401031494 0.88942450284957886
0.75707626342773438 0.37793329358100891 0.90158283710479736
0.98988544940948486 0.40434932708740234 0.91572356224060059
0.32452362775802612 0.56594359874725342 0.90100288391113281
0.4512823224067688 0.57016515731811523 0.91293346881866455
0.60552656650543213 0.57768690586090088 0.92186528444290161
0.83162552118301392 0.59629315137863159 0.93124783039093018
1 0.61615544557571411 0.93941724300384521
0.31017377972602844 0.71418070793151855 0.91630083322525024
0.4795224666595459 0.73126506805419922 0.93550044298171997
0.65324366092681885 0.74518299102783203 0.94373881816864014
0.90341538190841675 0.75837427377700806 0.93065553903579712
1 0.79112297296524048 0.92824709415435791
0.3327278196811676 0.91816139221191406 0.92750352621078491
0.50935304164886475 0.92787402868270874 0.93461602926254272
0.69567835330963135 0.9404747486114502 0.93712764978408813
0.9435807466506958 0.93532997369766235 0.93871200084686279
0.99998539686203003 0.97611057758331299 0.93216109275817871
0.39768245816230774 0.99993431568145752 0.93374502658843994
0.57256615161895752 1 0.94200247526168823
0.76747018098831177 1 0.93942224979400635
0.97496402263641357 1 0.94661492109298706
1 1 0.94339442253112793
