assets/lut/others sunny rich.cube
# Created by: G'MIC (https://gmic.eu)
TITLE "sunny_rich"
# LUT size
LUT_3D_SIZE 13
# Data domain
DOMAIN_MIN 0.0 0.0 0.0
DOMAIN_MAX 1.0 1.0 1.0
# LUT data points
0.02888997457921505 0.024971920996904373 0.033066872507333755
0.095266617834568024 0.02465006522834301 0.03365885466337204
0.16174902021884918 0.02339516393840313 0.033484216779470444
0.23150087893009186 0.023161765187978745 0.03161284327507019
0.3052845299243927 0.023161765187978745 0.030961697921156883
0.38349556922912598 0.023161765187978745 0.031031709164381027
0.46583342552185059 0.023161765187978745 0.030536681413650513
0.55192601680755615 0.023161765187978745 0.029564023017883301
0.6388126015663147 0.023161765187978745 0.028782429173588753
0.72535538673400879 0.023161765187978745 0.027848904952406883
0.81136852502822876 0.023638064041733742 0.027537999674677849
0.88931608200073242 0.023960458114743233 0.026610938832163811
0.96030932664871216 0.023357974365353584 0.025264006108045578
0.029152709990739822 0.084987744688987732 0.034692876040935516
0.09579092264175415 0.084962077438831329 0.034803725779056549
0.16336004436016083 0.083237320184707642 0.034803923219442368
0.23502211272716522 0.081402614712715149 0.034483097493648529
0.31152543425559998 0.084032304584980011 0.033295396715402603
0.39427080750465393 0.083754986524581909 0.032597620040178299
0.48117676377296448 0.081473797559738159 0.032199036329984665
0.56876605749130249 0.081066176295280457 0.031195098534226418
0.65267473459243774 0.081156022846698761 0.029619060456752777
0.73518335819244385 0.083113111555576324 0.028113391250371933
0.81686776876449585 0.084874123334884644 0.02808583527803421
0.89357751607894897 0.084932126104831696 0.028652729466557503
0.96490806341171265 0.083218805491924286 0.028553158044815063
0.028439376503229141 0.14289215207099915 0.034503068774938583
0.096069127321243286 0.14141228795051575 0.034532137215137482
0.16544748842716217 0.13911579549312592 0.034156560897827148
0.23909191787242889 0.13897058367729187 0.033744152635335922
0.31863445043563843 0.1392788290977478 0.033275753259658813
0.40512895584106445 0.13992448151111603 0.032715156674385071
0.49558943510055542 0.13929866254329681 0.032109726220369339
0.58395367860794067 0.13903087377548218 0.031236102804541588
0.66544061899185181 0.14085835218429565 0.02985769510269165
0.74382627010345459 0.14287276566028595 0.027973160147666931
0.82080936431884766 0.14289215207099915 0.028402246534824371
0.89427107572555542 0.14289215207099915 0.029075128957629204
0.96359533071517944 0.14238652586936951 0.029411764815449715
0.028391534462571144 0.19944813847541809 0.031412534415721893
0.097642488777637482 0.19693271815776825 0.031977005302906036
0.16913400590419769 0.19553057849407196 0.032798513770103455
0.24534760415554047 0.19415572285652161 0.032747950404882431
0.32704049348831177 0.19465784728527069 0.032248642295598984
0.41535916924476624 0.19624806940555573 0.030913453549146652
0.50635349750518799 0.19686530530452728 0.02975444495677948
0.59372830390930176 0.19698916375637054 0.028906563296914101
0.67437440156936646 0.19838199019432068 0.027671784162521362
0.75013917684555054 0.19938495755195618 0.026816753670573235
0.82418352365493774 0.1995449960231781 0.026578327640891075
0.89499408006668091 0.20050594210624695 0.027568787336349487
0.96275752782821655 0.20109236240386963 0.028418447822332382
0.029480399563908577 0.25480973720550537 0.031294833868741989
0.10058493167161942 0.25375097990036011 0.03204161673784256
0.17380529642105103 0.25091218948364258 0.032475490123033524
0.25166377425193787 0.24898107349872589 0.032111536711454391
0.33565381169319153 0.248096764087677 0.030602280050516129
0.42567676305770874 0.25040552020072937 0.028892368078231812
0.51734822988510132 0.25360873341560364 0.027282491326332092
0.60443830490112305 0.25468766689300537 0.026416478678584099
0.68376338481903076 0.25471687316894531 0.025400258600711823
0.75758963823318481 0.25409278273582458 0.024672983214259148
0.82884258031845093 0.2535245418548584 0.024270718917250633
0.89699548482894897 0.25486797094345093 0.025041887536644936
0.96285557746887207 0.25769892334938049 0.026540359482169151
0.031791642308235168 0.31392565369606018 0.034338559955358505
0.1042306050658226 0.31410965323448181 0.033327482640743256
0.17891460657119751 0.31204450130462646 0.03255055844783783
0.25807783007621765 0.30786317586898804 0.031321343034505844
0.3435523509979248 0.30499255657196045 0.029570246115326881
0.43665465712547302 0.30669534206390381 0.027568608522415161
0.53084874153137207 0.31152015924453735 0.025932267308235168
0.61746561527252197 0.31399443745613098 0.024837208911776543
0.69496434926986694 0.31355765461921692 0.024354686960577965
0.76682370901107788 0.31075337529182434 0.023265523836016655
0.83486926555633545 0.3089371919631958 0.023161765187978745
0.89993786811828613 0.31093582510948181 0.023189304396510124
0.9632723331451416 0.31491979956626892 0.02408306673169136
0.033676072955131531 0.38465404510498047 0.034841470420360565
0.10821745544672012 0.38488197326660156 0.033253971487283707
0.18527697026729584 0.38388094305992126 0.031674373894929886
0.26562392711639404 0.37868502736091614 0.030046246945858002
0.35186731815338135 0.37281453609466553 0.028889525681734085
0.44818851351737976 0.37429350614547729 0.02683919295668602
0.54580622911453247 0.3800162672996521 0.025177570059895515
0.63089978694915771 0.38401657342910767 0.024823341518640518
0.70531207323074341 0.38299727439880371 0.025001645088195801
0.77438104152679443 0.37857604026794434 0.023741075769066811
0.8399195671081543 0.37609300017356873 0.023161765187978745
0.90243864059448242 0.37765592336654663 0.023161765187978745
0.96394068002700806 0.38229897618293762 0.023161765187978745
0.034711349755525589 0.4684106707572937 0.035212140530347824
0.11243312805891037 0.46895787119865417 0.032345626503229141
0.19280749559402466 0.46888652443885803 0.029785679653286934
0.2757708728313446 0.46544495224952698 0.028405657038092613
0.36318275332450867 0.46008479595184326 0.028004126623272896
0.45844164490699768 0.46005645394325256 0.027291405946016312
0.55536669492721558 0.46433734893798828 0.026157857850193977
0.63926631212234497 0.46740430593490601 0.026587886735796928
0.71127861738204956 0.46715655922889709 0.027838358655571938
0.77750897407531738 0.46388417482376099 0.027464922517538071
0.84127283096313477 0.46157112717628479 0.024929765611886978
0.90321898460388184 0.46337440609931946 0.023161765187978745
0.96473127603530884 0.46746867895126343 0.023161765187978745
0.033765427768230438 0.56043517589569092 0.034435153007507324
0.11581673473119736 0.56148159503936768 0.030644286423921585
0.19983123242855072 0.56276088953018188 0.027444817125797272
0.28615680336952209 0.56115520000457764 0.026267241686582565
0.37469866871833801 0.55824738740921021 0.027193240821361542
0.46608844399452209 0.5580478310585022 0.028451448306441307
0.5588381290435791 0.55965405702590942 0.028717879205942154
0.64343917369842529 0.56049841642379761 0.029070461168885231
0.7147405743598938 0.56182694435119629 0.029801297932863235
0.7784501314163208 0.56217902898788452 0.029623892158269882
0.8408692479133606 0.56249988079071045 0.027181977406144142
0.90330106019973755 0.56474143266677856 0.023614620789885521
0.96555233001708984 0.5684698224067688 0.023161765187978745
0.033307049423456192 0.65635156631469727 0.031787797808647156
0.11852298676967621 0.6587064266204834 0.027497714385390282
0.20588588714599609 0.65982156991958618 0.025064416229724884
0.2959231436252594 0.65898317098617554 0.024740496650338173
0.38775467872619629 0.65637409687042236 0.025876706466078758
0.4801425039768219 0.6561887264251709 0.02784658782184124
0.57104235887527466 0.6561887264251709 0.028915809467434883
0.65241992473602295 0.65733987092971802 0.028701886534690857
0.72012907266616821 0.66028809547424316 0.028169220313429832
0.78084486722946167 0.66324543952941895 0.026833329349756241
0.84126096963882446 0.66657751798629761 0.024837104603648186
0.903312087059021 0.67065888643264771 0.023198788985610008
0.96598213911056519 0.67380094528198242 0.023161765187978745
0.034129317849874496 0.75550603866577148 0.026526477187871933
0.12063528597354889 0.75661766529083252 0.023718351498246193
0.21077845990657806 0.75661766529083252 0.022967049852013588
0.30470484495162964 0.75661766529083252 0.02327626571059227
0.40142831206321716 0.75493276119232178 0.024697441607713699
0.49870532751083374 0.75269788503646851 0.026819430291652679
0.59032243490219116 0.75269609689712524 0.02708333358168602
0.66621345281600952 0.75350749492645264 0.027049105614423752
0.7272602915763855 0.75778239965438843 0.025131704285740852
0.78371721506118774 0.7626420259475708 0.022770974785089493
0.84178215265274048 0.76739144325256348 0.021887475624680519
0.90331542491912842 0.77151882648468018 0.023161765187978745
0.96579712629318237 0.77368992567062378 0.023161765187978745
0.034636642783880234 0.85263454914093018 0.024370051920413971
0.12177429348230362 0.85312497615814209 0.022559072822332382
0.21397542953491211 0.85312497615814209 0.022377641871571541
0.31056296825408936 0.85312497615814209 0.023031465709209442
0.411094069480896 0.85254621505737305 0.023918392136693001
0.51206296682357788 0.84928715229034424 0.026635263115167618
0.60459703207015991 0.84920340776443481 0.02708333358168602
0.67675918340682983 0.84988957643508911 0.026747476309537888
0.73271286487579346 0.85392993688583374 0.023625900968909264
0.78654575347900391 0.85835856199264526 0.022568138316273689
0.84473705291748047 0.86226260662078857 0.022036787122488022
0.90491968393325806 0.86498427391052246 0.023434044793248177
0.96560174226760864 0.86551254987716675 0.024876853451132774
0.035115081816911697 0.9480774998664856 0.027743574231863022
0.12262236326932907 0.94959187507629395 0.024890854954719543
0.21583414077758789 0.94963234663009644 0.023309759795665741
0.31307771801948547 0.94963234663009644 0.023161765187978745
0.41503027081489563 0.94835227727890015 0.024633863940834999
0.51767462491989136 0.94574487209320068 0.026784425601363182
0.61117386817932129 0.94571077823638916 0.02708333358168602
0.68058758974075317 0.94579720497131348 0.027071664109826088
0.73409062623977661 0.94779676198959351 0.026667291298508644
0.78784400224685669 0.95000481605529785 0.026080053299665451
0.84919863939285278 0.95221298933029175 0.026066664606332779
0.90781444311141968 0.95298701524734497 0.026831293478608131
0.96696245670318604 0.95177853107452393 0.027485506609082222
0.029456673189997673 0.025080632418394089 0.11200980097055435
0.096967823803424835 0.025262271985411644 0.11200980097055435
0.1651359498500824 0.023766027763485909 0.1119900569319725
0.23668554425239563 0.023161765187978745 0.1097748726606369
0.3130771815776825 0.023161765187978745 0.10797831416130066
0.39396136999130249 0.023161765187978745 0.10567793250083923
0.47845393419265747 0.023161765187978745 0.103021539747715
0.56457901000976562 0.023161765187978745 0.10129551589488983
0.65047359466552734 0.023161765187978745 0.099260590970516205
0.73518973588943481 0.023258119821548462 0.096574611961841583
0.81710731983184814 0.024818046018481255 0.093639016151428223
0.89309549331665039 0.02527802437543869 0.090944848954677582
0.96330773830413818 0.024224165827035904 0.088441766798496246
0.030960157513618469 0.084987744688987732 0.1123645231127739
0.098640695214271545 0.084987744688987732 0.1115184873342514
0.16780124604701996 0.084870345890522003 0.10998315364122391
0.24128487706184387 0.081621773540973663 0.10831402242183685
0.32003754377365112 0.081093594431877136 0.10729643702507019
0.40439069271087646 0.081071622669696808 0.10528839379549026
0.49190241098403931 0.081066176295280457 0.10271917283535004
0.57924288511276245 0.081066176295280457 0.10063590109348297
0.66384333372116089 0.081066176295280457 0.098323717713356018
0.74544036388397217 0.083088323473930359 0.095833078026771545
0.82377463579177856 0.084987595677375793 0.093489661812782288
0.89775657653808594 0.084987744688987732 0.091555699706077576
0.96664345264434814 0.084974713623523712 0.089314959943294525
0.030919512733817101 0.14280658960342407 0.11212385445833206
0.099623478949069977 0.14238505065441132 0.10867656767368317
0.17070227861404419 0.14014163613319397 0.10697998106479645
0.24661627411842346 0.1389739066362381 0.10647633671760559
0.32807347178459167 0.13897058367729187 0.10542910546064377
0.41484206914901733 0.13897058367729187 0.10334152728319168
0.50452953577041626 0.13897058367729187 0.10104895383119583
0.59244877099990845 0.13897058367729187 0.098803125321865082
0.67522817850112915 0.13897369801998138 0.096259623765945435
0.75322115421295166 0.14106453955173492 0.094047710299491882
0.82791405916213989 0.14289215207099915 0.092064231634140015
0.89894622564315796 0.14289215207099915 0.090708665549755096
0.96643936634063721 0.14289215207099915 0.089038893580436707
0.030106997117400169 0.19751836359500885 0.10993336886167526
0.10117968171834946 0.19695468246936798 0.10658217966556549
0.17480871081352234 0.19616204500198364 0.10477414727210999
0.25303301215171814 0.19467069208621979 0.10399394482374191
0.33653587102890015 0.19400714337825775 0.10277048498392105
0.42499819397926331 0.194454625248909 0.10069584846496582
0.51544630527496338 0.19529905915260315 0.098037376999855042
0.60272347927093506 0.19591441750526428 0.095374599099159241
0.68344771862030029 0.19656823575496674 0.092964053153991699
0.75885695219039917 0.19695216417312622 0.090822853147983551
0.83053767681121826 0.19780054688453674 0.08934185653924942
0.89921140670776367 0.19943264126777649 0.088752299547195435
0.96510493755340576 0.20079657435417175 0.088904194533824921
0.029785769060254097 0.2546844482421875 0.1080063134431839
0.10328340530395508 0.25266197323799133 0.10561312735080719
0.17937080562114716 0.25093591213226318 0.10360876470804214
0.25978884100914001 0.24953766167163849 0.1024206280708313
0.34521907567977905 0.2479536384344101 0.10087811201810837
0.43548870086669922 0.24869133532047272 0.098103508353233337
0.52650052309036255 0.25076180696487427 0.094832010567188263
0.61277735233306885 0.2511850893497467 0.09175167977809906
0.69169354438781738 0.25152367353439331 0.089157074689865112
0.76483255624771118 0.25182530283927917 0.086704403162002563
0.83377110958099365 0.25242576003074646 0.085359238088130951
0.90002614259719849 0.25436821579933167 0.085136100649833679
0.96398293972015381 0.25779831409454346 0.085946433246135712
0.030745323747396469 0.31360325217247009 0.10759663581848145
0.10637970268726349 0.31264582276344299 0.1049426943063736
0.18426355719566345 0.31111025810241699 0.10270421952009201
0.26626211404800415 0.30815315246582031 0.10132787376642227
0.35375672578811646 0.30553075671195984 0.099823057651519775
0.44667059183120728 0.30628871917724609 0.096444010734558105
0.5393492579460144 0.30988571047782898 0.092458270490169525
0.62490826845169067 0.31169378757476807 0.089258722960948944
0.70144134759902954 0.31153234839439392 0.086258053779602051
0.77173089981079102 0.30995747447013855 0.083381712436676025
0.83807003498077393 0.30958282947540283 0.081229329109191895
0.90174782276153564 0.31250679492950439 0.081419341266155243
0.96419060230255127 0.31799814105033875 0.083271399140357971
0.032402068376541138 0.38220739364624023 0.1062353253364563
0.11017578840255737 0.38232210278511047 0.10324922204017639
0.19001466035842896 0.38142594695091248 0.10073791444301605
0.2737734317779541 0.37816128134727478 0.099695838987827301
0.36303991079330444 0.37409326434135437 0.098543249070644379
0.45869499444961548 0.37545442581176758 0.095106787979602814
0.55311661958694458 0.38000625371932983 0.091177903115749359
0.63711297512054443 0.38370978832244873 0.088457740843296051
0.71037900447845459 0.38307997584342957 0.086052179336547852
0.77780771255493164 0.3798840343952179 0.082642301917076111
0.84181511402130127 0.3783014714717865 0.079113200306892395
0.90337622165679932 0.38211771845817566 0.079193621873855591
0.96490657329559326 0.38892719149589539 0.081015825271606445
0.034547019749879837 0.46472072601318359 0.10393552482128143
0.1140308752655983 0.46542838215827942 0.10020512342453003
0.19696150720119476 0.46561446785926819 0.097221046686172485
0.28312179446220398 0.46321225166320801 0.095871947705745697
0.37409409880638123 0.4598948061466217 0.095326997339725494
0.4699573814868927 0.4610324501991272 0.092992804944515228
0.56374859809875488 0.46536147594451904 0.090655922889709473
0.64597493410110474 0.46882551908493042 0.089074350893497467
0.716450035572052 0.469329833984375 0.088613681495189667
0.78063756227493286 0.46723777055740356 0.085983484983444214
0.84301167726516724 0.46603876352310181 0.081770233809947968
0.90419310331344604 0.46963205933570862 0.079992808401584625
0.96559900045394897 0.47614216804504395 0.080571070313453674
0.033641859889030457 0.55878186225891113 0.10100840777158737
0.11748029291629791 0.55956804752349854 0.096612684428691864
0.20379799604415894 0.55968290567398071 0.092925369739532471
0.29334747791290283 0.55904263257980347 0.09110724925994873
0.38598889112472534 0.55688470602035522 0.090724557638168335
0.4805377721786499 0.55795860290527344 0.090228289365768433
0.57210564613342285 0.56070667505264282 0.089313477277755737
0.65266269445419312 0.56416869163513184 0.088918529450893402
0.72077476978302002 0.56600815057754517 0.088909313082695007
0.78187680244445801 0.56681925058364868 0.088647119700908661
0.84268194437026978 0.56782561540603638 0.084641866385936737
0.90440410375595093 0.57140576839447021 0.081136114895343781
0.96650427579879761 0.57670348882675171 0.080451399087905884
0.033442180603742599 0.65661895275115967 0.096433721482753754
0.11980123817920685 0.65722417831420898 0.091736644506454468
0.20962154865264893 0.65761584043502808 0.088255353271961212
0.30283054709434509 0.65708857774734497 0.086726784706115723
0.39853048324584961 0.65629571676254272 0.086809955537319183
0.49424287676811218 0.65650993585586548 0.087786369025707245
0.58483356237411499 0.65834563970565796 0.088424056768417358
0.6625291109085083 0.66136175394058228 0.088501647114753723
0.72671520709991455 0.66482657194137573 0.08765082061290741
0.78437501192092896 0.66826236248016357 0.086017385125160217
0.8429487943649292 0.6719355583190918 0.082749642431735992
0.90439653396606445 0.67662352323532104 0.081067658960819244
0.9667586088180542 0.68106955289840698 0.080544203519821167
0.033200748264789581 0.756561279296875 0.090266913175582886
0.12123676389455795 0.75661766529083252 0.086440004408359528
0.2140665203332901 0.75661766529083252 0.08427930623292923
0.31073129177093506 0.75661766529083252 0.083388157188892365
0.41037830710411072 0.75620120763778687 0.084505267441272736
0.50954890251159668 0.7547263503074646 0.084986098110675812
0.60093039274215698 0.75488001108169556 0.085063591599464417
0.67474335432052612 0.75761264562606812 0.08497987687587738
0.73316830396652222 0.76213335990905762 0.083824992179870605
0.78679138422012329 0.76704591512680054 0.08127652108669281
0.84391140937805176 0.77164709568023682 0.080192103981971741
0.90411078929901123 0.77643746137619019 0.081066176295280457
0.96584129333496094 0.77998208999633789 0.081066176295280457
0.032423581928014755 0.85312497615814209 0.088562712073326111
0.1212063655257225 0.85366857051849365 0.084787853062152863
0.21637265384197235 0.85408085584640503 0.081941567361354828
0.31570792198181152 0.85314649343490601 0.081066176295280457
0.41748866438865662 0.85312497615814209 0.08254946768283844
0.51920402050018311 0.85188299417495728 0.084946602582931519
0.61197412014007568 0.8510093092918396 0.084987744688987732
0.68306487798690796 0.85303294658660889 0.084179550409317017
0.73677200078964233 0.85692870616912842 0.081272780895233154
0.78817963600158691 0.86165082454681396 0.08076794445514679
0.8455275297164917 0.86496388912200928 0.080410152673721313
0.90579855442047119 0.86808329820632935 0.081709258258342743
0.96507370471954346 0.87064254283905029 0.083580166101455688
0.031326323747634888 0.94962984323501587 0.092366673052310944
0.12048430740833282 0.94983845949172974 0.087314829230308533
0.21719945967197418 0.95021575689315796 0.082768864929676056
0.3176974356174469 0.9496452808380127 0.081066176295280457
0.41905525326728821 0.94886535406112671 0.08348497748374939
0.52049297094345093 0.94625848531723022 0.084987744688987732
0.61507916450500488 0.94592463970184326 0.084987744688987732
0.68549203872680664 0.94679969549179077 0.084516189992427826
0.73658257722854614 0.94912815093994141 0.083539970219135284
0.7878347635269165 0.95250988006591797 0.084299899637699127
0.84900999069213867 0.95263904333114624 0.084276534616947174
0.90952849388122559 0.95296698808670044 0.085638321936130524
0.96686166524887085 0.95496207475662231 0.087068624794483185
0.028745090588927269 0.023990601301193237 0.18921568989753723
0.097921364009380341 0.024496234953403473 0.18833072483539581
0.16817042231559753 0.02338193915784359 0.18696415424346924
0.24237838387489319 0.023161765187978745 0.185066819190979
0.32147786021232605 0.023161765187978745 0.18196210265159607
0.40477007627487183 0.023161765187978745 0.17769096791744232
0.49060603976249695 0.023161765187978745 0.17317430675029755
0.57659339904785156 0.023161765187978745 0.16978484392166138
0.66125190258026123 0.023161765187978745 0.1667228639125824
0.74343794584274292 0.023563789203763008 0.16218839585781097
0.82172310352325439 0.025482611730694771 0.1565486341714859
0.89527767896652222 0.0259590744972229 0.15175873041152954
0.96422505378723145 0.02501995675265789 0.14863690733909607
0.031108647584915161 0.084557369351387024 0.18899758160114288
0.10069059580564499 0.084987744688987732 0.18559306859970093
0.17208296060562134 0.084472537040710449 0.18330433964729309
0.24804113805294037 0.081167779862880707 0.18171976506710052
0.32909819483757019 0.081066176295280457 0.17925728857517242
0.4145224392414093 0.081066176295280457 0.17521363496780396
0.50228261947631836 0.081066176295280457 0.17081382870674133
0.58937782049179077 0.081066176295280457 0.16706825792789459
0.67383015155792236 0.081066176295280457 0.16357819736003876
0.75390088558197021 0.083506688475608826 0.15951503813266754
0.82894635200500488 0.084987744688987732 0.15483327209949493
0.89992266893386841 0.084987744688987732 0.15075688064098358
0.96721220016479492 0.084987744688987732 0.1476675420999527
0.032258816063404083 0.1407647430896759 0.18743224442005157
0.10270919650793076 0.14206500351428986 0.18152441084384918
0.17634826898574829 0.14104196429252625 0.17834471166133881
0.25475409626960754 0.13899150490760803 0.17696629464626312
0.33759081363677979 0.13897058367729187 0.17494580149650574
0.42460048198699951 0.13897058367729187 0.17134778201580048
0.51349765062332153 0.13897058367729187 0.16705872118473053
0.60076999664306641 0.13897058367729187 0.16319234669208527
0.68384641408920288 0.13897058367729187 0.1598038524389267
0.76107215881347656 0.14105598628520966 0.15640637278556824
0.83304113149642944 0.14289215207099915 0.15250878036022186
0.9016532301902771 0.14289215207099915 0.14944714307785034
0.96740376949310303 0.14289215207099915 0.14692996442317963
0.032074455171823502 0.19669637084007263 0.1843235194683075
0.10471145063638687 0.19687607884407043 0.17789465188980103
0.18128934502601624 0.19685129821300507 0.17428773641586304
0.26198950409889221 0.1963248997926712 0.17273743450641632
0.34696501493453979 0.1948392391204834 0.17078369855880737
0.43485885858535767 0.19398146867752075 0.16717347502708435
0.52419579029083252 0.1937391608953476 0.16273762285709381
0.61038100719451904 0.19401569664478302 0.15865908563137054
0.69093972444534302 0.19552807509899139 0.15515755116939545
0.76544326543807983 0.19703073799610138 0.15213894844055176
0.83505576848983765 0.19873204827308655 0.14906755089759827
0.90143299102783203 0.20018839836120605 0.14682433009147644
0.96616750955581665 0.20088738203048706 0.14662739634513855
0.031128093600273132 0.25167295336723328 0.18105162680149078
0.10709636658430099 0.25177463889122009 0.17561095952987671
