assets/lut/others soft fade.cube
# Created by: G'MIC (https://gmic.eu)
TITLE "soft_fade"
# LUT size
LUT_3D_SIZE 13
# Data domain
DOMAIN_MIN 0.0 0.0 0.0
DOMAIN_MAX 1.0 1.0 1.0
# LUT data points
0.035095676779747009 0.038510207086801529 0.096410401165485382
0.10084644705057144 0.040347378700971603 0.10945208370685577
0.17525941133499146 0.039371371269226074 0.10168654471635818
0.27126967906951904 0.036781910806894302 0.094450049102306366
0.38814947009086609 0.03811892494559288 0.10067849606275558
0.50632280111312866 0.042330183088779449 0.10367894172668457
0.61326557397842407 0.041007053107023239 0.093420423567295074
0.70125275850296021 0.043035350739955902 0.094645015895366669
0.77820158004760742 0.051405109465122223 0.091736376285552979
0.83892428874969482 0.055385589599609375 0.09415174275636673
0.89161044359207153 0.049406044185161591 0.094488047063350677
0.93752449750900269 0.04926421120762825 0.10053646564483643
0.97481667995452881 0.048172071576118469 0.10429768264293671
0.038199916481971741 0.11830040067434311 0.085601821541786194
0.095449857413768768 0.12222021073102951 0.10216943919658661
0.17235054075717926 0.12435648590326309 0.10153506696224213
0.27152723073959351 0.12050287425518036 0.096871770918369293
0.39376804232597351 0.12235338985919952 0.097407303750514984
0.50786334276199341 0.12404677271842957 0.099608205258846283
0.6138380765914917 0.12421143800020218 0.095299020409584045
0.70011478662490845 0.12251492589712143 0.10022179037332535
0.77635210752487183 0.12146507948637009 0.098145730793476105
0.83768284320831299 0.12413188070058823 0.090810425579547882
0.89018791913986206 0.12733317911624908 0.086639374494552612
0.93728893995285034 0.13036850094795227 0.092314824461936951
0.97317296266555786 0.12651418149471283 0.096968799829483032
0.032853547483682632 0.22052237391471863 0.09809296578168869
0.096075303852558136 0.2180057168006897 0.108864426612854
0.17155537009239197 0.21796721220016479 0.099618948996067047
0.27376487851142883 0.22086985409259796 0.097456611692905426
0.39123579859733582 0.22264726459980011 0.1008056178689003
0.50864875316619873 0.22372783720493317 0.10349743068218231
0.61369925737380981 0.22154831886291504 0.098773956298828125
0.69880270957946777 0.21883478760719299 0.10373891144990921
0.77620476484298706 0.21881914138793945 0.10095088928937912
0.83736765384674072 0.21936064958572388 0.090883068740367889
0.89152884483337402 0.2178320586681366 0.09008508175611496
0.93924570083618164 0.21936030685901642 0.090701937675476074
0.97582381963729858 0.22158938646316528 0.09133458137512207
0.037005361169576645 0.33497819304466248 0.087453760206699371
0.10128460824489594 0.33068373799324036 0.10582815110683441
0.17770479619503021 0.33111968636512756 0.10435523092746735
0.27160242199897766 0.33192086219787598 0.094959184527397156
0.38710248470306396 0.33162009716033936 0.094898328185081482
0.50851547718048096 0.32865828275680542 0.095705665647983551
0.61163705587387085 0.32698968052864075 0.093344114720821381
0.70133036375045776 0.33176466822624207 0.10485020279884338
0.77546608448028564 0.33383297920227051 0.10054122656583786
0.836617112159729 0.32940512895584106 0.07841898500919342
0.88935905694961548 0.32957491278648376 0.096420988440513611
0.93691402673721313 0.3275514543056488 0.10149490088224411
0.97398972511291504 0.33170074224472046 0.10283586382865906
0.041376225650310516 0.45530226826667786 0.10002697259187698
0.10072340071201324 0.45055925846099854 0.10435003787279129
0.1766815185546875 0.44858822226524353 0.096921123564243317
0.27060630917549133 0.44877469539642334 0.093271084129810333
0.3872869610786438 0.44802019000053406 0.0899992436170578
0.50708776712417603 0.44279685616493225 0.087898924946784973
0.6127205491065979 0.44107893109321594 0.095277480781078339
0.70441979169845581 0.44586056470870972 0.096188127994537354
0.77406662702560425 0.45035645365715027 0.096682392060756683
0.83579462766647339 0.44766607880592346 0.089755073189735413
0.89006519317626953 0.44775941967964172 0.092485465109348297
0.93436956405639648 0.4489847719669342 0.108305923640728
0.97028231620788574 0.45001974701881409 0.11144881695508957
0.043059404939413071 0.56366938352584839 0.098374567925930023
0.095973670482635498 0.56231993436813354 0.090636268258094788
0.17549926042556763 0.55843228101730347 0.092899128794670105
0.26978161931037903 0.55731189250946045 0.091156050562858582
0.38112959265708923 0.55576044321060181 0.088296763598918915
0.50178831815719604 0.55246007442474365 0.095238268375396729
0.61021965742111206 0.55127865076065063 0.10446174442768097
0.70109742879867554 0.55639266967773438 0.094895288348197937
0.77557021379470825 0.5618363618850708 0.095888681709766388
0.83857899904251099 0.56003230810165405 0.09418882429599762
0.89022338390350342 0.55857151746749878 0.093800336122512817
0.93425726890563965 0.55967444181442261 0.099495589733123779
0.97045165300369263 0.55951833724975586 0.10083773732185364
0.042933668941259384 0.65635353326797485 0.088938511908054352
0.098311416804790497 0.65622985363006592 0.092800945043563843
0.17338511347770691 0.65560990571975708 0.09198431670665741
0.27196246385574341 0.65562337636947632 0.094344243407249451
0.38269826769828796 0.65348231792449951 0.096118420362472534
0.49863073229789734 0.65045017004013062 0.095257356762886047
0.6108887791633606 0.65164989233016968 0.095139443874359131
0.70280784368515015 0.65249770879745483 0.091196484863758087
0.7760002613067627 0.65395474433898926 0.102416031062603
0.83936411142349243 0.6525568962097168 0.10971544682979584
0.89209181070327759 0.65145987272262573 0.10903893411159515
0.93581092357635498 0.65304213762283325 0.091348730027675629
0.97094988822937012 0.6539531946182251 0.10243627429008484
0.040734175592660904 0.73202002048492432 0.091046519577503204
0.10269435495138168 0.73312032222747803 0.09496200829744339
0.1792108565568924 0.73370718955993652 0.093502342700958252
0.2722206711769104 0.73602169752120972 0.10322747379541397
0.3862186074256897 0.73313844203948975 0.10967659950256348
0.50434821844100952 0.73259025812149048 0.096641004085540771
0.61223393678665161 0.73183703422546387 0.089588478207588196
0.70424014329910278 0.73194599151611328 0.090678304433822632
0.77737683057785034 0.7314763069152832 0.1022169217467308
0.83858793973922729 0.73010993003845215 0.10819526761770248
0.89318972826004028 0.72964012622833252 0.10931368172168732
0.9384734034538269 0.72969537973403931 0.09753786027431488
0.97142863273620605 0.73148089647293091 0.10173571854829788
0.031831346452236176 0.79735523462295532 0.089062124490737915
0.099043749272823334 0.79881280660629272 0.093568198382854462
0.18091537058353424 0.79709523916244507 0.099739685654640198
0.2765146791934967 0.79790657758712769 0.10638711601495743
0.39151552319526672 0.80010449886322021 0.10117194801568985
0.50664669275283813 0.79963225126266479 0.099143236875534058
0.61037701368331909 0.79832994937896729 0.10042980313301086
0.70428287982940674 0.79971635341644287 0.09648856520652771
0.77664154767990112 0.79874145984649658 0.10391177237033844
0.83901065587997437 0.79961168766021729 0.096805110573768616
0.8919026255607605 0.79965686798095703 0.10555276274681091
0.93700486421585083 0.79864501953125 0.1128029003739357
0.9606509804725647 0.79675722122192383 0.10874292999505997
0.030820734798908234 0.85292500257492065 0.093220219016075134
0.096063502132892609 0.85502946376800537 0.097628377377986908
0.18398208916187286 0.85305655002593994 0.10623200237751007
0.28214368224143982 0.85236144065856934 0.11305370181798935
0.39322450757026672 0.8541455864906311 0.10552288591861725
0.51163011789321899 0.85508865118026733 0.10257843881845474
0.6134602427482605 0.85362750291824341 0.10292476415634155
0.70449000597000122 0.85230791568756104 0.10609535127878189
0.77669554948806763 0.85338288545608521 0.10792379826307297
0.83870303630828857 0.85531312227249146 0.094602890312671661
0.88894188404083252 0.85426092147827148 0.099630944430828094
0.93211472034454346 0.85394543409347534 0.10452733933925629
0.95566695928573608 0.85125738382339478 0.11380788683891296
0.031017931178212166 0.90191084146499634 0.099993400275707245
0.099669061601161957 0.90206855535507202 0.10679666697978973
0.18210403621196747 0.90133273601531982 0.098243027925491333
0.2748170793056488 0.89935851097106934 0.10078036785125732
0.38916310667991638 0.89921784400939941 0.10035858303308487
0.51240509748458862 0.90167057514190674 0.10333026200532913
0.6153939962387085 0.90023010969161987 0.10923162847757339
0.70417332649230957 0.89814192056655884 0.10138186067342758
0.77776914834976196 0.89810127019882202 0.096146978437900543
0.83857333660125732 0.90059256553649902 0.094848453998565674
0.88775444030761719 0.90078920125961304 0.10365734994411469
0.93100577592849731 0.90050673484802246 0.10477621108293533
0.9631161093711853 0.90030443668365479 0.10024340450763702
0.036042023450136185 0.94357490539550781 0.10292599350214005
0.10042904317378998 0.94234532117843628 0.10075755417346954
0.18179614841938019 0.94164484739303589 0.096830539405345917
0.27301564812660217 0.94018161296844482 0.094107575714588165
0.38631096482276917 0.93920964002609253 0.094465352594852448
0.51193368434906006 0.94063347578048706 0.098621100187301636
0.61485737562179565 0.94018095731735229 0.10969650000333786
0.70271044969558716 0.9381827712059021 0.10054228454828262
0.77842682600021362 0.9383542537689209 0.092786245048046112
0.84008973836898804 0.94060587882995605 0.094590328633785248
0.88899689912796021 0.94104498624801636 0.10124719887971878
0.93470501899719238 0.94108307361602783 0.096292473375797272
0.96471196413040161 0.93833386898040771 0.0988655686378479
0.042700391262769699 0.9776151180267334 0.098150469362735748
0.097251191735267639 0.97670847177505493 0.099260427057743073
0.1830066442489624 0.97208058834075928 0.10358850657939911
0.27305766940116882 0.97121149301528931 0.10472451150417328
0.38596460223197937 0.96818292140960693 0.11077889800071716
0.50754475593566895 0.96731150150299072 0.098306827247142792
0.61196678876876831 0.96970587968826294 0.097661919891834259
0.70204967260360718 0.97185599803924561 0.10079699009656906
0.77721452713012695 0.97092068195343018 0.093261078000068665
0.83736544847488403 0.96861833333969116 0.10016516596078873
0.88989919424057007 0.97438663244247437 0.097880221903324127
0.93537342548370361 0.97002357244491577 0.098126627504825592
0.96834760904312134 0.9688103199005127 0.09766630083322525
0.03520691767334938 0.042545918375253677 0.29752907156944275
0.098043479025363922 0.039919566363096237 0.30645021796226501
0.17461833357810974 0.040124483406543732 0.30290275812149048
0.27565386891365051 0.041123528033494949 0.29205867648124695
0.39493802189826965 0.042964622378349304 0.29286083579063416
0.50940239429473877 0.042051263153553009 0.29898113012313843
0.60980623960494995 0.040773503482341766 0.29529601335525513
0.69963926076889038 0.044534392654895782 0.28899756073951721
0.77744102478027344 0.05045299232006073 0.28426674008369446
0.83924543857574463 0.045554440468549728 0.28098407387733459
0.89052784442901611 0.045432459563016891 0.28190863132476807
0.93735939264297485 0.046106778085231781 0.28539350628852844
0.97459489107131958 0.049284469336271286 0.29530316591262817
0.0356484055519104 0.12771950662136078 0.29602500796318054
0.092100106179714203 0.12276735156774521 0.30013668537139893
0.17221677303314209 0.12339100241661072 0.30677610635757446
0.27863642573356628 0.12424299865961075 0.30302348732948303
0.39932164549827576 0.1247536763548851 0.303415447473526
0.51125484704971313 0.12432002276182175 0.30273157358169556
0.61282968521118164 0.12378538399934769 0.29990437626838684
0.70239603519439697 0.12060035020112991 0.29416856169700623
0.77781891822814941 0.11836926639080048 0.28930220007896423
0.83955138921737671 0.12150968611240387 0.28226983547210693
0.89111292362213135 0.12878675758838654 0.27580457925796509
0.93705171346664429 0.13120663166046143 0.27717643976211548
0.97354006767272949 0.12980391085147858 0.29056689143180847
0.031172120943665504 0.22297948598861694 0.30237120389938354
0.093698374927043915 0.21779908239841461 0.30211049318313599
0.17349801957607269 0.21940475702285767 0.30538541078567505
0.27479091286659241 0.22416530549526215 0.29626208543777466
0.39291220903396606 0.22530084848403931 0.30259954929351807
0.50808632373809814 0.21879054605960846 0.2987419068813324
0.61236250400543213 0.21616789698600769 0.29990503191947937
0.70314693450927734 0.2184070348739624 0.30159288644790649
0.77982372045516968 0.21944862604141235 0.29544523358345032
0.84013456106185913 0.22031642496585846 0.28758174180984497
0.89352452754974365 0.22111321985721588 0.28288659453392029
0.94034785032272339 0.22065114974975586 0.28076633810997009
0.97251462936401367 0.23003417253494263 0.28313490748405457
0.035182982683181763 0.3374519944190979 0.29795166850090027
0.10131595283746719 0.33227598667144775 0.30792248249053955
0.17942193150520325 0.33313915133476257 0.30362001061439514
0.27146559953689575 0.33523368835449219 0.29169628024101257
0.38564488291740417 0.33206930756568909 0.300892174243927
0.50142586231231689 0.32563728094100952 0.28861057758331299
0.6062014102935791 0.32229393720626831 0.28829193115234375
0.7010607123374939 0.32760909199714661 0.29526567459106445
0.78129619359970093 0.32979491353034973 0.2959195077419281
0.83988767862319946 0.33141157031059265 0.28344240784645081
0.8926398754119873 0.32892423868179321 0.28252798318862915
0.93974846601486206 0.32808741927146912 0.28298830986022949
0.97643071413040161 0.33374601602554321 0.28869563341140747
0.033154327422380447 0.4544641375541687 0.29647701978683472
0.098602950572967529 0.450651615858078 0.28767609596252441
0.17828533053398132 0.44947072863578796 0.29483234882354736
0.27348825335502625 0.44805392622947693 0.29149946570396423
0.38408249616622925 0.44422361254692078 0.28302660584449768
0.50053179264068604 0.44115900993347168 0.2771361768245697
0.60751646757125854 0.43895441293716431 0.27983123064041138
0.70071041584014893 0.44011726975440979 0.28948974609375
0.77740532159805298 0.44542780518531799 0.29296976327896118
0.83909302949905396 0.44681373238563538 0.28296342492103577
0.88924813270568848 0.44850015640258789 0.28351336717605591
0.93476790189743042 0.44955641031265259 0.2883390486240387
0.9728400707244873 0.44873148202896118 0.29409760236740112
0.032284367829561234 0.56230264902114868 0.28997766971588135
0.094938121736049652 0.56164157390594482 0.28236734867095947
0.17300428450107574 0.55884790420532227 0.28283363580703735
0.27009272575378418 0.55525952577590942 0.28126746416091919
0.37939184904098511 0.55188322067260742 0.2748354971408844
0.49814677238464355 0.55143558979034424 0.28130123019218445
0.60948735475540161 0.55170106887817383 0.28885155916213989
0.69879668951034546 0.55215835571289062 0.28771242499351501
0.77664268016815186 0.5593445897102356 0.29151999950408936
0.84018820524215698 0.55903273820877075 0.29324612021446228
0.88908559083938599 0.56010204553604126 0.29294553399085999
0.93226867914199829 0.55851423740386963 0.28960016369819641
0.96949857473373413 0.55792748928070068 0.29768460988998413
0.04069957509636879 0.6560744047164917 0.26794511079788208
0.095002271234989166 0.65722483396530151 0.27834317088127136
0.17065228521823883 0.65682446956634521 0.28570094704627991
0.26842686533927917 0.65446996688842773 0.28702276945114136
0.37615540623664856 0.65298426151275635 0.28545832633972168
0.49599352478981018 0.6498558521270752 0.28705474734306335
0.60841423273086548 0.64795947074890137 0.28734755516052246
0.70166707038879395 0.64954382181167603 0.28585252165794373
0.77771580219268799 0.65361595153808594 0.30157259106636047
0.84159237146377563 0.65548193454742432 0.30882039666175842
0.89051073789596558 0.65526998043060303 0.29768729209899902
0.93095666170120239 0.65123271942138672 0.28379353880882263
0.97105032205581665 0.65335482358932495 0.30079790949821472
0.041134148836135864 0.7316092848777771 0.27180361747741699
0.10168749094009399 0.73192322254180908 0.28289541602134705
0.18141677975654602 0.73227536678314209 0.29253858327865601
0.27577140927314758 0.73431438207626343 0.30717003345489502
0.38300412893295288 0.73306596279144287 0.30657503008842468
0.49859929084777832 0.73041576147079468 0.29522454738616943
0.60714924335479736 0.72785812616348267 0.29017394781112671
0.70157432556152344 0.72754168510437012 0.29469031095504761
0.77840930223464966 0.73087459802627563 0.30951237678527832
0.84141242504119873 0.73093777894973755 0.31140279769897461
0.89298665523529053 0.73143666982650757 0.29912281036376953
0.93482780456542969 0.73090267181396484 0.28544872999191284
0.97133857011795044 0.73374122381210327 0.30034607648849487
0.035104639828205109 0.79755502939224243 0.28358638286590576
0.10341556370258331 0.79895597696304321 0.29182875156402588
0.18561682105064392 0.79754114151000977 0.29967015981674194
0.2791198194026947 0.79620099067687988 0.3098856508731842
0.39034053683280945 0.79656559228897095 0.30111274123191833
0.5008888840675354 0.79731905460357666 0.30034443736076355
0.6090582013130188 0.80006009340286255 0.3050752580165863
0.7019769549369812 0.79651802778244019 0.29516887664794922
0.77716588973999023 0.79604136943817139 0.29725578427314758
0.84096461534500122 0.79757088422775269 0.30878964066505432
0.89549762010574341 0.79884761571884155 0.31269782781600952
0.93951338529586792 0.7993130087852478 0.31597620248794556
0.96221530437469482 0.79838347434997559 0.31364208459854126
0.032243166118860245 0.85383909940719604 0.29396578669548035
0.099946342408657074 0.85497629642486572 0.30214619636535645
0.18429888784885406 0.85248416662216187 0.30511036515235901
0.27517575025558472 0.85128730535507202 0.31262692809104919
0.39153257012367249 0.85028034448623657 0.30993184447288513
0.50675588846206665 0.85190844535827637 0.30946499109268188
0.61360108852386475 0.85441738367080688 0.30302718281745911
0.70283371210098267 0.85232174396514893 0.29343447089195251
0.77469617128372192 0.85069292783737183 0.28848972916603088
0.83835268020629883 0.85128235816955566 0.29285821318626404
0.8910631537437439 0.85167437791824341 0.30082625150680542
0.93622654676437378 0.85377424955368042 0.31519925594329834
0.95514053106307983 0.85282707214355469 0.31381392478942871
0.035022780299186707 0.90141719579696655 0.29853525757789612
0.098545745015144348 0.90113556385040283 0.30367580056190491
0.1833292543888092 0.89740020036697388 0.2913825511932373
0.27831414341926575 0.89614713191986084 0.29719209671020508
0.39303243160247803 0.8967089056968689 0.30251854658126831
0.51265799999237061 0.900337815284729 0.30629342794418335
0.61943012475967407 0.90299957990646362 0.3004765510559082
0.70339679718017578 0.89969968795776367 0.29289257526397705
0.77454870939254761 0.89737486839294434 0.28865984082221985
0.83915287256240845 0.89772075414657593 0.29008805751800537
0.88869494199752808 0.899677574634552 0.29721549153327942
0.93261921405792236 0.90203499794006348 0.30493536591529846
0.9522700309753418 0.90064078569412231 0.30483904480934143
0.041605465114116669 0.94245415925979614 0.29881149530410767
0.1036413311958313 0.94098407030105591 0.29777514934539795
0.18240049481391907 0.94090926647186279 0.28887999057769775
0.27585914731025696 0.94031393527984619 0.28824228048324585
0.39085748791694641 0.93871557712554932 0.28909343481063843
0.51248615980148315 0.94337493181228638 0.29871127009391785
0.61794334650039673 0.94322818517684937 0.30034992098808289
0.70210224390029907 0.93852347135543823 0.29083141684532166
0.77499985694885254 0.93820065259933472 0.28525736927986145
0.84276241064071655 0.94056200981140137 0.28899189829826355
0.89012855291366577 0.94168221950531006 0.29680511355400085
0.93362295627593994 0.941292405128479 0.30080690979957581
0.95771080255508423 0.94035834074020386 0.29992082715034485
0.056179404258728027 0.97631680965423584 0.29775258898735046
0.10177736729383469 0.97983741760253906 0.30650585889816284
0.18362902104854584 0.97281360626220703 0.29619702696800232
0.27514910697937012 0.97185534238815308 0.29067695140838623
0.38761076331138611 0.97322642803192139 0.29370877146720886
0.5040774941444397 0.9723389744758606 0.29064843058586121
0.60736101865768433 0.97218865156173706 0.29009366035461426
0.69946891069412231 0.97482150793075562 0.29192396998405457
0.77352607250213623 0.97281652688980103 0.28729572892189026
0.83887565135955811 0.9733315110206604 0.28962054848670959
0.8906480073928833 0.97552949190139771 0.29348444938659668
0.93269222974777222 0.97197496891021729 0.29384279251098633
0.96771228313446045 0.97298455238342285 0.29501870274543762
0.033191576600074768 0.045141153037548065 0.44369614124298096
0.096654824912548065 0.042610347270965576 0.43764102458953857
0.17561691999435425 0.039997339248657227 0.44639557600021362
0.27779677510261536 0.041709691286087036 0.44532275199890137
0.39726302027702332 0.044460728764533997 0.43799474835395813
0.50994795560836792 0.039985161274671555 0.43790030479431152
0.61014449596405029 0.040234822779893875 0.43782943487167358
0.69820278882980347 0.038788426667451859 0.43225711584091187
0.77576351165771484 0.037792880088090897 0.43379706144332886
0.84047037363052368 0.037162285298109055 0.43615078926086426
0.8917994499206543 0.038714762777090073 0.43820679187774658
0.9389570951461792 0.041646562516689301 0.44062674045562744
0.97336035966873169 0.041924182325601578 0.44066730141639709
0.031988691538572311 0.13194076716899872 0.4358634352684021
0.095644675195217133 0.12609794735908508 0.43378207087516785
0.17475861310958862 0.12444239854812622 0.44470861554145813
0.2787940502166748 0.1289924830198288 0.44570007920265198
0.39874884486198425 0.12733574211597443 0.44445085525512695
0.51194292306900024 0.12413237243890762 0.44376173615455627
0.61287063360214233 0.12325453013181686 0.44219958782196045
0.7022329568862915 0.11990212649106979 0.43669217824935913
0.77837467193603516 0.11584874987602234 0.4404757022857666
0.84242433309555054 0.1168697252869606 0.44099035859107971
0.8917844295501709 0.1248340979218483 0.4365105926990509
0.93839341402053833 0.12773023545742035 0.44252979755401611
0.97158133983612061 0.13064783811569214 0.44433659315109253
0.030767897143959999 0.22650228440761566 0.44217917323112488
0.096776984632015228 0.22198940813541412 0.43470165133476257
0.17481531202793121 0.21924082934856415 0.4430866539478302
0.27304273843765259 0.2260669618844986 0.44157153367996216
0.39063990116119385 0.22463563084602356 0.44145515561103821
0.50606989860534668 0.21410433948040009 0.44597399234771729
0.61069631576538086 0.21626931428909302 0.44420582056045532
0.7022547721862793 0.21972407400608063 0.43942913413047791
0.78121888637542725 0.21897797286510468 0.44062170386314392
0.84386545419692993 0.21914865076541901 0.44370332360267639
0.89229762554168701 0.22471132874488831 0.44085708260536194
0.93717426061630249 0.22566142678260803 0.43597516417503357
0.96961027383804321 0.228928342461586 0.43365728855133057
0.031631350517272949 0.33427694439888 0.44603762030601501
0.092524148523807526 0.33296936750411987 0.44203057885169983
0.17701993882656097 0.33230599761009216 0.43633726239204407
0.2700246274471283 0.33348765969276428 0.43525388836860657
0.38413164019584656 0.33391165733337402 0.43418654799461365
0.50026613473892212 0.32396593689918518 0.44015291333198547
0.60785424709320068 0.32305437326431274 0.4377993643283844
0.70090645551681519 0.32834449410438538 0.43463176488876343
0.78133797645568848 0.32895290851593018 0.43807345628738403
0.84157395362854004 0.32889589667320251 0.44218483567237854
0.89104580879211426 0.33283481001853943 0.43764755129814148
0.93410176038742065 0.33546602725982666 0.42200204730033875
0.9725496768951416 0.33610090613365173 0.42741340398788452
0.032780800014734268 0.44665482640266418 0.43944975733757019
0.090146474540233612 0.44750320911407471 0.43617552518844604
0.17591515183448792 0.45012950897216797 0.43018501996994019
0.27410566806793213 0.45087683200836182 0.42831900715827942
0.38559240102767944 0.44897258281707764 0.42869848012924194
0.50161808729171753 0.44551414251327515 0.42971342802047729
