assets/lut/others vibrant contrast.cube
# Created by: G'MIC (https://gmic.eu)
TITLE "vibrant_contrast"
# LUT size
LUT_3D_SIZE 7
# Data domain
DOMAIN_MIN 0.0 0.0 0.0
DOMAIN_MAX 1.0 1.0 1.0
# LUT data points
8.4013096056878567e-05 0 0.022499188780784607
0.060593921691179276 0 0.021421065554022789
0.18565760552883148 0 0.0097631867974996567
0.34763181209564209 0 5.4931639169808477e-05
0.53298687934875488 0.00036852966877631843 0
0.75221800804138184 0 0
0.96207219362258911 0 0
0.0036683026701211929 0.036681097000837326 0.029483495280146599
0.073356181383132935 0.036960408091545105 0.033136211335659027
0.20594049990177155 0.036035455763339996 0.021070173010230064
0.38054457306861877 0.013063213787972927 0.0026855168398469687
0.57698297500610352 7.6593139965552837e-05 0
0.81114327907562256 0 0
0.99845153093338013 0 0
0.0056236418895423412 0.16510288417339325 0.024371247738599777
0.080470427870750427 0.17173206806182861 0.03560015931725502
0.2309262752532959 0.17538939416408539 0.03572419285774231
0.41683703660964966 0.14255447685718536 0.016610357910394669
0.61137670278549194 0.079725898802280426 0.0024950215592980385
0.85386395454406738 0.017020566388964653 0.0003554998547770083
1 0.0047861137427389622 0.0004089804133400321
0.0014496897347271442 0.3535422682762146 0.0087332483381032944
0.068924665451049805 0.35960304737091064 0.023250116035342216
0.23513203859329224 0.3742581307888031 0.028923602774739265
0.44744232296943665 0.37723764777183533 0.022426260635256767
0.65939188003540039 0.31542381644248962 0.0071693570353090763
0.90069890022277832 0.20762519538402557 0.00016584209515713155
1 0.16835002601146698 0
0 0.56592839956283569 0.00022206026187632233
0.023474091663956642 0.58159440755844116 0.005845432635396719
0.18862421810626984 0.59853106737136841 0.0054219113662838936
0.44455847144126892 0.61739981174468994 0.016523204743862152
0.7018701434135437 0.60272562503814697 0.016352873295545578
0.95199054479598999 0.51087868213653564 0.001499864156357944
1 0.50270754098892212 0
0 0.81866532564163208 0
0.0013316734693944454 0.84761160612106323 0
0.11237677931785583 0.86270880699157715 0
0.3692014217376709 0.88329988718032837 0.00091272988356649876
0.6731610894203186 0.90740889310836792 0.011361350305378437
0.97754240036010742 0.87994843721389771 0.0059568369761109352
0.99977988004684448 0.9042125940322876 0.0082817822694778442
0 0.9998786449432373 0
4.8618690925650299e-05 1 0.0021294986363500357
0.082441680133342743 1 0.0085520278662443161
0.33771061897277832 1 0.0014673121040686965
0.67068558931350708 1 0.0031862445175647736
0.96661919355392456 1 0.018897412344813347
1 1 0.018671777099370956
0 0 0.14021727442741394
0.04892648383975029 0.0014245874481275678 0.14214755594730377
0.1852332204580307 0 0.13659027218818665
0.35587245225906372 0 0.095399133861064911
0.54031944274902344 0.0024223776999861002 0.048630028963088989
0.76147288084030151 0.00032408471452072263 0.0047857994213700294
0.98028618097305298 0 0
0.0005241543403826654 0.028182893991470337 0.15943390130996704
0.064741991460323334 0.041837997734546661 0.16378763318061829
0.2117304652929306 0.045758161693811417 0.15905815362930298
0.39422309398651123 0.023788481950759888 0.12265992909669876
0.59051573276519775 0.0033857456874102354 0.069102779030799866
0.81908518075942993 0.00021697400370612741 0.015848360955715179
0.99963361024856567 0 0.002081762533634901
0.0036961124278604984 0.17130750417709351 0.16988888382911682
0.093436233699321747 0.18237659335136414 0.18221981823444366
0.24478182196617126 0.19529902935028076 0.1849789172410965
0.42383220791816711 0.17142005264759064 0.16405381262302399
0.62444567680358887 0.10635977238416672 0.10340327769517899
0.8670615553855896 0.034851614385843277 0.031419236212968826
1 0.012502049095928669 0.011539069935679436
0.0035305547062307596 0.35944971442222595 0.14554078876972198
0.088605381548404694 0.3697231113910675 0.1715618222951889
0.26096826791763306 0.3862856924533844 0.18394123017787933
0.45960035920143127 0.38949325680732727 0.19006215035915375
0.67901647090911865 0.33831760287284851 0.13373501598834991
0.92030864953994751 0.25102567672729492 0.052318930625915527
1 0.20444552600383759 0.047109954059123993
0 0.57042980194091797 0.089978300034999847
0.045323930680751801 0.58443087339401245 0.12150989472866058
0.22561483085155487 0.6088252067565918 0.13619557023048401
0.46829548478126526 0.63582992553710938 0.17775247991085052
0.72853922843933105 0.61936217546463013 0.15870694816112518
0.96842074394226074 0.54718148708343506 0.080667577683925629
0.99975520372390747 0.5471758246421814 0.081032022833824158
0.00031991099240258336 0.83730792999267578 0.021992387250065804
0.011077192611992359 0.85730612277984619 0.033960498869419098
0.14358031749725342 0.88417595624923706 0.051588453352451324
0.39920142292976379 0.91275382041931152 0.092002004384994507
0.70140367746353149 0.92564171552658081 0.12808775901794434
0.9886900782585144 0.89519858360290527 0.1315806657075882
0.9891819953918457 0.92856085300445557 0.14176057279109955
0 1 0.016163695603609085
0.0080704782158136368 1 0.034766476601362228
0.11870940029621124 1 0.051399245858192444
0.38813972473144531 1 0.078263364732265472
0.72760486602783203 1 0.11294326931238174
0.99344289302825928 1 0.15937259793281555
0.9996219277381897 1 0.17800156772136688
0 0 0.28033140301704407
0.024473467841744423 8.6152322182897478e-05 0.29031306505203247
0.1674778014421463 0 0.30255940556526184
0.35798773169517517 0 0.27900436520576477
0.54938006401062012 0.00025145587278530002 0.22397187352180481
0.78465670347213745 0.0015461491420865059 0.12533582746982574
0.99085104465484619 0 0.046028405427932739
1.6515396055183373e-05 0.006335538811981678 0.3049568235874176
0.042400553822517395 0.02309550903737545 0.30962333083152771
0.20150627195835114 0.032754622399806976 0.31674546003341675
0.40237820148468018 0.025000672787427902 0.305733323097229
0.59973776340484619 0.010282239876687527 0.25928422808647156
0.83923017978668213 3.1415154808200896e-05 0.16017322242259979
1 0 0.080914348363876343
0.0016726774629205465 0.14827947318553925 0.32448664307594299
0.077595323324203491 0.17113864421844482 0.32896652817726135
0.24402973055839539 0.18879903852939606 0.34240689873695374
0.43009302020072937 0.18510895967483521 0.34410002827644348
0.64041519165039062 0.13450099527835846 0.29196470975875854
0.88433152437210083 0.057148996740579605 0.19169384241104126
1 0.037131275981664658 0.13078539073467255
0.0017653820104897022 0.35229149460792542 0.32870781421661377
0.09404551237821579 0.37641662359237671 0.34349757432937622
0.27437838912010193 0.39440804719924927 0.36085259914398193
0.46432667970657349 0.40040025115013123 0.37114429473876953
0.69466447830200195 0.36005088686943054 0.32112905383110046
0.938712477684021 0.27960804104804993 0.22766254842281342
1 0.25570964813232422 0.20261514186859131
0.0019230712205171585 0.58737170696258545 0.27598059177398682
0.069785594940185547 0.60930871963500977 0.30610918998718262
0.25222966074943542 0.62540942430496216 0.33081817626953125
0.48486131429672241 0.63208013772964478 0.36594521999359131
0.73819392919540405 0.62702316045761108 0.3392394483089447
0.97533679008483887 0.57836753129959106 0.26513829827308655
0.99981117248535156 0.59624779224395752 0.27291080355644226
0 0.86095529794692993 0.16469298303127289
0.022141745314002037 0.88756757974624634 0.19461309909820557
0.16945676505565643 0.90527129173278809 0.23507831990718842
0.42866140604019165 0.91408497095108032 0.28135871887207031
0.72307640314102173 0.93025302886962891 0.30657443404197693
0.98920828104019165 0.9094502329826355 0.31732118129730225
0.99055308103561401 0.93568766117095947 0.33626005053520203
0 1 0.12209520488977432
0.016421552747488022 1 0.17966680228710175
0.15342108905315399 1 0.22440150380134583
0.43913155794143677 0.99999064207077026 0.26611244678497314
0.76446080207824707 0.99927985668182373 0.31602448225021362
0.99767440557479858 0.99934053421020508 0.36032408475875854
0.99912387132644653 1 0.38145822286605835
0 0 0.43416345119476318
0.0026259329169988632 0.00032574523356743157 0.44376298785209656
0.11869524419307709 3.5005457903025672e-05 0.45915710926055908
0.34116753935813904 0 0.46355128288269043
0.5604250431060791 0 0.43407663702964783
0.80251234769821167 0 0.32929569482803345
0.99539244174957275 0 0.22463364899158478
0 0 0.45803335309028625
0.015851637348532677 0.0033496334217488766 0.46253800392150879
0.16382437944412231 0.016623567789793015 0.47501289844512939
0.39218607544898987 0.027182186022400856 0.49129143357276917
0.60770547389984131 0.015379139222204685 0.47250381112098694
0.84465163946151733 0.00029799516778439283 0.37519991397857666
1 0.00032574523356743157 0.27312666177749634
8.6167283370741643e-06 0.09788329154253006 0.47681960463523865
0.04625416174530983 0.13078153133392334 0.48328706622123718
0.21160472929477692 0.15805868804454803 0.50048941373825073
0.42483258247375488 0.18235044181346893 0.51633816957473755
0.65234851837158203 0.15783198177814484 0.49190807342529297
0.88935321569442749 0.079164020717144012 0.40899941325187683
1 0.054760023951530457 0.33881738781929016
0.0014993854565545917 0.32432407140731812 0.49468705058097839
0.073575712740421295 0.35943573713302612 0.5082823634147644
0.26097729802131653 0.38567942380905151 0.52398049831390381
0.46892240643501282 0.40518984198570251 0.53695493936538696
0.70289415121078491 0.39035874605178833 0.51638209819793701
0.94729185104370117 0.31386122107505798 0.44477468729019165
1 0.28943592309951782 0.40378046035766602
0.0044890907593071461 0.58668345212936401 0.49361133575439453
0.083002291619777679 0.62111961841583252 0.50163906812667847
0.27198797464370728 0.63647902011871338 0.51812207698822021
0.5012209415435791 0.64318275451660156 0.5452532172203064
0.7349168062210083 0.65341854095458984 0.54458117485046387
0.97454768419265747 0.61207658052444458 0.48865607380867004
1 0.62769037485122681 0.4712822437286377
0 0.87074542045593262 0.39386153221130371
0.038619484752416611 0.8997911810874939 0.42076510190963745
0.20205396413803101 0.91666483879089355 0.44979819655418396
0.46168342232704163 0.92559462785720825 0.49347007274627686
0.738780677318573 0.93789243698120117 0.51935231685638428
0.99280142784118652 0.92421865463256836 0.53690314292907715
0.99915486574172974 0.95601540803909302 0.54228997230529785
0 1 0.33496329188346863
0.027069166302680969 1 0.39235791563987732
0.19091041386127472 0.99994009733200073 0.43910208344459534
0.48726129531860352 0.99663501977920532 0.48898071050643921
0.7807731032371521 0.99998056888580322 0.53148221969604492
0.99870818853378296 0.99731099605560303 0.56650125980377197
1 0.99963712692260742 0.58760040998458862
0 0 0.59019994735717773
0 0 0.59742438793182373
0.061717569828033447 0.00018183390784543008 0.60897952318191528
0.28812751173973083 0.00061862420989200473 0.61839938163757324
0.54777061939239502 0 0.62132209539413452
0.81312602758407593 0.00012952019460499287 0.5567164421081543
0.99579650163650513 5.9120327932760119e-05 0.4626610279083252
0 0 0.61548364162445068
0.00058734370395541191 0 0.62397211790084839
0.10237863659858704 0.00037150664138607681 0.62771737575531006
0.34018924832344055 0.011216317303478718 0.6516873836517334
0.60393220186233521 0.011592371389269829 0.66059732437133789
0.86283421516418457 0.00082756491610780358 0.59390372037887573
1 0.00012446385517250746 0.50214052200317383
5.6203207350336015e-05 0.05045757070183754 0.63353884220123291
0.010488816536962986 0.072126127779483795 0.65033626556396484
0.15280289947986603 0.10141513496637344 0.65455645322799683
0.38538891077041626 0.14091411232948303 0.67208749055862427
0.6485334038734436 0.15521781146526337 0.67475348711013794
0.9122314453125 0.10160931199789047 0.61825668811798096
1 0.077164687216281891 0.5615583062171936
0 0.27690479159355164 0.65585833787918091
0.038509652018547058 0.31206458806991577 0.66991782188415527
0.22071582078933716 0.34967327117919922 0.67570734024047852
0.44641542434692383 0.37588828802108765 0.6916579008102417
0.70517569780349731 0.39817613363265991 0.69619548320770264
0.95962095260620117 0.34577253460884094 0.64505475759506226
1 0.32566341757774353 0.62253278493881226
0.0010962841333821416 0.58420246839523315 0.67320019006729126
0.072914332151412964 0.60439890623092651 0.68609678745269775
0.26233190298080444 0.62705343961715698 0.69350922107696533
0.49632203578948975 0.65205579996109009 0.7098085880279541
0.740730881690979 0.66382497549057007 0.71705454587936401
0.97725564241409302 0.63741141557693481 0.68921768665313721
1 0.65304958820343018 0.67978286743164062
0 0.8770751953125 0.61193346977233887
0.047523364424705505 0.89879524707794189 0.64022529125213623
0.23160696029663086 0.91760486364364624 0.66146731376647949
0.49013495445251465 0.93348675966262817 0.69194424152374268
0.76355946063995361 0.9448053240776062 0.71641212701797485
0.99551659822463989 0.94370865821838379 0.72384905815124512
0.99923765659332275 0.949604332447052 0.73648887872695923
0 1 0.57766753435134888
0.035405747592449188 1 0.62608951330184937
0.23135176301002502 0.99905407428741455 0.66764587163925171
0.51111519336700439 0.9967382550239563 0.70456546545028687
0.80257213115692139 0.99856537580490112 0.73451685905456543
1 0.99717986583709717 0.76116496324539185
1 1 0.78413808345794678
0 0 0.74629813432693481
0 0 0.75669145584106445
0.025630876421928406 0 0.76892954111099243
0.20426450669765472 0 0.78535521030426025
0.47979909181594849 0 0.79896563291549683
0.80188792943954468 0.004294706042855978 0.77607661485671997
0.99857193231582642 0.0022679497487843037 0.72081077098846436
0 0 0.77370715141296387
0 0 0.78434973955154419
0.058673694729804993 0 0.79202777147293091
0.26536023616790771 0.001016519614495337 0.81589764356613159
0.54980480670928955 0.0082259383052587509 0.83357638120651245
0.86699396371841431 0.0018354378407821059 0.80537939071655273
1 0.0023970808833837509 0.75969725847244263
0.0004048964474350214 0.010860712267458439 0.79586023092269897
0.00018175911100115627 0.027882490307092667 0.81063735485076904
0.098747625946998596 0.054339166730642319 0.81472277641296387
0.32854592800140381 0.088138610124588013 0.83660006523132324
0.61000627279281616 0.12431353330612183 0.8504631519317627
0.91624999046325684 0.1102432981133461 0.83489114046096802
1 0.10670514404773712 0.81017541885375977
0 0.19960218667984009 0.81526869535446167
0.014136654324829578 0.24399003386497498 0.83062899112701416
0.15164296329021454 0.28327757120132446 0.84463906288146973
0.39396589994430542 0.32104888558387756 0.86391520500183105
0.67447167634963989 0.37126412987709045 0.88101726770401001
0.9546583890914917 0.37001925706863403 0.8641008734703064
0.99896657466888428 0.37169930338859558 0.86083167791366577
0 0.51860088109970093 0.8484271764755249
0.037373963743448257 0.54816561937332153 0.85365903377532959
0.20754256844520569 0.58215415477752686 0.87515485286712646
0.46377184987068176 0.61408382654190063 0.89260715246200562
0.72938096523284912 0.64781999588012695 0.90881222486495972
0.98555964231491089 0.65676194429397583 0.9024120569229126
0.99440908432006836 0.68223828077316284 0.91166931390762329
0 0.87201994657516479 0.83802074193954468
0.048041969537734985 0.88492846488952637 0.85470485687255859
0.23568315804004669 0.91112744808197021 0.88319104909896851
0.50199621915817261 0.93253970146179199 0.89919507503509521
0.7840651273727417 0.94564592838287354 0.9246528148651123
0.9964173436164856 0.95577037334442139 0.92869621515274048
0.97745156288146973 0.95932990312576294 0.9339069128036499
0.00011474011262180284 1 0.83618694543838501
0.063546828925609589 1 0.86722767353057861
0.26860243082046509 0.99966341257095337 0.90669876337051392
0.53433585166931152 0.99981129169464111 0.90656232833862305
0.81796455383300781 0.99665957689285278 0.93695181608200073
1 0.99983292818069458 0.95102548599243164
0.99987399578094482 0.99977248907089233 0.96361911296844482
0 0 0.8988649845123291
0 0.0012407040921971202 0.91553801298141479
0.00054734171135351062 0.00090294633992016315 0.93116825819015503
0.1248353123664856 0 0.95065653324127197
0.40207576751708984 0 0.95981836318969727
0.7432866096496582 0.0031104143708944321 0.96290522813796997
0.9999159574508667 0 0.96694236993789673
0.00028996187029406428 0 0.92796057462692261
0 0.0031215143389999866 0.94901108741760254
0.019188495352864265 0 0.95885896682739258
0.19317582249641418 0 0.9755370020866394
0.49118351936340332 0 0.98416531085968018
0.82021582126617432 0.00029627481126226485 0.9876893162727356
0.99987590312957764 0.012112725526094437 0.99393701553344727
0.00045273723662830889 1.7233456674148329e-05 0.95715171098709106
0 0.0032730402890592813 0.97232306003570557
0.043988801538944244 0.01524797361344099 0.97757577896118164
0.26951557397842407 0.042633924633264542 0.98537290096282959
0.56061697006225586 0.076832354068756104 0.98264819383621216
0.87576818466186523 0.11627858132123947 0.99935609102249146
1 0.15367050468921661 0.99997270107269287
2.8004365958622657e-05 0.12384241074323654 0.97486668825149536
0.0008065167348831892 0.17479801177978516 0.98951154947280884
0.091211147606372833 0.21371766924858093 0.9973253607749939
0.34013992547988892 0.26919639110565186 0.99773859977722168
0.64142417907714844 0.3282676637172699 0.99663132429122925
0.93429535627365112 0.378151535987854 1
1 0.40791529417037964 1
3.7339155824156478e-05 0.45304703712463379 0.99713802337646484
0.0095458980649709702 0.49318847060203552 0.99680119752883911
0.16499210894107819 0.53984314203262329 0.99940186738967896
0.43388554453849792 0.58759933710098267 0.9986913800239563
0.72483402490615845 0.63973009586334229 0.9994884729385376
0.98753243684768677 0.67580193281173706 0.99931317567825317
0.99999064207077026 0.69511526823043823 1
4.6673944780195598e-06 0.86172831058502197 1
0.043743103742599487 0.86588096618652344 1
0.24163767695426941 0.89851456880569458 1
0.51171672344207764 0.92354190349578857 1
0.79060590267181396 0.95677644014358521 1
0.99395930767059326 0.95642185211181641 1
0.99692773818969727 0.94341874122619629 1
0.010311216115951538 0.99975711107254028 1
0.090320274233818054 1 1
0.29966670274734497 1 1
0.56725364923477173 1 1
0.83560425043106079 0.99990040063858032 1
0.99817103147506714 1 1
1 1 1
