assets/lut/others faux infrared.cube
# Created by: G'MIC (https://gmic.eu)
TITLE "faux_infrared"
# LUT size
LUT_3D_SIZE 7
# Data domain
DOMAIN_MIN 0.0 0.0 0.0
DOMAIN_MAX 1.0 1.0 1.0
# LUT data points
0.048132024705410004 0.057374961674213409 0.060728482902050018
0.14080879092216492 0.14213564991950989 0.18461205065250397
0.2600407600402832 0.25144064426422119 0.3439757227897644
0.39434924721717834 0.35986509919166565 0.48791760206222534
0.53027206659317017 0.47845703363418579 0.64264595508575439
0.65901923179626465 0.59621906280517578 0.79865676164627075
0.78065842390060425 0.70421493053436279 0.95199966430664062
0.17364361882209778 0.16034139692783356 0.16285263001918793
0.13280041515827179 0.19369280338287354 0.17368403077125549
0.23606656491756439 0.29948833584785461 0.33435022830963135
0.36083796620368958 0.38164055347442627 0.49381738901138306
0.45969435572624207 0.48318597674369812 0.64340299367904663
0.57563102245330811 0.58147692680358887 0.80413025617599487
0.69550490379333496 0.68660616874694824 0.95519334077835083
0.34316638112068176 0.30652335286140442 0.29689720273017883
0.26430884003639221 0.24456226825714111 0.33675238490104675
0.21096953749656677 0.35034829378128052 0.31116434931755066
0.30398374795913696 0.46594470739364624 0.48391264677047729
0.42039728164672852 0.5628896951675415 0.64912182092666626
0.53249311447143555 0.63793772459030151 0.79949218034744263
0.63589048385620117 0.73074853420257568 0.94528627395629883
0.48955729603767395 0.40814068913459778 0.41579505801200867
0.47053664922714233 0.36586371064186096 0.4897807240486145
0.31815168261528015 0.37719690799713135 0.48708316683769226
0.2845160961151123 0.50974541902542114 0.43305107951164246
0.38712570071220398 0.63313984870910645 0.61524254083633423
0.49542859196662903 0.73327732086181641 0.79575568437576294
0.60665225982666016 0.81219726800918579 0.95201247930526733
0.6397591233253479 0.53943711519241333 0.53106570243835449
0.63630741834640503 0.48807170987129211 0.62302345037460327
0.48690533638000488 0.44167032837867737 0.64459007978439331
0.39898836612701416 0.55911576747894287 0.64848554134368896
0.36226719617843628 0.66166746616363525 0.54367738962173462
0.47058951854705811 0.79550635814666748 0.74401986598968506
0.57967841625213623 0.90630531311035156 0.94949585199356079
0.79826617240905762 0.65839606523513794 0.65508109331130981
0.79787051677703857 0.60812520980834961 0.73843079805374146
0.71390408277511597 0.56998264789581299 0.80386263132095337
0.53249752521514893 0.568916916847229 0.79965955018997192
0.4728100597858429 0.72927731275558472 0.79374831914901733
0.44688093662261963 0.81801444292068481 0.67298322916030884
0.54161912202835083 0.95171672105789185 0.86973321437835693
0.94949603080749512 0.79309302568435669 0.78757864236831665
0.95204764604568481 0.73358172178268433 0.86010760068893433
0.9033437967300415 0.68561232089996338 0.95220291614532471
0.71990954875946045 0.64032280445098877 0.95506578683853149
0.5881417989730835 0.71111577749252319 0.94272911548614502
0.53668344020843506 0.90851432085037231 0.92428469657897949
0.51821553707122803 0.96530383825302124 0.7651515007019043
0.15062402188777924 0.15465819835662842 0.18779444694519043
0.12975138425827026 0.13105608522891998 0.20287239551544189
0.24348725378513336 0.22869175672531128 0.3385540246963501
0.37614437937736511 0.34940046072006226 0.49033257365226746
0.49934884905815125 0.45311838388442993 0.64837795495986938
0.62613487243652344 0.56393730640411377 0.80167436599731445
0.76060837507247925 0.68517386913299561 0.9524848461151123
0.18068313598632812 0.20584803819656372 0.20237497985363007
0.20550158619880676 0.21428526937961578 0.22279666364192963
0.28465792536735535 0.29497689008712769 0.34193706512451172
0.40609228610992432 0.39765298366546631 0.49400737881660461
0.55109107494354248 0.51292407512664795 0.64886969327926636
0.67340022325515747 0.62449771165847778 0.80246150493621826
0.79800021648406982 0.73704499006271362 0.9565051794052124
0.32358062267303467 0.33873844146728516 0.29742738604545593
0.33383876085281372 0.31497478485107422 0.3281363844871521
0.28130638599395752 0.35160303115844727 0.33008080720901489
0.37648084759712219 0.45145529508590698 0.49353361129760742
0.48744893074035645 0.54135668277740479 0.64471924304962158
0.60378456115722656 0.63499969244003296 0.79741257429122925
0.72260236740112305 0.73615097999572754 0.95356112718582153
0.48639184236526489 0.4831213653087616 0.41150978207588196
0.48642989993095398 0.4355475902557373 0.44740748405456543
0.41006967425346375 0.40055882930755615 0.49002796411514282
0.36327064037322998 0.50151026248931885 0.47136101126670837
0.45491114258766174 0.62422299385070801 0.63608407974243164
0.56298476457595825 0.70770144462585449 0.7943454384803772
0.669170081615448 0.79022622108459473 0.94349044561386108
0.64737921953201294 0.61670196056365967 0.53236126899719238
0.64423185586929321 0.56188303232192993 0.57816219329833984
0.60064464807510376 0.51348209381103516 0.63316959142684937
0.47212016582489014 0.53775143623352051 0.64563477039337158
0.43298247456550598 0.66169488430023193 0.58115428686141968
0.53202348947525024 0.78960978984832764 0.76908916234970093
0.64238148927688599 0.88425064086914062 0.94870638847351074
0.79940849542617798 0.73921018838882446 0.65324193239212036
0.7903556227684021 0.68227529525756836 0.68686372041702271
0.79153251647949219 0.63798040151596069 0.77997308969497681
0.64718031883239746 0.60545974969863892 0.79966199398040771
0.5443347692489624 0.70912438631057739 0.79755502939224243
0.51478010416030884 0.81389683485031128 0.70247465372085571
0.61249077320098877 0.95226514339447021 0.90318042039871216
0.94979643821716309 0.86227124929428101 0.7752344012260437
0.95038795471191406 0.80219185352325439 0.81591266393661499
0.95113766193389893 0.7592090368270874 0.90489089488983154
0.85470288991928101 0.716400146484375 0.95268160104751587
0.67680072784423828 0.71383821964263916 0.9504387378692627
0.61718893051147461 0.88668727874755859 0.94915229082107544
0.58566796779632568 0.96443504095077515 0.80756074190139771
0.26207771897315979 0.26994657516479492 0.33819305896759033
0.23136548697948456 0.23690292239189148 0.33980032801628113
0.21684665977954865 0.21602235734462738 0.36244112253189087
0.32571268081665039 0.31169378757476807 0.49801024794578552
0.45673814415931702 0.42049697041511536 0.65175747871398926
0.58432239294052124 0.5297170877456665 0.80842536687850952
0.70566642284393311 0.64278870820999146 0.95842152833938599
0.28681203722953796 0.31448233127593994 0.3412984311580658
0.29349198937416077 0.3051486611366272 0.34233272075653076
0.29224058985710144 0.29672896862030029 0.3727344274520874
0.3945164680480957 0.38246563076972961 0.49470245838165283
0.52044773101806641 0.49013611674308777 0.64502841234207153
0.64697414636611938 0.60022878646850586 0.80276376008987427
0.78011500835418701 0.7216789722442627 0.95909959077835083
0.31788918375968933 0.37216892838478088 0.35886576771736145
0.34402701258659363 0.36690092086791992 0.35945361852645874
0.34991663694381714 0.3637549877166748 0.37472811341285706
0.44601571559906006 0.45111030340194702 0.48711508512496948
0.5772508978843689 0.56189453601837158 0.64778822660446167
0.68930798768997192 0.65900373458862305 0.80173975229263306
0.82702517509460449 0.78027802705764771 0.95387053489685059
0.43776118755340576 0.49470734596252441 0.43245100975036621
0.46424627304077148 0.48545920848846436 0.44278743863105774
0.48753130435943604 0.46325552463531494 0.48020058870315552
0.44411328434944153 0.50185489654541016 0.48992219567298889
0.54204601049423218 0.61624163389205933 0.64574664831161499
0.65549981594085693 0.70868903398513794 0.80211246013641357
0.76385658979415894 0.79072380065917969 0.95471715927124023
0.60780400037765503 0.64504128694534302 0.54034554958343506
0.63138216733932495 0.6291121244430542 0.56811612844467163
0.63964980840682983 0.58787357807159424 0.60552692413330078
0.56530803442001343 0.55290782451629639 0.64026498794555664
0.51051729917526245 0.65186387300491333 0.60768479108810425
0.6164202094078064 0.7823415994644165 0.79469627141952515
0.71771979331970215 0.86012798547744751 0.94895261526107788
0.78647756576538086 0.79155600070953369 0.67120486497879028
0.80447399616241455 0.77074062824249268 0.68946057558059692
0.8006095290184021 0.71414405107498169 0.72573333978652954
0.75242882966995239 0.66815078258514404 0.78438442945480347
0.62507456541061401 0.69295293092727661 0.79659789800643921
0.58716535568237305 0.81528908014297485 0.73916846513748169
0.68941116333007812 0.94466251134872437 0.92749804258346558
0.94695860147476196 0.94202184677124023 0.77953988313674927
0.95666807889938354 0.89890038967132568 0.81003844738006592
0.95549094676971436 0.8379245400428772 0.84747046232223511
0.9384225606918335 0.78456181287765503 0.92251002788543701
0.80078470706939697 0.75433874130249023 0.94738942384719849
0.69281625747680664 0.86390286684036255 0.94805210828781128
0.66159021854400635 0.96013832092285156 0.83457100391387939
0.39213946461677551 0.3986085057258606 0.49538782238960266
0.36111623048782349 0.36424893140792847 0.49257954955101013
0.32352140545845032 0.32349389791488647 0.49567905068397522
0.28509387373924255 0.28380826115608215 0.51076370477676392
0.40479907393455505 0.38464868068695068 0.64776241779327393
0.53805756568908691 0.49609735608100891 0.80375748872756958
0.65580266714096069 0.60350006818771362 0.95072156190872192
0.40892106294631958 0.43608856201171875 0.4975753128528595
0.41837975382804871 0.4281756579875946 0.50065791606903076
0.39145374298095703 0.39451682567596436 0.49988436698913574
0.36256125569343567 0.36324611306190491 0.51203852891921997
0.47961857914924622 0.46225875616073608 0.65249097347259521
0.60809326171875 0.570709228515625 0.80979627370834351
0.72744905948638916 0.67683935165405273 0.95382344722747803
0.41583353281021118 0.47038909792900085 0.49481403827667236
0.43468448519706726 0.46539607644081116 0.49413803219795227
0.4468173086643219 0.45467337965965271 0.49258571863174438
0.43852224946022034 0.43792536854743958 0.51467514038085938
0.55169904232025146 0.53437203168869019 0.65304058790206909
0.67837727069854736 0.64361286163330078 0.80666804313659668
0.80156511068344116 0.75305807590484619 0.95462924242019653
0.43725460767745972 0.52007049322128296 0.50749319791793823
0.46868535876274109 0.51916384696960449 0.5074954628944397
0.48027807474136353 0.50711625814437866 0.50725632905960083
0.5073893666267395 0.5121343731880188 0.52153033018112183
0.5997740626335144 0.59916442632675171 0.63955962657928467
0.73586028814315796 0.71778607368469238 0.80503994226455688
0.85027140378952026 0.81995242834091187 0.95119279623031616
0.54361414909362793 0.64713329076766968 0.57045316696166992
0.57550394535064697 0.64550065994262695 0.57899385690689087
0.61721998453140259 0.64046764373779297 0.59745854139328003
0.62501031160354614 0.61499696969985962 0.63602310419082642
0.59318190813064575 0.65466570854187012 0.63962596654891968
0.69002985954284668 0.75784468650817871 0.7970283031463623
0.79953086376190186 0.84895646572113037 0.94923537969589233
0.70024436712265015 0.80260443687438965 0.67058980464935303
0.75328850746154785 0.80235868692398071 0.6893240213394165
0.78830748796463013 0.78401237726211548 0.71539986133575439
0.79513674974441528 0.74276363849639893 0.75869852304458618
0.72140491008758545 0.71139013767242432 0.79721498489379883
0.6705009937286377 0.81300967931747437 0.77880311012268066
0.76272660493850708 0.92910999059677124 0.94653809070587158
0.88851463794708252 0.95389223098754883 0.79194432497024536
0.92705833911895752 0.95468240976333618 0.81286066770553589
0.95325905084609985 0.91726964712142944 0.83651232719421387
0.95313239097595215 0.86559319496154785 0.87991726398468018
0.91935509443283081 0.82033222913742065 0.94620472192764282
0.77627861499786377 0.84586286544799805 0.95254230499267578
0.73907673358917236 0.96400398015975952 0.88254356384277344
0.51831430196762085 0.52112007141113281 0.64103806018829346
0.48660281300544739 0.48619323968887329 0.64289021492004395
0.44273203611373901 0.44051685929298401 0.64354884624481201
0.38917750120162964 0.39209410548210144 0.6379777193069458
0.36168870329856873 0.36245566606521606 0.66316825151443481
0.48481959104537964 0.46089217066764832 0.80025690793991089
0.61015594005584717 0.5671343207359314 0.95518386363983154
0.53281104564666748 0.55394279956817627 0.64863091707229614
0.54637086391448975 0.55165344476699829 0.65495389699935913
0.50988233089447021 0.51143354177474976 0.64805817604064941
0.46755403280258179 0.47083085775375366 0.65001070499420166
0.43727070093154907 0.43834987282752991 0.66645646095275879
0.5546565055847168 0.53547102212905884 0.80501782894134521
0.68588751554489136 0.649466872215271 0.95999068021774292
0.53638070821762085 0.58940047025680542 0.64865940809249878
0.56077390909194946 0.58861404657363892 0.65063625574111938
0.5742982029914856 0.58054697513580322 0.64735400676727295
0.54180973768234253 0.54393357038497925 0.65208125114440918
0.51771372556686401 0.51842242479324341 0.66893064975738525
0.63012009859085083 0.61160314083099365 0.80434292554855347
0.76000732183456421 0.72477465867996216 0.95557981729507446
0.54040193557739258 0.62359786033630371 0.64854961633682251
0.56185048818588257 0.61548644304275513 0.64336615800857544
0.58887326717376709 0.61559540033340454 0.64703071117401123
0.60641807317733765 0.60814380645751953 0.6489112377166748
0.59889286756515503 0.60298943519592285 0.67622154951095581
0.70083355903625488 0.68885409832000732 0.80408632755279541
0.82755714654922485 0.79824197292327881 0.95695698261260986
0.55865657329559326 0.66559547185897827 0.65536773204803467
0.58919632434844971 0.67415869235992432 0.6625940203666687
0.62162303924560547 0.67380213737487793 0.66571319103240967
0.65215969085693359 0.67130714654922485 0.67306911945343018
0.65755718946456909 0.66606801748275757 0.67111027240753174
0.74233752489089966 0.75012874603271484 0.80175399780273438
0.88538485765457153 0.86430186033248901 0.95799654722213745
0.66988170146942139 0.80329018831253052 0.72367244958877563
0.69597345590591431 0.80473870038986206 0.72271448373794556
0.73502480983734131 0.79720723628997803 0.73730987310409546
0.77176493406295776 0.79825687408447266 0.75434416532516479
0.79460585117340088 0.76984024047851562 0.7896873950958252
0.75100165605545044 0.8037075400352478 0.80548489093780518
0.84074610471725464 0.91673892736434937 0.949676513671875
0.8159714937210083 0.95424693822860718 0.80786377191543579
0.85043096542358398 0.95262795686721802 0.8129202127456665
0.90242695808410645 0.9518435001373291 0.83758574724197388
0.94283068180084229 0.9417424201965332 0.87122857570648193
0.94541269540786743 0.89466798305511475 0.91174423694610596
0.88126909732818604 0.88085699081420898 0.94509041309356689
0.81756621599197388 0.9663434624671936 0.92715734243392944
0.64795702695846558 0.65135949850082397 0.79984068870544434
0.59982812404632568 0.60259270668029785 0.7967679500579834
0.56723982095718384 0.5657951831817627 0.80738335847854614
0.51044392585754395 0.51225167512893677 0.79883050918579102
0.4702170193195343 0.47329339385032654 0.80227148532867432
0.44229599833488464 0.44302618503570557 0.82280677556991577
0.55909460783004761 0.53583347797393799 0.95827877521514893
0.66180455684661865 0.6824151873588562 0.80357354879379272
0.67271870374679565 0.6767956018447876 0.80642235279083252
0.63708770275115967 0.64013862609863281 0.80419397354125977
0.59010744094848633 0.59237319231033325 0.80276226997375488
0.5456770658493042 0.54622220993041992 0.80007994174957275
0.5214349627494812 0.52202755212783813 0.82410156726837158
0.63049221038818359 0.61235505342483521 0.95569700002670288
0.65887832641601562 0.71397632360458374 0.80295616388320923
0.68542754650115967 0.71186476945877075 0.80272370576858521
0.69949495792388916 0.70575416088104248 0.80216830968856812
0.66558396816253662 0.66690576076507568 0.8035811185836792
0.62041908502578735 0.62198668718338013 0.80344927310943604
0.58821755647659302 0.58959066867828369 0.81784737110137939
0.70235872268676758 0.68536871671676636 0.94927453994750977
0.66208267211914062 0.74749976396560669 0.80308800935745239
0.68974143266677856 0.74318605661392212 0.80523473024368286
0.71885484457015991 0.74453824758529663 0.8051028847694397
0.72832268476486206 0.73196041584014893 0.80299168825149536
0.69650024175643921 0.69735169410705566 0.80692344903945923
0.67419517040252686 0.67841678857803345 0.82562202215194702
0.77855056524276733 0.76015675067901611 0.94733172655105591
0.66698539257049561 0.77592504024505615 0.80223166942596436
0.69795113801956177 0.78118950128555298 0.81026661396026611
0.72331738471984863 0.77882599830627441 0.80653244256973267
0.74741333723068237 0.77317506074905396 0.80294120311737061
0.75997024774551392 0.76574409008026123 0.80381989479064941
0.74447059631347656 0.74580579996109009 0.82134377956390381
0.85069090127944946 0.83523046970367432 0.94547563791275024
0.68910259008407593 0.8249281644821167 0.81223118305206299
0.71926707029342651 0.8307265043258667 0.81254070997238159
0.74277150630950928 0.82424825429916382 0.81230080127716064
0.76622104644775391 0.81645661592483521 0.81123602390289307
0.79158103466033936 0.81852716207504272 0.81655585765838623
0.81726515293121338 0.82423931360244751 0.83020824193954468
0.91341757774353027 0.904441237449646 0.94969439506530762
0.79650968313217163 0.94797313213348389 0.87107044458389282
0.82392752170562744 0.95598948001861572 0.87413358688354492
0.85163652896881104 0.95445472002029419 0.87901443243026733
0.88783270120620728 0.94989120960235596 0.88938206434249878
0.92805761098861694 0.95092630386352539 0.90630531311035156
0.94590193033218384 0.92611372470855713 0.93952411413192749
0.89494293928146362 0.9550710916519165 0.93676495552062988
0.75864982604980469 0.77911925315856934 0.95940202474594116
0.72753608226776123 0.73003000020980835 0.9513624906539917
0.68303686380386353 0.68242669105529785 0.94672960042953491
0.64429742097854614 0.64422798156738281 0.94195973873138428
0.59263843297958374 0.59207499027252197 0.95640331506729126
0.5435677170753479 0.54355686902999878 0.95408052206039429
0.51277780532836914 0.50969558954238892 0.95315092802047729
0.78054141998291016 0.81358879804611206 0.95852601528167725
0.79088181257247925 0.80171144008636475 0.95944780111312866
0.75681161880493164 0.76145470142364502 0.95743334293365479
0.71609580516815186 0.71657735109329224 0.95534509420394897
0.66794264316558838 0.66573590040206909 0.95432549715042114
0.62403964996337891 0.6255565881729126 0.95978784561157227
0.59297090768814087 0.58987987041473389 0.96943062543869019
0.77489775419235229 0.83327656984329224 0.94429051876068115
0.80371999740600586 0.83087646961212158 0.94752448797225952
0.8157995343208313 0.82396209239959717 0.9571157693862915
0.79037797451019287 0.78935176134109497 0.95472747087478638
0.74392443895339966 0.7434086799621582 0.95238727331161499
0.70146703720092773 0.70080643892288208 0.95713573694229126
0.67082452774047852 0.66761714220046997 0.96924096345901489
0.78686034679412842 0.86520665884017944 0.95281082391738892
0.81080442667007446 0.86242008209228516 0.95441257953643799
0.83884882926940918 0.86407101154327393 0.9562951922416687
0.86010944843292236 0.86015397310256958 0.95504266023635864
0.81528836488723755 0.8168521523475647 0.95572084188461304
0.77659952640533447 0.78009331226348877 0.95920169353485107
0.75378847122192383 0.75012266635894775 0.98019379377365112
0.79266607761383057 0.89810550212860107 0.95962458848953247
0.81496697664260864 0.89617544412612915 0.95789074897766113
0.84216016530990601 0.89480698108673096 0.95245933532714844
0.86673599481582642 0.89563876390457153 0.95332169532775879
0.8717113733291626 0.88073998689651489 0.95292443037033081
0.84928357601165771 0.85262554883956909 0.95714414119720459
0.83316230773925781 0.82623755931854248 0.97115224599838257
0.79767811298370361 0.92576152086257935 0.95812726020812988
0.81592392921447754 0.92834568023681641 0.95559519529342651
0.84614133834838867 0.92781901359558105 0.95229566097259521
0.87115103006362915 0.92606908082962036 0.95186311006546021
0.8972899317741394 0.92246097326278687 0.95223921537399292
0.92010980844497681 0.92134052515029907 0.95838731527328491
0.90543580055236816 0.89967787265777588 0.97528558969497681
0.81512242555618286 0.97738355398178101 0.96558892726898193
0.83809155225753784 0.97392666339874268 0.96628844738006592
0.86863523721694946 0.97381842136383057 0.96944969892501831
0.89203047752380371 0.96884340047836304 0.96846038103103638
0.91684895753860474 0.96228170394897461 0.95997178554534912
0.95257627964019775 0.97574859857559204 0.96406638622283936
0.95633620023727417 0.96008425951004028 0.96642076969146729
