assets/lut/others golden.cube
# Created by: G'MIC (https://gmic.eu)
TITLE "golden"
# LUT size
LUT_3D_SIZE 13
# Data domain
DOMAIN_MIN 0.0 0.0 0.0
DOMAIN_MAX 1.0 1.0 1.0
# LUT data points
0.096108578145503998 0.00011435116175562143 0.051911912858486176
0.1297418624162674 0.0020740434993058443 0.056936495006084442
0.1589459627866745 0.002545270835980773 0.059110946953296661
0.19938485324382782 0.0019774043466895819 0.056513931602239609
0.29578211903572083 0.0031430860981345177 0.058434877544641495
0.41499388217926025 0.0013123905519023538 0.062739938497543335
0.5212101936340332 0.0003664802061393857 0.061275139451026917
0.61661720275878906 0.0045877196826040745 0.057739496231079102
0.72453302145004272 0.0042211795225739479 0.056753002107143402
0.82361745834350586 0.0039145676419138908 0.055506464093923569
0.90898597240447998 0.0023710213135927916 0.057456895709037781
0.96820896863937378 0.00099238974507898092 0.056343946605920792
0.99023103713989258 0.0010026969248428941 0.050704985857009888
0.099303238093852997 0.0036953496746718884 0.052240379154682159
0.13221445679664612 0.010861774906516075 0.056006189435720444
0.17243051528930664 0.0052777011878788471 0.056917887181043625
0.23140962421894073 0.0068345610052347183 0.05723903700709343
0.32630681991577148 0.014533547684550285 0.060479782521724701
0.44082477688789368 0.011511828750371933 0.061713661998510361
0.55098497867584229 0.0068385107442736626 0.060065742582082748
0.65540111064910889 0.020709063857793808 0.060969274491071701
0.75245726108551025 0.015421414747834206 0.061123449355363846
0.84688723087310791 0.007270139642059803 0.060073133558034897
0.92746561765670776 0.0076000289991497993 0.063192598521709442
0.98316562175750732 0.0080247912555932999 0.060186874121427536
0.99626195430755615 0.023791594430804253 0.055365033447742462
0.090235359966754913 0.011446171440184116 0.051541093736886978
0.13540178537368774 0.027170293033123016 0.054533537477254868
0.18275877833366394 0.013557733036577702 0.053237780928611755
0.26130682229995728 0.020782964304089546 0.054403867572546005
0.35521885752677917 0.037238489836454391 0.055899243801832199
0.46641862392425537 0.041178952902555466 0.057465288788080215
0.58180725574493408 0.042116545140743256 0.057245396077632904
0.69122165441513062 0.05252481997013092 0.059630658477544785
0.77894872426986694 0.04989229142665863 0.060179062187671661
0.86827445030212402 0.043094903230667114 0.059199254959821701
0.94553089141845703 0.065845400094985962 0.063820481300354004
0.9930759072303772 0.07236422598361969 0.064475461840629578
0.9978560209274292 0.083391822874546051 0.06163381040096283
0.09809335321187973 0.05822131410241127 0.051420100033283234
0.14548954367637634 0.086497560143470764 0.051054291427135468
0.19904240965843201 0.092991836369037628 0.051282364875078201
0.283162921667099 0.093258999288082123 0.053035195916891098
0.37929782271385193 0.098856069147586823 0.053653132170438766
0.49267265200614929 0.10527651757001877 0.053704220801591873
0.60943359136581421 0.11667487770318985 0.053484674543142319
0.70973169803619385 0.12124666571617126 0.054758302867412567
0.80293917655944824 0.13014625012874603 0.054341692477464676
0.88809490203857422 0.15154044330120087 0.054625373333692551
0.95826160907745361 0.16601458191871643 0.061062771826982498
0.99468880891799927 0.16394010186195374 0.06175599992275238
0.99985289573669434 0.16977895796298981 0.064466215670108795
0.091567903757095337 0.16491003334522247 0.051193732768297195
0.14891600608825684 0.18890352547168732 0.050819367170333862
0.21520139276981354 0.20290666818618774 0.051144290715456009
0.30326247215270996 0.20199078321456909 0.053429577499628067
0.40861058235168457 0.2057972252368927 0.056486301124095917
0.5253872275352478 0.21396021544933319 0.054932791739702225
0.63491523265838623 0.2261216789484024 0.053504824638366699
0.73298454284667969 0.23400169610977173 0.059427957981824875
0.82539498805999756 0.24489250779151917 0.059730365872383118
0.9159466028213501 0.26337993144989014 0.054893553256988525
0.97075128555297852 0.27486279606819153 0.061540238559246063
0.98908936977386475 0.28759181499481201 0.069834768772125244
0.99851894378662109 0.30084666609764099 0.072001270949840546
0.08895447850227356 0.27660700678825378 0.051192969083786011
0.15937021374702454 0.29966378211975098 0.052029777318239212
0.22977821528911591 0.31363198161125183 0.049978666007518768
0.3268282413482666 0.31692695617675781 0.055400263518095016
0.44036769866943359 0.32154670357704163 0.062183935195207596
0.55283510684967041 0.33073186874389648 0.064217604696750641
0.65707612037658691 0.34264442324638367 0.064975306391716003
0.7545158863067627 0.35211935639381409 0.065683178603649139
0.84658092260360718 0.36344215273857117 0.066099576652050018
0.93399804830551147 0.38079628348350525 0.063104279339313507
0.97499245405197144 0.39517697691917419 0.069153174757957458
0.98677432537078857 0.4130975604057312 0.076613843441009521
0.99735462665557861 0.43349394202232361 0.076680295169353485
0.10088799893856049 0.39207613468170166 0.053715754300355911
0.16083447635173798 0.41436994075775146 0.054913941770792007
0.24583031237125397 0.42761373519897461 0.053359206765890121
0.35366162657737732 0.43986925482749939 0.061829376965761185
0.46636909246444702 0.44631102681159973 0.069490738213062286
0.57614982128143311 0.45528870820999146 0.07286389172077179
0.6764337420463562 0.46666333079338074 0.074340984225273132
0.77445882558822632 0.48125541210174561 0.072619087994098663
0.86344802379608154 0.49271512031555176 0.074140869081020355
0.93779110908508301 0.50319796800613403 0.078334107995033264
0.98083394765853882 0.51594358682632446 0.0829659104347229
0.99238908290863037 0.5360376238822937 0.089258678257465363
0.99863362312316895 0.55487996339797974 0.093253880739212036
0.078954897820949554 0.5010259747505188 0.051002770662307739
0.16758774220943451 0.52773016691207886 0.053508713841438293
0.26678630709648132 0.54422843456268311 0.06088358536362648
0.37956511974334717 0.56125980615615845 0.071415230631828308
0.49079406261444092 0.57708925008773804 0.072926327586174011
0.59812182188034058 0.58807146549224854 0.076268427073955536
0.69794332981109619 0.59645068645477295 0.08278375118970871
0.79542994499206543 0.6134873628616333 0.083801403641700745
0.87747550010681152 0.62314820289611816 0.087511502206325531
0.94617760181427002 0.62788248062133789 0.089903004467487335
0.99127388000488281 0.63787096738815308 0.092895254492759705
0.99714791774749756 0.65211194753646851 0.10658513754606247
0.99917459487915039 0.66464531421661377 0.11532588303089142
0.094121716916561127 0.63824009895324707 0.062313452363014221
0.19660431146621704 0.65464651584625244 0.076081231236457825
0.29313239455223083 0.67289841175079346 0.07486000657081604
0.40365996956825256 0.68437975645065308 0.080615103244781494
0.5166364312171936 0.69995546340942383 0.081449411809444427
0.62403154373168945 0.71546101570129395 0.081501543521881104
0.72430622577667236 0.71959429979324341 0.091034971177577972
0.81758517026901245 0.73129367828369141 0.099150672554969788
0.89852446317672729 0.73878902196884155 0.10138455778360367
0.96060746908187866 0.75031375885009766 0.10523349791765213
0.99414044618606567 0.76070535182952881 0.11424954235553741
0.99984580278396606 0.77188658714294434 0.12995906174182892
1 0.78169840574264526 0.14453358948230743
0.099721185863018036 0.7635115385055542 0.063535638153553009
0.21393151581287384 0.78140217065811157 0.079267747700214386
0.31547963619232178 0.79866260290145874 0.082986436784267426
0.42128711938858032 0.80467206239700317 0.080339409410953522
0.54235279560089111 0.8164055347442627 0.090538010001182556
0.6546856164932251 0.83351707458496094 0.090037405490875244
0.75158458948135376 0.84122401475906372 0.1022961214184761
0.84307587146759033 0.84976649284362793 0.11091757565736771
0.92590725421905518 0.85664808750152588 0.11854873597621918
0.98139196634292603 0.8752821683883667 0.13613474369049072
0.99367594718933105 0.88151365518569946 0.14448381960391998
0.99882948398590088 0.89108628034591675 0.14601276814937592
1 0.8891373872756958 0.16339187324047089
0.095945663750171661 0.8877376914024353 0.066078916192054749
0.22136548161506653 0.89529645442962646 0.080707386136054993
0.33924955129623413 0.91053664684295654 0.088308878242969513
0.45553457736968994 0.91344749927520752 0.096322648227214813
0.57131218910217285 0.9262847900390625 0.10454876720905304
0.68036532402038574 0.9366489052772522 0.1088191494345665
0.77494233846664429 0.94088298082351685 0.11977642029523849
0.86382663249969482 0.94403815269470215 0.12995739281177521
0.94324898719787598 0.9516528844833374 0.14042681455612183
0.98878341913223267 0.96055668592453003 0.15436609089374542
0.99693959951400757 0.96102917194366455 0.16090874373912811
0.99984127283096313 0.96687257289886475 0.16636523604393005
1 0.96791088581085205 0.17873923480510712
0.10701895505189896 0.97380328178405762 0.078912504017353058
0.25102069973945618 0.9704291820526123 0.090444125235080719
0.38989034295082092 0.98442816734313965 0.098381742835044861
0.49841445684432983 0.9883345365524292 0.10934970527887344
0.59950053691864014 0.99268001317977905 0.11590325087308884
0.70255988836288452 0.99383068084716797 0.12409865111112595
0.7948685884475708 0.99462735652923584 0.13443627953529358
0.8862491250038147 0.9919094443321228 0.16177843511104584
0.95579099655151367 0.99014323949813843 0.17435835301876068
0.98904770612716675 0.99378573894500732 0.1706208735704422
0.9982445240020752 0.9963691234588623 0.17587120831012726
1 0.99452823400497437 0.19078494608402252
1 0.9941253662109375 0.20229229331016541
0.11096952855587006 0.99920153617858887 0.095739640295505524
0.27421474456787109 0.99816709756851196 0.10544675588607788
0.41783681511878967 0.99943852424621582 0.11804668605327606
0.52477890253067017 1 0.12721750140190125
0.62810921669006348 1 0.13580992817878723
0.7340320348739624 0.99982732534408569 0.14523577690124512
0.81822806596755981 1 0.15406697988510132
0.90704774856567383 0.99952071905136108 0.17031419277191162
0.98113548755645752 0.9980282187461853 0.18557865917682648
0.99548864364624023 0.99917763471603394 0.19065527617931366
0.99610143899917603 0.9998098611831665 0.19411906599998474
0.99802142381668091 0.99907940626144409 0.2084352970123291
1 0.99985980987548828 0.21778358519077301
0.09294254332780838 0 0.051953889429569244
0.12210378050804138 0.00046424116590060294 0.062172833830118179
0.15373937785625458 0.00066959159448742867 0.068883739411830902
0.21486960351467133 0.0013672473141923547 0.064617455005645752
0.30537983775138855 0.0021580713801085949 0.064210452139377594
0.42367827892303467 0.0017913967603817582 0.080202154815196991
0.52902728319168091 0.00062219955725595355 0.080876894295215607
0.62007248401641846 0.0024051740765571594 0.072877340018749237
0.72067880630493164 0.0036513234954327345 0.067423127591609955
0.81770986318588257 0.0028609032742679119 0.061202555894851685
0.89244455099105835 0.0022945927921682596 0.069736495614051819
0.94113075733184814 0.0018134622368961573 0.081203386187553406
0.98193055391311646 0.00020087747543584555 0.085619367659091949
0.097243472933769226 0.0011850693263113499 0.052024286240339279
0.12879471480846405 0.0047255274839699268 0.062548890709877014
0.1713545024394989 0.0041154301725327969 0.06941717118024826
0.24078823626041412 0.006047357339411974 0.07061246782541275
0.32939675450325012 0.0087920390069484711 0.074150562286376953
0.4370943009853363 0.006786092184484005 0.077566586434841156
0.54679405689239502 0.0042926114983856678 0.074140973389148712
0.6456722617149353 0.011652599088847637 0.074289940297603607
0.74590837955474854 0.012372858822345734 0.083026587963104248
0.83795070648193359 0.010599757544696331 0.087942980229854584
0.91401487588882446 0.012478308752179146 0.094413459300994873
0.95936435461044312 0.013662061654031277 0.10307412594556808
0.98894840478897095 0.016174525022506714 0.098846301436424255
0.083663031458854675 0.0062118233181536198 0.051053423434495926
0.13131923973560333 0.020991262048482895 0.058447293937206268
0.17812670767307281 0.020838091149926186 0.06584969162940979
0.25567382574081421 0.021402725949883461 0.064564540982246399
0.35276076197624207 0.032782357186079025 0.06627364456653595
0.46427062153816223 0.032175011932849884 0.071375861763954163
0.5739891529083252 0.025177225470542908 0.067286834120750427
0.6792336106300354 0.043380409479141235 0.077824145555496216
0.77815085649490356 0.053951635956764221 0.088137969374656677
0.86418074369430542 0.058395251631736755 0.09183792769908905
0.9386448860168457 0.061803929507732391 0.09900963306427002
0.98090928792953491 0.072140924632549286 0.10975924879312515
0.99423098564147949 0.071861594915390015 0.11007966846227646
0.094182498753070831 0.058301962912082672 0.050759527832269669
0.12963405251502991 0.080770112574100494 0.052465148270130157
0.18821883201599121 0.091468766331672668 0.059343196451663971
0.27491745352745056 0.088747747242450714 0.061460606753826141
0.37923741340637207 0.09631010890007019 0.066087044775485992
0.49760431051254272 0.10585357248783112 0.073771730065345764
0.60708391666412354 0.11677493155002594 0.076548449695110321
0.713451087474823 0.1337161511182785 0.085114166140556335
0.80783605575561523 0.14340060949325562 0.08675752580165863
0.89131027460098267 0.15136601030826569 0.090465858578681946
0.96058517694473267 0.15330474078655243 0.097680859267711639
0.99425899982452393 0.1678987443447113 0.10735460370779037
0.99943703413009644 0.16373904049396515 0.1142294779419899
0.079439364373683929 0.16875481605529785 0.051497843116521835
0.13474692404270172 0.19470478594303131 0.053656484931707382
0.20986369252204895 0.20414039492607117 0.062324509024620056
0.30512359738349915 0.20315490663051605 0.074472524225711823
0.41394504904747009 0.20875769853591919 0.08456757664680481
0.52954137325286865 0.21849642693996429 0.088028386235237122
0.63629704713821411 0.22849589586257935 0.090100996196269989
0.73648375272750854 0.23909378051757812 0.09988325834274292
0.83016061782836914 0.25054576992988586 0.10243995487689972
0.91648215055465698 0.26302662491798401 0.10511190444231033
0.97061806917190552 0.27045384049415588 0.11492885649204254
0.99143582582473755 0.28258553147315979 0.12588250637054443
0.99869143962860107 0.29009053111076355 0.13320696353912354
0.079551979899406433 0.28490170836448669 0.06228414922952652
0.14996954798698425 0.30696746706962585 0.071672670543193817
0.22886821627616882 0.31635162234306335 0.073862694203853607
0.33154284954071045 0.32193586230278015 0.087741479277610779
0.44524618983268738 0.32788375020027161 0.10098578035831451
0.5567784309387207 0.33567887544631958 0.10778419673442841
0.66034460067749023 0.34444567561149597 0.11266984790563583
0.75698459148406982 0.35464531183242798 0.11462201923131943
0.84981894493103027 0.36596044898033142 0.11765188723802567
0.93393564224243164 0.38161447644233704 0.12168112397193909
0.97623831033706665 0.3902735710144043 0.13179749250411987
0.98933196067810059 0.40307706594467163 0.14185164868831635
0.99805724620819092 0.41944357752799988 0.14905931055545807
0.094633154571056366 0.39466008543968201 0.069385439157485962
0.16028669476509094 0.41548317670822144 0.081789381802082062
0.24576954543590546 0.42764073610305786 0.088979937136173248
0.35609409213066101 0.4407389760017395 0.10607446730136871
0.47108778357505798 0.4492068886756897 0.11898516118526459
0.58138716220855713 0.45662301778793335 0.12639790773391724
0.68106389045715332 0.46654883027076721 0.13119389116764069
0.77603471279144287 0.47932547330856323 0.13294306397438049
0.86487680673599243 0.49244189262390137 0.13627409934997559
0.94280731678009033 0.50528687238693237 0.14336740970611572
0.98361063003540039 0.51526081562042236 0.15192356705665588
0.99383533000946045 0.52892875671386719 0.16071256995201111
0.99830764532089233 0.54117774963378906 0.17105892300605774
0.082064233720302582 0.50516486167907715 0.076612673699855804
0.16935482621192932 0.52967876195907593 0.08726762980222702
0.26824316382408142 0.54428684711456299 0.10453735291957855
0.38313519954681396 0.55872106552124023 0.12523555755615234
0.49881872534751892 0.57128405570983887 0.1358344554901123
0.60749357938766479 0.58090782165527344 0.14269490540027618
0.70447641611099243 0.59133356809616089 0.14944158494472504
0.79753142595291138 0.60538291931152344 0.15483558177947998
0.87996625900268555 0.61982494592666626 0.15899932384490967
0.95398443937301636 0.63120585680007935 0.16367073357105255
0.99252933263778687 0.64101588726043701 0.17149820923805237
0.99624097347259521 0.6507381796836853 0.18644809722900391
0.99904853105545044 0.66231489181518555 0.20107676088809967
0.093118242919445038 0.64030551910400391 0.096175342798233032
0.19709430634975433 0.65768259763717651 0.11795765161514282
0.29177513718605042 0.66950565576553345 0.12784403562545776
0.4045892059803009 0.68147826194763184 0.14041164517402649
0.52446180582046509 0.69338279962539673 0.14955057203769684
0.63547754287719727 0.70665711164474487 0.15826044976711273
0.73119693994522095 0.71715241670608521 0.16754850745201111
0.82197481393814087 0.72784984111785889 0.17423982918262482
0.90088826417922974 0.73950362205505371 0.17913343012332916
0.96550482511520386 0.75401413440704346 0.18528228998184204
0.9942697286605835 0.7641289234161377 0.19390363991260529
0.99868118762969971 0.77186328172683716 0.21003003418445587
1 0.78159421682357788 0.2260945737361908
0.095886647701263428 0.76716107130050659 0.11451565474271774
0.21394315361976624 0.79117172956466675 0.13718152046203613
0.31746199727058411 0.80148935317993164 0.14604152739048004
0.42685684561729431 0.81119006872177124 0.14931601285934448
0.54180943965911865 0.81433224678039551 0.15783141553401947
0.66477811336517334 0.83446449041366577 0.17712745070457458
0.75589388608932495 0.84094315767288208 0.18316812813282013
0.84463953971862793 0.84575974941253662 0.19113150238990784
0.92263829708099365 0.85547149181365967 0.19906304776668549
0.97202467918395996 0.87115335464477539 0.21271729469299316
0.99232995510101318 0.88218086957931519 0.21762874722480774
0.99898463487625122 0.88594835996627808 0.22615508735179901
1 0.87228351831436157 0.2428031861782074
0.099375136196613312 0.89284741878509521 0.13210150599479675
0.23422394692897797 0.90564274787902832 0.1511513739824295
0.35097286105155945 0.91558176279067993 0.16379283368587494
0.45630869269371033 0.92269164323806763 0.17132434248924255
0.57274901866912842 0.92532241344451904 0.18178181350231171
0.68596947193145752 0.93371438980102539 0.19568890333175659
0.77498608827590942 0.93750405311584473 0.20097507536411285
0.8635144829750061 0.93990743160247803 0.21297354996204376
0.93999260663986206 0.94466280937194824 0.22735214233398438
0.98547327518463135 0.96163088083267212 0.23582844436168671
0.99572885036468506 0.97137057781219482 0.23943814635276794
0.99975776672363281 0.97796761989593506 0.24489186704158783
1 0.9527091383934021 0.26034119725227356
0.11749698221683502 0.97856932878494263 0.1592668741941452
0.25798285007476807 0.9817960262298584 0.17053475975990295
0.39052307605743408 0.98603516817092896 0.18326224386692047
0.49138903617858887 0.99174010753631592 0.19410152733325958
0.59836995601654053 0.99249130487442017 0.19949878752231598
0.70473051071166992 0.99004250764846802 0.21051660180091858
0.79500871896743774 0.99095875024795532 0.21972198784351349
0.88731247186660767 0.98946017026901245 0.23737329244613647
0.95993459224700928 0.98769563436508179 0.25259435176849365
0.99064117670059204 0.99361377954483032 0.25619560480117798
0.99692791700363159 0.99531686305999756 0.26316389441490173
1 0.99475973844528198 0.27183717489242554
1 0.99286282062530518 0.28621608018875122
0.1397661566734314 0.99928301572799683 0.18216273188591003
0.27830407023429871 0.99779480695724487 0.1960405558347702
0.41392114758491516 0.99877572059631348 0.20664019882678986
0.5254591703414917 0.99992531538009644 0.21346151828765869
0.63168084621429443 0.99996268749237061 0.2202332615852356
0.73401814699172974 0.99930411577224731 0.23015618324279785
0.81988155841827393 0.99994397163391113 0.24090628325939178
0.91157394647598267 0.99926787614822388 0.25370693206787109
0.98349356651306152 0.99799442291259766 0.26714077591896057
0.99526917934417725 0.99832302331924438 0.27700906991958618
0.9966270923614502 0.99824899435043335 0.28452423214912415
0.99949592351913452 0.99735862016677856 0.29251915216445923
1 0.99965441226959229 0.2948550283908844
0.088668569922447205 0 0.054471977055072784
0.1224500760436058 0 0.070083647966384888
0.15055333077907562 0 0.080731578171253204
0.21814927458763123 0.00020762425265274942 0.072648033499717712
0.30545952916145325 0.00057800894137471914 0.070845961570739746
0.4258001446723938 0.0005462347180582583 0.10025257617235184
0.52945154905319214 0.0013618918601423502 0.10661612451076508
0.62067979574203491 0.00030916999094188213 0.0968499556183815
0.7197766900062561 0.00026879404322244227 0.098027519881725311
0.81827688217163086 0.00084651872748509049 0.10552730411291122
0.89249831438064575 0.0014073090860620141 0.12195934355258942
0.94660985469818115 0.0010544720571488142 0.14643199741840363
0.98363298177719116 0.00043779262341558933 0.1666884571313858
0.084597676992416382 0.00073553348192945123 0.061296321451663971
0.12255093455314636 0.0020629584323614836 0.078035168349742889
0.16878324747085571 0.0029617908876389265 0.090093456208705902
0.24138025939464569 0.0055337944068014622 0.094251461327075958
0.33012622594833374 0.0050315409898757935 0.095710188150405884
0.43630519509315491 0.0034038468729704618 0.10258819162845612
0.54274171590805054 0.0058395983651280403 0.10598171502351761
0.63935750722885132 0.0083103552460670471 0.10400077700614929
0.74586731195449829 0.0045407763682305813 0.11782060563564301
0.84093630313873291 0.0067193722352385521 0.13345092535018921
0.91472089290618896 0.010953282006084919 0.14389361441135406
0.9587637186050415 0.012014695443212986 0.15992701053619385
0.988411545753479 0.0076432921923696995 0.1749044805765152
0.072557352483272552 0.0067738103680312634 0.067215770483016968
0.11977175623178482 0.019128628075122833 0.086350642144680023
0.17061714828014374 0.021985521540045738 0.099552646279335022
0.2435612678527832 0.022964147850871086 0.10173629969358444
0.35253763198852539 0.03111032210290432 0.1049528568983078
0.46702167391777039 0.028591349720954895 0.11332932859659195
0.57223725318908691 0.026862304657697678 0.11674831807613373
0.67582607269287109 0.03595072403550148 0.12810236215591431
0.78115808963775635 0.03516736626625061 0.13785998523235321
0.86404436826705933 0.04879423975944519 0.14883469045162201
0.93710470199584961 0.062764726579189301 0.15606169402599335
0.97794348001480103 0.069255337119102478 0.16801260411739349
0.99669754505157471 0.068293601274490356 0.18194733560085297
0.087865196168422699 0.062567390501499176 0.08017393946647644
0.12374086678028107 0.080348983407020569 0.097135685384273529
0.18239623308181763 0.085087932646274567 0.10499446839094162
0.26814040541648865 0.088466361165046692 0.11022184789180756
0.39178025722503662 0.10582323372364044 0.12144924700260162
0.50329232215881348 0.10586172342300415 0.1347326785326004
0.60749512910842896 0.11651937663555145 0.14347586035728455
0.71052813529968262 0.13014635443687439 0.15195520222187042
0.80669450759887695 0.13974851369857788 0.15544739365577698
0.89178073406219482 0.15129625797271729 0.16345617175102234
0.96190088987350464 0.15908406674861908 0.17002905905246735
0.99499136209487915 0.16688194870948792 0.18026238679885864
0.99991357326507568 0.17163331806659698 0.19346864521503448
0.080687321722507477 0.17253883183002472 0.094171695411205292
0.13254988193511963 0.19592964649200439 0.10870650410652161
0.21551495790481567 0.20847305655479431 0.11947516351938248
0.31696003675460815 0.21537932753562927 0.13231028616428375
0.42695420980453491 0.2228216826915741 0.14426931738853455
0.53573381900787354 0.22423605620861053 0.1548357754945755
0.63914370536804199 0.22915294766426086 0.16451703011989594
