assets/lut/others 60s faded alt.cube
# Created by: G'MIC (https://gmic.eu)
TITLE "60s_faded_alt"
# LUT size
LUT_3D_SIZE 13
# Data domain
DOMAIN_MIN 0.0 0.0 0.0
DOMAIN_MAX 1.0 1.0 1.0
# LUT data points
0.34048366546630859 0.16249392926692963 0.067177839577198029
0.34823650121688843 0.16560129821300507 0.07537880539894104
0.37262609601020813 0.17409214377403259 0.075345568358898163
0.41021394729614258 0.17322653532028198 0.081744715571403503
0.47257021069526672 0.18334558606147766 0.092969678342342377
0.53933370113372803 0.19719576835632324 0.09460943192243576
0.60913366079330444 0.20838369429111481 0.10469331592321396
0.67401796579360962 0.22582793235778809 0.11653027683496475
0.73583453893661499 0.24867728352546692 0.12200836837291718
0.77202856540679932 0.24779181182384491 0.11934445053339005
0.78502374887466431 0.24494709074497223 0.11665203422307968
0.78153043985366821 0.24962767958641052 0.12418521195650101
0.75123852491378784 0.26501733064651489 0.13321711122989655
0.35684317350387573 0.24432286620140076 0.078183539211750031
0.38659673929214478 0.25635740160942078 0.094411320984363556
0.40260350704193115 0.25192210078239441 0.088846690952777863
0.45256334543228149 0.26222363114356995 0.097621873021125793
0.52366870641708374 0.27881357073783875 0.12562347948551178
0.58636856079101562 0.28876656293869019 0.1171845942735672
0.65228939056396484 0.30451637506484985 0.13262747228145599
0.71399950981140137 0.32424923777580261 0.14899899065494537
0.766010582447052 0.34044492244720459 0.12918555736541748
0.80328202247619629 0.34871754050254822 0.13723444938659668
0.81486666202545166 0.35499751567840576 0.14018638432025909
0.80521923303604126 0.36042353510856628 0.14454540610313416
0.79252296686172485 0.37998604774475098 0.16077060997486115
0.37680932879447937 0.31955471634864807 0.10383828729391098
0.41032397747039795 0.33396786451339722 0.11027899384498596
0.44662457704544067 0.3438764214515686 0.11558173596858978
0.48657187819480896 0.34616830945014954 0.10096155852079391
0.55865848064422607 0.36383470892906189 0.12649132311344147
0.62910985946655273 0.38158345222473145 0.12692178785800934
0.69128859043121338 0.39843738079071045 0.13905720412731171
0.74499106407165527 0.41324254870414734 0.14640434086322784
0.79233336448669434 0.42821601033210754 0.13759514689445496
0.82932519912719727 0.44039049744606018 0.14943255484104156
0.83807486295700073 0.45568069815635681 0.15733739733695984
0.84445017576217651 0.47279053926467896 0.1804223507642746
0.81612741947174072 0.48194047808647156 0.19272167980670929
0.39383012056350708 0.40731209516525269 0.12789496779441833
0.44147375226020813 0.42040640115737915 0.13006386160850525
0.46279218792915344 0.41540735960006714 0.11548949778079987
0.5192980170249939 0.42710599303245544 0.1153646856546402
0.58825886249542236 0.44645264744758606 0.1240503340959549
0.66127020120620728 0.46790012717247009 0.13430148363113403
0.7193719744682312 0.48409208655357361 0.14534163475036621
0.77125376462936401 0.49845010042190552 0.14980983734130859
0.81766456365585327 0.51256197690963745 0.15495501458644867
0.85140389204025269 0.52481937408447266 0.1691683828830719
0.85348820686340332 0.53851360082626343 0.18796287477016449
0.84822475910186768 0.55514049530029297 0.20860685408115387
0.83110940456390381 0.57455265522003174 0.23860123753547668
0.40425845980644226 0.47942802309989929 0.12967768311500549
0.47560504078865051 0.50168752670288086 0.14435730874538422
0.49805212020874023 0.49494123458862305 0.12541306018829346
0.55579042434692383 0.50856047868728638 0.1286827027797699
0.6203877329826355 0.5262829065322876 0.13522727787494659
0.6875835657119751 0.5461001992225647 0.14407086372375488
0.74396902322769165 0.56285768747329712 0.15971723198890686
0.79527205228805542 0.57856661081314087 0.17231391370296478
0.83793908357620239 0.59311270713806152 0.18696193397045135
0.86346179246902466 0.60495245456695557 0.20889163017272949
0.86881339550018311 0.61666226387023926 0.23030544817447662
0.86919313669204712 0.6363675594329834 0.25776475667953491
0.84648865461349487 0.64773517847061157 0.27764019370079041
0.4431663453578949 0.56202447414398193 0.1462152898311615
0.5163414478302002 0.58131867647171021 0.15562987327575684
0.55276483297348022 0.58379191160202026 0.14384277164936066
0.59809452295303345 0.59123140573501587 0.13959483802318573
0.65848326683044434 0.60481852293014526 0.15081042051315308
0.71388596296310425 0.61890131235122681 0.15766382217407227
0.76762616634368896 0.63707393407821655 0.1824011504650116
0.81567603349685669 0.65528684854507446 0.20235639810562134
0.85606998205184937 0.66908138990402222 0.22345474362373352
0.8803287148475647 0.67830336093902588 0.24701042473316193
0.88642793893814087 0.6859399676322937 0.26707911491394043
0.88902366161346436 0.69886749982833862 0.29827973246574402
0.86863714456558228 0.71190959215164185 0.31709474325180054
0.48457330465316772 0.63079524040222168 0.15961521863937378
0.55591803789138794 0.65238308906555176 0.17282961308956146
0.59579598903656006 0.6555180549621582 0.16547399759292603
0.64581048488616943 0.66550689935684204 0.16880810260772705
0.70213985443115234 0.67897248268127441 0.18072785437107086
0.74835860729217529 0.68645387887954712 0.2008177787065506
0.79657769203186035 0.70077216625213623 0.22353708744049072
0.83832204341888428 0.71716618537902832 0.24429680407047272
0.87021774053573608 0.72776186466217041 0.26739206910133362
0.89521580934524536 0.73591983318328857 0.29233762621879578
0.89944624900817871 0.74241524934768677 0.31136798858642578
0.89320015907287598 0.74907451868057251 0.32916930317878723
0.88676893711090088 0.77233755588531494 0.36595511436462402
0.53034764528274536 0.69411331415176392 0.18009021878242493
0.60158461332321167 0.71614259481430054 0.20117060840129852
0.63597989082336426 0.71918600797653198 0.19423995912075043
0.683929443359375 0.72570449113845825 0.20846451818943024
0.73551476001739502 0.73717296123504639 0.22512023150920868
0.77985185384750366 0.74614745378494263 0.24388416111469269
0.82190531492233276 0.75619244575500488 0.26246193051338196
0.85672497749328613 0.76765692234039307 0.29416665434837341
0.88532936573028564 0.77660650014877319 0.31741496920585632
0.90860390663146973 0.78460496664047241 0.33221641182899475
0.91300606727600098 0.79226261377334595 0.3556179404258728
0.90642225742340088 0.79892086982727051 0.37391984462738037
0.9024120569229126 0.80893939733505249 0.39736506342887878
0.57233554124832153 0.74972712993621826 0.21026982367038727
0.64001965522766113 0.76992297172546387 0.23507441580295563
0.67049628496170044 0.77066183090209961 0.22907717525959015
0.7195172905921936 0.77920275926589966 0.25228917598724365
0.76730793714523315 0.78871679306030273 0.27244740724563599
0.807761549949646 0.79679828882217407 0.29175493121147156
0.84266996383666992 0.80331307649612427 0.30929738283157349
0.87435919046401978 0.81279218196868896 0.34464699029922485
0.90090221166610718 0.82215303182601929 0.36786541342735291
0.91940158605575562 0.82854163646697998 0.3808574378490448
0.92857402563095093 0.83638697862625122 0.40939223766326904
0.93233311176300049 0.84677046537399292 0.44433137774467468
0.92051941156387329 0.85974413156509399 0.46170046925544739
0.62714254856109619 0.80566006898880005 0.26514929533004761
0.68048524856567383 0.81695723533630371 0.28863734006881714
0.70776897668838501 0.81703472137451172 0.27546155452728271
0.75203007459640503 0.82406735420227051 0.29454687237739563
0.79334646463394165 0.83023267984390259 0.32383054494857788
0.83048069477081299 0.83768469095230103 0.346719890832901
0.86352056264877319 0.8439335823059082 0.36117774248123169
0.89197081327438354 0.85126662254333496 0.39448851346969604
0.91586524248123169 0.85999351739883423 0.43260848522186279
0.9260551929473877 0.86540383100509644 0.43859076499938965
0.93334650993347168 0.86970746517181396 0.44934415817260742
0.93268465995788574 0.875438392162323 0.47129222750663757
0.92517870664596558 0.88680863380432129 0.49378272891044617
0.66252487897872925 0.84258502721786499 0.30296379327774048
0.71707367897033691 0.85734283924102783 0.32894435524940491
0.74638605117797852 0.85839277505874634 0.33181992173194885
0.77811866998672485 0.85936081409454346 0.33830803632736206
0.81652790307998657 0.86443394422531128 0.37395939230918884
0.85159289836883545 0.86976730823516846 0.39852982759475708
0.88057041168212891 0.87545472383499146 0.41566210985183716
0.90510737895965576 0.88354349136352539 0.44857698678970337
0.92507100105285645 0.88882052898406982 0.49065235257148743
0.935200035572052 0.89293289184570312 0.49673479795455933
0.93842881917953491 0.8977622389793396 0.49625471234321594
0.93913775682449341 0.90262061357498169 0.51012492179870605
0.93859958648681641 0.91104602813720703 0.53626799583435059
0.69712084531784058 0.87792426347732544 0.34140822291374207
0.74033039808273315 0.8825681209564209 0.36349242925643921
0.77182048559188843 0.88042598962783813 0.3926522433757782
0.79627162218093872 0.86991065740585327 0.38787257671356201
0.83626091480255127 0.88875961303710938 0.41604277491569519
0.86960285902023315 0.8891444206237793 0.4451461136341095
0.89555954933166504 0.89300066232681274 0.47008773684501648
0.91647183895111084 0.90390396118164062 0.49087265133857727
0.93164831399917603 0.90117454528808594 0.51741093397140503
0.9433102011680603 0.91107833385467529 0.53647041320800781
0.94349086284637451 0.91460913419723511 0.54060405492782593
0.94176775217056274 0.91642487049102783 0.53736019134521484
0.93927508592605591 0.92926907539367676 0.55460608005523682
0.71681362390518188 0.87009513378143311 0.37462708353996277
0.75446897745132446 0.856597900390625 0.39757868647575378
0.79119402170181274 0.86690437793731689 0.42570751905441284
0.82138878107070923 0.86661714315414429 0.43965625762939453
0.85980373620986938 0.87175559997558594 0.47037062048912048
0.89547175168991089 0.87373024225234985 0.50457680225372314
0.91797131299972534 0.87839466333389282 0.5259743332862854
0.93447071313858032 0.88292789459228516 0.5392337441444397
0.94755053520202637 0.88476818799972534 0.55426627397537231
0.95470923185348511 0.88716620206832886 0.5632702112197876
0.95357108116149902 0.88479691743850708 0.56799614429473877
0.95243805646896362 0.88531196117401123 0.56646406650543213
0.94691359996795654 0.89595568180084229 0.5753929615020752
0.33557960391044617 0.20188190042972565 0.10091052949428558
0.35530364513397217 0.21346893906593323 0.10422273725271225
0.3755125105381012 0.21090885996818542 0.1099584698677063
0.43212088942527771 0.22502283751964569 0.12796780467033386
0.499103844165802 0.2299821674823761 0.13957667350769043
0.55313462018966675 0.24079222977161407 0.14120648801326752
0.62842082977294922 0.25276476144790649 0.16115733981132507
0.67281550168991089 0.25266566872596741 0.15916828811168671
0.73348158597946167 0.25838011503219604 0.16916409134864807
0.78440821170806885 0.26423284411430359 0.17789328098297119
0.80120253562927246 0.27880927920341492 0.17561884224414825
0.83178216218948364 0.29459556937217712 0.19799299538135529
0.81520479917526245 0.30848485231399536 0.21154645085334778
0.34268441796302795 0.24622581899166107 0.11553546786308289
0.38037964701652527 0.26390537619590759 0.12925605475902557
0.3992067277431488 0.26501244306564331 0.12913285195827484
0.46434813737869263 0.28362712264060974 0.14372968673706055
0.53413993120193481 0.29517108201980591 0.16165895760059357
0.59871906042098999 0.3071158230304718 0.16634431481361389
0.6638677716255188 0.32357153296470642 0.18045604228973389
0.71536159515380859 0.32894742488861084 0.18658521771430969
0.7645452618598938 0.34368801116943359 0.186489537358284
0.80975610017776489 0.35856273770332336 0.19704025983810425
0.84257155656814575 0.37824490666389465 0.20474161207675934
0.86008214950561523 0.39814496040344238 0.22206202149391174
0.85012894868850708 0.41999164223670959 0.24440152943134308
0.35887342691421509 0.32223895192146301 0.13625180721282959
0.40547493100166321 0.34030193090438843 0.15267060697078705
0.45071911811828613 0.34998628497123718 0.15785562992095947
0.50329792499542236 0.35686382651329041 0.16109864413738251
0.56959658861160278 0.37161144614219666 0.1755397617816925
0.64315974712371826 0.39242038130760193 0.18553081154823303
0.7017667293548584 0.40730646252632141 0.19579966366291046
0.74863326549530029 0.41813254356384277 0.20158636569976807
0.79358899593353271 0.43334111571311951 0.20401974022388458
0.8333899974822998 0.45174390077590942 0.2166423499584198
0.86388701200485229 0.47372162342071533 0.23456069827079773
0.88380038738250732 0.49821186065673828 0.26046735048294067
0.85991847515106201 0.52993202209472656 0.29517152905464172
0.38128021359443665 0.40541580319404602 0.15667322278022766
0.44498679041862488 0.42822021245956421 0.17637494206428528
0.48663929104804993 0.42979368567466736 0.17722561955451965
0.53982484340667725 0.43887299299240112 0.17850182950496674
0.60231238603591919 0.45402544736862183 0.18405310809612274
0.67382025718688965 0.47540965676307678 0.19583296775817871
0.73032808303833008 0.49155828356742859 0.20770634710788727
0.77807748317718506 0.50603395700454712 0.21565327048301697
0.82172137498855591 0.52145671844482422 0.22623801231384277
0.85696971416473389 0.5376543402671814 0.24218298494815826
0.87778252363204956 0.55535036325454712 0.26457753777503967
0.88727861642837524 0.57651513814926147 0.29271087050437927
0.87324267625808716 0.59893876314163208 0.3239351212978363
0.40734648704528809 0.4862576425075531 0.17914628982543945
0.48810938000679016 0.51262360811233521 0.19918537139892578
0.52387899160385132 0.50999391078948975 0.19311945140361786
0.57613962888717651 0.52017837762832642 0.19306865334510803
0.63722366094589233 0.53601330518722534 0.1993197500705719
0.70211637020111084 0.55484950542449951 0.21155811846256256
0.7565186619758606 0.57157808542251587 0.22684958577156067
0.80458217859268188 0.58773720264434814 0.24207369983196259
0.84317642450332642 0.60258680582046509 0.25965186953544617
0.87013131380081177 0.61591821908950806 0.27858126163482666
0.88509064912796021 0.63008326292037964 0.30221164226531982
0.90085041522979736 0.65035158395767212 0.33449485898017883
0.89183670282363892 0.66732215881347656 0.36158284544944763
0.44023540616035461 0.55945068597793579 0.19566862285137177
0.53406530618667603 0.59237539768218994 0.22050806879997253
0.58033734560012817 0.59768003225326538 0.22038048505783081
0.62455302476882935 0.60389465093612671 0.21957279741764069
0.67625850439071655 0.61509549617767334 0.22529302537441254
0.73322981595993042 0.6306273341178894 0.23887056112289429
0.78312188386917114 0.6463819146156311 0.25638362765312195
0.8268006443977356 0.66156452894210815 0.27523809671401978
0.86181539297103882 0.67557555437088013 0.29723522067070007
0.88567882776260376 0.68724387884140015 0.31897881627082825
0.89981353282928467 0.69900333881378174 0.34357559680938721
0.91668570041656494 0.71710175275802612 0.37746074795722961
0.90782886743545532 0.73615926504135132 0.41058138012886047
0.48879313468933105 0.63216006755828857 0.2212027907371521
0.57680821418762207 0.66361671686172485 0.24981385469436646
0.62471729516983032 0.66988813877105713 0.25248169898986816
0.66511183977127075 0.67418199777603149 0.25373661518096924
0.71335345506668091 0.68313205242156982 0.25975331664085388
0.76441937685012817 0.69538336992263794 0.27780309319496155
0.80988842248916626 0.70938599109649658 0.29744115471839905
0.84743368625640869 0.72374343872070312 0.31658726930618286
0.87715309858322144 0.73579949140548706 0.33879795670509338
0.90155482292175293 0.74640369415283203 0.36261576414108276
0.91120004653930664 0.75502866506576538 0.38431632518768311
0.91584539413452148 0.77006387710571289 0.41465890407562256
0.91813957691192627 0.79216516017913818 0.45465278625488281
0.53726977109909058 0.69895017147064209 0.25309005379676819
0.61842173337936401 0.72429662942886353 0.28325620293617249
0.66646355390548706 0.7318575382232666 0.29338395595550537
0.70155936479568481 0.73431241512298584 0.29263541102409363
0.74701815843582153 0.74349862337112427 0.30094873905181885
0.7942623496055603 0.75455331802368164 0.32007133960723877
0.83355724811553955 0.76558548212051392 0.34052160382270813
0.86529016494750977 0.7756202220916748 0.36647278070449829
0.8930479884147644 0.78506070375442505 0.38986912369728088
0.91565752029418945 0.79623174667358398 0.40759888291358948
0.92393088340759277 0.80457508563995361 0.42874163389205933
0.92154902219772339 0.81429386138916016 0.45487651228904724
0.9230571985244751 0.82884573936462402 0.48757761716842651
0.57767945528030396 0.75043666362762451 0.28143623471260071
0.65802651643753052 0.77687960863113403 0.31946474313735962
0.69435799121856689 0.78037893772125244 0.32137840986251831
0.73440945148468018 0.78677487373352051 0.33112618327140808
0.77882617712020874 0.79563814401626587 0.34795305132865906
0.81941628456115723 0.80369472503662109 0.36647880077362061
0.85228210687637329 0.81177103519439697 0.39028710126876831
0.88268524408340454 0.82016903162002563 0.42495200037956238
0.90943938493728638 0.82901495695114136 0.4502292275428772
0.92596864700317383 0.83856987953186035 0.46218493580818176
0.93402481079101562 0.84647655487060547 0.47945061326026917
0.93705791234970093 0.85835355520248413 0.51013737916946411
0.93610161542892456 0.87173861265182495 0.53697866201400757
0.63393312692642212 0.81073290109634399 0.3337714672088623
0.69518899917602539 0.82385647296905518 0.36033576726913452
0.72460019588470459 0.82417792081832886 0.35923406481742859
0.76323080062866211 0.8292233943939209 0.3706047534942627
0.80383574962615967 0.83590751886367798 0.39521995186805725
0.84053623676300049 0.84313046932220459 0.41484716534614563
0.87073540687561035 0.84952592849731445 0.43535581231117249
0.89893943071365356 0.85742378234863281 0.47403809428215027
0.92186570167541504 0.86579006910324097 0.50259077548980713
0.93105477094650269 0.87324202060699463 0.51360654830932617
0.93730795383453369 0.87933075428009033 0.52037793397903442
0.93902719020843506 0.88838446140289307 0.54395657777786255
0.94048541784286499 0.89695793390274048 0.56870150566101074
0.67261362075805664 0.85050088167190552 0.37098434567451477
0.72961831092834473 0.86160284280776978 0.40219548344612122
0.75822508335113525 0.86411947011947632 0.41013437509536743
0.79023212194442749 0.86612457036972046 0.41952353715896606
0.82624351978302002 0.8720707893371582 0.44342496991157532
0.8602028489112854 0.87745863199234009 0.46299910545349121
0.88679492473602295 0.8793451189994812 0.48131266236305237
0.91084212064743042 0.88514751195907593 0.51409262418746948
0.92775094509124756 0.89274442195892334 0.53978639841079712
0.93867915868759155 0.90216046571731567 0.55768215656280518
0.9432188868522644 0.9069940447807312 0.56352502107620239
0.94502353668212891 0.91126692295074463 0.57603675127029419
0.94704902172088623 0.91927856206893921 0.59655356407165527
0.7064211368560791 0.87566059827804565 0.41148826479911804
0.75377631187438965 0.88470625877380371 0.44066616892814636
0.78678232431411743 0.8895753026008606 0.45951241254806519
0.81429439783096313 0.8844866156578064 0.47223490476608276
0.84856975078582764 0.897957444190979 0.49376779794692993
0.87783133983612061 0.89924871921539307 0.51442044973373413
0.90250712633132935 0.90223747491836548 0.53413248062133789
0.9213070273399353 0.90341496467590332 0.55461448431015015
0.93545979261398315 0.90564435720443726 0.57325369119644165
0.94666439294815063 0.92267507314682007 0.59372138977050781
0.94910633563995361 0.9244077205657959 0.59800952672958374
0.95023876428604126 0.92245322465896606 0.60261017084121704
0.95074325799942017 0.93294000625610352 0.61795622110366821
0.72503411769866943 0.85933345556259155 0.43999025225639343
0.76745200157165527 0.86138826608657837 0.46887889504432678
0.80317503213882446 0.86653441190719604 0.49656233191490173
0.83857822418212891 0.87308520078659058 0.52135437726974487
0.87004286050796509 0.87232780456542969 0.54309558868408203
0.89507108926773071 0.87300968170166016 0.56297838687896729
0.91675633192062378 0.88259744644165039 0.58030885457992554
0.93406081199645996 0.88084441423416138 0.59361237287521362
0.94617235660552979 0.87497419118881226 0.60141634941101074
0.95351618528366089 0.88412052392959595 0.60747742652893066
0.95582002401351929 0.88984322547912598 0.61286330223083496
0.95967680215835571 0.89102482795715332 0.62419486045837402
0.9552648663520813 0.88193941116333008 0.61929166316986084
0.23001888394355774 0.16226091980934143 0.096001207828521729
0.28644055128097534 0.18452781438827515 0.11134734749794006
0.32942023873329163 0.18737167119979858 0.11770748347043991
0.39743679761886597 0.19556161761283875 0.1268293559551239
0.47489151358604431 0.20947100222110748 0.14481526613235474
0.53509652614593506 0.21964921057224274 0.15388858318328857
0.60583072900772095 0.23573368787765503 0.17658312618732452
0.67482453584671021 0.244195356965065 0.19756463170051575
0.72829252481460571 0.25837090611457825 0.20799295604228973
0.79218930006027222 0.27650794386863708 0.22746559977531433
0.81013363599777222 0.27606672048568726 0.22112211585044861
0.85330140590667725 0.30113178491592407 0.24683934450149536
0.85919272899627686 0.32308477163314819 0.27501127123832703
0.2539333701133728 0.2160719633102417 0.11872736364603043
0.34116750955581665 0.25796970725059509 0.15413790941238403
0.39289671182632446 0.26639145612716675 0.16320560872554779
0.46068328619003296 0.28152775764465332 0.17691245675086975
0.5396314263343811 0.3001667857170105 0.19898326694965363
0.60992765426635742 0.31748384237289429 0.21232171356678009
0.6672089695930481 0.32851514220237732 0.22111563384532928
0.72312885522842407 0.33628156781196594 0.23514845967292786
0.76909089088439941 0.35328644514083862 0.24584068357944489
0.81825190782546997 0.37159481644630432 0.25705164670944214
0.86221253871917725 0.39647501707077026 0.27120661735534668
0.89937156438827515 0.42558985948562622 0.29731553792953491
0.89215576648712158 0.45832031965255737 0.33365431427955627
0.27251982688903809 0.2921251654624939 0.14333945512771606
0.37947207689285278 0.33480191230773926 0.18529944121837616
0.44319599866867065 0.34738874435424805 0.19789615273475647
0.50793015956878662 0.36200979351997375 0.20851476490497589
0.58034056425094604 0.38102731108665466 0.22404657304286957
0.65936994552612305 0.40478119254112244 0.24398896098136902
0.71381062269210815 0.41851058602333069 0.25496962666511536
0.75622713565826416 0.4277741014957428 0.26256036758422852
0.8002515435218811 0.44348955154418945 0.27336615324020386
0.84209012985229492 0.46571442484855652 0.28641057014465332
0.88497728109359741 0.49353277683258057 0.30981647968292236
0.91774040460586548 0.5237802267074585 0.3395925760269165
0.90649759769439697 0.55145561695098877 0.37235304713249207
0.29195651412010193 0.37030428647994995 0.16516575217247009
0.4066256582736969 0.41852626204490662 0.20792654156684875
0.49060079455375671 0.43432143330574036 0.22874554991722107
0.55259138345718384 0.44675016403198242 0.23660658299922943
0.61923032999038696 0.46403855085372925 0.24806578457355499
0.68990981578826904 0.48618173599243164 0.26537463068962097
0.74475586414337158 0.5039438009262085 0.27939751744270325
0.78826946020126343 0.51764780282974243 0.2894081175327301
0.82968020439147949 0.53299051523208618 0.30115479230880737
0.86488896608352661 0.55213272571563721 0.31833544373512268
0.89844131469726562 0.57517844438552856 0.34302562475204468
0.91586470603942871 0.59791511297225952 0.37476539611816406
0.90956300497055054 0.63965487480163574 0.42430493235588074
0.32089966535568237 0.45337536931037903 0.19119192659854889
0.45601874589920044 0.506622314453125 0.23646999895572662
0.53534400463104248 0.51944869756698608 0.25421369075775146
0.59321469068527222 0.53123503923416138 0.26178574562072754
0.65476280450820923 0.54746705293655396 0.27277728915214539
0.71894115209579468 0.56778180599212646 0.28763285279273987
0.77273052930831909 0.58538460731506348 0.3028901219367981
0.81560510396957397 0.59897762537002563 0.31876364350318909
0.85058760643005371 0.61300498247146606 0.33659076690673828
