assets/lut/others warm yellow.cube
# Created by: G'MIC (https://gmic.eu)
TITLE "warm_yellow"
# LUT size
LUT_3D_SIZE 5
# Data domain
DOMAIN_MIN 0.0 0.0 0.0
DOMAIN_MAX 1.0 1.0 1.0
# LUT data points
0.088170640170574188 0.024975450709462166 0.01190662756562233
0.42127540707588196 0.01033319253474474 0.0063355537131428719
0.68894112110137939 0.0072085661813616753 0.0035964068956673145
0.87195247411727905 0.0097991498187184334 0.0050323484465479851
0.98059368133544922 0.0090432111173868179 0.0071548759005963802
0.22811855375766754 0.21533569693565369 0.045552738010883331
0.43697431683540344 0.21804450452327728 0.011747278273105621
0.70505273342132568 0.19042089581489563 0.00017359116463921964
0.87159675359725952 0.18380919098854065 1.6156365063579869e-06
0.97883796691894531 0.172157883644104 0
0.40643787384033203 0.56944286823272705 0.11968014389276505
0.46971717476844788 0.57291638851165771 0.032619372010231018
0.70352107286453247 0.55927926301956177 0.0026036130730062723
0.87188196182250977 0.5337904691696167 0
0.97911137342453003 0.53023242950439453 0
0.56941682100296021 0.86561822891235352 0.23211030662059784
0.56951618194580078 0.86372798681259155 0.083594299852848053
0.70299029350280762 0.86450254917144775 0.022730883210897446
0.87125289440155029 0.85395532846450806 0.00016165341367013752
0.97968840599060059 0.84961378574371338 0
0.69507485628128052 0.98241686820983887 0.40394529700279236
0.67223078012466431 0.98107635974884033 0.17241598665714264
0.73933595418930054 0.98023396730422974 0.050648108124732971
0.86135667562484741 0.97784769535064697 0.0097091374918818474
0.97923660278320312 0.97624266147613525 0
0.1706329733133316 0.059084903448820114 0.13228914141654968
0.43597060441970825 0.029366901144385338 0.12957864999771118
0.70233398675918579 0.008366977795958519 0.11071894317865372
0.87241536378860474 0.0062597384676337242 0.11595640331506729
0.9748537540435791 6.4625460254319478e-06 0.10431172698736191
0.16515564918518066 0.21784152090549469 0.13444522023200989
0.44673234224319458 0.21100954711437225 0.13297915458679199
0.70696675777435303 0.14236147701740265 0.086033418774604797
0.87095171213150024 0.088848516345024109 0.052639905363321304
0.98000460863113403 0.048212207853794098 0.027068687602877617
0.32342696189880371 0.57555747032165527 0.21230937540531158
0.55879956483840942 0.5754162073135376 0.2304861843585968
0.69943827390670776 0.55647057294845581 0.09290517121553421
0.87453144788742065 0.45025846362113953 0.044797096401453018
0.97953224182128906 0.346506267786026 0.023415898904204369
0.4883463978767395 0.8665539026260376 0.35543674230575562
0.68124496936798096 0.86092239618301392 0.39387482404708862
0.73044431209564209 0.86055153608322144 0.17745430767536163
0.87192261219024658 0.85676592588424683 0.048272300511598587
0.97245687246322632 0.79691058397293091 0.017962556332349777
0.62885159254074097 0.98328638076782227 0.54403412342071533
0.78282541036605835 0.98430460691452026 0.59952163696289062
0.78990960121154785 0.98312628269195557 0.30931442975997925
0.86565327644348145 0.98103624582290649 0.099268607795238495
0.97728043794631958 0.97874456644058228 0.015257846564054489
0.2808665931224823 0.10824010521173477 0.43364429473876953
0.48053228855133057 0.067090995609760284 0.43941652774810791
0.70671659708023071 0.028692582622170448 0.43015602231025696
0.86775398254394531 0.0085601806640625 0.41778337955474854
0.98085123300552368 0.00032671759254299104 0.39631634950637817
0.25546485185623169 0.28730735182762146 0.43613126873970032
0.51643162965774536 0.29544121026992798 0.43849927186965942
0.70360022783279419 0.21556569635868073 0.42556485533714294
0.86836177110671997 0.13985583186149597 0.3734545111656189
0.98042517900466919 0.084464743733406067 0.29253953695297241
0.24530951678752899 0.58296215534210205 0.44709214568138123
0.51099890470504761 0.57914775609970093 0.44840967655181885
0.71329641342163086 0.58094292879104614 0.42971158027648926
0.87268370389938354 0.46700847148895264 0.32564091682434082
0.98196995258331299 0.35827955603599548 0.24231120944023132
0.39038017392158508 0.86591261625289917 0.56011086702346802
0.62965714931488037 0.86283332109451294 0.58483600616455078
0.78584450483322144 0.86073476076126099 0.59898096323013306
0.87400907278060913 0.85628920793533325 0.32733958959579468
0.98099750280380249 0.78694385290145874 0.22142557799816132
0.54415422677993774 0.98128354549407959 0.71978217363357544
0.74091464281082153 0.98321157693862915 0.7623906135559082
0.85949182510375977 0.98431867361068726 0.79687738418579102
0.88566803932189941 0.98292332887649536 0.49738931655883789
0.98007863759994507 0.97571408748626709 0.22436191141605377
0.38326084613800049 0.17919889092445374 0.82562863826751709
0.55557352304458618 0.11847568303346634 0.82484066486358643
0.72772765159606934 0.077294401824474335 0.82869076728820801
0.87262076139450073 0.028717579320073128 0.82328766584396362
0.97937619686126709 0.0067893830128014088 0.80780452489852905
0.35632935166358948 0.38953250646591187 0.82920724153518677
0.59940445423126221 0.40429124236106873 0.8259698748588562
0.73643922805786133 0.30609700083732605 0.82239264249801636
0.87340199947357178 0.2167045921087265 0.8235364556312561
0.98036378622055054 0.14079555869102478 0.78548461198806763
0.32257425785064697 0.66094809770584106 0.82133609056472778
0.57774120569229126 0.66662722826004028 0.82634806632995605
0.7581331729888916 0.66691011190414429 0.82875674962997437
0.8765217661857605 0.57302725315093994 0.81940126419067383
0.98094511032104492 0.45873072743415833 0.75989049673080444
0.31071174144744873 0.87256830930709839 0.83851659297943115
0.5723872184753418 0.86971837282180786 0.83909636735916138
0.76301884651184082 0.87206447124481201 0.83766204118728638
0.88190710544586182 0.86243093013763428 0.83261632919311523
0.97900384664535522 0.81027764081954956 0.72163420915603638
0.4571831226348877 0.98227995634078979 0.91130822896957397
0.67602932453155518 0.98253101110458374 0.91867727041244507
0.83001881837844849 0.98287808895111084 0.93163621425628662
0.92253369092941284 0.98244386911392212 0.92645955085754395
0.9800838828086853 0.97724837064743042 0.7167896032333374
0.47879654169082642 0.2531161904335022 0.99537777900695801
0.62305402755737305 0.1852412223815918 0.99498361349105835
0.76593077182769775 0.1194337010383606 0.99331158399581909
0.88127297163009644 0.062895439565181732 0.98795711994171143
0.97632110118865967 0.028383621945977211 0.987254798412323
0.44666227698326111 0.4873231053352356 0.98904925584793091
0.67255467176437378 0.5175020694732666 0.99371093511581421
0.78445732593536377 0.41279050707817078 0.99234747886657715
0.88451462984085083 0.307382732629776 0.98752725124359131
0.97781580686569214 0.20863966643810272 0.98417335748672485
0.42122909426689148 0.74360918998718262 0.99457991123199463
0.65141129493713379 0.75501567125320435 0.98888576030731201
0.80524271726608276 0.75479316711425781 0.99224001169204712
0.89125305414199829 0.67530834674835205 0.99350142478942871
0.97931420803070068 0.56650841236114502 0.99388927221298218
0.38819614052772522 0.90193462371826172 0.99416661262512207
0.63294583559036255 0.90326178073883057 0.98767846822738647
0.78574860095977783 0.90107792615890503 0.98700487613677979
0.90511751174926758 0.90707087516784668 0.99218916893005371
0.98273491859436035 0.85859990119934082 0.98958176374435425
0.36986362934112549 0.97732162475585938 0.99570250511169434
0.61016106605529785 0.978759765625 0.99550652503967285
0.78323960304260254 0.97982794046401978 0.99263042211532593
0.90408957004547119 0.98219150304794312 0.99533605575561523
0.98094308376312256 0.98229455947875977 0.98782902956008911
