assets/lut/others golden.cube
# Created by: G'MIC (https://gmic.eu)
TITLE "golden"
# LUT size
LUT_3D_SIZE 7
# Data domain
DOMAIN_MIN 0.0 0.0 0.0
DOMAIN_MAX 1.0 1.0 1.0
# LUT data points
0.096108578145503998 0.00011435116175562143 0.051911912858486176
0.1589459627866745 0.002545270835980773 0.059110946953296661
0.29578211903572083 0.0031430860981345177 0.058434877544641495
0.5212101936340332 0.0003664802061393857 0.061275139451026917
0.72453302145004272 0.0042211795225739479 0.056753002107143402
0.90898597240447998 0.0023710213135927916 0.057456895709037781
0.99023103713989258 0.0010026969248428941 0.050704985857009888
0.090235359966754913 0.011446171440184116 0.051541093736886978
0.18275877833366394 0.013557733036577702 0.053237780928611755
0.35521885752677917 0.037238489836454391 0.055899243801832199
0.58180725574493408 0.042116545140743256 0.057245396077632904
0.77894872426986694 0.04989229142665863 0.060179062187671661
0.94553089141845703 0.065845400094985962 0.063820481300354004
0.9978560209274292 0.083391822874546051 0.06163381040096283
0.091567903757095337 0.16491003334522247 0.051193732768297195
0.21520139276981354 0.20290666818618774 0.051144290715456009
0.40861058235168457 0.2057972252368927 0.056486301124095917
0.63491523265838623 0.2261216789484024 0.053504824638366699
0.82539498805999756 0.24489250779151917 0.059730365872383118
0.97075128555297852 0.27486279606819153 0.061540238559246063
0.99851894378662109 0.30084666609764099 0.072001270949840546
0.10088799893856049 0.39207613468170166 0.053715754300355911
0.24583031237125397 0.42761373519897461 0.053359206765890121
0.46636909246444702 0.44631102681159973 0.069490738213062286
0.6764337420463562 0.46666333079338074 0.074340984225273132
0.86344802379608154 0.49271512031555176 0.074140869081020355
0.98083394765853882 0.51594358682632446 0.0829659104347229
0.99863362312316895 0.55487996339797974 0.093253880739212036
0.094121716916561127 0.63824009895324707 0.062313452363014221
0.29313239455223083 0.67289841175079346 0.07486000657081604
0.5166364312171936 0.69995546340942383 0.081449411809444427
0.72430622577667236 0.71959429979324341 0.091034971177577972
0.89852446317672729 0.73878902196884155 0.10138455778360367
0.99414044618606567 0.76070535182952881 0.11424954235553741
1 0.78169840574264526 0.14453358948230743
0.095945663750171661 0.8877376914024353 0.066078916192054749
0.33924955129623413 0.91053664684295654 0.088308878242969513
0.57131218910217285 0.9262847900390625 0.10454876720905304
0.77494233846664429 0.94088298082351685 0.11977642029523849
0.94324898719787598 0.9516528844833374 0.14042681455612183
0.99693959951400757 0.96102917194366455 0.16090874373912811
1 0.96791088581085205 0.17873923480510712
0.11096952855587006 0.99920153617858887 0.095739640295505524
0.41783681511878967 0.99943852424621582 0.11804668605327606
0.62810921669006348 1 0.13580992817878723
0.81822806596755981 1 0.15406697988510132
0.98113548755645752 0.9980282187461853 0.18557865917682648
0.99610143899917603 0.9998098611831665 0.19411906599998474
1 0.99985980987548828 0.21778358519077301
0.088668569922447205 0 0.054471977055072784
0.15055333077907562 0 0.080731578171253204
0.30545952916145325 0.00057800894137471914 0.070845961570739746
0.52945154905319214 0.0013618918601423502 0.10661612451076508
0.7197766900062561 0.00026879404322244227 0.098027519881725311
0.89249831438064575 0.0014073090860620141 0.12195934355258942
0.98363298177719116 0.00043779262341558933 0.1666884571313858
0.072557352483272552 0.0067738103680312634 0.067215770483016968
0.17061714828014374 0.021985521540045738 0.099552646279335022
0.35253763198852539 0.03111032210290432 0.1049528568983078
0.57223725318908691 0.026862304657697678 0.11674831807613373
0.78115808963775635 0.03516736626625061 0.13785998523235321
0.93710470199584961 0.062764726579189301 0.15606169402599335
0.99669754505157471 0.068293601274490356 0.18194733560085297
0.080687321722507477 0.17253883183002472 0.094171695411205292
0.21551495790481567 0.20847305655479431 0.11947516351938248
0.42695420980453491 0.2228216826915741 0.14426931738853455
0.63914370536804199 0.22915294766426086 0.16451703011989594
0.83129185438156128 0.25411725044250488 0.1721588522195816
0.97245770692825317 0.27651870250701904 0.18993286788463593
0.99904835224151611 0.29283532500267029 0.21427778899669647
0.094285465776920319 0.39905214309692383 0.13549304008483887
0.25656303763389587 0.42836469411849976 0.16021883487701416
0.47322472929954529 0.45221063494682312 0.18384446203708649
0.68654543161392212 0.46979689598083496 0.20483654737472534
0.86620253324508667 0.49658849835395813 0.21039742231369019
0.98665183782577515 0.51810932159423828 0.22920960187911987
0.99849498271942139 0.53114932775497437 0.24959862232208252
0.10592994093894958 0.64653921127319336 0.17200624942779541
0.30089336633682251 0.67573541402816772 0.19604183733463287
0.52278810739517212 0.69410616159439087 0.21890337765216827
0.73495125770568848 0.7192731499671936 0.24310861527919769
0.9031984806060791 0.74377733469009399 0.25947016477584839
0.99743330478668213 0.76263052225112915 0.27004474401473999
1 0.77010446786880493 0.2969973087310791
0.10652370005846024 0.89693623781204224 0.21293200552463531
0.35849210619926453 0.91983580589294434 0.2372058779001236
0.5796390175819397 0.92089498043060303 0.25879880785942078
0.77411341667175293 0.93558287620544434 0.28161519765853882
0.94504213333129883 0.95389294624328613 0.30956858396530151
0.99679911136627197 0.96916252374649048 0.3159937858581543
1 0.94801920652389526 0.33488744497299194
0.13359861075878143 0.99998635053634644 0.26691222190856934
0.41081380844116211 0.99985301494598389 0.29587024450302124
0.6345638632774353 1 0.30233550071716309
0.82438105344772339 1 0.32373061776161194
0.97765791416168213 0.999672532081604 0.34990334510803223
0.99846196174621582 0.99788045883178711 0.37003910541534424
1 0.99680167436599731 0.35384035110473633
0.081127345561981201 0 0.1578039675951004
0.12558856606483459 0.00067013013176620007 0.1801464855670929
0.29037922620773315 8.6346793978009373e-05 0.1969061940908432
0.50383347272872925 0.00076365750283002853 0.21808299422264099
0.74353164434432983 0.00013487572141457349 0.24132141470909119
0.90573394298553467 0.00017071892216335982 0.25884842872619629
0.99592667818069458 0.0036475537344813347 0.2816956639289856
0.074059456586837769 0.0078136073425412178 0.20869077742099762
0.16861438751220703 0.029667753726243973 0.22906211018562317
0.35177558660507202 0.038439463824033737 0.24383385479450226
0.5801694393157959 0.040490571409463882 0.2616056501865387
0.79200524091720581 0.051868870854377747 0.28404846787452698
0.95490854978561401 0.068027019500732422 0.30423977971076965
0.99767327308654785 0.073167510330677032 0.32400014996528625
0.076734878122806549 0.17211499810218811 0.25157082080841064
0.21470747888088226 0.20100535452365875 0.26937028765678406
0.43088382482528687 0.23785121738910675 0.28458663821220398
0.63827693462371826 0.24236395955085754 0.31704011559486389
0.83150404691696167 0.27138447761535645 0.32894304394721985
0.98010843992233276 0.29316854476928711 0.34889325499534607
0.99911314249038696 0.31541034579277039 0.38167223334312439
0.090735927224159241 0.40004429221153259 0.28727191686630249
0.26622393727302551 0.42416644096374512 0.30492290854454041
0.46699586510658264 0.44714218378067017 0.32362502813339233
0.69546127319335938 0.49465247988700867 0.35277685523033142
0.87466830015182495 0.51704573631286621 0.36466464400291443
0.9915497899055481 0.52662050724029541 0.39163124561309814
0.99946612119674683 0.56212061643600464 0.41209375858306885
0.092508338391780853 0.65843653678894043 0.32228034734725952
0.29921537637710571 0.68955570459365845 0.34706786274909973
0.52068549394607544 0.70979571342468262 0.36586931347846985
0.72636282444000244 0.73411852121353149 0.38465330004692078
0.90753370523452759 0.75354516506195068 0.41292399168014526
0.9986535906791687 0.77135711908340454 0.43079900741577148
1 0.78248482942581177 0.43915572762489319
0.098107203841209412 0.9011462926864624 0.36588799953460693
0.35531017184257507 0.91753369569778442 0.38880172371864319
0.57622313499450684 0.9261009693145752 0.40381836891174316
0.7840275764465332 0.93167573213577271 0.43425089120864868
0.95162785053253174 0.94780486822128296 0.45530304312705994
0.99932491779327393 0.95748209953308105 0.46441829204559326
1 0.96762150526046753 0.49246183037757874
0.1490025520324707 0.99988800287246704 0.42280232906341553
0.40642285346984863 0.99811166524887085 0.43437859416007996
0.6374053955078125 0.99908274412155151 0.45252558588981628
0.83422356843948364 0.99944490194320679 0.47146108746528625
0.97373068332672119 0.99988013505935669 0.49013897776603699
0.9964522123336792 0.99856889247894287 0.5060269832611084
1 0.99968123435974121 0.52469795942306519
0.091746173799037933 0 0.31044125556945801
0.14168207347393036 0 0.33904260396957397
0.30312278866767883 0 0.35412219166755676
0.52323776483535767 3.4466913348296657e-05 0.36843672394752502
0.72994744777679443 0.0021903542801737785 0.38339501619338989
0.90592485666275024 0.00032103294506669044 0.39897942543029785
0.98393994569778442 0 0.43902760744094849
0.077941566705703735 0.011595048941671848 0.35413846373558044
0.17457212507724762 0.027510115876793861 0.3753993809223175
0.35972237586975098 0.032394111156463623 0.39856207370758057
0.5860714316368103 0.047422386705875397 0.41806617379188538
0.7877126932144165 0.05947437509894371 0.43821364641189575
0.95194125175476074 0.068791933357715607 0.44993937015533447
0.99826020002365112 0.074227228760719299 0.47734889388084412
0.082397446036338806 0.17357565462589264 0.39976835250854492
0.21648065745830536 0.19807936251163483 0.41878655552864075
0.41997864842414856 0.22527226805686951 0.43585631251335144
0.64438670873641968 0.25206089019775391 0.45970430970191956
0.83778995275497437 0.26898252964019775 0.48131036758422852
0.97976267337799072 0.28758123517036438 0.50341522693634033
0.99950706958770752 0.32390233874320984 0.53198271989822388
0.09636562317609787 0.41021424531936646 0.43839427828788757
0.2593529224395752 0.43625301122665405 0.46273761987686157
0.46738117933273315 0.46326661109924316 0.48280793428421021
0.69138342142105103 0.50384247303009033 0.49932491779327393
0.87901729345321655 0.51853001117706299 0.51306498050689697
0.99279743432998657 0.52916991710662842 0.54115337133407593
1 0.58726781606674194 0.57377523183822632
0.10462368279695511 0.66160517930984497 0.47776952385902405
0.30060675740242004 0.68466466665267944 0.5001298189163208
0.5253903865814209 0.71215957403182983 0.51612317562103271
0.74345999956130981 0.74322354793548584 0.53918743133544922
0.9129149317741394 0.75545084476470947 0.54984450340270996
0.9997592568397522 0.77552396059036255 0.57305115461349487
1 0.79703438282012939 0.59427249431610107
0.096262626349925995 0.90516841411590576 0.51902663707733154
0.35590469837188721 0.91905957460403442 0.54810637235641479
0.58362656831741333 0.93238157033920288 0.56687676906585693
0.79421156644821167 0.93970119953155518 0.59110790491104126
0.94641494750976562 0.9514237642288208 0.60156083106994629
0.9992220401763916 0.97105824947357178 0.62244105339050293
1 0.97117942571640015 0.64932107925415039
0.14795461297035217 1 0.56804412603378296
0.41658231616020203 0.99589300155639648 0.58474850654602051
0.63556432723999023 0.99425208568572998 0.60912269353866577
0.82782787084579468 0.99960875511169434 0.62982273101806641
0.97944718599319458 0.99889129400253296 0.64254152774810791
0.99557352066040039 0.99607843160629272 0.65929257869720459
1 0.99692553281784058 0.70198911428451538
0.089616365730762482 0 0.4633234441280365
0.15024372935295105 0 0.48848459124565125
0.31082823872566223 0 0.50637543201446533
0.51508080959320068 9.0655157691799104e-05 0.525307297706604
0.75104767084121704 0.00072957953670993447 0.54902034997940063
0.91593283414840698 0 0.55954074859619141
0.99507737159729004 0.00087714102119207382 0.58379256725311279
0.076878532767295837 0.01155192032456398 0.51140099763870239
0.17350439727306366 0.025906447321176529 0.52904117107391357
0.36861848831176758 0.045376349240541458 0.55273866653442383
0.59039592742919922 0.033828914165496826 0.57228696346282959
0.79970496892929077 0.064851932227611542 0.59085237979888916
0.95872724056243896 0.070732250809669495 0.61344712972640991
0.9985467791557312 0.076893582940101624 0.63650202751159668
0.080752953886985779 0.18127013742923737 0.55919331312179565
0.22617538273334503 0.2154000848531723 0.58160519599914551
0.44203707575798035 0.24733592569828033 0.59997266530990601
0.63891887664794922 0.24351708590984344 0.61463862657546997
0.84097331762313843 0.26454257965087891 0.63295364379882812
0.98162186145782471 0.29204612970352173 0.65380924940109253
0.9985077977180481 0.33157548308372498 0.68195539712905884
0.097997196018695831 0.41519886255264282 0.59611541032791138
0.27265948057174683 0.44342437386512756 0.61705529689788818
0.48489835858345032 0.48113158345222473 0.64230972528457642
0.69094198942184448 0.49635148048400879 0.65681517124176025
0.8811219334602356 0.50933921337127686 0.66889315843582153
0.9947851300239563 0.54072397947311401 0.69351750612258911
1 0.5963367223739624 0.7249300479888916
0.10229414701461792 0.66561806201934814 0.63474142551422119
0.31992959976196289 0.69687503576278687 0.65828824043273926
0.5358889102935791 0.73127865791320801 0.68508899211883545
0.7450944185256958 0.74429142475128174 0.69671285152435303
0.91916793584823608 0.75752276182174683 0.70658940076828003
0.99762862920761108 0.77467530965805054 0.7270161509513855
1 0.80482447147369385 0.75154531002044678
0.1091378778219223 0.91376310586929321 0.67793458700180054
0.36301708221435547 0.92439907789230347 0.69993698596954346
0.59620046615600586 0.9385332465171814 0.72307068109512329
0.79723650217056274 0.94673609733581543 0.7377619743347168
0.95356231927871704 0.95516842603683472 0.75830388069152832
0.9996110200881958 0.97468483448028564 0.78105682134628296
1 0.96028655767440796 0.79190480709075928
0.15410463511943817 1 0.72563797235488892
0.42991217970848083 0.99757957458496094 0.74608230590820312
0.65322226285934448 0.99707472324371338 0.76166689395904541
0.84468233585357666 0.99830704927444458 0.78540962934494019
0.96630853414535522 0.99995404481887817 0.79951596260070801
0.99309861660003662 0.99607843160629272 0.81976598501205444
0.99996030330657959 0.99641799926757812 0.85431969165802002
0.082810871303081512 0 0.62306451797485352
0.14973628520965576 0.0010287265758961439 0.64427900314331055
0.31449252367019653 0.00038725908962078393 0.65584790706634521
0.53222799301147461 0 0.67916989326477051
0.7483905553817749 0.00017899158410727978 0.70344054698944092
0.92251217365264893 0 0.72023588418960571
0.99245148897171021 0.0045561399310827255 0.75461471080780029
0.077330991625785828 0.014992792159318924 0.66815304756164551
0.18270199000835419 0.037584774196147919 0.69269400835037231
0.36045223474502563 0.041969627141952515 0.70487576723098755
0.59802389144897461 0.049061749130487442 0.72293186187744141
0.80905628204345703 0.067906171083450317 0.75130581855773926
0.95638692378997803 0.080362580716609955 0.76323705911636353
0.99852150678634644 0.08326924592256546 0.78548824787139893
0.083925105631351471 0.18560883402824402 0.71418088674545288
0.23517243564128876 0.21381394565105438 0.73785972595214844
0.43396809697151184 0.24291712045669556 0.75928884744644165
0.64739692211151123 0.24773591756820679 0.77331578731536865
0.85142916440963745 0.27376535534858704 0.79446369409561157
0.97772252559661865 0.30887413024902344 0.81086397171020508
0.99849146604537964 0.33721446990966797 0.82976388931274414
0.10341545194387436 0.42119872570037842 0.74837911128997803
0.27184990048408508 0.44435104727745056 0.77164918184280396
0.48130327463150024 0.47983840107917786 0.79704004526138306
0.69653892517089844 0.49384716153144836 0.81331181526184082
0.88730424642562866 0.5126640796661377 0.82783216238021851
0.98958688974380493 0.55296224355697632 0.84845685958862305
1 0.58884179592132568 0.86646538972854614
0.099982589483261108 0.67087435722351074 0.78594970703125
0.3167586624622345 0.69300693273544312 0.80882412195205688
0.54923069477081299 0.72098439931869507 0.83351248502731323
0.7544015645980835 0.74513381719589233 0.85215467214584351
0.92961668968200684 0.76010763645172119 0.86154460906982422
0.99696207046508789 0.78265166282653809 0.88509595394134521
1 0.81747829914093018 0.90677535533905029
0.10712020099163055 0.9109729528427124 0.83230006694793701
0.38008809089660645 0.92803668975830078 0.86019021272659302
0.60870707035064697 0.9317086935043335 0.87033355236053467
0.8021436333656311 0.94968295097351074 0.88560348749160767
0.94998478889465332 0.95819807052612305 0.89468657970428467
0.99960696697235107 0.96308380365371704 0.89856511354446411
1 0.98053359985351562 0.91779416799545288
0.15230658650398254 0.99987667798995972 0.88626241683959961
0.44072076678276062 0.99777233600616455 0.89362442493438721
0.66666418313980103 0.99750620126724243 0.91461282968521118
0.84866940975189209 0.99550294876098633 0.90595006942749023
0.9773792028427124 0.99610441923141479 0.93468666076660156
0.99927181005477905 0.99508213996887207 0.93534392118453979
1 0.99450415372848511 0.94479095935821533
0.084400922060012817 0 0.77053219079971313
0.14252972602844238 0.00031038172892294824 0.79753255844116211
0.3297850489616394 9.3347889560391195e-06 0.80925822257995605
0.55187952518463135 0 0.82823461294174194
0.75605577230453491 6.4625462982803583e-05 0.85016000270843506
0.92448157072067261 0.0017341164639219642 0.85599368810653687
0.99879157543182373 0.0029558069072663784 0.88673079013824463
0.076657041907310486 0.015400665812194347 0.8215370774269104
0.18836724758148193 0.042786616832017899 0.84595084190368652
0.38172876834869385 0.047469254583120346 0.85815441608428955
0.61239725351333618 0.051906075328588486 0.8735969066619873
0.81429171562194824 0.059951514005661011 0.90110999345779419
0.97560441493988037 0.074900880455970764 0.91746026277542114
0.99995046854019165 0.081441305577754974 0.93208199739456177
0.083619736135005951 0.197318434715271 0.8600495457649231
0.23326206207275391 0.22394195199012756 0.88628363609313965
0.43941774964332581 0.24282127618789673 0.90737861394882202
0.67391198873519897 0.27095183730125427 0.91488063335418701
0.86395055055618286 0.28593161702156067 0.93571454286575317
0.98344182968139648 0.32439875602722168 0.93888741731643677
1 0.33539450168609619 0.94613295793533325
0.098750770092010498 0.42745581269264221 0.90418928861618042
0.26526573300361633 0.45584613084793091 0.91871654987335205
0.48209333419799805 0.48501735925674438 0.93522262573242188
0.69831877946853638 0.505057692527771 0.92083746194839478
0.89327406883239746 0.52789157629013062 0.94574564695358276
0.98745083808898926 0.56551957130432129 0.9455605149269104
0.99994397163391113 0.58131766319274902 0.9452354907989502
0.10404181480407715 0.67508590221405029 0.93181055784225464
0.31604254245758057 0.68884313106536865 0.92503374814987183
0.55151098966598511 0.72380930185317993 0.94708871841430664
0.754780113697052 0.747397780418396 0.94355911016464233
0.91774672269821167 0.76971727609634399 0.94588947296142578
0.99731367826461792 0.79838377237319946 0.95022130012512207
1 0.81350332498550415 0.95261591672897339
0.11762038618326187 0.90499669313430786 0.94540250301361084
0.38237735629081726 0.91310620307922363 0.94248992204666138
0.60088622570037842 0.94796603918075562 0.94811111688613892
0.80272048711776733 0.96062785387039185 0.9481581449508667
0.96019303798675537 0.96889698505401611 0.94891011714935303
0.99902927875518799 0.98185831308364868 0.95183658599853516
1 0.98228222131729126 0.95098495483398438
0.15649442374706268 0.99875146150588989 0.95128154754638672
0.42442017793655396 0.99163979291915894 0.94533586502075195
0.65132921934127808 0.99492400884628296 0.94855803251266479
0.83868980407714844 0.99667555093765259 0.94521892070770264
0.98731809854507446 0.99561446905136108 0.95073974132537842
1 0.99179297685623169 0.9490056037902832
1 0.98823529481887817 0.94497901201248169
