assets/lut/others 60s faded alt.cube
# Created by: G'MIC (https://gmic.eu)
TITLE "60s_faded_alt"
# LUT size
LUT_3D_SIZE 7
# Data domain
DOMAIN_MIN 0.0 0.0 0.0
DOMAIN_MAX 1.0 1.0 1.0
# LUT data points
0.34048366546630859 0.16249392926692963 0.067177839577198029
0.37262609601020813 0.17409214377403259 0.075345568358898163
0.47257021069526672 0.18334558606147766 0.092969678342342377
0.60913366079330444 0.20838369429111481 0.10469331592321396
0.73583453893661499 0.24867728352546692 0.12200836837291718
0.78502374887466431 0.24494709074497223 0.11665203422307968
0.75123852491378784 0.26501733064651489 0.13321711122989655
0.37680932879447937 0.31955471634864807 0.10383828729391098
0.44662457704544067 0.3438764214515686 0.11558173596858978
0.55865848064422607 0.36383470892906189 0.12649132311344147
0.69128859043121338 0.39843738079071045 0.13905720412731171
0.79233336448669434 0.42821601033210754 0.13759514689445496
0.83807486295700073 0.45568069815635681 0.15733739733695984
0.81612741947174072 0.48194047808647156 0.19272167980670929
0.40425845980644226 0.47942802309989929 0.12967768311500549
0.49805212020874023 0.49494123458862305 0.12541306018829346
0.6203877329826355 0.5262829065322876 0.13522727787494659
0.74396902322769165 0.56285768747329712 0.15971723198890686
0.83793908357620239 0.59311270713806152 0.18696193397045135
0.86881339550018311 0.61666226387023926 0.23030544817447662
0.84648865461349487 0.64773517847061157 0.27764019370079041
0.48457330465316772 0.63079524040222168 0.15961521863937378
0.59579598903656006 0.6555180549621582 0.16547399759292603
0.70213985443115234 0.67897248268127441 0.18072785437107086
0.79657769203186035 0.70077216625213623 0.22353708744049072
0.87021774053573608 0.72776186466217041 0.26739206910133362
0.89944624900817871 0.74241524934768677 0.31136798858642578
0.88676893711090088 0.77233755588531494 0.36595511436462402
0.57233554124832153 0.74972712993621826 0.21026982367038727
0.67049628496170044 0.77066183090209961 0.22907717525959015
0.76730793714523315 0.78871679306030273 0.27244740724563599
0.84266996383666992 0.80331307649612427 0.30929738283157349
0.90090221166610718 0.82215303182601929 0.36786541342735291
0.92857402563095093 0.83638697862625122 0.40939223766326904
0.92051941156387329 0.85974413156509399 0.46170046925544739
0.66252487897872925 0.84258502721786499 0.30296379327774048
0.74638605117797852 0.85839277505874634 0.33181992173194885
0.81652790307998657 0.86443394422531128 0.37395939230918884
0.88057041168212891 0.87545472383499146 0.41566210985183716
0.92507100105285645 0.88882052898406982 0.49065235257148743
0.93842881917953491 0.8977622389793396 0.49625471234321594
0.93859958648681641 0.91104602813720703 0.53626799583435059
0.71681362390518188 0.87009513378143311 0.37462708353996277
0.79119402170181274 0.86690437793731689 0.42570751905441284
0.85980373620986938 0.87175559997558594 0.47037062048912048
0.91797131299972534 0.87839466333389282 0.5259743332862854
0.94755053520202637 0.88476818799972534 0.55426627397537231
0.95357108116149902 0.88479691743850708 0.56799614429473877
0.94691359996795654 0.89595568180084229 0.5753929615020752
0.23001888394355774 0.16226091980934143 0.096001207828521729
0.32942023873329163 0.18737167119979858 0.11770748347043991
0.47489151358604431 0.20947100222110748 0.14481526613235474
0.60583072900772095 0.23573368787765503 0.17658312618732452
0.72829252481460571 0.25837090611457825 0.20799295604228973
0.81013363599777222 0.27606672048568726 0.22112211585044861
0.85919272899627686 0.32308477163314819 0.27501127123832703
0.27251982688903809 0.2921251654624939 0.14333945512771606
0.44319599866867065 0.34738874435424805 0.19789615273475647
0.58034056425094604 0.38102731108665466 0.22404657304286957
0.71381062269210815 0.41851058602333069 0.25496962666511536
0.8002515435218811 0.44348955154418945 0.27336615324020386
0.88497728109359741 0.49353277683258057 0.30981647968292236
0.90649759769439697 0.55145561695098877 0.37235304713249207
0.32089966535568237 0.45337536931037903 0.19119192659854889
0.53534400463104248 0.51944869756698608 0.25421369075775146
0.65476280450820923 0.54746705293655396 0.27277728915214539
0.77273052930831909 0.58538460731506348 0.3028901219367981
0.85058760643005371 0.61300498247146606 0.33659076690673828
0.90349191427230835 0.64811116456985474 0.37966930866241455
0.92214798927307129 0.70382142066955566 0.45661148428916931
0.43668574094772339 0.61209255456924438 0.24782496690750122
0.6291930079460144 0.67391026020050049 0.31673792004585266
0.72812044620513916 0.68967539072036743 0.34271940588951111
0.82338207960128784 0.71809154748916626 0.37583631277084351
0.88427281379699707 0.74485248327255249 0.41285890340805054
0.92338162660598755 0.76614850759506226 0.45927956700325012
0.93478149175643921 0.81537353992462158 0.53479880094528198
0.55110889673233032 0.74105912446975708 0.3171904981136322
0.70537698268890381 0.78552472591400146 0.39027991890907288
0.79362320899963379 0.80217176675796509 0.42554730176925659
0.86079615354537964 0.81918597221374512 0.46881306171417236
0.91583168506622314 0.83803707361221313 0.51605421304702759
0.94139266014099121 0.85537052154541016 0.54987233877182007
0.94783341884613037 0.88857108354568481 0.60692942142486572
0.66249817609786987 0.84860539436340332 0.41738522052764893
0.76609504222869873 0.86683887243270874 0.47026214003562927
0.83581054210662842 0.87465715408325195 0.51031911373138428
0.89154940843582153 0.88627761602401733 0.54252177476882935
0.92939138412475586 0.89952749013900757 0.58669137954711914
0.94533419609069824 0.90883660316467285 0.61536973714828491
0.95346593856811523 0.930827796459198 0.65408647060394287
0.74175870418548584 0.89262676239013672 0.50770360231399536
0.84602898359298706 0.90953248739242554 0.58209919929504395
0.89994329214096069 0.91620349884033203 0.61896425485610962
0.93531340360641479 0.92131489515304565 0.6540411114692688
0.95646703243255615 0.91147905588150024 0.66432207822799683
0.96154934167861938 0.9192243218421936 0.67164850234985352
0.96502482891082764 0.92029750347137451 0.68956154584884644
0.22477428615093231 0.16303044557571411 0.15848910808563232
0.35161978006362915 0.19777819514274597 0.19392487406730652
0.49397790431976318 0.21595032513141632 0.23734757304191589
0.64499014616012573 0.24890273809432983 0.2851012647151947
0.75300353765487671 0.2655092179775238 0.31266504526138306
0.82326745986938477 0.28123870491981506 0.33366608619689941
0.87456554174423218 0.34474700689315796 0.3932209312915802
0.28307908773422241 0.30760839581489563 0.24068602919578552
0.45579001307487488 0.36262974143028259 0.29217827320098877
0.59084326028823853 0.39673486351966858 0.32715147733688354
0.72094035148620605 0.43400087952613831 0.36453258991241455
0.82125824689865112 0.46633026003837585 0.40094491839408875
0.89944374561309814 0.5157133936882019 0.44354027509689331
0.9105830192565918 0.57318830490112305 0.50152790546417236
0.33780640363693237 0.47249904274940491 0.30315235257148743
0.54368633031845093 0.52874958515167236 0.36401009559631348
0.67943489551544189 0.56778347492218018 0.4024071991443634
0.80000722408294678 0.61527848243713379 0.45279636979103088
0.86732947826385498 0.64640623331069946 0.4868462085723877
0.92604798078536987 0.67841470241546631 0.52252703905105591
0.92088073492050171 0.7288476824760437 0.58085685968399048
0.46386373043060303 0.62864047288894653 0.36919775605201721
0.63177138566970825 0.67762249708175659 0.43020004034042358
0.7516445517539978 0.70377606153488159 0.47293770313262939
0.83930742740631104 0.73273903131484985 0.51711642742156982
0.89928245544433594 0.7623935341835022 0.553730309009552
0.94378972053527832 0.78676974773406982 0.59430998563766479
0.93504148721694946 0.82217895984649658 0.64176046848297119
0.57396537065505981 0.75426244735717773 0.44331318140029907
0.71851927042007446 0.79280561208724976 0.50715875625610352
0.80956673622131348 0.81080400943756104 0.54717999696731567
0.87234807014465332 0.8303908109664917 0.58529549837112427
0.92717260122299194 0.85187441110610962 0.62487226724624634
0.95087617635726929 0.86360472440719604 0.65339446067810059
0.94711470603942871 0.89490300416946411 0.69563019275665283
0.67095768451690674 0.84727799892425537 0.52457505464553833
0.78184694051742554 0.87115299701690674 0.58349555730819702
0.84927177429199219 0.87944710254669189 0.61906391382217407
0.89886653423309326 0.89123332500457764 0.64939773082733154
0.93559181690216064 0.90491336584091187 0.68035233020782471
0.95007109642028809 0.90737605094909668 0.69592392444610596
0.95728784799575806 0.93095660209655762 0.727286696434021
0.74652808904647827 0.8879321813583374 0.60337340831756592
0.8387451171875 0.89831280708312988 0.66333532333374023
0.89507734775543213 0.90660685300827026 0.70145332813262939
0.93124902248382568 0.91120177507400513 0.72253930568695068
0.95941168069839478 0.91474324464797974 0.74600768089294434
0.96310269832611084 0.90361833572387695 0.74045640230178833
0.96385729312896729 0.91404539346694946 0.74541568756103516
0.26412025094032288 0.20477959513664246 0.25713860988616943
0.38864412903785706 0.22462174296379089 0.29495483636856079
0.52461564540863037 0.24284361302852631 0.33739131689071655
0.66155213117599487 0.26063543558120728 0.38567996025085449
0.76790541410446167 0.27011647820472717 0.41532742977142334
0.83113044500350952 0.2881036102771759 0.43662276864051819
0.88083678483963013 0.36026319861412048 0.50171840190887451
0.30951458215713501 0.34006983041763306 0.34525221586227417
0.48139694333076477 0.38973948359489441 0.40002390742301941
0.61874270439147949 0.41973945498466492 0.43821403384208679
0.74070388078689575 0.45319575071334839 0.48149874806404114
0.82789283990859985 0.4814186692237854 0.51577472686767578
0.90009516477584839 0.52366787195205688 0.5564730167388916
0.9090569019317627 0.5870811939239502 0.60695260763168335
0.38305345177650452 0.49753767251968384 0.41829022765159607
0.57695609331130981 0.55662471055984497 0.49074894189834595
0.69973254203796387 0.59084737300872803 0.5245479941368103
0.80576640367507935 0.62737065553665161 0.56528955698013306
0.87241160869598389 0.65406662225723267 0.59416341781616211
0.92169332504272461 0.68553680181503296 0.62740457057952881
0.92317944765090942 0.73221075534820557 0.67266291379928589
0.49575987458229065 0.64172071218490601 0.49076411128044128
0.66045665740966797 0.69193136692047119 0.54959601163864136
0.77081245183944702 0.72353935241699219 0.59003496170043945
0.84705471992492676 0.74359411001205444 0.62692725658416748
0.90523439645767212 0.76625686883926392 0.65950638055801392
0.93904614448547363 0.79483848810195923 0.68765544891357422
0.94521015882492065 0.84463447332382202 0.74033308029174805
0.58122199773788452 0.75701069831848145 0.55116671323776245
0.72352689504623413 0.79511803388595581 0.60584765672683716
0.81329095363616943 0.81618934869766235 0.64680010080337524
0.8868023157119751 0.84300416707992554 0.68705552816390991
0.93010497093200684 0.85651463270187378 0.71412146091461182
0.94743973016738892 0.87174111604690552 0.7371106743812561
0.95143646001815796 0.89530795812606812 0.76922011375427246
0.68158555030822754 0.84682142734527588 0.61334133148193359
0.7809637188911438 0.87368738651275635 0.66498649120330811
0.85393911600112915 0.88704448938369751 0.70517128705978394
0.90394848585128784 0.8964657187461853 0.73440873622894287
0.9362332820892334 0.90657275915145874 0.75400727987289429
0.95547366142272949 0.91833657026290894 0.76979953050613403
0.95323807001113892 0.92978876829147339 0.78703981637954712
0.76410633325576782 0.88472431898117065 0.69194912910461426
0.83144557476043701 0.88881415128707886 0.72713613510131836
0.89202076196670532 0.9017215371131897 0.76529711484909058
0.93063175678253174 0.90191841125488281 0.78551733493804932
0.95962423086166382 0.90904206037521362 0.80299121141433716
0.96634328365325928 0.89737880229949951 0.79949593544006348
0.96057820320129395 0.91064786911010742 0.80925506353378296
0.276458740234375 0.20431520044803619 0.33373469114303589
0.4109986424446106 0.23651738464832306 0.38821026682853699
0.54085844755172729 0.24369663000106812 0.42368707060813904
0.66637694835662842 0.26030188798904419 0.46734941005706787
0.77469754219055176 0.27590227127075195 0.51159429550170898
0.84858071804046631 0.30837371945381165 0.55199295282363892
0.88119727373123169 0.35966375470161438 0.60289841890335083
0.30649897456169128 0.34422117471694946 0.42509537935256958
0.50061142444610596 0.40266662836074829 0.50385969877243042
0.64145195484161377 0.44343608617782593 0.55537492036819458
0.74811762571334839 0.46790921688079834 0.58954566717147827
0.83383047580718994 0.49535652995109558 0.62097722291946411
0.90030801296234131 0.53356093168258667 0.65583193302154541
0.91913789510726929 0.59896045923233032 0.70780378580093384
0.41624447703361511 0.52091050148010254 0.53594464063644409
0.59947758913040161 0.58044445514678955 0.60361087322235107
0.72171962261199951 0.61517459154129028 0.64391022920608521
0.81099152565002441 0.64000886678695679 0.66912764310836792
0.87686938047409058 0.65928351879119873 0.68970215320587158
0.9275050163269043 0.70044046640396118 0.71944159269332886
0.92399895191192627 0.75083988904953003 0.76473450660705566
0.52106583118438721 0.66124850511550903 0.60829257965087891
0.67179363965988159 0.70720851421356201 0.65791451930999756
0.78134250640869141 0.73504477739334106 0.69406193494796753
0.85389643907546997 0.75876843929290771 0.72211098670959473
0.90658289194107056 0.77492988109588623 0.74380671977996826
0.9366830587387085 0.8010745644569397 0.76717889308929443
0.93625730276107788 0.83615082502365112 0.80230271816253662
0.60704398155212402 0.76774066686630249 0.65475273132324219
0.7263031005859375 0.79630053043365479 0.7034345269203186
0.82054179906845093 0.82231801748275757 0.74197691679000854
0.89106547832489014 0.8516044020652771 0.77147001028060913
0.9309508204460144 0.86186617612838745 0.79124271869659424
0.95070290565490723 0.87545710802078247 0.80903917551040649
0.94602036476135254 0.89722883701324463 0.83040010929107666
0.69206959009170532 0.85178911685943604 0.70372468233108521
0.78918403387069702 0.87015610933303833 0.745899498462677
0.85881704092025757 0.89240211248397827 0.78537231683731079
0.90881949663162231 0.90913188457489014 0.80605363845825195
0.94066387414932251 0.90540117025375366 0.81981480121612549
0.95411574840545654 0.91025888919830322 0.827750563621521
0.94694268703460693 0.9306069016456604 0.83551025390625
0.77322691679000854 0.87640196084976196 0.76908338069915771
0.83098191022872925 0.87818694114685059 0.79342067241668701
0.88991320133209229 0.88460648059844971 0.82145333290100098
0.92866957187652588 0.89227175712585449 0.83731693029403687
0.95469319820404053 0.91027170419692993 0.85159814357757568
0.96652668714523315 0.9142119288444519 0.85997182130813599
0.96684467792510986 0.90991741418838501 0.86518335342407227
0.29383820295333862 0.21769632399082184 0.41742774844169617
0.41222694516181946 0.22686611115932465 0.4562925398349762
0.5603032112121582 0.24951581656932831 0.51845848560333252
0.67324364185333252 0.26251000165939331 0.55774730443954468
0.78297930955886841 0.28739476203918457 0.61419987678527832
0.85467064380645752 0.31961128115653992 0.65883451700210571
0.88657885789871216 0.37053009867668152 0.70437419414520264
0.34173980355262756 0.36503061652183533 0.53073877096176147
0.53106820583343506 0.42212054133415222 0.61459946632385254
0.66193759441375732 0.45208775997161865 0.66316193342208862
0.75735688209533691 0.47793734073638916 0.68846780061721802
0.84653550386428833 0.51463109254837036 0.73326581716537476
0.90601187944412231 0.55235075950622559 0.75974422693252563
0.90627861022949219 0.59850162267684937 0.78366422653198242
0.4599628746509552 0.53781330585479736 0.64024895429611206
0.63073194026947021 0.59774374961853027 0.71417713165283203
0.74352717399597168 0.62701594829559326 0.75417542457580566
0.82139509916305542 0.65343540906906128 0.76529949903488159
0.87847423553466797 0.67728739976882935 0.77817052602767944
0.92306041717529297 0.70451927185058594 0.79586136341094971
0.91761714220046997 0.74600565433502197 0.83175206184387207
0.57104694843292236 0.68915396928787231 0.72630929946899414
0.69747769832611084 0.71983605623245239 0.75857508182525635
0.79270762205123901 0.74759411811828613 0.78293651342391968
0.86267966032028198 0.77405476570129395 0.80196696519851685
0.91118746995925903 0.79403442144393921 0.82073873281478882
0.9364084005355835 0.80741989612579346 0.83716970682144165
0.92515254020690918 0.83320611715316772 0.86231160163879395
0.66309922933578491 0.79156273603439331 0.76665312051773071
0.76263564825057983 0.81231999397277832 0.79613208770751953
0.8332594633102417 0.83545053005218506 0.82082951068878174
0.89905077219009399 0.86251592636108398 0.84695339202880859
0.93593579530715942 0.87027937173843384 0.8593524694442749
0.94960421323776245 0.8750496506690979 0.86495482921600342
0.9383552074432373 0.89449501037597656 0.88074600696563721
0.73448842763900757 0.85995346307754517 0.79447197914123535
0.80984663963317871 0.88476115465164185 0.82502567768096924
0.86668545007705688 0.89429301023483276 0.84712153673171997
0.91395038366317749 0.90608906745910645 0.8657374382019043
0.94273996353149414 0.90845406055450439 0.87563222646713257
0.9538576602935791 0.91668164730072021 0.87972158193588257
0.93841677904129028 0.92920017242431641 0.88623380661010742
0.79062372446060181 0.86419349908828735 0.83176100254058838
0.82922947406768799 0.86059510707855225 0.84811991453170776
0.87473982572555542 0.8647468090057373 0.85886979103088379
0.92186605930328369 0.86845225095748901 0.87325066328048706
0.95192104578018188 0.87627297639846802 0.88606315851211548
0.95871615409851074 0.86839240789413452 0.88571608066558838
0.93951690196990967 0.87332046031951904 0.88532686233520508
0.39973679184913635 0.28163057565689087 0.5540766716003418
0.48212525248527527 0.29442092776298523 0.58784455060958862
0.58971083164215088 0.29827633500099182 0.62422686815261841
0.702644944190979 0.32461488246917725 0.6710326075553894
0.8062862753868103 0.36292976140975952 0.73866009712219238
0.85832780599594116 0.39098811149597168 0.76689958572387695
0.85505670309066772 0.42187422513961792 0.78006935119628906
0.46385404467582703 0.4182344377040863 0.66635555028915405
0.57849174737930298 0.44671604037284851 0.72791796922683716
0.68711388111114502 0.47080144286155701 0.77779734134674072
0.77764999866485596 0.4957125186920166 0.7971423864364624
0.85932689905166626 0.53624731302261353 0.83315658569335938
0.8949277400970459 0.57396435737609863 0.83820372819900513
0.86617618799209595 0.59220308065414429 0.83301162719726562
0.57420921325683594 0.58879417181015015 0.77683353424072266
0.67408555746078491 0.61821508407592773 0.81568235158920288
0.75715279579162598 0.64109557867050171 0.8380659818649292
0.83521634340286255 0.66956800222396851 0.85266053676605225
0.89791381359100342 0.69741630554199219 0.86967158317565918
0.92033082246780396 0.71342200040817261 0.86752951145172119
0.88244974613189697 0.72267073392868042 0.87654328346252441
0.67086160182952881 0.72676819562911987 0.83404117822647095
0.73381602764129639 0.73841559886932373 0.84864777326583862
0.80600756406784058 0.7580152153968811 0.86213350296020508
0.87731826305389404 0.7827460765838623 0.87855440378189087
0.92146879434585571 0.80083644390106201 0.8872254490852356
0.93972486257553101 0.81549084186553955 0.89851504564285278
0.89408934116363525 0.81829440593719482 0.90733104944229126
0.74388867616653442 0.8242984414100647 0.86041784286499023
0.78881877660751343 0.83236020803451538 0.86842441558837891
0.84691476821899414 0.84838932752609253 0.88831824064254761
0.90574842691421509 0.86365634202957153 0.90246301889419556
0.94213485717773438 0.87495476007461548 0.91372382640838623
0.94880753755569458 0.87700408697128296 0.91550606489181519
0.92027807235717773 0.87949240207672119 0.91697508096694946
0.80167227983474731 0.88580912351608276 0.88077431917190552
0.82597595453262329 0.89637082815170288 0.88712120056152344
0.87114185094833374 0.90035361051559448 0.90105026960372925
0.91854524612426758 0.91215413808822632 0.91459590196609497
0.94393754005432129 0.92086267471313477 0.92183768749237061
0.95249933004379272 0.9191969633102417 0.92302197217941284
0.93252074718475342 0.92127084732055664 0.92462897300720215
0.83764404058456421 0.93249368667602539 0.90014135837554932
0.84397178888320923 0.9279857873916626 0.89432615041732788
0.88409531116485596 0.93723231554031372 0.9017910361289978
0.92178791761398315 0.94087040424346924 0.90925753116607666
0.94825494289398193 0.94550108909606934 0.91628670692443848
0.95184999704360962 0.95008325576782227 0.92101079225540161
0.92339092493057251 0.94529372453689575 0.91896039247512817
