assets/lut/others mono tinted.cube
# Created by: G'MIC (https://gmic.eu)
TITLE "mono_tinted"
# LUT size
LUT_3D_SIZE 13
# Data domain
DOMAIN_MIN 0.0 0.0 0.0
DOMAIN_MAX 1.0 1.0 1.0
# LUT data points
0.098639033734798431 0.027077065780758858 0.031916555017232895
0.12199410796165466 0.053205125033855438 0.055914562195539474
0.14533518254756927 0.079642787575721741 0.079866476356983185
0.17010615766048431 0.10628528892993927 0.10498251765966415
0.19588610529899597 0.1325404942035675 0.1303713321685791
0.22253496944904327 0.15714822709560394 0.15491315722465515
0.25089696049690247 0.17883345484733582 0.17573004961013794
0.28083914518356323 0.19722265005111694 0.19233718514442444
0.31217777729034424 0.21708795428276062 0.20952169597148895
0.34394243359565735 0.2391122430562973 0.22816233336925507
0.37559700012207031 0.26218807697296143 0.24817581474781036
0.40567713975906372 0.28522104024887085 0.26876738667488098
0.43302255868911743 0.30749991536140442 0.28839069604873657
0.14916999638080597 0.079677790403366089 0.082326553761959076
0.17103409767150879 0.1042160764336586 0.10326222330331802
0.19344086945056915 0.1288904994726181 0.123807393014431
0.21818307042121887 0.15413700044155121 0.14531345665454865
0.24451902508735657 0.17915786802768707 0.16730597615242004
0.27192577719688416 0.20339398086071014 0.18976648151874542
0.30169102549552917 0.22568964958190918 0.21105612814426422
0.33317381143569946 0.24661046266555786 0.23017913103103638
0.36657947301864624 0.26797771453857422 0.24895776808261871
0.40105554461479187 0.29089504480361938 0.26933321356773376
0.43496450781822205 0.31441548466682434 0.28985679149627686
0.46630164980888367 0.33761507272720337 0.30943605303764343
0.49477407336235046 0.36007457971572876 0.32976856827735901
0.19526059925556183 0.13161890208721161 0.1289181262254715
0.2175883948802948 0.1550811380147934 0.14814899861812592
0.24018797278404236 0.17845118045806885 0.16586777567863464
0.26497393846511841 0.20211099088191986 0.18393054604530334
0.29183456301689148 0.22569862008094788 0.20231977105140686
0.32127708196640015 0.24964223802089691 0.22243757545948029
0.35269388556480408 0.27343469858169556 0.24462617933750153
0.3861595094203949 0.29684868454933167 0.26601740717887878
0.42207914590835571 0.32051444053649902 0.28624293208122253
0.45909452438354492 0.34493151307106018 0.30850398540496826
0.494516521692276 0.36907008290290833 0.32856684923171997
0.52735263109207153 0.39233890175819397 0.34928157925605774
0.55632913112640381 0.41522505879402161 0.36954346299171448
0.23610042035579681 0.18311990797519684 0.17048192024230957
0.26037582755088806 0.206390380859375 0.1895773708820343
0.28457403182983398 0.22909455001354218 0.20669099688529968
0.31073758006095886 0.25200524926185608 0.2230398952960968
0.33936414122581482 0.27545344829559326 0.24016012251377106
0.37090310454368591 0.29977744817733765 0.25939318537712097
0.40487417578697205 0.32522180676460266 0.28107860684394836
0.44112482666969299 0.35089197754859924 0.30303516983985901
0.47948002815246582 0.3768012523651123 0.32463234663009644
0.5182182788848877 0.40240088105201721 0.34644415974617004
0.55505198240280151 0.4273679256439209 0.36728370189666748
0.58850854635238647 0.45173275470733643 0.38775777816772461
0.61850941181182861 0.4764426052570343 0.4080217182636261
0.27479839324951172 0.23646406829357147 0.20937894284725189
0.300882488489151 0.25971665978431702 0.22892378270626068
0.32754456996917725 0.28268682956695557 0.24616974592208862
0.35601130127906799 0.3056853711605072 0.26314780116081238
0.38706925511360168 0.32958868145942688 0.28094154596328735
0.42109158635139465 0.35526803135871887 0.30020877718925476
0.45806539058685303 0.38251066207885742 0.32075205445289612
0.49733275175094604 0.41032624244689941 0.34273412823677063
0.53766405582427979 0.4377291202545166 0.36328771710395813
0.57744187116622925 0.46400278806686401 0.38420936465263367
0.61537027359008789 0.48950597643852234 0.40462318062782288
0.64998793601989746 0.51578634977340698 0.42510303854942322
0.68104404211044312 0.54287117719650269 0.44598367810249329
0.31314721703529358 0.29264587163925171 0.24701224267482758
0.3412933349609375 0.3167051374912262 0.26683512330055237
0.37065905332565308 0.34051781892776489 0.28533536195755005
0.40178149938583374 0.36462366580963135 0.30338206887245178
0.43549883365631104 0.38949564099311829 0.32236939668655396
0.47248414158821106 0.41671115159988403 0.34242576360702515
0.51261246204376221 0.44623741507530212 0.36286365985870361
0.55444830656051636 0.4759143590927124 0.38327333331108093
0.59665167331695557 0.5043480396270752 0.40347164869308472
0.6375882625579834 0.53122735023498535 0.42304030060768127
0.67581337690353394 0.55719906091690063 0.44204422831535339
0.71184611320495605 0.58521032333374023 0.46199837327003479
0.74379181861877441 0.61461567878723145 0.48344933986663818
0.3534122109413147 0.35310176014900208 0.2839239239692688
0.38356083631515503 0.37803009152412415 0.30470031499862671
0.41519898176193237 0.4033660888671875 0.32401734590530396
0.44914275407791138 0.42931267619132996 0.343790203332901
0.48571097850799561 0.45635172724723816 0.36349552869796753
0.52564549446105957 0.4856109619140625 0.38488763570785522
0.56874841451644897 0.51713371276855469 0.40581899881362915
0.6131892204284668 0.54816943407058716 0.42621287703514099
0.6573188304901123 0.57780635356903076 0.44576284289360046
0.69958591461181641 0.60561907291412354 0.46437257528305054
0.73915010690689087 0.63288694620132446 0.48218142986297607
0.77567505836486816 0.66209328174591064 0.50104331970214844
0.80699068307876587 0.69163161516189575 0.52193325757980347
0.39616715908050537 0.41702947020530701 0.32079151272773743
0.42782929539680481 0.44357955455780029 0.3408082127571106
0.46164131164550781 0.47082975506782532 0.36208942532539368
0.49836355447769165 0.49964717030525208 0.38257458806037903
0.53801703453063965 0.52987325191497803 0.40466201305389404
0.580771803855896 0.56135004758834839 0.42714992165565491
0.6263200044631958 0.59408020973205566 0.44911336898803711
0.67340832948684692 0.62629121541976929 0.4701082706451416
0.71967166662216187 0.65697944164276123 0.49008327722549438
0.76372611522674561 0.68651032447814941 0.50894153118133545
0.80444896221160889 0.71584242582321167 0.52633923292160034
0.84022647142410278 0.74484622478485107 0.54357898235321045
0.86864501237869263 0.77196639776229858 0.56285208463668823
0.44038325548171997 0.48371168971061707 0.35955727100372314
0.47418075799942017 0.51217925548553467 0.37947872281074524
0.51027011871337891 0.5418742299079895 0.4007270336151123
0.549541175365448 0.57337754964828491 0.42195022106170654
0.59208494424819946 0.60640007257461548 0.4456673264503479
0.63699203729629517 0.64003801345825195 0.46960091590881348
0.68438678979873657 0.67342323064804077 0.4924505352973938
0.7337912917137146 0.70606702566146851 0.51408916711807251
0.7820974588394165 0.73752635717391968 0.535439133644104
0.82708388566970825 0.76830834150314331 0.5558769702911377
0.86697226762771606 0.79887920618057251 0.57358431816101074
0.90012627840042114 0.82733875513076782 0.58989143371582031
0.92411673069000244 0.85096216201782227 0.60806334018707275
0.48593536019325256 0.55202531814575195 0.39978787302970886
0.52216148376464844 0.58296316862106323 0.42032086849212646
0.56056922674179077 0.6147845983505249 0.44064834713935852
0.60271519422531128 0.64823728799819946 0.46266341209411621
0.64744752645492554 0.68278604745864868 0.48716491460800171
0.69381064176559448 0.71689742803573608 0.51160347461700439
0.74217009544372559 0.75003451108932495 0.5343468189239502
0.79251086711883545 0.78195303678512573 0.55580407381057739
0.84097385406494141 0.81326842308044434 0.57803136110305786
0.8843340277671814 0.84441936016082764 0.60048019886016846
0.92108267545700073 0.8748244047164917 0.62071520090103149
0.94931989908218384 0.90200746059417725 0.63929325342178345
0.96785974502563477 0.92242592573165894 0.65903812646865845
0.53066235780715942 0.61998218297958374 0.44032201170921326
0.56954431533813477 0.65317857265472412 0.46138030290603638
0.61111724376678467 0.68672066926956177 0.48210358619689941
0.65609902143478394 0.72095406055450439 0.50452655553817749
0.7030484676361084 0.75489276647567749 0.52840757369995117
0.75077074766159058 0.78766095638275146 0.55217373371124268
0.79932540655136108 0.81889140605926514 0.57359063625335693
0.84809017181396484 0.8484959602355957 0.59324586391448975
0.8931083083152771 0.87809920310974121 0.61534076929092407
0.93111974000930786 0.90728455781936646 0.6402011513710022
0.9610639214515686 0.93457061052322388 0.66441619396209717
0.98269963264465332 0.95796728134155273 0.68743032217025757
0.99504905939102173 0.97514677047729492 0.70977485179901123
0.57157814502716064 0.68581587076187134 0.48116192221641541
0.6134713888168335 0.72019922733306885 0.50312536954879761
0.65886950492858887 0.75376653671264648 0.52424788475036621
0.70710724592208862 0.7870299220085144 0.54594212770462036
0.75625014305114746 0.81906580924987793 0.5686333179473877
0.80495506525039673 0.8492547869682312 0.59105974435806274
0.85277408361434937 0.87730503082275391 0.61129432916641235
0.89820075035095215 0.90350383520126343 0.6291843056678772
0.93722665309906006 0.9290955662727356 0.65078645944595337
0.96714931726455688 0.95403307676315308 0.67833149433135986
0.98745763301849365 0.97501790523529053 0.70532405376434326
0.99835079908370972 0.99077397584915161 0.73025798797607422
1 0.99869513511657715 0.75333243608474731
0.60826981067657471 0.74668806791305542 0.52191460132598877
0.6532905101776123 0.78092801570892334 0.54452347755432129
0.70212841033935547 0.81329941749572754 0.56577903032302856
0.75293546915054321 0.84433937072753906 0.58687561750411987
0.80374282598495483 0.87375223636627197 0.60815060138702393
0.85257047414779663 0.90069675445556641 0.62953835725784302
0.898948073387146 0.92583310604095459 0.65035194158554077
0.94139599800109863 0.94941043853759766 0.67079782485961914
0.97418928146362305 0.97044873237609863 0.69356966018676758
0.99308979511260986 0.98774725198745728 0.71956539154052734
0.999420166015625 0.99747174978256226 0.74531257152557373
1 0.99997431039810181 0.76920676231384277
1 1 0.79122793674468994
0.10992470383644104 0.03717663511633873 0.042443577200174332
0.13303357362747192 0.063660837709903717 0.0671500563621521
0.1566929966211319 0.090438216924667358 0.092375002801418304
0.18190173804759979 0.11724375933408737 0.11840612441301346
0.20760366320610046 0.14269796013832092 0.14370046555995941
0.23371176421642303 0.1657877117395401 0.16725482046604156
0.2612699568271637 0.18648365139961243 0.18792060017585754
0.29084202647209167 0.20601946115493774 0.20638979971408844
0.32239538431167603 0.22660860419273376 0.22460484504699707
0.35537570714950562 0.24916107952594757 0.24414007365703583
0.38811138272285461 0.27274900674819946 0.26488730311393738
0.4191315770149231 0.29590189456939697 0.28611463308334351
0.44734653830528259 0.31786033511161804 0.30712723731994629
0.15830327570438385 0.088639549911022186 0.092255428433418274
0.18046395480632782 0.11362779140472412 0.11424406617879868
0.20341703295707703 0.13879173994064331 0.13637697696685791
0.22862920165061951 0.1640906035900116 0.15917794406414032
0.25509840250015259 0.18873134255409241 0.18154874444007874
0.28276935219764709 0.21197977662086487 0.20360350608825684
0.31180620193481445 0.23384621739387512 0.22508032619953156
0.34320256114006042 0.25500667095184326 0.24498924612998962
0.37718039751052856 0.27720105648040771 0.26501274108886719
0.41295689344406128 0.30120927095413208 0.28588110208511353
0.44793453812599182 0.32538112998008728 0.30768722295761108
0.48058339953422546 0.34881928563117981 0.32912197709083557
0.50969541072845459 0.37149149179458618 0.35052162408828735
0.20331452786922455 0.13995656371116638 0.1393250972032547
0.22609388828277588 0.16385188698768616 0.15983399748802185
0.24918507039546967 0.18770654499530792 0.17907381057739258
0.27439174056053162 0.21165776252746582 0.19833788275718689
0.30183246731758118 0.23509980738162994 0.21705524623394012
0.3315507173538208 0.25856956839561462 0.23784472048282623
0.36282360553741455 0.28219872713088989 0.26019880175590515
0.39662045240402222 0.30577409267425537 0.28223240375518799
0.43330758810043335 0.33028310537338257 0.30438333749771118
0.47194206714630127 0.35588151216506958 0.32677003741264343
0.50885933637619019 0.38070538640022278 0.34872633218765259
0.54230618476867676 0.40442007780075073 0.37099874019622803
0.57214885950088501 0.42782646417617798 0.39197626709938049
0.24472947418689728 0.19162499904632568 0.18270611763000488
0.26880577206611633 0.21501056849956512 0.20253449678421021
0.29322636127471924 0.23821620643138885 0.22063897550106049
0.31972572207450867 0.26150825619697571 0.23828776180744171
0.34888052940368652 0.28505876660346985 0.25559493899345398
0.38073036074638367 0.30938446521759033 0.27567115426063538
0.41514623165130615 0.33484998345375061 0.29811516404151917
0.45224985480308533 0.36097562313079834 0.32096049189567566
0.4918425977230072 0.3876643180847168 0.34406942129135132
0.53257083892822266 0.41471356153488159 0.36736392974853516
0.57067251205444336 0.44036015868186951 0.3898891806602478
0.60462337732315063 0.46482086181640625 0.41127580404281616
0.63484889268875122 0.48936158418655396 0.43284007906913757
0.28390377759933472 0.24516135454177856 0.22300511598587036
0.30969339609146118 0.26867884397506714 0.24274097383022308
0.33623209595680237 0.2920072078704834 0.26116704940795898
0.36508190631866455 0.3155980110168457 0.27898570895195007
0.39660972356796265 0.33998093008995056 0.29761508107185364
0.43125700950622559 0.36579641699790955 0.31763064861297607
0.46890702843666077 0.39315420389175415 0.3392740786075592
0.50914758443832397 0.42127668857574463 0.36179694533348083
0.55097812414169312 0.44951999187469482 0.3844333291053772
0.59285718202590942 0.47739681601524353 0.40717145800590515
0.6317865252494812 0.50385886430740356 0.42938065528869629
0.66654348373413086 0.52964401245117188 0.45079562067985535
0.69757896661758423 0.55642503499984741 0.47262784838676453
0.3226122260093689 0.30210870504379272 0.26185467839241028
0.3504662811756134 0.32613807916641235 0.28203710913658142
0.3795546293258667 0.35033068060874939 0.30125647783279419
0.41117584705352783 0.3751777708530426 0.32042494416236877
0.44558283686637878 0.40104579925537109 0.34009939432144165
0.48333355784416199 0.42877647280693054 0.36092385649681091
0.52412301301956177 0.45814484357833862 0.38240706920623779
0.56688207387924194 0.48797321319580078 0.40421572327613831
0.61042994260787964 0.51705271005630493 0.42592546343803406
0.65268087387084961 0.54475677013397217 0.44712188839912415
0.69215673208236694 0.57165247201919556 0.4679606556892395
0.72834873199462891 0.59963482618331909 0.48942282795906067
0.76030963659286499 0.62864792346954346 0.511757493019104
0.36283078789710999 0.36309263110160828 0.3008178174495697
0.39225593209266663 0.38803011178970337 0.32072880864143372
0.42404133081436157 0.41378515958786011 0.34007903933525085
0.45869320631027222 0.44079145789146423 0.36124905943870544
0.49639591574668884 0.46908056735992432 0.38295608758926392
0.53738617897033691 0.49917834997177124 0.40493062138557434
0.58138757944107056 0.53046911954879761 0.42706936597824097
0.62632173299789429 0.56164509057998657 0.44863054156303406
0.67126268148422241 0.5914536714553833 0.46936830878257751
0.71432334184646606 0.6195838451385498 0.48923441767692566
0.75483024120330811 0.64734137058258057 0.50899875164031982
0.79173082113265991 0.67639988660812378 0.52920210361480713
0.82308113574981689 0.7057802677154541 0.55107921361923218
0.40490853786468506 0.42762923240661621 0.34010285139083862
0.43615236878395081 0.4541231095790863 0.35991480946540833
0.4705004096031189 0.48203784227371216 0.38090401887893677
0.50816404819488525 0.51189726591110229 0.40244567394256592
0.54935777187347412 0.54341971874237061 0.42583486437797546
0.59337025880813599 0.57599234580993652 0.44977211952209473
0.63997012376785278 0.60898232460021973 0.4729556143283844
0.68751603364944458 0.64132475852966309 0.49488270282745361
0.73410248756408691 0.6719474196434021 0.51559603214263916
0.77796143293380737 0.7010917067527771 0.53502970933914185
0.81888729333877563 0.72984331846237183 0.55373090505599976
0.85493177175521851 0.758461594581604 0.57202017307281494
0.88371443748474121 0.78579616546630859 0.59225773811340332
0.44892123341560364 0.49540242552757263 0.38185420632362366
0.48197835683822632 0.52361851930618286 0.40192288160324097
0.51852500438690186 0.55374598503112793 0.4215528666973114
0.55964577198028564 0.58670413494110107 0.44395002722740173
0.60414499044418335 0.62139379978179932 0.46932277083396912
0.65089267492294312 0.65606164932250977 0.49509707093238831
0.69940042495727539 0.68993985652923584 0.51953983306884766
0.74930500984191895 0.72297662496566772 0.54205673933029175
0.79748916625976562 0.75446861982345581 0.56360828876495361
0.84162122011184692 0.78442192077636719 0.58354312181472778
0.88062590360641479 0.81331139802932739 0.60231286287307739
0.9128725528717041 0.84036576747894287 0.61937016248703003
0.93684154748916626 0.86373567581176758 0.63765668869018555
0.49457442760467529 0.56485480070114136 0.42355126142501831
0.53010034561157227 0.59572285413742065 0.44363424181938171
0.56957608461380005 0.62821650505065918 0.46364918351173401
0.61358946561813354 0.66328626871109009 0.48699706792831421
0.6603696346282959 0.6993444561958313 0.51378136873245239
0.70856255292892456 0.73451137542724609 0.54071664810180664
0.75842201709747314 0.76811319589614868 0.56541472673416138
0.80900996923446655 0.80057275295257568 0.58778935670852661
0.85718816518783569 0.83204251527786255 0.60990393161773682
0.89914405345916748 0.86143475770950317 0.63187122344970703
0.93305677175521851 0.8885994553565979 0.65202087163925171
0.95909744501113892 0.91296255588531494 0.67084038257598877
0.97634518146514893 0.93256551027297974 0.69026124477386475
0.54011827707290649 0.63402348756790161 0.46559885144233704
0.57896167039871216 0.66739165782928467 0.48669019341468811
0.62201005220413208 0.70201557874679565 0.50790029764175415
0.66869646310806274 0.73760676383972168 0.53162765502929688
0.71686846017837524 0.77261686325073242 0.55810481309890747
0.76552098989486694 0.80596268177032471 0.58488005399703979
0.81492018699645996 0.83749377727508545 0.60913515090942383
0.86413508653640747 0.8673585057258606 0.62961065769195557
0.90899300575256348 0.89649641513824463 0.65152192115783691
0.94506579637527466 0.92324644327163696 0.67562192678451538
0.97117769718170166 0.94596332311630249 0.69862598180770874
0.98887425661087036 0.96509242057800293 0.72050637006759644
0.99776023626327515 0.98006671667098999 0.74192863702774048
0.58291506767272949 0.70033127069473267 0.50741446018218994
0.62541460990905762 0.73474466800689697 0.52973645925521851
0.67171788215637207 0.76935994625091553 0.55182433128356934
0.72082436084747314 0.8034360408782959 0.57514309883117676
0.77044892311096191 0.83570176362991333 0.60011613368988037
0.81914240121841431 0.86581945419311523 0.62507957220077515
0.86702990531921387 0.89394497871398926 0.64815455675125122
0.91230899095535278 0.92011725902557373 0.66774654388427734
0.95064431428909302 0.94459855556488037 0.68960154056549072
0.97805154323577881 0.96569681167602539 0.71564310789108276
0.9942241907119751 0.9814942479133606 0.74080848693847656
0.99968552589416504 0.99243485927581787 0.76415300369262695
1 0.99882560968399048 0.78571087121963501
0.62221014499664307 0.76103687286376953 0.54914957284927368
0.66753274202346802 0.79510259628295898 0.57239830493927002
0.71646958589553833 0.82766592502593994 0.59457015991210938
0.76730728149414062 0.85882371664047241 0.61708527803421021
0.81781059503555298 0.88768154382705688 0.64000189304351807
0.86604684591293335 0.91361433267593384 0.66276025772094727
0.9117998480796814 0.93799233436584473 0.68448489904403687
0.95245802402496338 0.96094727516174316 0.70721399784088135
0.98340499401092529 0.98015087842941284 0.73045921325683594
0.99780315160751343 0.99314242601394653 0.75588423013687134
0.99999821186065674 0.99857336282730103 0.78036189079284668
1 0.99995261430740356 0.80280858278274536
1 1 0.82328659296035767
0.11984384804964066 0.047167342156171799 0.050889573991298676
0.14337083697319031 0.074103578925132751 0.077049076557159424
0.16785703599452972 0.10113363713026047 0.10400573164224625
0.19345346093177795 0.12803901731967926 0.13142049312591553
0.21907439827919006 0.15252909064292908 0.15712739527225494
0.24435468018054962 0.17407037317752838 0.17982366681098938
0.27117082476615906 0.1940189003944397 0.20028561353683472
0.30044364929199219 0.21394307911396027 0.21937841176986694
0.33215251564979553 0.23527589440345764 0.23856629431247711
0.36568742990493774 0.25847533345222473 0.25882065296173096
0.39937737584114075 0.28241881728172302 0.27992609143257141
0.43118521571159363 0.30550196766853333 0.3019198477268219
0.46026170253753662 0.32699528336524963 0.32400500774383545
0.16614986956119537 0.097513742744922638 0.10051722824573517
0.18936772644519806 0.12323042750358582 0.12448422610759735
0.21328422427177429 0.14893211424350739 0.14893944561481476
0.23902931809425354 0.1746029257774353 0.17358513176441193
0.26555851101875305 0.19854943454265594 0.19708855450153351
0.29313120245933533 0.22073908150196075 0.21905560791492462
0.32198506593704224 0.24188907444477081 0.2398969829082489
0.35355275869369507 0.26334381103515625 0.25999289751052856
0.38801893591880798 0.28621920943260193 0.28065526485443115
0.42426648736000061 0.31070205569267273 0.3020947277545929
0.45995354652404785 0.33529278635978699 0.32439407706260681
0.4932543933391571 0.3589094877243042 0.34701830148696899
0.52318680286407471 0.38153943419456482 0.36950138211250305
0.21005047857761383 0.14840701222419739 0.14839914441108704
0.23361006379127502 0.17299944162368774 0.17066697776317596
0.25765761733055115 0.19760330021381378 0.19252534210681915
0.28373274207115173 0.22187228500843048 0.21453648805618286
0.31173723936080933 0.24545969069004059 0.23564393818378448
0.34153938293457031 0.26838827133178711 0.25583800673484802
0.37318617105484009 0.29142540693283081 0.27818974852561951
0.40777188539505005 0.31516778469085693 0.29952716827392578
0.44521737098693848 0.34035664796829224 0.32190132141113281
0.48431259393692017 0.36619073152542114 0.34509015083312988
0.52179586887359619 0.39157626032829285 0.36831015348434448
0.5558897852897644 0.4155241847038269 0.39131966233253479
0.58621776103973389 0.43919900059700012 0.41399094462394714
0.2518252432346344 0.20012719929218292 0.19381792843341827
0.27619767189025879 0.22426457703113556 0.21488700807094574
0.30138781666755676 0.24819736182689667 0.23499186336994171
0.32870027422904968 0.27199861407279968 0.25490495562553406
0.35837489366531372 0.29582953453063965 0.27432098984718323
0.39078974723815918 0.32012435793876648 0.2953285276889801
0.42583632469177246 0.3452126681804657 0.31723353266716003
0.46368080377578735 0.37142461538314819 0.34014201164245605
0.50424873828887939 0.39868640899658203 0.36373665928840637
0.54586207866668701 0.42638450860977173 0.38798877596855164
0.58463543653488159 0.45260849595069885 0.41207486391067505
0.61873209476470947 0.47713539004325867 0.43498346209526062
0.64947605133056641 0.50190293788909912 0.45773297548294067
0.29193508625030518 0.25435104966163635 0.23627595603466034
0.31776213645935059 0.27839756011962891 0.25700563192367554
0.34482091665267944 0.30235391855239868 0.27684277296066284
0.37413498759269714 0.32659000158309937 0.29647326469421387
0.40637886524200439 0.35148325562477112 0.31645715236663818
0.44172382354736328 0.37747651338577271 0.33713117241859436
0.47994068264961243 0.40459981560707092 0.35915836691856384
0.52086830139160156 0.43270787596702576 0.38224232196807861
0.56378871202468872 0.46151697635650635 0.4060567319393158
0.60680508613586426 0.49031752347946167 0.43065902590751648
0.64643794298171997 0.51746928691864014 0.45439553260803223
