assets/lut/others instantc.cube
# Created by: G'MIC (https://gmic.eu)
TITLE "instantc"
# LUT size
LUT_3D_SIZE 13
# Data domain
DOMAIN_MIN 0.0 0.0 0.0
DOMAIN_MAX 1.0 1.0 1.0
# LUT data points
0.039873011410236359 0.04618135467171669 0.047418408095836639
0.054389625787734985 0.044739127159118652 0.042130474001169205
0.077874414622783661 0.042446661740541458 0.034412384033203125
0.12263853847980499 0.043821536004543304 0.029506264254450798
0.17278523743152618 0.046131867915391922 0.026589831337332726
0.22030839323997498 0.048480208963155746 0.024666760116815567
0.26238259673118591 0.048824042081832886 0.022042158991098404
0.28485244512557983 0.048678766936063766 0.021996293216943741
0.29776614904403687 0.04765382781624794 0.021803911775350571
0.31096139550209045 0.044401265680789948 0.019432950764894485
0.33674237132072449 0.038715600967407227 0.016673577949404716
0.35811838507652283 0.034288845956325531 0.015686275437474251
0.36771935224533081 0.033192623406648636 0.015686275437474251
0.035597316920757294 0.053345128893852234 0.04666576161980629
0.050260178744792938 0.055001664906740189 0.043685268610715866
0.078594297170639038 0.054498471319675446 0.037690419703722
0.12989692389965057 0.055851820856332779 0.031810760498046875
0.19850599765777588 0.061830572783946991 0.027389826253056526
0.268414705991745 0.063810892403125763 0.023107461631298065
0.32576987147331238 0.064943514764308929 0.020071739330887794
0.36834979057312012 0.0637473464012146 0.018456073477864265
0.3901306688785553 0.0600445456802845 0.017538182437419891
0.40594175457954407 0.054796736687421799 0.015982802957296371
0.43278247117996216 0.048676792532205582 0.015713740140199661
0.45395204424858093 0.043388590216636658 0.015686275437474251
0.46239760518074036 0.040886957198381424 0.017010064795613289
0.030433265492320061 0.061876453459262848 0.04510803148150444
0.045276209712028503 0.065869033336639404 0.043534372001886368
0.076024256646633148 0.06825573742389679 0.039639268070459366
0.12880825996398926 0.0717330202460289 0.033897504210472107
0.20788970589637756 0.084987640380859375 0.029007811099290848
0.29177498817443848 0.091952979564666748 0.024337559938430786
0.36282074451446533 0.092518463730812073 0.020535217598080635
0.41869896650314331 0.087261021137237549 0.017884587869048119
0.45779988169670105 0.078994810581207275 0.015697943046689034
0.4882965087890625 0.069561317563056946 0.014326043426990509
0.5162729024887085 0.062769092619419098 0.015686275437474251
0.54518944025039673 0.056998789310455322 0.016397124156355858
0.55587291717529297 0.050539173185825348 0.019463513046503067
0.030178219079971313 0.085523806512355804 0.047323621809482574
0.043925177305936813 0.090291760861873627 0.046221952885389328
0.080092407763004303 0.098981879651546478 0.044197127223014832
0.13484320044517517 0.10752147436141968 0.039881300181150436
0.21233475208282471 0.11934451013803482 0.033541496843099594
0.30908048152923584 0.13092055916786194 0.027979802340269089
0.39177697896957397 0.1289505809545517 0.022144017741084099
0.45152610540390015 0.11766231805086136 0.01889648474752903
0.50097906589508057 0.10487907379865646 0.015879897400736809
0.53589367866516113 0.092096410691738129 0.015675369650125504
0.56631648540496826 0.080351091921329498 0.016472475603222847
0.59403038024902344 0.073596060276031494 0.019519716501235962
0.60880893468856812 0.068839654326438904 0.021787844598293304
0.039391983300447464 0.12511424720287323 0.052785221487283707
0.057092688977718353 0.13310949504375458 0.05108928307890892
0.090999051928520203 0.14299723505973816 0.050985686480998993
0.14033165574073792 0.15214048326015472 0.048884835094213486
0.21516163647174835 0.16545052826404572 0.043533969670534134
0.31654137372970581 0.17749249935150146 0.035120557993650436
0.41917049884796143 0.17896315455436707 0.026357479393482208
0.49395507574081421 0.16364215314388275 0.020375913009047508
0.53828078508377075 0.13990142941474915 0.016696421429514885
0.57496041059494019 0.12187357991933823 0.016470920294523239
0.60433530807495117 0.10515527427196503 0.019119083881378174
0.62821000814437866 0.095611780881881714 0.021745061501860619
0.64615875482559204 0.091059185564517975 0.024498598650097847
0.072648189961910248 0.181290403008461 0.056601952761411667
0.096297606825828552 0.19253069162368774 0.056317050009965897
0.13011062145233154 0.2034841775894165 0.055517442524433136
0.16644585132598877 0.21038694679737091 0.054649412631988525
0.22962950170040131 0.21975474059581757 0.050712645053863525
0.31888768076896667 0.2315700352191925 0.044854871928691864
0.44043990969657898 0.23542936146259308 0.031795263290405273
0.53961586952209473 0.22620123624801636 0.023329252377152443
0.59434521198272705 0.20256622135639191 0.021423878148198128
0.62666839361190796 0.17491056025028229 0.020874831825494766
0.64592975378036499 0.14956077933311462 0.022197529673576355
0.66834777593612671 0.13822354376316071 0.02619597502052784
0.68433421850204468 0.12885087728500366 0.028612099587917328
0.15208779275417328 0.26309269666671753 0.056378681212663651
0.17638996243476868 0.27144172787666321 0.057440903037786484
0.22155234217643738 0.28735217452049255 0.053429443389177322
0.24989581108093262 0.29421272873878479 0.051037553697824478
0.28214612603187561 0.29687196016311646 0.050714023411273956
0.34360137581825256 0.3014824390411377 0.049468096345663071
0.45623430609703064 0.31250089406967163 0.041099995374679565
0.56347173452377319 0.31106358766555786 0.03297259658575058
0.64163577556610107 0.29506182670593262 0.028363965451717377
0.68609911203384399 0.26718086004257202 0.028175054118037224
0.70993149280548096 0.23873332142829895 0.030188795179128647
0.72614055871963501 0.21504135429859161 0.033611729741096497
0.73660904169082642 0.20112702250480652 0.034550834447145462
0.31306082010269165 0.37539798021316528 0.049527410417795181
0.32801368832588196 0.37820404767990112 0.049186646938323975
0.36284631490707397 0.38973608613014221 0.047006044536828995
0.37901079654693604 0.39485430717468262 0.045468512922525406
0.39162412285804749 0.39426851272583008 0.046068679541349411
0.41701397299766541 0.39028728008270264 0.046744208782911301
0.4913451075553894 0.39334547519683838 0.045540258288383484
0.58657443523406982 0.39472535252571106 0.041235186159610748
0.67376798391342163 0.38694795966148376 0.036534760147333145
0.73847907781600952 0.36981329321861267 0.036352075636386871
0.77227652072906494 0.34745687246322632 0.039921481162309647
0.78487366437911987 0.32251521944999695 0.043551530689001083
0.79449158906936646 0.30294966697692871 0.044132620096206665
0.48108890652656555 0.48265314102172852 0.043243948370218277
0.49245882034301758 0.48546651005744934 0.043622363358736038
0.50737106800079346 0.49203106760978699 0.043777018785476685
0.51439929008483887 0.48957931995391846 0.042027909308671951
0.51090312004089355 0.48516619205474854 0.041424620896577835
0.51459747552871704 0.47451674938201904 0.043262794613838196
0.54724889993667603 0.46680048108100891 0.046761665493249893
0.61813563108444214 0.46709951758384705 0.045856595039367676
0.69968122243881226 0.46523392200469971 0.044807944446802139
0.76828163862228394 0.45400941371917725 0.044175166636705399
0.81327700614929199 0.44309318065643311 0.047878984361886978
0.83611786365509033 0.42987999320030212 0.054154727607965469
0.84905070066452026 0.40910047292709351 0.054864682257175446
0.63195794820785522 0.5915224552154541 0.045933697372674942
0.63989460468292236 0.59061503410339355 0.046327970921993256
0.64438021183013916 0.59169137477874756 0.046783432364463806
0.63218659162521362 0.57990735769271851 0.045030601322650909
0.62052792310714722 0.57260650396347046 0.043915826827287674
0.60948485136032104 0.55927681922912598 0.044023208320140839
0.62629133462905884 0.54885268211364746 0.048156917095184326
0.6710357666015625 0.54434299468994141 0.051042936742305756
0.73660773038864136 0.54100781679153442 0.051216680556535721
0.79908591508865356 0.53570210933685303 0.054069846868515015
0.85107457637786865 0.5329749584197998 0.060317214578390121
0.88250124454498291 0.52841043472290039 0.066556565463542938
0.89471518993377686 0.51901251077651978 0.070792868733406067
0.76321697235107422 0.69213032722473145 0.06068522110581398
0.76593458652496338 0.68834841251373291 0.059559211134910583
0.76296412944793701 0.68339967727661133 0.059495095163583755
0.74991464614868164 0.6723293662071228 0.056090380996465683
0.7261844277381897 0.65970265865325928 0.052809201180934906
0.7125200629234314 0.6471712589263916 0.052042119204998016
0.72194927930831909 0.63789284229278564 0.057085223495960236
0.75883716344833374 0.63547670841217041 0.064544022083282471
0.80800867080688477 0.63211381435394287 0.067008957266807556
0.85086005926132202 0.62491291761398315 0.070218868553638458
0.88541227579116821 0.61896723508834839 0.07642529159784317
0.91585612297058105 0.62075221538543701 0.085504435002803802
0.93039864301681519 0.61724478006362915 0.091914653778076172
0.86583280563354492 0.7707403302192688 0.084831103682518005
0.86485463380813599 0.76792865991592407 0.083306975662708282
0.8649982213973999 0.76299941539764404 0.081543877720832825
0.85360455513000488 0.75553393363952637 0.078583844006061554
0.83522015810012817 0.74547314643859863 0.073068566620349884
0.81408554315567017 0.72995221614837646 0.068218410015106201
0.82165676355361938 0.72171318531036377 0.073087818920612335
0.84660059213638306 0.71860885620117188 0.078995406627655029
0.87749338150024414 0.71664458513259888 0.083113230764865875
0.90496355295181274 0.71305125951766968 0.09062996506690979
0.92665958404541016 0.7075161337852478 0.098217204213142395
0.94538414478302002 0.70388054847717285 0.10693865269422531
0.95749330520629883 0.69750398397445679 0.11415946483612061
0.92780905961990356 0.82380396127700806 0.11585289239883423
0.92610138654708862 0.82151299715042114 0.1112065315246582
0.92170631885528564 0.81505239009857178 0.10766804963350296
0.9150395393371582 0.80994480848312378 0.10385776311159134
0.90138673782348633 0.80018705129623413 0.096435666084289551
0.88863927125930786 0.79002809524536133 0.093014687299728394
0.88695859909057617 0.78170692920684814 0.09196026623249054
0.90437281131744385 0.7800489068031311 0.098467819392681122
0.92219114303588867 0.77747553586959839 0.1039820984005928
0.93903279304504395 0.77596217393875122 0.1114337220788002
0.95371341705322266 0.7711445689201355 0.11945243924856186
0.96609258651733398 0.76867842674255371 0.12859621644020081
0.97440379858016968 0.76483851671218872 0.1348525732755661
0.035138193517923355 0.043813429772853851 0.052134331315755844
0.042392011731863022 0.04263744130730629 0.049172703176736832
0.071245245635509491 0.043933328241109848 0.046785078942775726
0.11322349309921265 0.045948673039674759 0.045415300875902176
0.16117803752422333 0.049059264361858368 0.04332338273525238
0.20008644461631775 0.051468480378389359 0.042073868215084076
0.24392519891262054 0.051630672067403793 0.041518807411193848
0.26715224981307983 0.050926089286804199 0.03941693902015686
0.28190097212791443 0.049320835620164871 0.035360958427190781
0.29930004477500916 0.044515106827020645 0.029397044330835342
0.32249534130096436 0.038831315934658051 0.022903621196746826
0.3450738787651062 0.033933542668819427 0.018480204045772552
0.35785704851150513 0.03182157501578331 0.016709376126527786
0.028781486675143242 0.051814030855894089 0.05528673529624939
0.039596214890480042 0.055169571191072464 0.054737646132707596
0.073265805840492249 0.057289991527795792 0.051326151937246323
0.12622532248497009 0.060524240136146545 0.046507291495800018
0.18735021352767944 0.064447112381458282 0.041837863624095917
0.24603655934333801 0.067127138376235962 0.038282163441181183
0.30541238188743591 0.069205567240715027 0.037147104740142822
0.3528168797492981 0.068277351558208466 0.034089900553226471
0.37712034583091736 0.064583688974380493 0.030137559399008751
0.39457720518112183 0.057484198361635208 0.026926467195153236
0.42200255393981934 0.049325577914714813 0.021850630640983582
0.4455808699131012 0.041950061917304993 0.017835324630141258
0.45452761650085449 0.0396462082862854 0.019032377749681473
0.023901442065834999 0.06192634254693985 0.056222565472126007
0.038602448999881744 0.069522276520729065 0.057247623801231384
0.076258502900600433 0.07446742057800293 0.054651927202939987
0.13014309108257294 0.079108282923698425 0.049140077084302902
0.20330028235912323 0.089129790663719177 0.043903723359107971
0.27983811497688293 0.096201591193675995 0.03894379734992981
0.34936416149139404 0.096285544335842133 0.034816667437553406
0.41221079230308533 0.091095417737960815 0.02827657014131546
0.45724925398826599 0.082763671875 0.024025905877351761
0.4877077043056488 0.073078051209449768 0.022085661068558693
0.51723575592041016 0.064140245318412781 0.02005157433450222
0.53790843486785889 0.055292464792728424 0.02008330449461937
0.55106300115585327 0.048916477710008621 0.019699964672327042
0.025530526414513588 0.087790578603744507 0.060101766139268875
0.039892684668302536 0.092629514634609222 0.059772670269012451
0.08512713760137558 0.10776866972446442 0.05862058699131012
0.14303761720657349 0.11614719778299332 0.054545413702726364
0.22036954760551453 0.12679317593574524 0.048626799136400223
0.31024786829948425 0.13578487932682037 0.041241291910409927
0.39275640249252319 0.13475656509399414 0.034223251044750214
0.46135097742080688 0.12583649158477783 0.026464678347110748
0.51530903577804565 0.11192860454320908 0.022100381553173065
0.55412566661834717 0.097027435898780823 0.019612645730376244
0.58546906709671021 0.084109887480735779 0.020225943997502327
0.60634541511535645 0.074131906032562256 0.022484200075268745
0.62043720483779907 0.066736675798892975 0.023252405226230621
0.030373726040124893 0.12528181076049805 0.06340770423412323
0.05351589247584343 0.1357540637254715 0.064187474548816681
0.10511911660432816 0.15621934831142426 0.063633739948272705
0.16319262981414795 0.1670525074005127 0.061860490590333939
0.23671706020832062 0.17769140005111694 0.054667111486196518
0.33285921812057495 0.18762964010238647 0.044389192014932632
0.43492677807807922 0.18575842678546906 0.034118413925170898
0.51201999187469482 0.17160667479038239 0.027007248252630234
0.56038963794708252 0.15276727080345154 0.024282447993755341
0.60094118118286133 0.13418419659137726 0.022294571623206139
0.63217061758041382 0.11625444144010544 0.023030329495668411
0.65110987424850464 0.10194996744394302 0.02498880960047245
0.66641384363174438 0.09425855427980423 0.027198657393455505
0.057199068367481232 0.18260040879249573 0.066929414868354797
0.092891484498977661 0.20303286612033844 0.069408997893333435
0.15149952471256256 0.22451172769069672 0.069244101643562317
0.20609812438488007 0.23512165248394012 0.068077579140663147
0.2721610963344574 0.2441725879907608 0.059408150613307953
0.35991925001144409 0.25220930576324463 0.047349490225315094
0.47546672821044922 0.25044620037078857 0.035640984773635864
0.56047111749649048 0.23830340802669525 0.030105305835604668
0.61627507209777832 0.21827511489391327 0.029020138084888458
0.65670084953308105 0.19520533084869385 0.026966020464897156
0.67736023664474487 0.16858865320682526 0.027606740593910217
0.692665696144104 0.14629462361335754 0.029653256759047508
0.70259755849838257 0.13608115911483765 0.030806329101324081
0.12310623377561569 0.26866471767425537 0.067799679934978485
0.1727316826581955 0.2894015908241272 0.070504568517208099
0.24704205989837646 0.31527912616729736 0.06582457572221756
0.30265706777572632 0.32850605249404907 0.061342306435108185
0.34799966216087341 0.33605226874351501 0.056913278996944427
0.41958475112915039 0.34051445126533508 0.050232231616973877
0.51796650886535645 0.33791768550872803 0.042440257966518402
0.60168302059173584 0.32516789436340332 0.035929150879383087
0.6718372106552124 0.30802133679389954 0.032741665840148926
0.71855813264846802 0.28553557395935059 0.032545082271099091
0.73661667108535767 0.25818079710006714 0.034440986812114716
0.74792629480361938 0.23310841619968414 0.036981143057346344
0.75243568420410156 0.2097625732421875 0.03694089874625206
0.26781505346298218 0.37615314126014709 0.058703776448965073
0.30688688158988953 0.39484336972236633 0.06225312128663063
0.37175178527832031 0.41507944464683533 0.060549221932888031
0.42014655470848083 0.42696237564086914 0.058602545410394669
0.45266950130462646 0.4321264922618866 0.054114010185003281
0.49697178602218628 0.43421533703804016 0.050331849604845047
0.57161790132522583 0.43440014123916626 0.048734985291957855
0.63935554027557373 0.42000582814216614 0.042320970445871353
0.71251386404037476 0.40683707594871521 0.038529608398675919
0.77415144443511963 0.39403674006462097 0.04104512557387352
0.799582839012146 0.37353172898292542 0.044594738632440567
0.80867594480514526 0.34797912836074829 0.046852320432662964
0.81253165006637573 0.31849962472915649 0.046788923442363739
0.42944645881652832 0.48750370740890503 0.053138434886932373
0.45896059274673462 0.5005422830581665 0.055931601673364639
0.49966934323310852 0.51160937547683716 0.055731035768985748
0.53618335723876953 0.52053838968276978 0.055057123303413391
0.55641347169876099 0.52164560556411743 0.052282910794019699
0.5866696834564209 0.51960295438766479 0.048485402017831802
0.63019704818725586 0.51534605026245117 0.050094079226255417
0.68204647302627563 0.50492137670516968 0.047714907675981522
0.74524235725402832 0.49504527449607849 0.04685809463262558
0.80685847997665405 0.48767989873886108 0.050793949514627457
0.8491206169128418 0.47607138752937317 0.054939225316047668
0.86192446947097778 0.45751157402992249 0.059492956846952438
0.86896735429763794 0.43394696712493896 0.060564827173948288
0.58231461048126221 0.59541672468185425 0.052805628627538681
0.60321861505508423 0.6043771505355835 0.055025465786457062
0.62407177686691284 0.60774916410446167 0.054058030247688293
0.64510679244995117 0.60845577716827393 0.054647408425807953
0.657451331615448 0.60637843608856201 0.052857447415590286
0.67318266630172729 0.60283201932907104 0.053164687007665634
0.70297706127166748 0.59788066148757935 0.055577713996171951
0.73752379417419434 0.58967995643615723 0.057261031121015549
0.78852784633636475 0.57791560888290405 0.058079320937395096
0.83927035331726074 0.5663456916809082 0.059260349720716476
0.88345599174499512 0.57136064767837524 0.070265226066112518
0.90852504968643188 0.56738203763961792 0.078897081315517426
0.91430222988128662 0.5563170313835144 0.08162970095872879
0.72474730014801025 0.69318085908889771 0.061052598059177399
0.73730194568634033 0.69876104593276978 0.061090342700481415
0.74230092763900757 0.69672155380249023 0.062778010964393616
0.75206398963928223 0.69284594058990479 0.063129708170890808
0.75441211462020874 0.68786889314651489 0.061357326805591583
0.76060622930526733 0.68390548229217529 0.062776081264019012
0.78612631559371948 0.67995196580886841 0.065789856016635895
0.81508970260620117 0.67664593458175659 0.071409858763217926
0.85174775123596191 0.6690937876701355 0.074799709022045135
0.88795298337936401 0.66234922409057617 0.079697459936141968
0.91675353050231934 0.66538476943969727 0.091462619602680206
0.94084429740905762 0.66575509309768677 0.10211531817913055
0.94910186529159546 0.66183596849441528 0.10706222802400589
0.83471041917800903 0.76589745283126831 0.08107554167509079
0.84528172016143799 0.77000731229782104 0.080965109169483185
0.84651929140090942 0.76839745044708252 0.081868730485439301
0.85027158260345459 0.7655983567237854 0.081777133047580719
0.8455963134765625 0.76040351390838623 0.079834878444671631
0.83880925178527832 0.75297963619232178 0.077679701149463654
0.85348832607269287 0.75053298473358154 0.081440776586532593
0.88070911169052124 0.75010877847671509 0.088751427829265594
0.90866219997406006 0.75105011463165283 0.095043107867240906
0.93144798278808594 0.74665182828903198 0.10351819545030594
0.94882982969284058 0.74272388219833374 0.11396461725234985
0.96219545602798462 0.74129736423492432 0.12477996200323105
0.9698798656463623 0.73734259605407715 0.1320231556892395
0.90476000308990479 0.81751406192779541 0.10687463730573654
0.91228324174880981 0.82033932209014893 0.10813538730144501
0.91237115859985352 0.81855380535125732 0.10610285401344299
0.91303861141204834 0.81672078371047974 0.10607738047838211
0.91174584627151489 0.81487202644348145 0.10542897135019302
0.90274345874786377 0.80787205696105957 0.10330528020858765
0.90505969524383545 0.80353379249572754 0.10241202265024185
0.92396712303161621 0.80446720123291016 0.10942599922418594
0.94320011138916016 0.80679053068161011 0.11868468672037125
0.95746320486068726 0.80321449041366577 0.12669727206230164
0.96848714351654053 0.79779744148254395 0.13528749346733093
0.9778016209602356 0.79471975564956665 0.14407622814178467
0.98150485754013062 0.78860807418823242 0.14926420152187347
0.029834149405360222 0.044194359332323074 0.060647372156381607
0.033045090734958649 0.04381357878446579 0.060779660940170288
0.060832574963569641 0.046814668923616409 0.065071269869804382
0.10197867453098297 0.04964364692568779 0.069366365671157837
0.14706145226955414 0.052090171724557877 0.06956896185874939
0.18762931227684021 0.053873173892498016 0.069318614900112152
0.22784377634525299 0.054031744599342346 0.070790790021419525
0.25296643376350403 0.052572481334209442 0.068526245653629303
0.27094480395317078 0.050896063446998596 0.063911139965057373
0.2929365336894989 0.045961283147335052 0.055367983877658844
0.31784370541572571 0.040519446134567261 0.044284433126449585
0.3404994010925293 0.036114487797021866 0.034160926938056946
0.35473364591598511 0.031714420765638351 0.023961219936609268
0.023031780496239662 0.053322721272706985 0.066688328981399536
0.028129054233431816 0.056378442794084549 0.068567685782909393
0.06228097528219223 0.059849217534065247 0.07069116085767746
0.11281135678291321 0.063639514148235321 0.072080619633197784
0.17192535102367401 0.066645421087741852 0.070107601583003998
0.22774545848369598 0.069930955767631531 0.067872002720832825
0.28423804044723511 0.073933303356170654 0.06697884202003479
0.33025982975959778 0.072753384709358215 0.06193026527762413
0.35609179735183716 0.068864263594150543 0.056253574788570404
0.38241845369338989 0.060429710894823074 0.048644166439771652
0.40078866481781006 0.050400558859109879 0.037503290921449661
0.41866588592529297 0.041967369616031647 0.027321325615048409
0.43824943900108337 0.037946198135614395 0.024125836789608002
0.018054662272334099 0.065682880580425262 0.074597902595996857
0.029085734859108925 0.073989555239677429 0.077112056314945221
0.067957170307636261 0.080862917006015778 0.078066788613796234
0.12443666905164719 0.085730776190757751 0.075911097228527069
0.18875600397586823 0.092550881206989288 0.073822543025016785
0.26320758461952209 0.10013163089752197 0.069006167352199554
0.33358550071716309 0.10284557193517685 0.063347265124320984
0.39816063642501831 0.097091823816299438 0.054522942751646042
0.44138383865356445 0.090320482850074768 0.048520464450120926
0.47264999151229858 0.0791168212890625 0.041448213160037994
0.49469378590583801 0.067141033709049225 0.033371809870004654
0.5067439079284668 0.056919381022453308 0.028791794553399086
0.53044432401657104 0.046272113919258118 0.024488501250743866
0.021021779626607895 0.092182323336601257 0.083867304027080536
0.032789431512355804 0.099035985767841339 0.084519781172275543
0.078089877963066101 0.11636877804994583 0.089862719178199768
0.1431630402803421 0.12781958281993866 0.087008744478225708
0.21558044850826263 0.13316188752651215 0.078507021069526672
0.30103269219398499 0.14127190411090851 0.069740980863571167
0.38370823860168457 0.14294491708278656 0.060966625809669495
0.46021467447280884 0.13470181822776794 0.052943464368581772
0.51324135065078735 0.12289778888225555 0.04539673775434494
0.5472642183303833 0.10750956833362579 0.038423351943492889
0.574432373046875 0.091368131339550018 0.034424919635057449
0.59158825874328613 0.078668288886547089 0.03186919167637825
0.61047989130020142 0.066996566951274872 0.028765240684151649
