assets/lut/others vintage alt.cube
# Created by: G'MIC (https://gmic.eu)
TITLE "vintage_alt"
# LUT size
LUT_3D_SIZE 13
# Data domain
DOMAIN_MIN 0.0 0.0 0.0
DOMAIN_MAX 1.0 1.0 1.0
# LUT data points
0.14938725531101227 0.030882352963089943 0.14441066980361938
0.21792662143707275 0.030882352963089943 0.14084598422050476
0.2867647111415863 0.030882352963089943 0.14265453815460205
0.35407739877700806 0.030882352963089943 0.14464813470840454
0.42055207490921021 0.033921726047992706 0.14460813999176025
0.48793363571166992 0.034803923219442368 0.1436135321855545
0.55628663301467896 0.034803923219442368 0.14378000795841217
0.62411606311798096 0.034803923219442368 0.14397980272769928
0.69133144617080688 0.033603623509407043 0.14458337426185608
0.75965976715087891 0.031076768413186073 0.14473038911819458
0.82884562015533447 0.030882352963089943 0.14473038911819458
0.89646339416503906 0.0310033168643713 0.14473038911819458
0.96156209707260132 0.033979751169681549 0.14275044202804565
0.14886100590229034 0.10808823257684708 0.14337703585624695
0.21728698909282684 0.10808823257684708 0.14082030951976776
0.28577318787574768 0.10808823257684708 0.1409846693277359
0.35292345285415649 0.10808823257684708 0.14178705215454102
0.41961872577667236 0.10904847830533981 0.14109852910041809
0.48673021793365479 0.11093299835920334 0.1408088207244873
0.55458378791809082 0.11200980097055435 0.1408088207244873
0.62240606546401978 0.11200980097055435 0.14081302285194397
0.69011235237121582 0.11200980097055435 0.14163313806056976
0.7591559886932373 0.11133754998445511 0.14464637637138367
0.82759493589401245 0.10846406221389771 0.14473038911819458
0.89485180377960205 0.10809621214866638 0.14473038911819458
0.95945537090301514 0.10914209485054016 0.14218626916408539
0.14790807664394379 0.18830396234989166 0.14260342717170715
0.21722126007080078 0.18656030297279358 0.14096499979496002
0.28455883264541626 0.18530160188674927 0.1408088207244873
0.35232841968536377 0.18529412150382996 0.1408088207244873
0.41941922903060913 0.18577420711517334 0.1408088207244873
0.48610857129096985 0.1877073347568512 0.1408088207244873
0.55377566814422607 0.18921568989753723 0.1408088207244873
0.62212032079696655 0.18921568989753723 0.1408088207244873
0.69054144620895386 0.18921568989753723 0.14129409193992615
0.7598002552986145 0.18921568989753723 0.14470063149929047
0.8282962441444397 0.18749319016933441 0.14473038911819458
0.89507013559341431 0.18529412150382996 0.14473038911819458
0.96003568172454834 0.18529412150382996 0.14285759627819061
0.14715565741062164 0.26642155647277832 0.14187783002853394
0.21687489748001099 0.26636692881584167 0.14091832935810089
0.28455883264541626 0.26414608955383301 0.1408088207244873
0.35232841968536377 0.26283738017082214 0.1408088207244873
0.41962477564811707 0.26371467113494873 0.1408088207244873
0.48640650510787964 0.26580625772476196 0.1408088207244873
0.55412495136260986 0.26642155647277832 0.1408088207244873
0.62263935804367065 0.26642155647277832 0.14081756770610809
0.69191408157348633 0.26642155647277832 0.14330282807350159
0.76157689094543457 0.26642155647277832 0.14515082538127899
0.83038544654846191 0.26459714770317078 0.14719802141189575
0.89719319343566895 0.26249998807907104 0.14610831439495087
0.96236485242843628 0.26249998807907104 0.14427843689918518
0.14663095772266388 0.3436274528503418 0.14126785099506378
0.21667517721652985 0.3436274528503418 0.14080953598022461
0.28455883264541626 0.34301930665969849 0.1408088207244873
0.35232841968536377 0.34114578366279602 0.1408088207244873
0.41973039507865906 0.34218445420265198 0.1408088207244873
0.48719817399978638 0.34358426928520203 0.1408088207244873
0.55487120151519775 0.3436274528503418 0.1408088207244873
0.62366586923599243 0.3436274528503418 0.14185275137424469
0.69354128837585449 0.3436274528503418 0.14496336877346039
0.76406800746917725 0.34349754452705383 0.14803232252597809
0.8335680365562439 0.34037870168685913 0.14944148063659668
0.90031260251998901 0.33970588445663452 0.1488059014081955
0.96488821506500244 0.33970588445663452 0.14565660059452057
0.14651213586330414 0.42083331942558289 0.14105260372161865
0.21663220226764679 0.42083331942558289 0.14081008732318878
0.28506109118461609 0.42066124081611633 0.1408088207244873
0.35276511311531067 0.41921606659889221 0.1408088207244873
0.41973039507865906 0.42050155997276306 0.1408088207244873
0.48737746477127075 0.42083331942558289 0.1408088207244873
0.55531734228134155 0.42083331942558289 0.1408088207244873
0.62463551759719849 0.42083331942558289 0.14369413256645203
0.69497472047805786 0.42083331942558289 0.14657057821750641
0.76598697900772095 0.41973644495010376 0.14984941482543945
0.83594876527786255 0.41694408655166626 0.15250815451145172
0.90263611078262329 0.41691175103187561 0.15151001513004303
0.96709030866622925 0.41691175103187561 0.14776507019996643
0.14651213586330414 0.49803921580314636 0.14201708137989044
0.21661819517612457 0.49803921580314636 0.14134052395820618
0.28592380881309509 0.49797698855400085 0.14081098139286041
0.3533327579498291 0.49767377972602844 0.1408088207244873
0.41973039507865906 0.49803453683853149 0.1408088207244873
0.48737746477127075 0.49803921580314636 0.1408088207244873
0.55551725625991821 0.49803921580314636 0.14111283421516418
0.62502086162567139 0.49803921580314636 0.14460305869579315
0.69550734758377075 0.49803921580314636 0.14781774580478668
0.76616984605789185 0.49600338935852051 0.15110278129577637
0.83592700958251953 0.49411764740943909 0.15257352590560913
0.90304183959960938 0.49411764740943909 0.15256497263908386
0.96746325492858887 0.49411764740943909 0.14976900815963745
0.14646662771701813 0.57524508237838745 0.14429573714733124
0.21648284792900085 0.57524508237838745 0.14397504925727844
0.28483060002326965 0.57524508237838745 0.14166493713855743
0.35251286625862122 0.57524508237838745 0.1408088207244873
0.41973039507865906 0.57524508237838745 0.1408088207244873
0.48737746477127075 0.57524508237838745 0.1408088207244873
0.55552428960800171 0.57524508237838745 0.14228342473506927
0.62504863739013672 0.57524508237838745 0.14495463669300079
0.69523376226425171 0.57522720098495483 0.14852055907249451
0.7653968334197998 0.57240861654281616 0.15168464183807373
0.83461445569992065 0.57132351398468018 0.15257352590560913
0.90230578184127808 0.57132351398468018 0.15257352590560913
0.9674379825592041 0.57132351398468018 0.15149283409118652
0.1462196558713913 0.65251010656356812 0.14473038911819458
0.21648284792900085 0.65245097875595093 0.14473038911819458
0.28455883264541626 0.65245097875595093 0.14452233910560608
0.35232841968536377 0.65245097875595093 0.1425035297870636
0.41973039507865906 0.65245097875595093 0.1411239355802536
0.48737746477127075 0.65245097875595093 0.14151890575885773
0.55566668510437012 0.65245097875595093 0.14421303570270538
0.62502521276473999 0.65245097875595093 0.14594535529613495
0.6945919394493103 0.65187692642211914 0.14865195751190186
0.76409322023391724 0.64872956275939941 0.15177430212497711
0.83292633295059204 0.64852941036224365 0.15257352590560913
0.90015751123428345 0.64852941036224365 0.15256263315677643
0.96637135744094849 0.64853954315185547 0.15174506604671478
0.14620098471641541 0.73058897256851196 0.14473038911819458
0.21642217040061951 0.7296568751335144 0.14473038911819458
0.28465217351913452 0.7296568751335144 0.14473038911819458
0.35281151533126831 0.7296568751335144 0.14473038911819458
0.42032548785209656 0.7296568751335144 0.14473038911819458
0.48805150389671326 0.7296568751335144 0.14473038911819458
0.55647188425064087 0.72964984178543091 0.14485964179039001
0.62500548362731934 0.72878152132034302 0.14774976670742035
0.6939694881439209 0.7263445258140564 0.14865195751190186
0.76278388500213623 0.72573530673980713 0.15104249119758606
0.83072292804718018 0.72575026750564575 0.15231506526470184
0.8978046178817749 0.72668075561523438 0.15154728293418884
0.96347296237945557 0.7277495265007019 0.14970600605010986
0.14620098471641541 0.807403564453125 0.14472572505474091
0.21648284792900085 0.80686277151107788 0.14474751055240631
0.28550484776496887 0.80686277151107788 0.14546462893486023
0.35404050350189209 0.80686277151107788 0.1456495076417923
0.42175775766372681 0.806782066822052 0.14571018517017365
0.4892975389957428 0.80574172735214233 0.14639902114868164
0.5570671558380127 0.80416285991668701 0.14794030785560608
0.62517118453979492 0.80298095941543579 0.14865195751190186
0.693703293800354 0.80294120311737061 0.14865195751190186
0.76139706373214722 0.80294120311737061 0.14953997731208801
0.82914704084396362 0.80323952436447144 0.15052460134029388
0.89553886651992798 0.80635672807693481 0.14901286363601685
0.96031087636947632 0.80690068006515503 0.14559555053710938
0.14690828323364258 0.88404875993728638 0.14470471441745758
0.21735215187072754 0.88392913341522217 0.14656256139278412
0.286653071641922 0.88306570053100586 0.14864800870418549
0.35441148281097412 0.88180160522460938 0.14865195751190186
0.42262506484985352 0.88051825761795044 0.14865195751190186
0.4906315803527832 0.88014703989028931 0.14865195751190186
0.55817461013793945 0.88014703989028931 0.14865195751190186
0.62561357021331787 0.88014703989028931 0.14865195751190186
0.69319647550582886 0.88014703989028931 0.14865195751190186
0.7610701322555542 0.88014703989028931 0.14865788817405701
0.8285180926322937 0.88021302223205566 0.14877438545227051
0.89489823579788208 0.88331353664398193 0.14799521863460541
0.95952951908111572 0.88419502973556519 0.14425216615200043
0.14877563714981079 0.95785021781921387 0.14508764445781708
0.21863178908824921 0.95747643709182739 0.14842052757740021
0.28696191310882568 0.95735293626785278 0.14865195751190186
0.35541987419128418 0.95735293626785278 0.14865195751190186
0.42357099056243896 0.95735293626785278 0.14865195751190186
0.49159228801727295 0.95735293626785278 0.14865195751190186
0.5587955117225647 0.95735293626785278 0.14865195751190186
0.62577295303344727 0.95735293626785278 0.14865195751190186
0.69235962629318237 0.95735293626785278 0.14865195751190186
0.75964057445526123 0.95735293626785278 0.14865195751190186
0.82768166065216064 0.95735293626785278 0.14865195751190186
0.89489573240280151 0.9590376615524292 0.14773228764533997
0.95972669124603271 0.96127450466156006 0.14390794932842255
0.14932657778263092 0.030882352963089943 0.2024177759885788
0.2173379510641098 0.030882352963089943 0.20005778968334198
0.28642618656158447 0.030882352963089943 0.2023913562297821
0.35295379161834717 0.031053565442562103 0.20263479650020599
0.41887763142585754 0.034401029348373413 0.20243734121322632
0.4858430027961731 0.034803923219442368 0.19920735061168671
0.55506402254104614 0.034803923219442368 0.20098896324634552
0.62404894828796387 0.034613143652677536 0.20256353914737701
0.69201016426086426 0.032791182398796082 0.20263479650020599
0.76027536392211914 0.03094697929918766 0.20263479650020599
0.82908052206039429 0.030882352963089943 0.20263479650020599
0.89621949195861816 0.030882352963089943 0.20263479650020599
0.96075737476348877 0.031137697398662567 0.20131723582744598
0.14945818483829498 0.10808823257684708 0.20279310643672943
0.21803753077983856 0.10808823257684708 0.20199553668498993
0.28617212176322937 0.1081063374876976 0.20219503343105316
0.35227426886558533 0.10982320457696915 0.20243057608604431
0.41828542947769165 0.11198321729898453 0.20075398683547974
0.48535862565040588 0.11200980097055435 0.19872476160526276
0.55343115329742432 0.11200980097055435 0.19873620569705963
0.62229424715042114 0.11200980097055435 0.19949376583099365
0.69039887189865112 0.11200837045907974 0.20167036354541779
0.7593420147895813 0.11071570962667465 0.20263479650020599
0.82715678215026855 0.1081540584564209 0.20263479650020599
0.89421755075454712 0.10808823257684708 0.20263479650020599
0.9589269757270813 0.10808823257684708 0.20080441236495972
0.14935202896595001 0.187681645154953 0.20308560132980347
0.21808204054832458 0.18675710260868073 0.2024117112159729
0.28542676568031311 0.18680810928344727 0.20170694589614868
0.35232546925544739 0.18849669396877289 0.20085553824901581
0.41817367076873779 0.18919143080711365 0.19913652539253235
0.48535540699958801 0.18921568989753723 0.19871322810649872
0.55294120311737061 0.18921568989753723 0.19871322810649872
0.62077063322067261 0.18921568989753723 0.19871322810649872
0.68989413976669312 0.18921568989753723 0.19982121884822845
0.75868374109268188 0.18921352922916412 0.20263479650020599
0.82696467638015747 0.18683373928070068 0.20263479650020599
0.89419043064117432 0.18529412150382996 0.20263479650020599
0.95937579870223999 0.18529412150382996 0.20140455663204193
0.14890486001968384 0.26642155647277832 0.20267544686794281
0.21786430478096008 0.26642155647277832 0.20239011943340302
0.28552988171577454 0.2663787305355072 0.2011900395154953
0.35234573483467102 0.26637864112854004 0.19966058433055878
0.41871169209480286 0.26642000675201416 0.19873018562793732
0.48535540699958801 0.26642155647277832 0.19871322810649872
0.55294120311737061 0.26642155647277832 0.19871322810649872
0.62077271938323975 0.26642155647277832 0.19871322810649872
0.68981069326400757 0.26642155647277832 0.20046959817409515
0.75914812088012695 0.26642155647277832 0.20267079770565033
0.82803243398666382 0.2651817798614502 0.2032993882894516
0.89555913209915161 0.26249998807907104 0.20309621095657349
0.96144086122512817 0.26249998807907104 0.202601358294487
0.14816226065158844 0.3436274528503418 0.2026117742061615
0.21750073134899139 0.3436274528503418 0.20213894546031952
0.28571236133575439 0.3436274528503418 0.20058658719062805
0.35239210724830627 0.3436274528503418 0.19890080392360687
0.41947662830352783 0.3436274528503418 0.19871322810649872
0.48542642593383789 0.3436274528503418 0.19871322810649872
0.55301439762115479 0.3436274528503418 0.19871322810649872
0.62133920192718506 0.3436274528503418 0.19901740550994873
0.69046998023986816 0.3436274528503418 0.20215654373168945
0.76043355464935303 0.3436274528503418 0.20391321182250977
0.83007901906967163 0.34258472919464111 0.20617493987083435
0.89784491062164307 0.33980807662010193 0.20627027750015259
0.96375530958175659 0.33970588445663452 0.20364658534526825
0.14758992195129395 0.42083331942558289 0.2025938481092453
0.21731792390346527 0.42083331942558289 0.20200887322425842
0.2862791121006012 0.42083331942558289 0.19990412890911102
0.35249939560890198 0.42083331942558289 0.1987157016992569
0.41973039507865906 0.42083331942558289 0.19871322810649872
0.48596030473709106 0.42083331942558289 0.19871322810649872
0.55352103710174561 0.42083331942558289 0.19871322810649872
0.6220705509185791 0.42083331942558289 0.20059248805046082
0.6916426420211792 0.42083331942558289 0.20304472744464874
0.76196831464767456 0.42083126306533813 0.20607489347457886
0.83199912309646606 0.41945677995681763 0.2078823447227478
0.89996552467346191 0.4173089861869812 0.20768290758132935
0.96586626768112183 0.41701331734657288 0.20625230669975281
0.14718249440193176 0.49803921580314636 0.20263479650020599
0.21727824211120605 0.49803921580314636 0.2024611234664917
0.28588142991065979 0.49803921580314636 0.19987195730209351
0.35247993469238281 0.49803921580314636 0.19871322810649872
0.41973039507865906 0.49803921580314636 0.19871322810649872
0.48620027303695679 0.49803921580314636 0.19871322810649872
0.55397123098373413 0.49803921580314636 0.19880595803260803
0.62287169694900513 0.49803921580314636 0.20212152600288391
0.69260436296463013 0.49803921580314636 0.20435726642608643
0.76294100284576416 0.49799123406410217 0.20722693204879761
0.83287984132766724 0.49623078107833862 0.20993697643280029
0.90103405714035034 0.49488794803619385 0.21031849086284637
0.96707218885421753 0.49483972787857056 0.20803223550319672
0.14699755609035492 0.57524508237838745 0.20263479650020599
0.21706470847129822 0.57524508237838745 0.20263479650020599
0.28455987572669983 0.57524508237838745 0.20140816271305084
0.35232871770858765 0.57524508237838745 0.19874915480613708
0.41973039507865906 0.57524508237838745 0.19871322810649872
0.48604664206504822 0.57524508237838745 0.19871322810649872
0.55433273315429688 0.57524508237838745 0.1999603807926178
0.62316155433654785 0.57524508237838745 0.20265142619609833
0.69298428297042847 0.57524508237838745 0.20567373931407928
0.763072669506073 0.57491415739059448 0.20830518007278442
0.83277237415313721 0.57272595167160034 0.21046642959117889
0.90082210302352905 0.57183152437210083 0.21047794818878174
0.96742045879364014 0.5719912052154541 0.21034550666809082
0.14674900472164154 0.6529499888420105 0.20263479650020599
0.21654799580574036 0.65245097875595093 0.20263479650020599
0.28455883264541626 0.65245097875595093 0.20261804759502411
0.35232841968536377 0.65245097875595093 0.20096381008625031
0.41973039507865906 0.65245097875595093 0.19923059642314911
0.48669111728668213 0.65245097875595093 0.19974187016487122
0.5547526478767395 0.65245097875595093 0.20214077830314636
0.62342923879623413 0.65245097875595093 0.20323136448860168
0.69292056560516357 0.65242195129394531 0.20646649599075317
0.76263225078582764 0.65080845355987549 0.20905405282974243
0.83190959692001343 0.64880257844924927 0.21047794818878174
0.90030878782272339 0.64852941036224365 0.21162113547325134
0.96715694665908813 0.64856362342834473 0.21140123903751373
0.14622023701667786 0.73309880495071411 0.20257899165153503
0.2161516547203064 0.72969180345535278 0.20263479650020599
0.28455883264541626 0.7296568751335144 0.20263479650020599
0.35232841968536377 0.7296568751335144 0.20263479650020599
0.41973039507865906 0.7296568751335144 0.20263479650020599
0.48737746477127075 0.7296568751335144 0.20263479650020599
0.5549740195274353 0.7296568751335144 0.20267008244991302
0.62356346845626831 0.72932392358779907 0.20505115389823914
0.69259142875671387 0.72747373580932617 0.20655637979507446
0.76171523332595825 0.725860595703125 0.20917171239852905
0.83075636625289917 0.72573530673980713 0.21047794818878174
0.89885663986206055 0.72573590278625488 0.21072737872600555
0.96539753675460815 0.7257988452911377 0.21092803776264191
0.14620098471641541 0.81008750200271606 0.2011723518371582
0.21628311276435852 0.80689197778701782 0.20263479650020599
0.28467193245887756 0.80686277151107788 0.20277121663093567
0.35264438390731812 0.80686277151107788 0.2028844952583313
0.41998907923698425 0.80682253837585449 0.20272384583950043
0.48768195509910583 0.80607801675796509 0.20320221781730652
0.5556303858757019 0.80453753471374512 0.20501512289047241
0.6239287257194519 0.80315214395523071 0.20653124153614044
0.69207745790481567 0.80294120311737061 0.20655637979507446
0.76107132434844971 0.80294120311737061 0.2080569714307785
0.82942312955856323 0.80294120311737061 0.21044503152370453
0.89743494987487793 0.8035283088684082 0.2103227823972702
0.96341037750244141 0.80587983131408691 0.20876912772655487
0.14704227447509766 0.88423120975494385 0.20197884738445282
0.21718275547027588 0.88404548168182373 0.20404593646526337
0.28631681203842163 0.88329827785491943 0.20623213052749634
0.35381174087524414 0.88198620080947876 0.20642241835594177
0.42065131664276123 0.88064968585968018 0.20609183609485626
0.48847994208335876 0.88014703989028931 0.20639970898628235
0.55636322498321533 0.88014703989028931 0.20655637979507446
0.62425404787063599 0.88014703989028931 0.20655637979507446
0.69191175699234009 0.88014703989028931 0.20655637979507446
0.75999784469604492 0.88014703989028931 0.20657612383365631
0.8290746808052063 0.88014703989028931 0.20813551545143127
0.89702355861663818 0.88106417655944824 0.20911616086959839
0.96297317743301392 0.88394224643707275 0.20687197148799896
0.14940261840820312 0.95871555805206299 0.20383647084236145
0.21874807775020599 0.95781481266021729 0.20654489099979401
0.2867647111415863 0.95735293626785278 0.20655637979507446
0.35390019416809082 0.95735293626785278 0.20655637979507446
0.42075690627098083 0.95735293626785278 0.20601962506771088
0.4891296923160553 0.95735293626785278 0.20652428269386292
0.55697661638259888 0.95735293626785278 0.20655637979507446
0.62445104122161865 0.95735293626785278 0.20655637979507446
0.69191175699234009 0.95735293626785278 0.20655637979507446
0.75962764024734497 0.95735293626785278 0.20655637979507446
0.82850736379623413 0.95735293626785278 0.20655637979507446
0.89745849370956421 0.95766365528106689 0.20696111023426056
0.96368300914764404 0.96085739135742188 0.20606102049350739
0.14967405796051025 0.030882352963089943 0.26169958710670471
0.21810442209243774 0.030882352963089943 0.26075640320777893
0.28521654009819031 0.030882352963089943 0.26086413860321045
0.35178914666175842 0.031394343823194504 0.26114144921302795
0.41781231760978699 0.033708252012729645 0.26056194305419922
0.48545551300048828 0.034494318068027496 0.25987142324447632
0.55528968572616577 0.033897086977958679 0.26041337847709656
0.6249815821647644 0.032429158687591553 0.26065006852149963
0.6932215690612793 0.031231584027409554 0.26058006286621094
0.76118797063827515 0.030882352963089943 0.26053920388221741
0.82916665077209473 0.030882352963089943 0.26053920388221741
0.89587938785552979 0.030882352963089943 0.26053920388221741
0.96100163459777832 0.030882352963089943 0.25986245274543762
0.15107414126396179 0.10808823257684708 0.26390454173088074
0.21902577579021454 0.10808823257684708 0.26241663098335266
0.28625398874282837 0.10868479311466217 0.26183667778968811
0.35180783271789551 0.11163917928934097 0.26114299893379211
0.41775572299957275 0.11200980097055435 0.26053133606910706
0.48527002334594727 0.11200980097055435 0.25961381196975708
0.55359005928039551 0.11200980097055435 0.25928518176078796
0.62275749444961548 0.11200224608182907 0.26007258892059326
0.69119924306869507 0.11168914288282394 0.26051518321037292
0.75960898399353027 0.10973668098449707 0.26053920388221741
0.8273053765296936 0.10808823257684708 0.26053920388221741
0.894561767578125 0.10808823257684708 0.26053920388221741
0.95998233556747437 0.10808823257684708 0.25937333703041077
0.1513386070728302 0.18710288405418396 0.2644035816192627
0.21941624581813812 0.1868082582950592 0.26319178938865662
0.28662604093551636 0.18865740299224854 0.26175448298454285
0.35242432355880737 0.18921568989753723 0.26067742705345154
0.41811871528625488 0.18921568989753723 0.26029577851295471
0.48535540699958801 0.18921568989753723 0.25846612453460693
0.55294120311737061 0.18921568989753723 0.25720173120498657
0.62079083919525146 0.18921568989753723 0.2571142315864563
0.68944931030273438 0.18921568989753723 0.25855964422225952
0.7579272985458374 0.18920022249221802 0.26052576303482056
0.82689082622528076 0.1868344247341156 0.26053920388221741
0.89439398050308228 0.18529412150382996 0.26053920388221741
0.96013116836547852 0.18529412150382996 0.25976771116256714
0.1504853218793869 0.26642155647277832 0.26373985409736633
0.21903806924819946 0.26642155647277832 0.26230865716934204
0.2867647111415863 0.26642155647277832 0.26087966561317444
0.35287681221961975 0.26642155647277832 0.26049846410751343
0.41877821087837219 0.26642155647277832 0.25919455289840698
0.48535540699958801 0.26642155647277832 0.25698542594909668
0.55270087718963623 0.26642155647277832 0.25661763548851013
0.62023961544036865 0.26642155647277832 0.25661763548851013
0.68804562091827393 0.26642155647277832 0.25686413049697876
0.75713163614273071 0.26642155647277832 0.26001235842704773
0.82644808292388916 0.26615741848945618 0.26053920388221741
0.89479869604110718 0.26306983828544617 0.26053920388221741
0.96137720346450806 0.26249998807907104 0.26053920388221741
0.14940591156482697 0.3436274528503418 0.26109734177589417
0.21875937283039093 0.3436274528503418 0.26064777374267578
0.2867647111415863 0.3436274528503418 0.26053920388221741
0.3530791699886322 0.3436274528503418 0.25993660092353821
0.41937741637229919 0.3436274528503418 0.25744855403900146
0.48535540699958801 0.3436274528503418 0.25662064552307129
0.55240178108215332 0.3436274528503418 0.25661763548851013
0.61946362257003784 0.3436274528503418 0.25661763548851013
0.68768352270126343 0.3436274528503418 0.257496178150177
