assets/lut/others rotate vibrant.cube
# Created by: G'MIC (https://gmic.eu)
TITLE "rotate_vibrant"
# LUT size
LUT_3D_SIZE 13
# Data domain
DOMAIN_MIN 0.0 0.0 0.0
DOMAIN_MAX 1.0 1.0 1.0
# LUT data points
0.029937729239463806 0.039736445993185043 0.035994064062833786
0.037631433457136154 0.066591344773769379 0.086807399988174438
0.014068768359720707 0.11677805334329605 0.16610674560070038
0.0054999259300529957 0.16742764413356781 0.23232389986515045
0.00050892547005787492 0.23448625206947327 0.29400932788848877
0.00025814279797486961 0.27845996618270874 0.3572743833065033
0.0016499238554388285 0.34229245781898499 0.42084798216819763
0.0037074668798595667 0.44469970464706421 0.49011099338531494
0.00094028544845059514 0.49645155668258667 0.55948036909103394
0 0.55304419994354248 0.62127530574798584
0 0.6263694167137146 0.68498224020004272
0.0028104444500058889 0.69880801439285278 0.75262802839279175
0.014554984867572784 0.74219310283660889 0.80753463506698608
0.029944086447358131 0.054703358560800552 0.064947538077831268
0.080109722912311554 0.073046289384365082 0.064995422959327698
0.12324395030736923 0.043773546814918518 0.13465303182601929
0.10193421691656113 0.044732816517353058 0.2188621461391449
0.05814240500330925 0.057983383536338806 0.29521650075912476
0.034605946391820908 0.081731833517551422 0.36777231097221375
0.014116354286670685 0.14071601629257202 0.42937639355659485
0.010787365026772022 0.23078332841396332 0.50008124113082886
0.0075985179282724857 0.30042579770088196 0.57134366035461426
0.0029916202183812857 0.34680643677711487 0.62988948822021484
0.0031249551102519035 0.43267849087715149 0.69734269380569458
0.0083897309377789497 0.48642259836196899 0.76543903350830078
0.025443896651268005 0.56270694732666016 0.82263052463531494
0.022987350821495056 0.061987843364477158 0.099947251379489899
0.046049036085605621 0.12835091352462769 0.057450581341981888
0.156694695353508 0.1357942521572113 0.048029415309429169
0.23410321772098541 0.058285161852836609 0.11174238473176956
0.25145098567008972 0.025423221290111542 0.26257318258285522
0.22333565354347229 0.017749248072504997 0.37126660346984863
0.15821380913257599 0.019625525921583176 0.44163161516189575
0.11925461888313293 0.045672234147787094 0.50933510065078735
0.061511483043432236 0.068642333149909973 0.57986688613891602
0.032236840575933456 0.12276498973369598 0.64284205436706543
0.01658712700009346 0.17101012170314789 0.71023619174957275
0.018929755315184593 0.24438329041004181 0.77952849864959717
0.026708684861660004 0.31843170523643494 0.83281528949737549
0.013102453202009201 0.11372146755456924 0.14059692621231079
0.012959079816937447 0.17852722108364105 0.08544362336397171
0.096210181713104248 0.21711991727352142 0.034766718745231628
0.23670876026153564 0.21159754693508148 0.046522386372089386
0.32260343432426453 0.089976951479911804 0.11399976164102554
0.36761060357093811 0.030152130872011185 0.25392904877662659
0.38023769855499268 0.018439767882227898 0.41203022003173828
0.35678830742835999 0.018921243026852608 0.51018112897872925
0.28699138760566711 0.02080504409968853 0.58647662401199341
0.20080342888832092 0.029830588027834892 0.65380346775054932
0.16908097267150879 0.049210969358682632 0.7235187292098999
0.096594236791133881 0.071594133973121643 0.78818035125732422
0.065248571336269379 0.10412891209125519 0.84543716907501221
0.0076191024854779243 0.15483841300010681 0.18582908809185028
0.0069200252182781696 0.22354169189929962 0.12615969777107239
0.043020017445087433 0.26505744457244873 0.046138238161802292
0.18553654849529266 0.29988127946853638 0.045971978455781937
0.32300582528114319 0.28992897272109985 0.043762102723121643
0.4027138352394104 0.12823924422264099 0.070030122995376587
0.46107223629951477 0.037892449647188187 0.18308059871196747
0.52046042680740356 0.025025716051459312 0.3613591194152832
0.53421491384506226 0.022109372541308403 0.53590667247772217
0.48622068762779236 0.017177311703562737 0.652290940284729
0.45972609519958496 0.020030122250318527 0.73170185089111328
0.39760503172874451 0.026057329028844833 0.79602706432342529
0.28163829445838928 0.044347472488880157 0.85588157176971436
0.012112053111195564 0.19060391187667847 0.22160090506076813
0.010148560628294945 0.24901536107063293 0.17136521637439728
0.027454646304249763 0.29742023348808289 0.096111088991165161
0.11225671321153641 0.3396456241607666 0.052964843809604645
0.23996341228485107 0.37771564722061157 0.034431952983140945
0.39921906590461731 0.36662155389785767 0.043318431824445724
0.4866173267364502 0.22263418138027191 0.040000513195991516
0.54529100656509399 0.059852495789527893 0.10197119414806366
0.6044122576713562 0.025864126160740852 0.31008103489875793
0.66115081310272217 0.023570386692881584 0.53124839067459106
0.69006562232971191 0.019531190395355225 0.70017325878143311
0.64852100610733032 0.021130835637450218 0.79540872573852539
0.57005852460861206 0.033572733402252197 0.86915868520736694
0.0061976863071322441 0.22874270379543304 0.25084033608436584
0.0058610355481505394 0.28458958864212036 0.20132850110530853
0.011841688305139542 0.33174535632133484 0.12187156081199646
0.053508341312408447 0.37448593974113464 0.044335115700960159
0.1580871194601059 0.41598808765411377 0.02566223219037056
0.31827229261398315 0.45888033509254456 0.034288741648197174
0.47446563839912415 0.43915316462516785 0.04742412269115448
0.55883288383483887 0.27191951870918274 0.05233427882194519
0.62436026334762573 0.084270969033241272 0.10282302647829056
0.68292301893234253 0.031966894865036011 0.27739030122756958
0.74291998147964478 0.028006056323647499 0.48687553405761719
0.80334252119064331 0.02197214774787426 0.67163562774658203
0.81746625900268555 0.028693689033389091 0.84837031364440918
0.0039140889421105385 0.28483444452285767 0.29128938913345337
0.0036472245119512081 0.33333882689476013 0.24137932062149048
0.0061503094621002674 0.3723028302192688 0.15600124001502991
0.02069162018597126 0.41165471076965332 0.064720690250396729
0.10363546758890152 0.45113179087638855 0.036313928663730621
0.22347275912761688 0.49008947610855103 0.037556637078523636
0.39091402292251587 0.5227387547492981 0.044436272233724594
0.54153943061828613 0.51377785205841064 0.041694041341543198
0.63047093152999878 0.32437101006507874 0.049588624387979507
0.69690310955047607 0.12464559078216553 0.065981321036815643
0.76092296838760376 0.045107088983058929 0.19097165763378143
0.82760262489318848 0.034867051988840103 0.42320609092712402
0.8920435905456543 0.036645296961069107 0.63715219497680664
0.0041150711476802826 0.31460806727409363 0.32890617847442627
0.0039887074381113052 0.37358734011650085 0.28177514672279358
0.0068315542303025723 0.41524603962898254 0.20603597164154053
0.011684836819767952 0.45663702487945557 0.11428910493850708
0.054291099309921265 0.49633419513702393 0.046172376722097397
0.16240587830543518 0.53176486492156982 0.033892195671796799
0.2997623085975647 0.56685709953308105 0.032377775758504868
0.45228898525238037 0.59017664194107056 0.036297891288995743
0.61685246229171753 0.57239425182342529 0.044426668435335159
0.70951873064041138 0.41781860589981079 0.040566973388195038
0.77508425712585449 0.20575131475925446 0.053586803376674652
0.84404838085174561 0.051008936017751694 0.13660813868045807
0.90724897384643555 0.038095735013484955 0.3224504292011261
0.0039487951435148716 0.3399016261100769 0.36641445755958557
0.0039215688593685627 0.40188112854957581 0.32421383261680603
0.0083683384582400322 0.44514453411102295 0.26844042539596558
0.015189451165497303 0.48782798647880554 0.19587425887584686
0.0344376340508461 0.53922414779663086 0.086990192532539368
0.12286943942308426 0.57742154598236084 0.041324496269226074
0.22609862685203552 0.61092239618301392 0.0240199975669384
0.35687741637229919 0.64111858606338501 0.028321418911218643
0.54013454914093018 0.67800623178482056 0.033988412469625473
0.69803202152252197 0.6618119478225708 0.039256434887647629
0.78519344329833984 0.48061349987983704 0.043615978211164474
0.85415208339691162 0.26670849323272705 0.040821149945259094
0.92171353101730347 0.098094090819358826 0.091594696044921875
0.0041219075210392475 0.38437560200691223 0.40562617778778076
0.0050052120350301266 0.43558025360107422 0.36784011125564575
0.0081034945324063301 0.47992134094238281 0.31094694137573242
0.017799511551856995 0.5220109224319458 0.24997535347938538
0.032782118767499924 0.56657570600509644 0.16322964429855347
0.066126428544521332 0.6114271879196167 0.066682003438472748
0.1317678689956665 0.64498811960220337 0.022202091291546822
0.26228415966033936 0.67857182025909424 0.021133244037628174
0.45264557003974915 0.71485775709152222 0.034484848380088806
0.62354028224945068 0.74344474077224731 0.043575901538133621
0.77480512857437134 0.72916758060455322 0.039201490581035614
0.86301892995834351 0.54461848735809326 0.043000299483537674
0.9283866286277771 0.32356053590774536 0.044605538249015808
0.0060098236426711082 0.42011561989784241 0.44335386157035828
0.0092308046296238899 0.47051948308944702 0.40974694490432739
0.012304732576012611 0.52203166484832764 0.34987002611160278
0.018504409119486809 0.56535744667053223 0.28119140863418579
0.024466106668114662 0.60217499732971191 0.20067152380943298
0.024727780371904373 0.64269816875457764 0.099644966423511505
0.080096900463104248 0.67880702018737793 0.040809571743011475
0.21015091240406036 0.71925723552703857 0.027261039242148399
0.37291392683982849 0.75834077596664429 0.036075964570045471
0.52728521823883057 0.79312622547149658 0.039579637348651886
0.70338177680969238 0.82807755470275879 0.039457641541957855
0.86357533931732178 0.80528014898300171 0.036416191607713699
0.9388892650604248 0.63012295961380005 0.037710331380367279
0.0063598784618079662 0.45880722999572754 0.47742614150047302
0.013188964687287807 0.51363676786422729 0.44457748532295227
0.017887040972709656 0.56559240818023682 0.38714492321014404
0.021571693941950798 0.60379517078399658 0.31696143746376038
0.025436775758862495 0.63421130180358887 0.23675590753555298
0.024619203060865402 0.67206692695617676 0.14228549599647522
0.044896382838487625 0.71410322189331055 0.05326080322265625
0.15644100308418274 0.75409138202667236 0.034680653363466263
0.29161688685417175 0.79667055606842041 0.039471421390771866
0.43912979960441589 0.83394724130630493 0.033513028174638748
0.60378873348236084 0.87293189764022827 0.035248775035142899
0.79660499095916748 0.89878010749816895 0.04006233811378479
0.93576610088348389 0.89969712495803833 0.037630792707204819
0.033649429678916931 0.10565109550952911 0.079403594136238098
0.032829929143190384 0.11584291607141495 0.11194536089897156
0.0087670721113681793 0.14468427002429962 0.15610963106155396
0.0039241863414645195 0.20638857781887054 0.22386598587036133
0.0015326406573876739 0.27072951197624207 0.29022744297981262
0.0013627595035359263 0.32696178555488586 0.3494357168674469
0.00058574305148795247 0.38799390196800232 0.40920314192771912
0.0003669439465738833 0.46645054221153259 0.47942629456520081
0.00058689492288976908 0.53929299116134644 0.54976826906204224
0.00047565533895976841 0.59494829177856445 0.60616165399551392
0.0018131779506802559 0.65878444910049438 0.66938096284866333
0.010017005726695061 0.71965748071670532 0.7303960919380188
0.031860619783401489 0.7769508957862854 0.78869563341140747
0.073689468204975128 0.078991532325744629 0.062305346131324768
0.068972766399383545 0.10468060523271561 0.10670580714941025
0.042154949158430099 0.11806170642375946 0.16450206935405731
0.022888392210006714 0.16723078489303589 0.23346339166164398
0.0099034924060106277 0.22215142846107483 0.29948988556861877
0.0082775494083762169 0.28762522339820862 0.36769342422485352
0.0060718609020113945 0.3500058650970459 0.42849630117416382
0.0061870352365076542 0.4276617169380188 0.49459102749824524
0.0057462207041680813 0.50089806318283081 0.56405675411224365
0.004637744277715683 0.56069588661193848 0.62232524156570435
0.0098252687603235245 0.62235158681869507 0.68658339977264404
0.025634286925196648 0.67641150951385498 0.75090616941452026
0.069030314683914185 0.75627338886260986 0.81620997190475464
0.090443432331085205 0.053231675177812576 0.10077327489852905
0.073243714869022369 0.087227106094360352 0.12605534493923187
0.14494822919368744 0.12758275866508484 0.12766100466251373
0.18642012774944305 0.086077429354190826 0.20812593400478363
0.14581546187400818 0.087706528604030609 0.30379721522331238
0.094511054456233978 0.1060808077454567 0.37821236252784729
0.052494678646326065 0.14837798476219177 0.44311881065368652
0.030035370960831642 0.21326738595962524 0.50550991296768188
0.02374795638024807 0.27582362294197083 0.57715886831283569
0.017644202336668968 0.35816267132759094 0.64027094841003418
0.020176038146018982 0.41282945871353149 0.70488303899765015
0.052454017102718353 0.5031542181968689 0.77099084854125977
0.086905188858509064 0.58808451890945435 0.83247232437133789
0.092310994863510132 0.052382733672857285 0.1663910448551178
0.034552659839391708 0.13459251821041107 0.15967473387718201
0.085870943963527679 0.20400656759738922 0.093349844217300415
0.23022644221782684 0.20191262662410736 0.1202964186668396
0.29878824949264526 0.092196278274059296 0.20037177205085754
0.29617166519165039 0.056963242590427399 0.3307395875453949
0.24393641948699951 0.053318966180086136 0.43591722846031189
0.19579875469207764 0.057356800884008408 0.50750172138214111
0.13081710040569305 0.086127154529094696 0.5848315954208374
0.066622443497180939 0.1372724324464798 0.65659046173095703
0.062727190554141998 0.16647930443286896 0.72077083587646484
0.081446707248687744 0.23178780078887939 0.78007811307907104
0.094211950898170471 0.31880402565002441 0.83976286649703979
0.0717429518699646 0.067947804927825928 0.22209766507148743
0.019555095583200455 0.18549855053424835 0.19907575845718384
0.041970811784267426 0.25489035248756409 0.11167573928833008
0.1639898270368576 0.29127275943756104 0.090304642915725708
0.31791877746582031 0.27741679549217224 0.10570596158504486
0.39918851852416992 0.13535293936729431 0.15130765736103058
0.44173699617385864 0.073235228657722473 0.28693613409996033
0.47052684426307678 0.061370402574539185 0.45015981793403625
0.40676411986351013 0.053119555115699768 0.56829595565795898
0.31323656439781189 0.047721128910779953 0.665610671043396
0.30360513925552368 0.049882311373949051 0.72906529903411865
0.24898019433021545 0.07827497273683548 0.79470515251159668
0.17888420820236206 0.12578223645687103 0.85637021064758301
0.058074906468391418 0.10805327445268631 0.26647049188613892
0.01446895208209753 0.22860920429229736 0.23824191093444824
0.02282499335706234 0.29423314332962036 0.16030508279800415
0.07958424836397171 0.33708101511001587 0.081483714282512665
0.23044528067111969 0.37893718481063843 0.076766759157180786
0.4010918140411377 0.36646240949630737 0.10026829689741135
0.47893255949020386 0.20352651178836823 0.11456659436225891
0.54439181089401245 0.0919952392578125 0.23171950876712799
0.5983041524887085 0.065247692167758942 0.44478550553321838
0.61606335639953613 0.053943976759910583 0.63205486536026001
0.60703855752944946 0.054188955575227737 0.73592352867126465
0.51410001516342163 0.071433812379837036 0.80721241235733032
0.41992011666297913 0.097656100988388062 0.8655695915222168
0.023458711802959442 0.13480441272258759 0.2993353009223938
0.010460722260177135 0.26334747672080994 0.27290701866149902
0.01534423790872097 0.33010804653167725 0.20877635478973389
0.051258176565170288 0.37425172328948975 0.11780925095081329
0.14550736546516418 0.41369491815567017 0.070444770157337189
0.3040556013584137 0.44956678152084351 0.081032320857048035
0.46289727091789246 0.41957056522369385 0.10638280957937241
0.55589240789413452 0.2630344033241272 0.11276426166296005
0.62049382925033569 0.10819005221128464 0.20651768147945404
0.67905479669570923 0.075249582529067993 0.40148410201072693
0.73280733823776245 0.065919779241085052 0.59127557277679443
0.75799351930618286 0.071945607662200928 0.76111245155334473
0.70842772722244263 0.093096412718296051 0.86851829290390015
0.016294442117214203 0.180562824010849 0.33663091063499451
0.0096513787284493446 0.31278359889984131 0.31216177344322205
0.012870504520833492 0.36977645754814148 0.2489960640668869
0.032729130238294601 0.41019010543823242 0.15900176763534546
0.088815085589885712 0.44943311810493469 0.088653296232223511
0.2100147157907486 0.48247739672660828 0.074221260845661163
0.38513997197151184 0.51983648538589478 0.1001209020614624
0.53609716892242432 0.51742160320281982 0.10953795164823532
0.63248264789581299 0.34636256098747253 0.10732855647802353
0.70016515254974365 0.1594681441783905 0.16541807353496552
0.75922483205795288 0.094801239669322968 0.31286954879760742
0.82253044843673706 0.081861130893230438 0.52969402074813843
0.8758004903793335 0.10232823342084885 0.74806803464889526
0.013225974515080452 0.19878590106964111 0.37651056051254272
0.0067236507311463356 0.3414807915687561 0.35252279043197632
0.0082709966227412224 0.40133830904960632 0.28760933876037598
0.022398900240659714 0.4458220899105072 0.20354236662387848
0.045845121145248413 0.4877953827381134 0.11215705424547195
0.13087998330593109 0.52700287103652954 0.068212889134883881
0.28128767013549805 0.56342464685440063 0.079379335045814514
0.44967794418334961 0.59047406911849976 0.096244916319847107
0.61814922094345093 0.59045732021331787 0.10610586404800415
0.71090209484100342 0.41666930913925171 0.11656080931425095
0.77609610557556152 0.21122658252716064 0.13549485802650452
0.84078443050384521 0.10739406198263168 0.26367393136024475
0.9031711220741272 0.11311820894479752 0.49543410539627075
0.01133962906897068 0.22315669059753418 0.4166928231716156
0.0047029382549226284 0.36370831727981567 0.39719459414482117
0.0080939047038555145 0.42437773942947388 0.33579730987548828
0.022034304216504097 0.48461160063743591 0.25638893246650696
0.042684905230998993 0.53863060474395752 0.16647659242153168
0.089992493391036987 0.5769885778427124 0.090278804302215576
0.19036392867565155 0.60969233512878418 0.064353644847869873
0.35757583379745483 0.63893723487854004 0.080247126519680023
0.54241657257080078 0.67270809412002563 0.098437458276748657
0.70476323366165161 0.66893434524536133 0.1124400869011879
0.79095494747161865 0.47418823838233948 0.11422425508499146
0.86081492900848389 0.24941378831863403 0.11904797703027725
0.91987639665603638 0.14696776866912842 0.21119031310081482
0.011095323599874973 0.27195721864700317 0.44807469844818115
0.0081991907209157944 0.39192473888397217 0.4287014901638031
0.014228611253201962 0.45737186074256897 0.37426123023033142
0.028233308345079422 0.51945888996124268 0.3031037449836731
0.043493833392858505 0.57509583234786987 0.22462847828865051
0.064486950635910034 0.6111152172088623 0.1332172304391861
0.12644350528717041 0.64382755756378174 0.07551148533821106
0.26762557029724121 0.67566907405853271 0.073487266898155212
0.44970500469207764 0.71367758512496948 0.096294239163398743
0.6248353123664856 0.74878937005996704 0.10878412425518036
0.78025764226913452 0.73103851079940796 0.10888990759849548
0.86953628063201904 0.52626651525497437 0.10876548290252686
0.93133294582366943 0.33948478102684021 0.11382127553224564
0.012081071734428406 0.30753162503242493 0.47906237840652466
0.0097813624888658524 0.41483047604560852 0.45209291577339172
0.021624231711030006 0.50272285938262939 0.41151571273803711
0.042253129184246063 0.56017351150512695 0.35567939281463623
0.053272217512130737 0.6021493673324585 0.28214016556739807
0.046683680266141891 0.64162141084671021 0.17256446182727814
0.082322336733341217 0.67884612083435059 0.096784733235836029
0.19189578294754028 0.71692866086959839 0.075651712715625763
0.35991537570953369 0.75564455986022949 0.093217261135578156
0.53586477041244507 0.78781408071517944 0.10020285099744797
0.71264779567718506 0.82684063911437988 0.10422671586275101
0.86293023824691772 0.80903375148773193 0.10898952186107635
0.93794155120849609 0.63512390851974487 0.11173511296510696
0.01463394146412611 0.34453871846199036 0.51231735944747925
0.019650852307677269 0.47207653522491455 0.49369555711746216
0.033264175057411194 0.55581796169281006 0.45076495409011841
0.051444903016090393 0.5969233512878418 0.39461979269981384
0.061494819819927216 0.63241308927536011 0.32309609651565552
0.065105661749839783 0.67048019170761108 0.22667030990123749
0.08155599981546402 0.7061084508895874 0.13648152351379395
0.14257669448852539 0.75122898817062378 0.087765954434871674
0.28180655837059021 0.79460108280181885 0.089023172855377197
0.45489692687988281 0.83062809705734253 0.093806125223636627
0.62911450862884521 0.86830127239227295 0.10188423842191696
0.80005359649658203 0.89435046911239624 0.11404064297676086
0.9351574182510376 0.9008747935295105 0.11689188331365585
0.049928657710552216 0.17932303249835968 0.14798764884471893
0.044337883591651917 0.15652903914451599 0.14253994822502136
0.019241198897361755 0.14838963747024536 0.15284958481788635
0.010494217276573181 0.19920021295547485 0.21595393121242523
0.0052785389125347137 0.25731161236763 0.27952754497528076
0.003978983499109745 0.31753864884376526 0.33600103855133057
0.0019965677056461573 0.37600970268249512 0.38782179355621338
0.00082132674288004637 0.44511502981185913 0.45314854383468628
0.0035436891485005617 0.51526558399200439 0.52174103260040283
0.0031151715666055679 0.57397377490997314 0.57999640703201294
0.0074376272968947887 0.63355916738510132 0.63884168863296509
0.019688505679368973 0.69181555509567261 0.70105820894241333
0.031603958457708359 0.74899840354919434 0.7565385103225708
0.084477894008159637 0.16691431403160095 0.079455085098743439
0.10456597059965134 0.16300059854984283 0.14882472157478333
0.048397589474916458 0.17365099489688873 0.19261710345745087
0.014604950323700905 0.21496523916721344 0.23838570713996887
0.0099201872944831848 0.2673008143901825 0.29375037550926208
0.0057255611754953861 0.34141999483108521 0.35694479942321777
0.0038459328934550285 0.40201562643051147 0.4147053062915802
0.0030993593391031027 0.46676921844482422 0.47867512702941895
0.0041320649906992912 0.53877109289169312 0.5483708381652832
0.0081352982670068741 0.59893059730529785 0.61197292804718018
0.024820664897561073 0.6603119969367981 0.67431128025054932
0.047004640102386475 0.71846002340316772 0.73544144630432129
0.075120724737644196 0.77306854724884033 0.78944581747055054
0.15594644844532013 0.13568918406963348 0.086242273449897766
0.1372639387845993 0.12278205901384354 0.14986602962017059
0.12431381642818451 0.1621660590171814 0.19231955707073212
0.073015980422496796 0.17083051800727844 0.24064968526363373
0.045120958238840103 0.22256134450435638 0.30927425622940063
0.019192280247807503 0.30585840344429016 0.37472248077392578
0.013411607593297958 0.37160083651542664 0.43923503160476685
0.011086976155638695 0.435341477394104 0.50640761852264404
0.015469704754650593 0.50328129529953003 0.57573527097702026
0.026302501559257507 0.57867664098739624 0.63996845483779907
0.051969088613986969 0.62388783693313599 0.70196497440338135
0.094408653676509857 0.6957085132598877 0.76689475774765015
0.13740777969360352 0.76298373937606812 0.82925260066986084
0.21370118856430054 0.086295291781425476 0.12458544224500656
0.15826345980167389 0.085394933819770813 0.18331114947795868
0.11846111714839935 0.1683458536863327 0.18265904486179352
0.20636142790317535 0.20210963487625122 0.18785421550273895
0.21854901313781738 0.12108059972524643 0.27704897522926331
0.15527889132499695 0.11729487776756287 0.38221234083175659
0.087777994573116302 0.15863418579101562 0.44943273067474365
0.056366581469774246 0.19690912961959839 0.52051621675491333
0.061327256262302399 0.26488509774208069 0.58856731653213501
0.062731556594371796 0.35170349478721619 0.65382766723632812
0.089601106941699982 0.45077750086784363 0.71744024753570557
0.12368988245725632 0.49332901835441589 0.7809339165687561
0.1574636846780777 0.57042163610458374 0.83757704496383667
0.22126056253910065 0.044586524367332458 0.21753498911857605
0.13183185458183289 0.078312665224075317 0.25266700983047485
