assets/lut/others muted fade.cube
# Created by: G'MIC (https://gmic.eu)
TITLE "muted_fade"
# LUT size
LUT_3D_SIZE 5
# Data domain
DOMAIN_MIN 0.0 0.0 0.0
DOMAIN_MAX 1.0 1.0 1.0
# LUT data points
0.14461018145084381 0.14134146273136139 0.14409714937210083
0.28246545791625977 0.1757875382900238 0.17729899287223816
0.41891458630561829 0.2076813280582428 0.20706038177013397
0.55532795190811157 0.24040509760379791 0.24063020944595337
0.69341325759887695 0.27244365215301514 0.27450719475746155
0.20904114842414856 0.31362205743789673 0.20844294130802155
0.34756386280059814 0.34750533103942871 0.24094602465629578
0.48306843638420105 0.37808597087860107 0.2714703381061554
0.62045270204544067 0.41129061579704285 0.30461376905441284
0.75836753845214844 0.44357874989509583 0.33681079745292664
0.27055072784423828 0.482879638671875 0.27134379744529724
0.40893623232841492 0.51576429605484009 0.30312025547027588
0.54581087827682495 0.54609197378158569 0.334970623254776
0.68293654918670654 0.57933503389358521 0.36806735396385193
0.82033008337020874 0.61361873149871826 0.4011211097240448
0.33445665240287781 0.65106415748596191 0.33458244800567627
0.47329694032669067 0.68417245149612427 0.36708804965019226
0.60916215181350708 0.71416991949081421 0.39961674809455872
0.74648886919021606 0.74688822031021118 0.432230144739151
0.88285642862319946 0.7779204249382019 0.46396249532699585
0.40034964680671692 0.81930333375930786 0.40032708644866943
0.53688657283782959 0.85107016563415527 0.43134787678718567
0.67347759008407593 0.88199079036712646 0.46276041865348816
0.81128203868865967 0.91465651988983154 0.49483788013458252
0.94760221242904663 0.94744348526000977 0.52874863147735596
0.15319246053695679 0.15289841592311859 0.2608986496925354
0.29144823551177979 0.18460358679294586 0.29040995240211487
0.42823657393455505 0.21628656983375549 0.32112589478492737
0.56658697128295898 0.24930734932422638 0.35574451088905334
0.70184332132339478 0.28195244073867798 0.38822540640830994
0.21712130308151245 0.32204100489616394 0.32288169860839844
0.35606995224952698 0.3552529513835907 0.35458877682685852
0.49314084649085999 0.38660058379173279 0.38546273112297058
0.63000738620758057 0.41927582025527954 0.41832888126373291
0.76531946659088135 0.45108872652053833 0.45104554295539856
0.27919933199882507 0.4897320568561554 0.38509246706962585
0.41909611225128174 0.52346968650817871 0.4182589054107666
0.55680155754089355 0.55548757314682007 0.44992867112159729
0.69258111715316772 0.58859103918075562 0.48210296034812927
0.82899707555770874 0.62118405103683472 0.51394325494766235
0.34518846869468689 0.65893840789794922 0.44980722665786743
0.48362478613853455 0.6910058856010437 0.48189970850944519
0.61801230907440186 0.72468787431716919 0.51565754413604736
0.75550007820129395 0.7584151029586792 0.54719668626785278
0.89330005645751953 0.79022222757339478 0.57893365621566772
0.40780141949653625 0.82735919952392578 0.51426178216934204
0.5453420877456665 0.85980027914047241 0.54587626457214355
0.68232303857803345 0.89280623197555542 0.57837033271789551
0.8190237283706665 0.9251788854598999 0.60984998941421509
0.95698654651641846 0.95734035968780518 0.64210182428359985
0.16087336838245392 0.16116936504840851 0.37213698029518127
0.3019067645072937 0.19472071528434753 0.40357372164726257
0.43913096189498901 0.22588221728801727 0.43495970964431763
0.57524079084396362 0.25744408369064331 0.46904218196868896
0.70824354887008667 0.29163891077041626 0.50066560506820679
0.2242743968963623 0.33086851239204407 0.43517774343490601
0.36488589644432068 0.36347654461860657 0.46696826815605164
0.50269025564193726 0.39538320899009705 0.49846935272216797
0.63870859146118164 0.42772719264030457 0.53173673152923584
0.77319067716598511 0.45991489291191101 0.56470036506652832
0.28816890716552734 0.4977700412273407 0.49746218323707581
0.42767390608787537 0.53040593862533569 0.52989679574966431
0.56534206867218018 0.56382465362548828 0.56194519996643066
0.70195978879928589 0.59748178720474243 0.59464359283447266
0.83834749460220337 0.62982076406478882 0.62789016962051392
0.35293164849281311 0.66606998443603516 0.56242483854293823
0.49201473593711853 0.69863170385360718 0.59433954954147339
0.62788867950439453 0.73270612955093384 0.62683188915252686
0.76439851522445679 0.76634484529495239 0.65937632322311401
0.90223580598831177 0.79864847660064697 0.69211870431900024
0.41651934385299683 0.83452439308166504 0.62766647338867188
0.55601143836975098 0.86780297756195068 0.65976399183273315
0.69110250473022461 0.9013788104057312 0.69161450862884521
0.82633823156356812 0.93320238590240479 0.72393262386322021
0.96501350402832031 0.96539062261581421 0.75693011283874512
0.17064112424850464 0.17002463340759277 0.48440077900886536
0.31119713187217712 0.20467710494995117 0.51754158735275269
0.44755649566650391 0.2364497184753418 0.54937452077865601
0.58397591114044189 0.26894894242286682 0.58264654874801636
0.7200082540512085 0.3019300103187561 0.61405318975448608
0.23513846099376678 0.34049898386001587 0.5487523078918457
0.37391224503517151 0.37247598171234131 0.58106845617294312
0.5111890435218811 0.40531286597251892 0.61246323585510254
0.64832460880279541 0.43862053751945496 0.64534491300582886
0.78457248210906982 0.47190007567405701 0.67858016490936279
0.29763421416282654 0.50710546970367432 0.61117386817932129
0.43553495407104492 0.53833997249603271 0.64312660694122314
0.57351046800613403 0.57317864894866943 0.67514145374298096
0.71155959367752075 0.60727387666702271 0.70800220966339111
0.84759628772735596 0.63883125782012939 0.74119597673416138
0.36026039719581604 0.67564922571182251 0.6760483980178833
0.50053030252456665 0.70783287286758423 0.7070319652557373
0.63732117414474487 0.74140983819961548 0.73953282833099365
0.77402538061141968 0.77402132749557495 0.77238947153091431
0.91028684377670288 0.80464059114456177 0.80517023801803589
0.42696443200111389 0.84508472681045532 0.74065679311752319
0.56575977802276611 0.87796688079833984 0.77310276031494141
0.70136815309524536 0.90966111421585083 0.80496132373809814
0.83504372835159302 0.93985140323638916 0.83746492862701416
0.97304821014404297 0.97301179170608521 0.87115305662155151
0.17513404786586761 0.17335383594036102 0.59444403648376465
0.31607881188392639 0.20991948246955872 0.62916594743728638
0.45238035917282104 0.24332620203495026 0.66155660152435303
0.58999621868133545 0.27677509188652039 0.69487351179122925
0.73080313205718994 0.30867063999176025 0.7263912558555603
0.24320381879806519 0.34743097424507141 0.66159701347351074
0.38142296671867371 0.3807121217250824 0.69489163160324097
0.51817768812179565 0.41403418779373169 0.72611063718795776
0.65618604421615601 0.4466126561164856 0.75826948881149292
0.79378527402877808 0.47953563928604126 0.79148870706558228
0.3067881166934967 0.51623082160949707 0.72567975521087646
0.44331568479537964 0.54812031984329224 0.75831127166748047
0.58052575588226318 0.58357113599777222 0.79019087553024292
0.71926283836364746 0.61562007665634155 0.82328253984451294
0.85554265975952148 0.64697259664535522 0.85546624660491943
0.36907792091369629 0.68432891368865967 0.78962242603302002
0.507560133934021 0.71700924634933472 0.82221466302871704
0.6447908878326416 0.75142741203308105 0.85444587469100952
0.78296494483947754 0.78282725811004639 0.88753491640090942
0.91941344738006592 0.81404101848602295 0.91925609111785889
0.43435847759246826 0.85358470678329468 0.85261327028274536
0.57142090797424316 0.88627362251281738 0.88630318641662598
0.7095341682434082 0.91729855537414551 0.91852813959121704
0.84628564119338989 0.94937646389007568 0.94993799924850464
0.98134225606918335 0.98051553964614868 0.98290872573852539
