assets/lut/others warm.cube
# Created by: G'MIC (https://gmic.eu)
TITLE "warm"
# LUT size
LUT_3D_SIZE 7
# Data domain
DOMAIN_MIN 0.0 0.0 0.0
DOMAIN_MAX 1.0 1.0 1.0
# LUT data points
0.054775986820459366 0.02888203039765358 0.035486754029989243
0.21662493050098419 0.067805588245391846 0.0788392573595047
0.4101966917514801 0.13495162129402161 0.15147088468074799
0.5739176869392395 0.20758511126041412 0.21757067739963531
0.71852117776870728 0.28631171584129333 0.28112977743148804
0.84619128704071045 0.37956488132476807 0.34725716710090637
0.96896225214004517 0.48732250928878784 0.41741028428077698
0.13407178223133087 0.1345900297164917 0.087320022284984589
0.25126788020133972 0.14819061756134033 0.099332801997661591
0.40614521503448486 0.19877637922763824 0.14799503982067108
0.57286828756332397 0.28705504536628723 0.21835809946060181
0.72137469053268433 0.38500460982322693 0.28425306081771851
0.84902489185333252 0.49013617634773254 0.35028687119483948
0.96636277437210083 0.59695696830749512 0.4201410710811615
0.2359013706445694 0.29544398188591003 0.15548238158226013
0.31904226541519165 0.28138887882232666 0.14444638788700104
0.42003166675567627 0.29293805360794067 0.1565408855676651
0.56592464447021484 0.37474167346954346 0.21401351690292358
0.71746146678924561 0.49075376987457275 0.28044450283050537
0.84922146797180176 0.60287958383560181 0.34963908791542053
0.96507352590560913 0.69995909929275513 0.42023774981498718
0.32540962100028992 0.49542433023452759 0.21738971769809723
0.39892339706420898 0.47523200511932373 0.20377330482006073
0.47248008847236633 0.4597201943397522 0.19697690010070801
0.57549589872360229 0.49331179261207581 0.21945935487747192
0.70957303047180176 0.58991432189941406 0.27245357632637024
0.84359246492385864 0.69735997915267944 0.3437124490737915
0.96507352590560913 0.78464633226394653 0.41919165849685669
0.41125625371932983 0.69750314950942993 0.28020218014717102
0.48822379112243652 0.68919926881790161 0.27296605706214905
0.55607742071151733 0.67145580053329468 0.26501142978668213
0.6312519907951355 0.67340356111526489 0.26617550849914551
0.72522962093353271 0.71290868520736694 0.28709942102432251
0.83886772394180298 0.78132450580596924 0.33973467350006104
0.96439200639724731 0.85807561874389648 0.41918459534645081
0.4932340681552887 0.85986244678497314 0.34552282094955444
0.57246959209442139 0.85797959566116333 0.34362956881523132
0.64357191324234009 0.85125452280044556 0.34240195155143738
0.71125906705856323 0.85215097665786743 0.34201014041900635
0.77390146255493164 0.85118937492370605 0.33898568153381348
0.84696501493453979 0.85863089561462402 0.3491399884223938
0.95808476209640503 0.91124463081359863 0.41145125031471252
0.57453089952468872 0.97115880250930786 0.41960784792900085
0.64599287509918213 0.96988797187805176 0.41839742660522461
0.71763384342193604 0.96965450048446655 0.41956818103790283
0.78387159109115601 0.97046768665313721 0.41959384083747864
0.84228837490081787 0.96719616651535034 0.41768524050712585
0.90068858861923218 0.96263384819030762 0.41347008943557739
0.9751591682434082 0.97819894552230835 0.4305260181427002
0.12737569212913513 0.068161666393280029 0.14678743481636047
0.23844428360462189 0.079826310276985168 0.15661010146141052
0.40293148159980774 0.12956702709197998 0.21231687068939209
0.57502955198287964 0.20553450286388397 0.28170597553253174
0.72315084934234619 0.28740313649177551 0.35157114267349243
0.84687560796737671 0.37893527746200562 0.42336198687553406
0.96507352590560913 0.48846951127052307 0.49476572871208191
0.14855249226093292 0.14106716215610504 0.15448874235153198
0.24139322340488434 0.14031310379505157 0.15563453733921051
0.39469829201698303 0.18878194689750671 0.20390740036964417
0.57206684350967407 0.28130090236663818 0.27815881371498108
0.72482240200042725 0.38302445411682129 0.35193642973899841
0.85112470388412476 0.49010434746742249 0.42387977242469788
0.96507352590560913 0.59444844722747803 0.4962649941444397
0.2241036593914032 0.28138589859008789 0.21104301512241364
0.30351933836936951 0.2684980034828186 0.20051270723342896
0.41399788856506348 0.29012569785118103 0.21926853060722351
0.56762874126434326 0.37455067038536072 0.27728348970413208
0.71819674968719482 0.4859122633934021 0.34852880239486694
0.85023421049118042 0.60172933340072632 0.42353060841560364
0.9655991792678833 0.70155417919158936 0.49592477083206177
0.32270035147666931 0.49077779054641724 0.28045541048049927
0.39806157350540161 0.47650542855262756 0.27221390604972839
0.47587481141090393 0.46764218807220459 0.26917257905006409
0.57964271306991577 0.50059926509857178 0.28961971402168274
0.71065670251846313 0.59010040760040283 0.34246799349784851
0.84348750114440918 0.69617950916290283 0.41746076941490173
0.96507352590560913 0.78547114133834839 0.49645179510116577
0.41152116656303406 0.69994807243347168 0.35065135359764099
0.49356329441070557 0.69881677627563477 0.35009112954139709
0.56148576736450195 0.6835169792175293 0.34157004952430725
0.63386696577072144 0.67911809682846069 0.33659657835960388
0.7223818302154541 0.70737409591674805 0.35177862644195557
0.83441591262817383 0.77281129360198975 0.40790092945098877
0.9607117772102356 0.8519672155380249 0.49260720610618591
0.49489644169807434 0.85954779386520386 0.42123270034790039
0.5757606029510498 0.86269515752792358 0.42289644479751587
0.64431822299957275 0.85818755626678467 0.41992846131324768
0.71022218465805054 0.85181921720504761 0.41344904899597168
0.77047377824783325 0.84397667646408081 0.40583238005638123
0.84738636016845703 0.8570176362991333 0.4250483512878418
0.95731562376022339 0.90730160474777222 0.48941707611083984
0.57444161176681519 0.96997654438018799 0.49681371450424194
0.64638131856918335 0.97124826908111572 0.49795252084732056
0.7151951789855957 0.97124773263931274 0.49729543924331665
0.7817617654800415 0.96928781270980835 0.49441775679588318
0.83702600002288818 0.96148502826690674 0.48852050304412842
0.89286428689956665 0.95472460985183716 0.48201528191566467
0.96727663278579712 0.96926403045654297 0.50083577632904053
0.23490755259990692 0.13556329905986786 0.28385978937149048
0.31056481599807739 0.12727539241313934 0.27035960555076599
0.41926896572113037 0.14280064404010773 0.28596466779708862
0.56557261943817139 0.19934135675430298 0.33784419298171997
0.71504700183868408 0.28338772058486938 0.41652140021324158
0.84709268808364868 0.38459903001785278 0.50133985280990601
0.96507352590560913 0.49417755007743835 0.58112972974777222
0.23474849760532379 0.20138265192508698 0.27566990256309509
0.30615556240081787 0.18879665434360504 0.26521390676498413
0.41418775916099548 0.20677419006824493 0.28311416506767273
0.56556051969528198 0.27663969993591309 0.33787980675697327
0.71671736240386963 0.37956437468528748 0.41603872179985046
0.84894466400146484 0.49310040473937988 0.50065869092941284
0.96507352590560913 0.59637278318405151 0.57830637693405151
0.24112838506698608 0.29117992520332336 0.28533712029457092
0.32827174663543701 0.28946599364280701 0.28332841396331787
0.42496588826179504 0.30013778805732727 0.29178962111473083
0.56383723020553589 0.37067261338233948 0.33842858672142029
0.71356046199798584 0.4836004376411438 0.41552236676216125
0.84932100772857666 0.60268491506576538 0.50180971622467041
0.96536684036254883 0.69928127527236938 0.58058488368988037
0.30930650234222412 0.47323441505432129 0.33728331327438354
0.39944055676460266 0.47652801871299744 0.3405100405216217
0.47892835736274719 0.46967774629592896 0.33657407760620117
0.57594728469848633 0.49616742134094238 0.35189920663833618
0.70909291505813599 0.58817100524902344 0.41243365406990051
0.84588336944580078 0.69843047857284546 0.49938502907752991
0.96672219038009644 0.78846210241317749 0.58304089307785034
0.40082284808158875 0.68724030256271362 0.4153362512588501
0.49180033802986145 0.69464468955993652 0.42033955454826355
0.56479132175445557 0.68523663282394409 0.4143461287021637
0.6372678279876709 0.68181818723678589 0.40772470831871033
0.7242622971534729 0.70794117450714111 0.42432209849357605
0.83586621284484863 0.7730567455291748 0.48638233542442322
0.96346777677536011 0.8539741039276123 0.5770643949508667
0.49176600575447083 0.85970145463943481 0.5005643367767334
0.57644176483154297 0.8629487156867981 0.50263065099716187
0.64859378337860107 0.86059588193893433 0.50045686960220337
0.71793115139007568 0.86042588949203491 0.49583971500396729
0.77665644884109497 0.85172837972640991 0.48632022738456726
0.84770351648330688 0.86019176244735718 0.50306391716003418
0.96323460340499878 0.91264921426773071 0.57757580280303955
0.57388019561767578 0.97082817554473877 0.57948893308639526
0.64843487739562988 0.97123891115188599 0.58199596405029297
0.71689891815185547 0.97124201059341431 0.58270561695098877
0.78461450338363647 0.97178614139556885 0.57950097322463989
0.84105110168457031 0.96608346700668335 0.57401418685913086
0.89604014158248901 0.96017545461654663 0.56695866584777832
0.97269201278686523 0.97545385360717773 0.59258133172988892
0.32686123251914978 0.20706829428672791 0.42322847247123718
0.40866273641586304 0.20437194406986237 0.41718193888664246
0.48005220293998718 0.19321428239345551 0.40754485130310059
0.57658618688583374 0.20805305242538452 0.42244622111320496
0.70807677507400513 0.27519130706787109 0.48773893713951111
0.84275525808334351 0.37949034571647644 0.57789343595504761
0.96507352590560913 0.49381864070892334 0.66633087396621704
0.32652750611305237 0.28669899702072144 0.41803127527236938
0.40554022789001465 0.28442555665969849 0.4148067831993103
0.47727614641189575 0.27024516463279724 0.40775290131568909
0.57658678293228149 0.28907760977745056 0.42391884326934814
0.70614564418792725 0.3709905743598938 0.48534402251243591
0.84105443954467773 0.48640900850296021 0.57368874549865723
0.96507352590560913 0.5982658863067627 0.66194033622741699
0.31137332320213318 0.36690932512283325 0.40859529376029968
0.39881408214569092 0.37077486515045166 0.41152366995811462
0.47280997037887573 0.35746467113494873 0.4040035605430603
0.57191509008407593 0.38255956768989563 0.42095747590065002
0.70395761728286743 0.47447255253791809 0.48524719476699829
0.84125232696533203 0.59292799234390259 0.5756717324256897
0.96507352590560913 0.69737154245376587 0.66373175382614136
0.32817229628562927 0.49602442979812622 0.42330801486968994
0.42079934477806091 0.50516211986541748 0.42885127663612366
0.49841365218162537 0.49550512433052063 0.42324027419090271
0.5793222188949585 0.49918445944786072 0.42401334643363953
0.70029628276824951 0.57468265295028687 0.47938632965087891
0.84024220705032349 0.68784129619598389 0.57555508613586426
0.96645945310592651 0.78722172975540161 0.66732770204544067
0.39653164148330688 0.68200099468231201 0.48527276515960693
0.48418286442756653 0.685954749584198 0.48638591170310974
0.55986076593399048 0.67782694101333618 0.48154547810554504
0.63207948207855225 0.67358481884002686 0.47641441226005554
0.71907395124435425 0.69994223117828369 0.49673748016357422
0.83363741636276245 0.76991742849349976 0.56474322080612183
0.9623410701751709 0.85440683364868164 0.65945529937744141
0.48870998620986938 0.85587030649185181 0.57548648118972778
0.56946736574172974 0.85403144359588623 0.57332319021224976
0.64398342370986938 0.85220450162887573 0.57389628887176514
0.71649003028869629 0.85524892807006836 0.57626575231552124
0.77361148595809937 0.84631216526031494 0.56508922576904297
0.84784209728240967 0.86110830307006836 0.58401656150817871
0.96161174774169922 0.91504418849945068 0.65689945220947266
0.57344865798950195 0.97067183256149292 0.66164159774780273
0.64681351184844971 0.9697035551071167 0.66152083873748779
0.71650964021682739 0.96975183486938477 0.66179740428924561
0.78435862064361572 0.97091448307037354 0.66358160972595215
0.84444236755371094 0.9691932201385498 0.66282302141189575
0.90384364128112793 0.9674152135848999 0.65948367118835449
0.97767561674118042 0.97961997985839844 0.6803697943687439
0.41109773516654968 0.28932243585586548 0.58014118671417236
0.49770915508270264 0.29364469647407532 0.58248037099838257
0.56740838289260864 0.2830621600151062 0.57639676332473755
0.63423144817352295 0.27099376916885376 0.56755316257476807
0.72043424844741821 0.29028937220573425 0.58400267362594604
0.83336937427520752 0.36608850955963135 0.65097576379776001
0.96342760324478149 0.48861086368560791 0.75413906574249268
0.41542285680770874 0.38579449057579041 0.58149558305740356
0.49966856837272644 0.39117604494094849 0.58513844013214111
0.56654226779937744 0.37647506594657898 0.57667183876037598
0.6334373950958252 0.36532288789749146 0.56772321462631226
0.72002339363098145 0.39305570721626282 0.5875706672668457
0.83413392305374146 0.47700616717338562 0.65390032529830933
0.96336674690246582 0.5967065691947937 0.7553170919418335
0.40552031993865967 0.48284798860549927 0.57390397787094116
0.48838105797767639 0.48526498675346375 0.5773770809173584
0.55890423059463501 0.4729536771774292 0.57063388824462891
0.63370800018310547 0.47210195660591125 0.5691218376159668
0.72371912002563477 0.50589591264724731 0.59216475486755371
0.83746260404586792 0.58803212642669678 0.65852522850036621
0.96427130699157715 0.69550561904907227 0.75643312931060791
0.39916801452636719 0.58804792165756226 0.56827151775360107
0.48369094729423523 0.58987933397293091 0.57232832908630371
0.55748128890991211 0.57989674806594849 0.56624120473861694
0.63016057014465332 0.57416903972625732 0.56035137176513672
0.71731722354888916 0.60125654935836792 0.58137995004653931
0.83282732963562012 0.67840570211410522 0.64917290210723877
0.96175491809844971 0.78056210279464722 0.75250881910324097
0.41568532586097717 0.70785152912139893 0.58508080244064331
0.50338125228881836 0.71285676956176758 0.58954912424087524
0.57657980918884277 0.7039760947227478 0.5830339789390564
0.64662963151931763 0.6972508430480957 0.5753934383392334
0.72334855794906616 0.70987427234649658 0.58350217342376709
0.82908487319946289 0.76606053113937378 0.64240539073944092
0.96073389053344727 0.85345572233200073 0.75033193826675415
0.48660930991172791 0.85436546802520752 0.65734660625457764
0.5625070333480835 0.84771645069122314 0.65301275253295898
0.63491612672805786 0.84374231100082397 0.65137696266174316
0.70327132940292358 0.84168332815170288 0.64894098043441772
0.76586097478866577 0.83874917030334473 0.64262861013412476
0.84640902280807495 0.85782355070114136 0.66724914312362671
0.96234816312789917 0.9134061336517334 0.75127673149108887
0.57483106851577759 0.97066789865493774 0.75920587778091431
0.64588278532028198 0.96769517660140991 0.75597214698791504
0.71090966463088989 0.96598535776138306 0.75382345914840698
0.7768058180809021 0.96628588438034058 0.7546660304069519
0.84172862768173218 0.96669310331344604 0.75648730993270874
0.90149915218353271 0.96309727430343628 0.74891126155853271
0.9788670539855957 0.97907602787017822 0.77384835481643677
0.49602827429771423 0.38849961757659912 0.76041704416275024
0.57901591062545776 0.3930683434009552 0.76411324739456177
0.64919191598892212 0.38793110847473145 0.76284956932067871
0.70931375026702881 0.3740658164024353 0.75022399425506592
0.76817578077316284 0.36315959692001343 0.73877167701721191
0.84623092412948608 0.3853076696395874 0.76327776908874512
0.96186649799346924 0.48319822549819946 0.84874844551086426
0.50067847967147827 0.49487891793251038 0.76237869262695312
0.58010369539260864 0.49771356582641602 0.76583510637283325
0.64795410633087158 0.49162346124649048 0.76257115602493286
0.70976924896240234 0.48094058036804199 0.75186413526535034
0.77117568254470825 0.47686553001403809 0.74494332075119019
0.8505103588104248 0.50505554676055908 0.76950240135192871
0.96229696273803711 0.59474772214889526 0.84845089912414551
0.49697417020797729 0.60016477108001709 0.75989025831222534
0.57331091165542603 0.59912598133087158 0.76270979642868042
0.645801842212677 0.59787917137145996 0.76108324527740479
0.7169945240020752 0.59813070297241211 0.75946170091629028
0.77915745973587036 0.59424656629562378 0.75302767753601074
0.86079698801040649 0.6269841194152832 0.78221291303634644
0.96655774116516113 0.70112425088882446 0.85381025075912476
0.48964336514472961 0.69597709178924561 0.75159108638763428
0.57084387540817261 0.69838452339172363 0.75933969020843506
0.64361310005187988 0.69536912441253662 0.75714540481567383
0.71145915985107422 0.690940260887146 0.74935740232467651
0.7729753851890564 0.68258911371231079 0.74054515361785889
0.85590040683746338 0.7140999436378479 0.77195560932159424
0.96259564161300659 0.7821541428565979 0.84742790460586548
0.47767764329910278 0.77150899171829224 0.74162751436233521
0.56554627418518066 0.78088235855102539 0.75006824731826782
0.63934051990509033 0.77787989377975464 0.74764633178710938
0.70164108276367188 0.76838362216949463 0.73574090003967285
0.76669979095458984 0.76626318693161011 0.73269021511077881
0.85212749242782593 0.79482823610305786 0.76715350151062012
0.96466881036758423 0.85573583841323853 0.85115236043930054
0.49896043539047241 0.86057662963867188 0.76562881469726562
0.5797545313835144 0.86155271530151367 0.76282262802124023
0.65428411960601807 0.86286073923110962 0.7664986252784729
0.71871602535247803 0.86017513275146484 0.76191264390945435
0.78316360712051392 0.85923761129379272 0.75995826721191406
0.86209481954574585 0.87303453683853149 0.78299164772033691
0.966450035572052 0.91574001312255859 0.85604119300842285
0.57043302059173584 0.96696716547012329 0.84733301401138306
0.64560437202453613 0.96635651588439941 0.84709453582763672
0.70729607343673706 0.9621894359588623 0.84118574857711792
0.77015978097915649 0.96068876981735229 0.83941924571990967
0.83677750825881958 0.96194970607757568 0.84184497594833374
0.9022287130355835 0.96243911981582642 0.84307444095611572
0.97851169109344482 0.97935688495635986 0.87066441774368286
0.57276719808578491 0.48561951518058777 0.94652736186981201
0.64972108602523804 0.49021804332733154 0.94845402240753174
0.71797537803649902 0.48892247676849365 0.94805866479873657
0.78293770551681519 0.48783242702484131 0.94549018144607544
0.84178757667541504 0.48562586307525635 0.9417426586151123
0.90481603145599365 0.4845949113368988 0.94469445943832397
0.9738582968711853 0.50525361299514771 0.96145325899124146
0.57609564065933228 0.5965878963470459 0.9483453631401062
0.65035092830657959 0.59785753488540649 0.94930702447891235
0.71448439359664917 0.59484893083572388 0.94802558422088623
0.78130424022674561 0.5945923924446106 0.94572156667709351
0.84232199192047119 0.59772509336471558 0.94418829679489136
0.90598177909851074 0.5946197509765625 0.94636619091033936
0.97155588865280151 0.60864293575286865 0.95605653524398804
0.57453441619873047 0.69700342416763306 0.9472121000289917
0.64668869972229004 0.69770520925521851 0.94803923368453979
0.71244180202484131 0.69752961397171021 0.94803923368453979
0.78209763765335083 0.69795829057693481 0.94883114099502563
0.84527319669723511 0.69945353269577026 0.94571077823638916
0.90835410356521606 0.70272976160049438 0.94944590330123901
0.97472494840621948 0.71339201927185059 0.96067750453948975
0.57254904508590698 0.78308933973312378 0.9455830454826355
0.64873111248016357 0.78809541463851929 0.9488149881362915
0.71633970737457275 0.78581339120864868 0.9470372200012207
0.78183209896087646 0.78324830532073975 0.94571077823638916
0.84525632858276367 0.78135478496551514 0.94477099180221558
0.90669572353363037 0.78727376461029053 0.94795173406600952
0.9718393087387085 0.79571527242660522 0.95736157894134521
0.57140547037124634 0.85473620891571045 0.9446597695350647
0.64720529317855835 0.85779184103012085 0.94512808322906494
0.7167743444442749 0.8569338321685791 0.94514596462249756
0.77918893098831177 0.85319846868515015 0.94144135713577271
0.84235852956771851 0.85084384679794312 0.94186943769454956
0.90531909465789795 0.85644292831420898 0.94658172130584717
0.97500938177108765 0.86585980653762817 0.96132397651672363
0.5685240626335144 0.91206467151641846 0.94114243984222412
0.64414328336715698 0.91352713108062744 0.94169455766677856
0.71388769149780273 0.91510641574859619 0.94475793838500977
0.77857822179794312 0.91425621509552002 0.94261628389358521
0.8419792652130127 0.91544079780578613 0.94377487897872925
0.90848910808563232 0.91715389490127563 0.94981759786605835
0.97576510906219482 0.93072247505187988 0.96835923194885254
0.58105313777923584 0.97397792339324951 0.95534676313400269
0.65919685363769531 0.97853732109069824 0.96328651905059814
0.72553473711013794 0.97685223817825317 0.9580952525138855
0.78831607103347778 0.97535210847854614 0.95774251222610474
0.8534318208694458 0.9748847484588623 0.95847904682159424
0.91959160566329956 0.97996014356613159 0.96402162313461304
0.98598551750183105 0.99124115705490112 0.98038804531097412
