assets/lut/others purple.cube
# Created by: G'MIC (https://gmic.eu)
TITLE "purple"
# LUT size
LUT_3D_SIZE 7
# Data domain
DOMAIN_MIN 0.0 0.0 0.0
DOMAIN_MAX 1.0 1.0 1.0
# LUT data points
0.12283093482255936 0.12271367758512497 0.12482739984989166
0.17883649468421936 0.11858420073986053 0.12394506484270096
0.28403562307357788 0.1176941841840744 0.13034294545650482
0.41178703308105469 0.10472892224788666 0.13324210047721863
0.59744435548782349 0.041997797787189484 0.13304834067821503
0.81851524114608765 0.0035302105825394392 0.12070915102958679
0.98711854219436646 0.00069403555244207382 0.10799875855445862
0.11749791353940964 0.178244948387146 0.12712891399860382
0.17930646240711212 0.17940890789031982 0.12628635764122009
0.28734064102172852 0.18256503343582153 0.1314961165189743
0.42318609356880188 0.17548860609531403 0.1338813304901123
0.60448563098907471 0.16266883909702301 0.13095654547214508
0.81990319490432739 0.14111617207527161 0.11788250505924225
0.98536115884780884 0.12751561403274536 0.10241000354290009
0.11218797415494919 0.28351250290870667 0.14685690402984619
0.17252030968666077 0.2915002703666687 0.13814985752105713
0.30414792895317078 0.30250149965286255 0.13229312002658844
0.4346921443939209 0.30569568276405334 0.13096407055854797
0.61310356855392456 0.31485229730606079 0.12675477564334869
0.82676279544830322 0.33139660954475403 0.10661216825246811
0.98867946863174438 0.32929083704948425 0.08584265410900116
0.052697081118822098 0.43069681525230408 0.16688191890716553
0.13421663641929626 0.43013730645179749 0.13708965480327606
0.30191022157669067 0.43332627415657043 0.13193495571613312
0.49168756604194641 0.48547914624214172 0.099006295204162598
0.68223613500595093 0.51106172800064087 0.070875592529773712
0.83964985609054565 0.5039706826210022 0.068543002009391785
0.98784351348876953 0.49872308969497681 0.062873095273971558
0.00019303863518871367 0.63092499971389771 0.17180369794368744
0.035332188010215759 0.63670796155929565 0.1056179404258728
0.29791402816772461 0.64145034551620483 0.0876130610704422
0.49687439203262329 0.66449451446533203 0.058883111923933029
0.73223769664764404 0.72696965932846069 0.0063800886273384094
0.90197288990020752 0.72308337688446045 0.0087106144055724144
0.9941331148147583 0.67961770296096802 0.027951484546065331
0 0.84437882900238037 0.14660391211509705
0.0085689621046185493 0.84730768203735352 0.021573968231678009
0.26146623492240906 0.83849459886550903 0.010648884810507298
0.49200433492660522 0.84208232164382935 0.0074747572652995586
0.69723379611968994 0.86850655078887939 0.0040936339646577835
0.89868372678756714 0.89206504821777344 0.011815777979791164
0.99754458665847778 0.86103951930999756 0.1116267517209053
0 0.9907602071762085 0.019267765805125237
0.0020063661504536867 0.99165916442871094 0.0034848980139940977
0.20840318500995636 0.98624414205551147 0.0028587640263140202
0.46773791313171387 0.98433023691177368 0.005941473413258791
0.67213678359985352 0.98460721969604492 0.002667789813131094
0.83460962772369385 0.99002945423126221 0.010317260399460793
0.98475134372711182 0.99122655391693115 0.09314563125371933
0.092138908803462982 0.12365100532770157 0.21439777314662933
0.17697839438915253 0.11978300660848618 0.20702578127384186
0.28553980588912964 0.11786717176437378 0.21226730942726135
0.42396262288093567 0.061680961400270462 0.22171318531036377
0.61901330947875977 0.0031382243614643812 0.22964651882648468
0.82853692770004272 0.00010549507715040818 0.22213195264339447
0.98656660318374634 0 0.21082465350627899
0.11090337485074997 0.18862034380435944 0.20859056711196899
0.17396816611289978 0.1811642050743103 0.20851790904998779
0.2875831127166748 0.17509372532367706 0.21235780417919159
0.43073612451553345 0.15597854554653168 0.22534777224063873
0.61987972259521484 0.080913573503494263 0.21762321889400482
0.82924395799636841 0.073641926050186157 0.21763730049133301
0.98707199096679688 0.064170792698860168 0.20404975116252899
0.11036492139101028 0.28693914413452148 0.22469900548458099
0.16882829368114471 0.28835663199424744 0.22061572968959808
0.29755857586860657 0.2973862886428833 0.21593408286571503
0.43284556269645691 0.29223081469535828 0.2101016491651535
0.62325572967529297 0.29484495520591736 0.21000786125659943
0.83198672533035278 0.30153515934944153 0.20630079507827759
0.98959159851074219 0.30891716480255127 0.20292107760906219
0.040355201810598373 0.42979773879051208 0.25168964266777039
0.13438160717487335 0.43018138408660889 0.23820534348487854
0.29075467586517334 0.43905198574066162 0.21670801937580109
0.4818110466003418 0.47696280479431152 0.19931535422801971
0.67265903949737549 0.4892362654209137 0.1974160373210907
0.84224486351013184 0.48916825652122498 0.19696936011314392
0.98876053094863892 0.49072039127349854 0.19507774710655212
0.0002695120929274708 0.63042467832565308 0.2769705057144165
0.041358903050422668 0.63395190238952637 0.24939185380935669
0.26812833547592163 0.64140146970748901 0.19890978932380676
0.4797491729259491 0.6558724045753479 0.19891916215419769
0.72765356302261353 0.72101247310638428 0.16986338794231415
0.89251667261123657 0.71011459827423096 0.19061915576457977
0.99123066663742065 0.67243725061416626 0.20770092308521271
0 0.83893853425979614 0.28512153029441833
0.0068046869710087776 0.84354233741760254 0.23095870018005371
0.23468306660652161 0.84121525287628174 0.16858045756816864
0.47453597187995911 0.84265220165252686 0.15108931064605713
0.69188940525054932 0.86416816711425781 0.1566709578037262
0.89317137002944946 0.8855597972869873 0.20437687635421753
0.99708825349807739 0.85676866769790649 0.25106033682823181
0 0.98688054084777832 0.25668999552726746
0.0043839998543262482 0.9885404109954834 0.19779418408870697
0.20322079956531525 0.98925858736038208 0.14282879233360291
0.4572986364364624 0.98667067289352417 0.14414745569229126
0.66564154624938965 0.98830020427703857 0.14761173725128174
0.8368602991104126 0.99131566286087036 0.20164446532726288
0.98762571811676025 0.98961490392684937 0.25183555483818054
0.0048585329204797745 0.12594775855541229 0.38744023442268372
0.13002793490886688 0.11916578561067581 0.381214439868927
0.30049541592597961 0.10039940476417542 0.36492332816123962
0.43618083000183105 0.048568770289421082 0.37500917911529541
0.63198733329772949 0.0010082768276333809 0.4091496467590332
0.83427244424819946 0 0.41348797082901001
0.98855304718017578 0 0.3880305290222168
0.013431205414235592 0.22745268046855927 0.38833215832710266
0.10787039250135422 0.19260449707508087 0.38631656765937805
0.29675602912902832 0.16808642446994781 0.37399959564208984
0.4459177553653717 0.14351168274879456 0.38136553764343262
0.63462531566619873 0.053925801068544388 0.4014134407043457
0.83425498008728027 0.023073937743902206 0.40588092803955078
0.98904991149902344 0.028062649071216583 0.38685181736946106
0.018546624109148979 0.34046259522438049 0.39041212201118469
0.10286638140678406 0.33418616652488708 0.39237990975379944
0.27631714940071106 0.29741451144218445 0.38335105776786804
0.4455622136592865 0.28109091520309448 0.38281351327896118
0.63975059986114502 0.25885653495788574 0.39401587843894958
0.8387642502784729 0.23737159371376038 0.39458790421485901
0.9904322624206543 0.27975839376449585 0.38884934782981873
0.006570479366928339 0.44228222966194153 0.3973940908908844
0.10271676629781723 0.44180741906166077 0.39821881055831909
0.27531895041465759 0.44282710552215576 0.3928581178188324
0.45547562837600708 0.45000430941581726 0.38325926661491394
0.65767526626586914 0.46053647994995117 0.3900960385799408
0.84248942136764526 0.46601483225822449 0.39126867055892944
0.98681962490081787 0.48309099674224854 0.39524003863334656
0 0.63202399015426636 0.44866189360618591
0.020625021308660507 0.6408076286315918 0.44372871518135071
0.2482551634311676 0.64900076389312744 0.42001989483833313
0.45454815030097961 0.65897285938262939 0.39028757810592651
0.71288067102432251 0.70641398429870605 0.39657315611839294
0.87618815898895264 0.69041883945465088 0.40799790620803833
0.9904976487159729 0.66720885038375854 0.40121716260910034
0 0.84105241298675537 0.47158008813858032
0.016793210059404373 0.84034889936447144 0.45619881153106689
0.21328090131282806 0.8446727991104126 0.42433872818946838
0.45815280079841614 0.8454100489616394 0.39357396960258484
0.68247371912002563 0.86225587129592896 0.40325844287872314
0.88958728313446045 0.88443690538406372 0.44531822204589844
0.99608159065246582 0.8599058985710144 0.46765416860580444
0 0.98707777261734009 0.45898151397705078
0.02354055643081665 0.98575127124786377 0.44518062472343445
0.23966862261295319 0.98694688081741333 0.40785092115402222
0.45932120084762573 0.98488271236419678 0.3868834376335144
0.66719645261764526 0.98851728439331055 0.39661809802055359
0.83840328454971313 0.98978620767593384 0.43013733625411987
0.99142909049987793 0.98997515439987183 0.48069232702255249
0.00028635660419240594 0.13432970643043518 0.61796200275421143
0.068375349044799805 0.11576004326343536 0.61755037307739258
0.29916346073150635 0.046933416277170181 0.59551703929901123
0.47409045696258545 0.0072804470546543598 0.57785815000534058
0.64547884464263916 0.0014845754485577345 0.58905279636383057
0.83738893270492554 0 0.6091809868812561
0.98902660608291626 0 0.58437007665634155
0 0.24358376860618591 0.61902576684951782
0.024172538891434669 0.1974530816078186 0.61887288093566895
0.27292221784591675 0.15118728578090668 0.60081464052200317
0.47281250357627869 0.086513906717300415 0.58585882186889648
0.64791738986968994 0.020608549937605858 0.59300357103347778
0.83974391222000122 0.004632358904927969 0.60529321432113647
0.9882386326789856 0.025397073477506638 0.58078265190124512
0 0.43049642443656921 0.63654094934463501
0.0050974227488040924 0.4030965268611908 0.63303488492965698
0.19709695875644684 0.31436207890510559 0.61655163764953613
0.45389097929000854 0.27726283669471741 0.59399783611297607
0.65400159358978271 0.25126335024833679 0.60157984495162964
0.84342664480209351 0.21074481308460236 0.59539115428924561
0.9896361231803894 0.23846757411956787 0.57012087106704712
0 0.54529780149459839 0.63000130653381348
0.0081360163167119026 0.53942286968231201 0.62767750024795532
0.21217602491378784 0.522632896900177 0.62788867950439453
0.43536689877510071 0.46474036574363708 0.6087537407875061
0.65997135639190674 0.44592744112014771 0.59620356559753418
0.84340184926986694 0.45657601952552795 0.59146237373352051
0.98889189958572388 0.50860095024108887 0.59168392419815063
0 0.67380201816558838 0.63797295093536377
0.015103193931281567 0.67007529735565186 0.632285475730896
0.21335440874099731 0.67074453830718994 0.62915962934494019
0.44662049412727356 0.66703629493713379 0.61491954326629639
0.67433547973632812 0.6699487566947937 0.60366946458816528
0.85115128755569458 0.67626619338989258 0.60596346855163574
0.9867292046546936 0.68878316879272461 0.60714495182037354
0 0.8478354811668396 0.66479009389877319
0.0041526048444211483 0.84723377227783203 0.66032183170318604
0.19177891314029694 0.84840565919876099 0.64347976446151733
0.45400714874267578 0.84741842746734619 0.61553460359573364
0.68085962533950806 0.85078996419906616 0.60974800586700439
0.88125431537628174 0.87970775365829468 0.6531836986541748
0.99298226833343506 0.85949718952178955 0.66058647632598877
0 0.98712748289108276 0.65184730291366577
0.019752591848373413 0.98773479461669922 0.63979166746139526
0.2386811375617981 0.98721659183502197 0.61985480785369873
0.49361908435821533 0.98744946718215942 0.60634398460388184
0.69203633069992065 0.98776113986968994 0.61087346076965332
0.84692513942718506 0.98828095197677612 0.62912780046463013
0.98664349317550659 0.98367685079574585 0.68321830034255981
0 0.14323988556861877 0.82588452100753784
0.0051962309516966343 0.1240360215306282 0.82060027122497559
0.20199739933013916 0.041074313223361969 0.81717926263809204
0.4613768458366394 0.0054157329723238945 0.8020251989364624
0.65751594305038452 0 0.79027551412582397
0.83659148216247559 0 0.80467146635055542
0.98698300123214722 0 0.78953093290328979
0 0.24305868148803711 0.83120214939117432
0.0088737336918711662 0.20681329071521759 0.83156758546829224
0.18817274272441864 0.16151310503482819 0.82018750905990601
0.44992530345916748 0.098444379866123199 0.8093145489692688
0.65672540664672852 0.020571749657392502 0.7963336706161499
0.83933925628662109 0.015201418660581112 0.80624550580978394
0.9863055944442749 0.014713511802256107 0.78801053762435913
0 0.45317134261131287 0.83752959966659546
0 0.42212840914726257 0.83785194158554077
0.080082058906555176 0.33425998687744141 0.82921874523162842
0.4174162745475769 0.29262453317642212 0.81498122215270996
0.64944767951965332 0.25755196809768677 0.79698705673217773
0.83988100290298462 0.21284535527229309 0.8041374683380127
0.98745054006576538 0.23255603015422821 0.77393215894699097
0 0.6189921498298645 0.84510630369186401
0.0019661248661577702 0.61120420694351196 0.8459281325340271
0.19274993240833282 0.57700783014297485 0.84179013967514038
0.41006118059158325 0.49798882007598877 0.82928180694580078
0.64721208810806274 0.46838930249214172 0.80190539360046387
0.84385716915130615 0.45600298047065735 0.79627066850662231
0.98867702484130859 0.47835680842399597 0.76180702447891235
0.00047568525769747794 0.73073935508728027 0.83443886041641235
0.020502068102359772 0.73228663206100464 0.83536094427108765
0.23635180294513702 0.72998517751693726 0.83299648761749268
0.48502850532531738 0.7295067310333252 0.83037722110748291
0.67942607402801514 0.69543379545211792 0.81252104043960571
0.84784448146820068 0.68223553895950317 0.7940172553062439
0.97870087623596191 0.7130090594291687 0.78308773040771484
0.00058951287064701319 0.85704410076141357 0.83816099166870117
0.03621470183134079 0.86138707399368286 0.83855915069580078
0.2383267730474472 0.86107414960861206 0.83610403537750244
0.48509630560874939 0.85910320281982422 0.82452666759490967
0.6956666111946106 0.85493868589401245 0.80877792835235596
0.86470377445220947 0.86256146430969238 0.81399959325790405
0.98415666818618774 0.86718833446502686 0.81194204092025757
0.0020555832888931036 0.98839479684829712 0.84481734037399292
0.023258209228515625 0.98960310220718384 0.8390120267868042
0.27791288495063782 0.9892042875289917 0.830574631690979
0.50813168287277222 0.98829680681228638 0.8045954704284668
0.71762204170227051 0.9844202995300293 0.79615235328674316
0.86640852689743042 0.98292505741119385 0.80222702026367188
0.98502600193023682 0.98481768369674683 0.84598124027252197
0 0.15856152772903442 0.95304912328720093
0.001480162376537919 0.14766672253608704 0.95227831602096558
0.047170016914606094 0.10309810191392899 0.94960767030715942
0.38301008939743042 0.030107729136943817 0.9442899227142334
0.60668760538101196 0.0060387258417904377 0.93424719572067261
0.79275631904602051 0.0014526217710226774 0.9356275200843811
0.98118299245834351 0 0.95939987897872925
0 0.24086913466453552 0.95345544815063477
0.0024360956158488989 0.22205774486064911 0.95180213451385498
0.083296231925487518 0.19320973753929138 0.94792652130126953
0.36635816097259521 0.15203942358493805 0.94693440198898315
0.60350292921066284 0.10057548433542252 0.93418842554092407
0.79055333137512207 0.029706379398703575 0.93617928028106689
0.97633165121078491 0.014790089800953865 0.9553108811378479
0 0.44723021984100342 0.95353877544403076
0.0029266506899148226 0.41675275564193726 0.95238357782363892
0.055115390568971634 0.34985142946243286 0.95176565647125244
0.34956368803977966 0.326703280210495 0.94591504335403442
0.59930139780044556 0.30061918497085571 0.93679231405258179
0.78959661722183228 0.26700648665428162 0.93375885486602783
0.97866553068161011 0.25547736883163452 0.94946342706680298
0.0093536078929901123 0.63004809617996216 0.95300078392028809
0.078374318778514862 0.62100070714950562 0.95440125465393066
0.25707003474235535 0.58883798122406006 0.9540780782699585
0.39336684346199036 0.52206957340240479 0.94900119304656982
0.61333316564559937 0.49765259027481079 0.93810230493545532
0.80519062280654907 0.48315197229385376 0.93131369352340698
0.97280257940292358 0.48885577917098999 0.93066930770874023
0.040935005992650986 0.75659608840942383 0.9509081244468689
0.11976053565740585 0.75913918018341064 0.9503476619720459
0.3718189001083374 0.76543933153152466 0.95118969678878784
0.55761551856994629 0.76478660106658936 0.9485098123550415
0.68242698907852173 0.72296679019927979 0.94234609603881836
0.82685685157775879 0.69612365961074829 0.93078458309173584
0.97340965270996094 0.69531309604644775 0.92272800207138062
0.12416152656078339 0.85253489017486572 0.94642037153244019
0.22165106236934662 0.85350924730300903 0.94745713472366333
0.40248528122901917 0.8586268424987793 0.9465177059173584
0.58339822292327881 0.87058532238006592 0.94604051113128662
0.74940997362136841 0.88211572170257568 0.94186711311340332
0.8644108772277832 0.86934852600097656 0.93178892135620117
0.97678786516189575 0.86852937936782837 0.91709762811660767
0.16065102815628052 0.97683167457580566 0.96008181571960449
0.2519526481628418 0.97534972429275513 0.95892363786697388
0.41631045937538147 0.97767692804336548 0.95824384689331055
0.57735079526901245 0.98343676328659058 0.95231366157531738
0.73685359954833984 0.98407632112503052 0.94203025102615356
0.87370532751083374 0.97964859008789062 0.92309004068374634
0.98517900705337524 0.98412829637527466 0.93969321250915527
0 0.1756969690322876 0.99807101488113403
0.00017308253154624254 0.17088533937931061 0.99818176031112671
0.034631602466106415 0.15439975261688232 0.99747061729431152
0.24477821588516235 0.11650016903877258 0.99855023622512817
0.53285348415374756 0.01803373359143734 0.99780607223510742
0.74583500623703003 0.0023947174195200205 0.99626123905181885
0.9273877739906311 0 0.9991564154624939
0 0.23942732810974121 0.99939537048339844
0 0.22887586057186127 0.99960201978683472
0.009004959836602211 0.21299970149993896 0.99898970127105713
0.25350546836853027 0.19522784650325775 0.9984283447265625
0.53504151105880737 0.15515169501304626 0.99790167808532715
0.7506711483001709 0.1002015620470047 0.99757140874862671
0.92852890491485596 0.074038669466972351 0.99926877021789551
0.00050505093531683087 0.42316159605979919 0.9989054799079895
0.0067808264866471291 0.40446451306343079 0.99809056520462036
0.014746692031621933 0.35274505615234375 0.99909782409667969
0.25330409407615662 0.34355518221855164 0.99828916788101196
0.54536360502243042 0.3299199640750885 0.99709117412567139
0.75210297107696533 0.3103785514831543 0.9974968433380127
0.93658185005187988 0.2943081259727478 0.99985909461975098
0.23068627715110779 0.63668781518936157 0.99786245822906494
0.23705688118934631 0.62480545043945312 0.99925416707992554
0.22117516398429871 0.57747328281402588 0.99932587146759033
0.35475242137908936 0.52310597896575928 0.99814438819885254
0.57813698053359985 0.51976746320724487 0.99610257148742676
0.77137631177902222 0.50287902355194092 0.99875456094741821
0.94949740171432495 0.50304818153381348 0.99851667881011963
0.33657890558242798 0.77009409666061401 0.99914199113845825
0.41567054390907288 0.77963054180145264 0.99846816062927246
0.5263335108757019 0.78709149360656738 0.99911254644393921
0.6312565803527832 0.78587168455123901 0.99817478656768799
0.6751895546913147 0.72989398241043091 0.99878597259521484
0.8144911527633667 0.71220594644546509 0.99641042947769165
0.96506893634796143 0.70584636926651001 0.99718016386032104
0.40178927779197693 0.85919392108917236 0.99971663951873779
0.47139135003089905 0.86633265018463135 0.99878734350204468
0.56730329990386963 0.87674665451049805 0.99855738878250122
0.68252897262573242 0.89081740379333496 0.9982636570930481
0.79999452829360962 0.90278381109237671 0.99754226207733154
0.87173676490783691 0.88117843866348267 0.99719548225402832
0.97996753454208374 0.86854541301727295 0.99553567171096802
0.46731993556022644 0.9363134503364563 0.9992903470993042
0.50601756572723389 0.93620449304580688 0.99848443269729614
0.58862769603729248 0.93582993745803833 0.99828106164932251
0.69198566675186157 0.95054608583450317 0.99679279327392578
0.80787360668182373 0.96249961853027344 0.99656558036804199
0.91806566715240479 0.98062014579772949 0.997031569480896
0.99046033620834351 0.98844033479690552 0.99442899227142334
