assets/lut/others faux infrared.cube
# Created by: G'MIC (https://gmic.eu)
TITLE "faux_infrared"
# LUT size
LUT_3D_SIZE 5
# Data domain
DOMAIN_MIN 0.0 0.0 0.0
DOMAIN_MAX 1.0 1.0 1.0
# LUT data points
0.048132024705410004 0.057374961674213409 0.060728482902050018
0.19912184774875641 0.19358637928962708 0.26838997006416321
0.39434924721717834 0.35986509919166565 0.48791760206222534
0.59867620468139648 0.54048305749893188 0.7221713662147522
0.78065842390060425 0.70421493053436279 0.95199966430664062
0.25955197215080261 0.23402032256126404 0.2346075028181076
0.17813277244567871 0.27004659175872803 0.25131964683532715
0.32647401094436646 0.42109566926956177 0.4909631609916687
0.50625205039978027 0.56375080347061157 0.72601288557052612
0.66305059194564819 0.69767796993255615 0.95011013746261597
0.48955729603767395 0.40814068913459778 0.41579505801200867
0.37625399231910706 0.3455997109413147 0.48885419964790344
0.2845160961151123 0.50974541902542114 0.43305107951164246
0.43662318587303162 0.69138103723526001 0.7103850245475769
0.60665225982666016 0.81219726800918579 0.95201247930526733
0.71956431865692139 0.60114610195159912 0.59138888120651245
0.69895917177200317 0.52913928031921387 0.72431701421737671
0.45953047275543213 0.55881422758102417 0.72548824548721313
0.40172162652015686 0.74030798673629761 0.6149524450302124
0.56003797054290771 0.94638186693191528 0.9331325888633728
0.94949603080749512 0.79309302568435669 0.78757864236831665
0.94947260618209839 0.71317863464355469 0.91650742292404175
0.71990954875946045 0.64032280445098877 0.95506578683853149
0.55736356973648071 0.81139296293258667 0.92593473196029663
0.51821553707122803 0.96530383825302124 0.7651515007019043
0.20880034565925598 0.21205882728099823 0.26190084218978882
0.1716005951166153 0.17159199714660645 0.28740611672401428
0.35118010640144348 0.33035418391227722 0.49314114451408386
0.54287052154541016 0.49243175983428955 0.72931641340255737
0.73483824729919434 0.66388070583343506 0.95785349607467651
0.26511332392692566 0.29979145526885986 0.28860995173454285
0.27926430106163025 0.28873136639595032 0.29575783014297485
0.42908772826194763 0.42769309878349304 0.49094727635383606
0.62312221527099609 0.5900118350982666 0.72257786989212036
0.80876106023788452 0.75905317068099976 0.95590835809707642
0.46558132767677307 0.49604547023773193 0.42088863253593445
0.48658326268196106 0.44424241781234741 0.46615391969680786
0.39939764142036438 0.50277900695800781 0.48362648487091064
0.55282413959503174 0.66300976276397705 0.72294622659683228
0.70713633298873901 0.78055697679519653 0.93920242786407471
0.72181946039199829 0.70716297626495361 0.59706592559814453
0.72282081842422485 0.63951206207275391 0.65375655889511108
0.61058980226516724 0.57676810026168823 0.7214667797088623
0.50763493776321411 0.73677819967269897 0.65747231245040894
0.6659846305847168 0.92198914289474487 0.95148861408233643
0.95473724603652954 0.90716707706451416 0.77950114011764526
0.95402306318283081 0.8180956244468689 0.83332401514053345
0.91714787483215332 0.75509142875671387 0.95150339603424072
0.68148213624954224 0.78223073482513428 0.95378422737121582
0.62836664915084839 0.96623784303665161 0.8409886360168457
0.39213946461677551 0.3986085057258606 0.49538782238960266
0.34512826800346375 0.34771949052810669 0.49227556586265564
0.28509387373924255 0.28380826115608215 0.51076370477676392
0.47258409857749939 0.43959102034568787 0.7269248366355896
0.65580266714096069 0.60350006818771362 0.95072156190872192
0.41180086135864258 0.45494642853736877 0.49632701277732849
0.43007165193557739 0.44027212262153625 0.49519577622413635
0.40013939142227173 0.40022939443588257 0.51289290189743042
0.578876793384552 0.55291378498077393 0.7301141619682312
0.76332360506057739 0.71433055400848389 0.95332396030426025
0.43725460767745972 0.52007049322128296 0.50749319791793823
0.47760370373725891 0.51525527238845825 0.50751805305480957
0.5073893666267395 0.5121343731880188 0.52153033018112183
0.66882777214050293 0.65869009494781494 0.72426044940948486
0.85027140378952026 0.81995242834091187 0.95119279623031616
0.61616671085357666 0.72285234928131104 0.61461806297302246
0.6866992712020874 0.72218459844589233 0.64466327428817749
0.71625638008117676 0.67954987287521362 0.70364886522293091
0.63398987054824829 0.7319226861000061 0.70580202341079712
0.78094369173049927 0.88538151979446411 0.95181649923324585
0.88851463794708252 0.95389223098754883 0.79194432497024536
0.9449504017829895 0.94261413812637329 0.82404071092605591
0.95313239097595215 0.86559319496154785 0.87991726398468018
0.84510219097137451 0.81462782621383667 0.95284688472747803
0.73907673358917236 0.96400398015975952 0.88254356384277344
0.58824449777603149 0.58924460411071777 0.71955704689025879
0.52370184659957886 0.52375906705856323 0.72073447704315186
0.4496535062789917 0.45169076323509216 0.71732032299041748
0.40439197421073914 0.40562483668327332 0.73941415548324585
0.58826339244842529 0.55367285013198853 0.96053892374038696
0.60139864683151245 0.63528919219970703 0.72926789522171021
0.62691229581832886 0.63220924139022827 0.72865867614746094
0.56561613082885742 0.56865584850311279 0.72658944129943848
0.51085084676742554 0.51202178001403809 0.74020767211914062
0.69380778074264526 0.66707044839859009 0.952198326587677
0.60164707899093628 0.68586015701293945 0.72573530673980713
0.64152473211288452 0.67996585369110107 0.72508758306503296
0.66651308536529541 0.66740930080413818 0.72494101524353027
0.62608623504638672 0.63257831335067749 0.74444758892059326
0.80542260408401489 0.78051292896270752 0.95179098844528198
0.62515103816986084 0.74796706438064575 0.73572355508804321
0.66464728116989136 0.75001668930053711 0.73780190944671631
0.7063942551612854 0.74126386642456055 0.73782533407211304
0.7373206615447998 0.74563956260681152 0.75463402271270752
0.89979666471481323 0.88845688104629517 0.95185136795043945
0.79988718032836914 0.94515681266784668 0.83495950698852539
0.85223227739334106 0.95240110158920288 0.84318321943283081
0.91276240348815918 0.95136785507202148 0.87242412567138672
0.94309359788894653 0.90633761882781982 0.91901588439941406
0.85839939117431641 0.95931518077850342 0.93917065858840942
0.75864982604980469 0.77911925315856934 0.95940202474594116
0.70591109991073608 0.70722818374633789 0.95633834600448608
0.64429742097854614 0.64422798156738281 0.94195973873138428
0.5732542872428894 0.57174301147460938 0.96170288324356079
0.51277780532836914 0.50969558954238892 0.95315092802047729
0.77911275625228882 0.82764637470245361 0.95387744903564453
0.79941272735595703 0.8098633885383606 0.95242446660995483
0.75333011150360107 0.75290465354919434 0.95257174968719482
0.68529564142227173 0.68463629484176636 0.95330250263214111
0.63642513751983643 0.63330954313278198 0.97248458862304688
0.78686034679412842 0.86520665884017944 0.95281082391738892
0.82322520017623901 0.86190849542617798 0.95552468299865723
0.86010944843292236 0.86015397310256958 0.95504266023635864
0.79597622156143188 0.79934954643249512 0.95838457345962524
0.75378847122192383 0.75012266635894775 0.98019379377365112
0.79518377780914307 0.91195964813232422 0.95749801397323608
0.83151626586914062 0.91273993253707886 0.95529240369796753
0.86959630250930786 0.91280734539031982 0.95502710342407227
0.89909887313842773 0.9027525782585144 0.95680487155914307
0.87418490648269653 0.86611509323120117 0.97379392385482788
0.81512242555618286 0.97738355398178101 0.96558892726898193
0.85276556015014648 0.97692632675170898 0.96592414379119873
0.89203047752380371 0.96884340047836304 0.96846038103103638
0.93281251192092896 0.96608513593673706 0.95949488878250122
0.95633620023727417 0.96008425951004028 0.96642076969146729
