assets/lut/others cinematic 01.cube
# Created by: G'MIC (https://gmic.eu)
TITLE "cinematic_01"
# LUT size
LUT_3D_SIZE 7
# Data domain
DOMAIN_MIN 0.0 0.0 0.0
DOMAIN_MAX 1.0 1.0 1.0
# LUT data points
0.091301649808883667 0.063649363815784454 0.062112260609865189
0.1486687958240509 0.06902129203081131 0.06361282616853714
0.23966747522354126 0.069569922983646393 0.062564030289649963
0.381418377161026 0.080408252775669098 0.059795979410409927
0.54576176404953003 0.099643394351005554 0.066210545599460602
0.68893295526504517 0.11498609185218811 0.070191867649555206
0.82266390323638916 0.1263129711151123 0.070511773228645325
0.087942250072956085 0.12802094221115112 0.061873774975538254
0.15366710722446442 0.12676891684532166 0.061339974403381348
0.24853503704071045 0.13089445233345032 0.058977898210287094
0.38597893714904785 0.14265120029449463 0.056726299226284027
0.55134421586990356 0.16429322957992554 0.062555782496929169
0.69684141874313354 0.18868575990200043 0.071698553860187531
0.83585697412490845 0.20554810762405396 0.077438324689865112
0.091812506318092346 0.20073501765727997 0.06722741574048996
0.14216159284114838 0.20571291446685791 0.068849004805088043
0.26429161429405212 0.20984663069248199 0.063399262726306915
0.42223384976387024 0.22048312425613403 0.061981409788131714
0.57661330699920654 0.24521252512931824 0.067003078758716583
0.72380423545837402 0.27723664045333862 0.075791738927364349
0.86278694868087769 0.30457711219787598 0.086034052073955536
0.094585224986076355 0.29039677977561951 0.07979341596364975
0.14031708240509033 0.30338042974472046 0.074946776032447815
0.27720737457275391 0.32440495491027832 0.070293635129928589
0.4823138415813446 0.33876335620880127 0.069429181516170502
0.62597888708114624 0.35736739635467529 0.074040144681930542
0.76322007179260254 0.3870999813079834 0.080342955887317657
0.8909839391708374 0.41585361957550049 0.094156615436077118
0.10134828090667725 0.41757035255432129 0.1084805354475975
0.1424325704574585 0.43539106845855713 0.097249932587146759
0.2858026921749115 0.46289792656898499 0.090777106583118439
0.50296854972839355 0.49981036782264709 0.092385761439800262
0.65955883264541626 0.50812846422195435 0.084871865808963776
0.78982579708099365 0.52393174171447754 0.092014387249946594
0.90602433681488037 0.53982770442962646 0.10779653489589691
0.11556293070316315 0.56105023622512817 0.13675884902477264
0.16260413825511932 0.5784258246421814 0.12055761367082596
0.30689021944999695 0.60628503561019897 0.10855302959680557
0.49710544943809509 0.63218021392822266 0.10164730250835419
0.64942830801010132 0.6634291410446167 0.10174179077148438
0.79580068588256836 0.67606598138809204 0.11093304306268692
0.90910851955413818 0.67520725727081299 0.12205014377832413
0.14201110601425171 0.69693076610565186 0.16527603566646576
0.19071009755134583 0.71447789669036865 0.1487748771905899
0.33382418751716614 0.76039457321166992 0.1351432204246521
0.50663286447525024 0.77819705009460449 0.12060818821191788
0.63672012090682983 0.79378777742385864 0.12109123915433884
0.76815587282180786 0.80885571241378784 0.12767726182937622
0.89565032720565796 0.81782984733581543 0.13268181681632996
0.093774743378162384 0.064215473830699921 0.10681395977735519
0.14849591255187988 0.06300036609172821 0.10848353058099747
0.25125378370285034 0.070572361350059509 0.10126027464866638
0.39183691143989563 0.080027982592582703 0.098992444574832916
0.5560181736946106 0.097175478935241699 0.10369129478931427
0.69609838724136353 0.11527293920516968 0.10933432728052139
0.82430863380432129 0.12863203883171082 0.11716373264789581
0.09013703465461731 0.12794117629528046 0.1259768158197403
0.13325554132461548 0.13393604755401611 0.12710849940776825
0.24520768225193024 0.1373477578163147 0.11744619905948639
0.39662167429924011 0.14582200348377228 0.11127214878797531
0.56524151563644409 0.16379135847091675 0.11174137145280838
0.70663374662399292 0.18893347680568695 0.11961103230714798
0.83598059415817261 0.20593926310539246 0.1314137727022171
0.09333743155002594 0.21010485291481018 0.1472422182559967
0.13160905241966248 0.21446193754673004 0.14166252315044403
0.26394373178482056 0.21900662779808044 0.11393769085407257
0.442766934633255 0.23083014786243439 0.11037535965442657
0.58964419364929199 0.25782948732376099 0.12045445293188095
0.73517203330993652 0.29146662354469299 0.12901362776756287
0.8544432520866394 0.32973307371139526 0.15223944187164307
0.10112897306680679 0.30930688977241516 0.17073670029640198
0.14325499534606934 0.31591084599494934 0.15902800858020782
0.24543790519237518 0.33985945582389832 0.13415615260601044
0.49472895264625549 0.35834279656410217 0.11695890128612518
0.64761614799499512 0.37995147705078125 0.12128160893917084
0.77597594261169434 0.40987813472747803 0.13501949608325958
0.88378632068634033 0.44549456238746643 0.16575086116790771
0.11661792546510696 0.44262117147445679 0.20199073851108551
0.14910893142223358 0.45148944854736328 0.18566590547561646
0.24865204095840454 0.48081463575363159 0.15926341712474823
0.49805599451065063 0.51771974563598633 0.14170970022678375
0.6716187596321106 0.53455650806427002 0.13573555648326874
0.79210871458053589 0.54564547538757324 0.15195417404174805
0.90227949619293213 0.56512677669525146 0.17684003710746765
0.1395716518163681 0.57758009433746338 0.23172926902770996
0.16605073213577271 0.58913731575012207 0.20899736881256104
0.2513924241065979 0.6127166748046875 0.18853551149368286
0.49424812197685242 0.65527427196502686 0.16362631320953369
0.64810103178024292 0.67807495594024658 0.15994095802307129
0.79049479961395264 0.68351465463638306 0.16831892728805542
0.9101521372795105 0.69490969181060791 0.1851562112569809
0.16240678727626801 0.70781779289245605 0.25880405306816101
0.19555409252643585 0.72319018840789795 0.23232468962669373
0.28257429599761963 0.74982213973999023 0.22157298028469086
0.49463161826133728 0.79100865125656128 0.20250174403190613
0.63523054122924805 0.80953943729400635 0.19344823062419891
0.7673458456993103 0.82106345891952515 0.19184957444667816
0.90144330263137817 0.83417689800262451 0.19743746519088745
0.10170613974332809 0.072125457227230072 0.17588628828525543
0.13966652750968933 0.072991356253623962 0.17992609739303589
0.22051356732845306 0.071799784898757935 0.17199960350990295
0.382668137550354 0.080678246915340424 0.15869489312171936
0.55963468551635742 0.096386164426803589 0.15624538064002991
0.70348387956619263 0.1198965311050415 0.16450424492359161
0.82798135280609131 0.13923914730548859 0.18113574385643005
0.089332863688468933 0.12409263849258423 0.19518691301345825
0.12743435800075531 0.13345341384410858 0.20336903631687164
0.21359869837760925 0.14309550821781158 0.20124706625938416
0.41208159923553467 0.15745632350444794 0.17986400425434113
0.57944440841674805 0.16701370477676392 0.17513138055801392
0.71936285495758057 0.19849559664726257 0.19085016846656799
0.84348571300506592 0.2252461165189743 0.21109460294246674
0.089851066470146179 0.20033307373523712 0.22129739820957184
0.12294600158929825 0.21068643033504486 0.23027032613754272
0.19105920195579529 0.22457849979400635 0.23592275381088257
0.42354384064674377 0.25989261269569397 0.22094382345676422
0.59667587280273438 0.29389834403991699 0.22813047468662262
0.73041355609893799 0.32944205403327942 0.24680857360363007
0.85222423076629639 0.35538762807846069 0.26172062754631042
0.096122711896896362 0.32537183165550232 0.27238205075263977
0.13698408007621765 0.33612141013145447 0.27498385310173035
0.18235991895198822 0.35092532634735107 0.26428088545799255
0.48044541478157043 0.39356416463851929 0.20924548804759979
0.63216423988342285 0.42822197079658508 0.24673686921596527
0.7520865797996521 0.46133965253829956 0.28126224875450134
0.86791914701461792 0.48377859592437744 0.29813119769096375
0.11340845376253128 0.47485890984535217 0.32197996973991394
0.15869919955730438 0.48231875896453857 0.31514409184455872
0.2220396101474762 0.49256765842437744 0.29545903205871582
0.44218355417251587 0.53995531797409058 0.25117313861846924
0.66587954759597778 0.57063227891921997 0.24197235703468323
0.78017204999923706 0.58184933662414551 0.2802790105342865
0.8910977840423584 0.60497194528579712 0.30051705241203308
0.13885511457920074 0.6116710901260376 0.34883430600166321
0.18209709227085114 0.61693942546844482 0.33582413196563721
0.24244758486747742 0.62487626075744629 0.31592875719070435
0.45017334818840027 0.67469853162765503 0.29094290733337402
0.64830935001373291 0.7035784125328064 0.27288195490837097
0.79315173625946045 0.71231645345687866 0.27018079161643982
0.91072684526443481 0.72378993034362793 0.28894862532615662
0.16291844844818115 0.73462581634521484 0.36885750293731689
0.20879338681697845 0.74010753631591797 0.35897162556648254
0.29018744826316833 0.75867336988449097 0.3493579626083374
0.48646253347396851 0.81433713436126709 0.33175089955329895
0.64617729187011719 0.84165167808532715 0.30738019943237305
0.7751457691192627 0.85166472196578979 0.29355600476264954
0.90709155797958374 0.86047899723052979 0.29169139266014099
0.10342836380004883 0.079510271549224854 0.25943103432655334
0.14447611570358276 0.080220229923725128 0.26124626398086548
0.19479185342788696 0.07558237761259079 0.25915130972862244
0.33243075013160706 0.084042586386203766 0.24140505492687225
0.54924196004867554 0.1029195562005043 0.22349992394447327
0.70028507709503174 0.12783728539943695 0.24117237329483032
0.82277065515518188 0.14727114140987396 0.26665899157524109
0.087935715913772583 0.125384122133255 0.28724285960197449
0.13104808330535889 0.13451699912548065 0.29384309053421021
0.18443700671195984 0.14339938759803772 0.2958967387676239
0.34115347266197205 0.15875379741191864 0.28277945518493652
0.57369434833526611 0.18053692579269409 0.2640414834022522
0.71443229913711548 0.20987479388713837 0.28698092699050903
0.8413395881652832 0.23897287249565125 0.31479454040527344
0.090596549212932587 0.19233597815036774 0.31281989812850952
0.12427490949630737 0.19956859946250916 0.32172167301177979
0.16760410368442535 0.21307314932346344 0.34166532754898071
0.3495221734046936 0.26006487011909485 0.34526312351226807
0.59598821401596069 0.3174501359462738 0.35681802034378052
0.73069173097610474 0.34126803278923035 0.37451422214508057
0.86432301998138428 0.36450076103210449 0.38153836131095886
0.091736048460006714 0.2969418466091156 0.34925630688667297
0.12854169309139252 0.31825876235961914 0.36886250972747803
0.18201348185539246 0.34402957558631897 0.39099094271659851
0.32014614343643188 0.392905592918396 0.41343668103218079
0.60477858781814575 0.46669274568557739 0.43338391184806824
0.74477243423461914 0.4931124746799469 0.44500109553337097
0.88039904832839966 0.50610393285751343 0.44370904564857483
0.1054593101143837 0.48279273509979248 0.44357690215110779
0.15368963778018951 0.49384862184524536 0.44471690058708191
0.20946338772773743 0.52087223529815674 0.45883750915527344
0.35953095555305481 0.55278772115707397 0.45015564560890198
0.65013319253921509 0.59734320640563965 0.40902146697044373
0.77259695529937744 0.62445265054702759 0.44688037037849426
0.89614617824554443 0.64117741584777832 0.46690517663955688
0.13908398151397705 0.63738995790481567 0.50030690431594849
0.18829573690891266 0.64650684595108032 0.50003540515899658
0.24245169758796692 0.65050554275512695 0.48674947023391724
0.42981189489364624 0.69173264503479004 0.46439230442047119
0.64550745487213135 0.72851765155792236 0.42420026659965515
0.79216140508651733 0.75036412477493286 0.42157459259033203
0.91690003871917725 0.755656898021698 0.44038164615631104
0.16760410368442535 0.7642214298248291 0.52360683679580688
0.22264549136161804 0.76862579584121704 0.51712441444396973
0.29867729544639587 0.782848060131073 0.50487411022186279
0.48389282822608948 0.83400750160217285 0.47868058085441589
0.65768337249755859 0.87222707271575928 0.44978931546211243
0.77354294061660767 0.88053566217422485 0.43643879890441895
0.90666598081588745 0.88754987716674805 0.4208819568157196
0.11021295934915543 0.08890533447265625 0.36676186323165894
0.16119387745857239 0.090255215764045715 0.36724773049354553
0.20842960476875305 0.08400002121925354 0.36639800667762756
0.27285540103912354 0.086615711450576782 0.37068343162536621
0.49010178446769714 0.10481920093297958 0.33558204770088196
0.68957114219665527 0.13657185435295105 0.33271288871765137
0.8169245719909668 0.15642662346363068 0.36285102367401123
0.085784599184989929 0.12581992149353027 0.39852133393287659
0.13540664315223694 0.13952089846134186 0.40703496336936951
0.19799458980560303 0.14577226340770721 0.41122600436210632
0.2813798189163208 0.15129199624061584 0.40998923778533936
0.53300917148590088 0.18901196122169495 0.37630966305732727
0.70867329835891724 0.22517792880535126 0.39251145720481873
0.83481442928314209 0.24935325980186462 0.42496410012245178
0.094649054110050201 0.20286819338798523 0.42792734503746033
0.12777332961559296 0.21064683794975281 0.44402450323104858
0.1755174845457077 0.22552047669887543 0.46651875972747803
0.26022619009017944 0.24131256341934204 0.48308014869689941
0.56789404153823853 0.3279109001159668 0.47304168343544006
0.7285342812538147 0.35518163442611694 0.48509624600410461
0.86170583963394165 0.37403607368469238 0.50252062082290649
0.095487885177135468 0.30465131998062134 0.4670102596282959
0.1320410817861557 0.32242771983146667 0.48463320732116699
0.18670779466629028 0.34653857350349426 0.50980621576309204
0.2526698112487793 0.37382370233535767 0.54445111751556396
0.60121041536331177 0.48223769664764404 0.55940037965774536
0.74728721380233765 0.50854909420013428 0.57098841667175293
0.88091146945953369 0.52460628747940063 0.58614659309387207
0.099580176174640656 0.44453388452529907 0.52614927291870117
0.14251050353050232 0.45782256126403809 0.53752821683883667
0.19983017444610596 0.48465552926063538 0.56122803688049316
0.29380947351455688 0.53283911943435669 0.5989842414855957
0.63028419017791748 0.62374508380889893 0.60259729623794556
0.77105724811553955 0.64549070596694946 0.61414998769760132
0.89723610877990723 0.66885781288146973 0.63385069370269775
0.12623757123947144 0.61409711837768555 0.60711419582366943
0.17544874548912048 0.63200348615646362 0.62256008386611938
0.23717609047889709 0.65040707588195801 0.62940335273742676
0.37331584095954895 0.69634354114532471 0.64467495679855347
0.63961809873580933 0.75685453414916992 0.61682486534118652
0.79623568058013916 0.7779766321182251 0.58361160755157471
0.91846656799316406 0.79197603464126587 0.61164498329162598
0.16205272078514099 0.78159028291702271 0.67554861307144165
0.22005149722099304 0.79105073213577271 0.67364740371704102
0.2905413806438446 0.81091839075088501 0.66736394166946411
0.44291073083877563 0.84778445959091187 0.66646397113800049
0.66284435987472534 0.89621573686599731 0.64117008447647095
0.78757327795028687 0.90193241834640503 0.5935097336769104
0.9121888279914856 0.91159981489181519 0.5774683952331543
0.1162579283118248 0.09155699610710144 0.49422192573547363
0.16902928054332733 0.095080010592937469 0.4975145161151886
0.22141160070896149 0.091134123504161835 0.49488922953605652
0.28016063570976257 0.091883145272731781 0.49356439709663391
0.43863165378570557 0.10972396284341812 0.47873950004577637
0.67578339576721191 0.14517167210578918 0.4418448805809021
0.81368201971054077 0.16682314872741699 0.46620577573776245
0.088055707514286041 0.12426389753818512 0.52264076471328735
0.13218136131763458 0.13312970101833344 0.53410667181015015
0.2038344144821167 0.15555910766124725 0.53847324848175049
0.27819487452507019 0.16664473712444305 0.54495346546173096
0.47216060757637024 0.19237233698368073 0.53194040060043335
0.69442123174667358 0.23912745714187622 0.5220026969909668
0.82585364580154419 0.2607593834400177 0.53638672828674316
0.097542829811573029 0.21647436916828156 0.56169593334197998
0.13126014173030853 0.22323083877563477 0.57908922433853149
0.1751144677400589 0.23128002882003784 0.59673917293548584
0.2680588960647583 0.26186519861221313 0.61348450183868408
0.52595919370651245 0.31959998607635498 0.62013030052185059
0.71672540903091431 0.36398413777351379 0.60068720579147339
0.85036551952362061 0.3829323947429657 0.61474180221557617
0.097845219075679779 0.320768803358078 0.60500681400299072
0.13717751204967499 0.33701401948928833 0.62536484003067017
0.19010558724403381 0.35987088084220886 0.64983206987380981
0.25925377011299133 0.3877529501914978 0.67757111787796021
0.5582042932510376 0.47597530484199524 0.69290280342102051
0.75532793998718262 0.51367247104644775 0.68715178966522217
0.87614071369171143 0.53202861547470093 0.69639545679092407
0.097703240811824799 0.43691340088844299 0.65114915370941162
0.14098177850246429 0.45231574773788452 0.66708970069885254
0.20224322378635406 0.4802878201007843 0.69361120462417603
0.29887357354164124 0.52009791135787964 0.71516162157058716
0.58998727798461914 0.61943721771240234 0.74998241662979126
0.77929151058197021 0.66969698667526245 0.76182538270950317
0.89629912376403809 0.68349331617355347 0.77201831340789795
0.11571088433265686 0.56832218170166016 0.69600492715835571
0.16759109497070312 0.58674758672714233 0.71067023277282715
0.23183448612689972 0.61133003234863281 0.7286943793296814
0.3227306604385376 0.65377247333526611 0.75141280889511108
0.59172707796096802 0.75862979888916016 0.80130034685134888
0.78952443599700928 0.80553686618804932 0.79703295230865479
0.92196857929229736 0.81384170055389404 0.79893678426742554
0.15120096504688263 0.75004881620407104 0.77835667133331299
0.20555533468723297 0.75208467245101929 0.77401924133300781
0.27218535542488098 0.78980571031570435 0.79375231266021729
0.37305635213851929 0.83645343780517578 0.82248717546463013
0.60763013362884521 0.90626662969589233 0.83826714754104614
0.80123519897460938 0.93001383543014526 0.81014782190322876
0.93082696199417114 0.93566572666168213 0.77928668260574341
0.11790318042039871 0.095449782907962799 0.62898331880569458
0.18523737788200378 0.1189466118812561 0.63141322135925293
0.24213320016860962 0.11610264331102371 0.63013237714767456
0.30478611588478088 0.1104397177696228 0.6229131817817688
0.43763411045074463 0.12334874272346497 0.62772864103317261
0.66049104928970337 0.15668119490146637 0.59889787435531616
0.80089098215103149 0.17729103565216064 0.60094171762466431
0.090288810431957245 0.12911561131477356 0.6595616340637207
0.13768051564693451 0.14314210414886475 0.66566532850265503
0.21926052868366241 0.17564515769481659 0.67302089929580688
0.29447755217552185 0.19151973724365234 0.68595582246780396
0.45539623498916626 0.21164610981941223 0.69712615013122559
0.69182807207107544 0.24854619801044464 0.67421573400497437
0.81387293338775635 0.27091160416603088 0.66121101379394531
0.097052164375782013 0.22743338346481323 0.70352548360824585
0.13587222993373871 0.2396010160446167 0.71781903505325317
0.18667887151241302 0.25412604212760925 0.73278641700744629
0.26830732822418213 0.27742937207221985 0.75138396024703979
0.462534099817276 0.32598277926445007 0.77728843688964844
0.70947510004043579 0.37329274415969849 0.76164603233337402
0.84231960773468018 0.39151623845100403 0.74315327405929565
0.097916670143604279 0.33161240816116333 0.74368685483932495
0.14233590662479401 0.35224825143814087 0.76174354553222656
0.19759787619113922 0.37332141399383545 0.78308278322219849
0.26459372043609619 0.39266788959503174 0.80906671285629272
0.4949265718460083 0.46885484457015991 0.84343558549880981
0.74028569459915161 0.51947617530822754 0.84014856815338135
0.86996328830718994 0.53441786766052246 0.82817721366882324
0.10081906616687775 0.44129949808120728 0.78411734104156494
0.14800289273262024 0.46007376909255981 0.80289989709854126
0.21048568189144135 0.48298776149749756 0.82342803478240967
0.29192110896110535 0.51513576507568359 0.84705501794815063
0.50872653722763062 0.59368807077407837 0.88421589136123657
0.76316374540328979 0.66850006580352783 0.90302062034606934
0.90073078870773315 0.68376815319061279 0.90438413619995117
0.11736495047807693 0.56394356489181519 0.82301467657089233
0.16868789494037628 0.58363717794418335 0.83745360374450684
0.23468473553657532 0.60321104526519775 0.85104572772979736
0.33133333921432495 0.64187419414520264 0.87591046094894409
0.54154396057128906 0.72371047735214233 0.92317682504653931
0.77773916721343994 0.80165332555770874 0.95061016082763672
0.92480844259262085 0.82440686225891113 0.95265090465545654
0.14635725319385529 0.70309150218963623 0.86938917636871338
0.19825708866119385 0.71976786851882935 0.87838554382324219
0.26388505101203918 0.74096351861953735 0.892109215259552
0.36374694108963013 0.7801666259765625 0.91757577657699585
0.57181710004806519 0.86071312427520752 0.95629012584686279
0.78835040330886841 0.92439955472946167 0.96988576650619507
0.93021035194396973 0.94889545440673828 0.96406060457229614
