assets/lut/others lomo.cube
# Created by: G'MIC (https://gmic.eu)
TITLE "lomo"
# LUT size
LUT_3D_SIZE 13
# Data domain
DOMAIN_MIN 0.0 0.0 0.0
DOMAIN_MAX 1.0 1.0 1.0
# LUT data points
0 0.0028607237618416548 0.11906474828720093
0.005369103979319334 0.00054569618077948689 0.12307906895875931
0.053192093968391418 0.00023336971935350448 0.12225008010864258
0.1318199634552002 0.00087079813238233328 0.11948734521865845
0.22105883061885834 0.0015091840177774429 0.11795099079608917
0.31659108400344849 0.00072169583290815353 0.11752451211214066
0.42008063197135925 0 0.11726877838373184
0.53276365995407104 0 0.11627590656280518
0.65268266201019287 0 0.11605493724346161
0.77756482362747192 0 0.11589904129505157
0.90136992931365967 0 0.11479779332876205
0.99256390333175659 0 0.11569258570671082
1 0.00014935662329662591 0.1187407523393631
0 0.016797024756669998 0.1189737394452095
0.0047086677514016628 0.0084195602685213089 0.12294682860374451
0.056774526834487915 0.0080257942900061607 0.12122014164924622
0.13626785576343536 0.010700524784624577 0.11827751249074936
0.22215895354747772 0.011413739062845707 0.11758343875408173
0.31426045298576355 0.0086660496890544891 0.11752451211214066
0.4174114465713501 0.0054240059107542038 0.11752451211214066
0.52919363975524902 0.0055056405253708363 0.11751427501440048
0.64995890855789185 0.0062522441148757935 0.11751840263605118
0.77728337049484253 0.0057488535530865192 0.11763929575681686
0.90572309494018555 0.0048143276944756508 0.11720535904169083
0.99508070945739746 0.0060448292642831802 0.11709818989038467
1 0.013871346600353718 0.11904996633529663
0 0.048778608441352844 0.11878100782632828
0.005182991735637188 0.037457812577486038 0.12184696644544601
0.060516119003295898 0.035809937864542007 0.11956857144832611
0.14019834995269775 0.037968356162309647 0.1170511469244957
0.22433747351169586 0.038419343531131744 0.11708325892686844
0.31695675849914551 0.03617013618350029 0.11771509796380997
0.41839355230331421 0.033612135797739029 0.11798775196075439
0.52968102693557739 0.034609057009220123 0.11799027770757675
0.64933127164840698 0.036488819867372513 0.11802566796541214
0.7767341136932373 0.036626238375902176 0.11834616214036942
0.90877771377563477 0.034631181508302689 0.11948617547750473
0.99631446599960327 0.036693617701530457 0.12038975208997726
1 0.048489231616258621 0.12094546854496002
0 0.10322187840938568 0.11756729334592819
0.005634950939565897 0.091839224100112915 0.11936812847852707
0.059076018631458282 0.087805144488811493 0.11895623058080673
0.13668814301490784 0.087880872189998627 0.11790180951356888
0.22289501130580902 0.08829004317522049 0.11777478456497192
0.3175588846206665 0.08671608567237854 0.11844165623188019
0.42147025465965271 0.084004588425159454 0.11878956854343414
0.53250056505203247 0.084363915026187897 0.11878198385238647
0.65050667524337769 0.086814925074577332 0.11833508312702179
0.77836984395980835 0.087296612560749054 0.11835841834545135
0.91190147399902344 0.084571912884712219 0.12031988799571991
0.9970049262046814 0.087170757353305817 0.12246917933225632
1 0.10097925364971161 0.12175223976373672
0 0.17871227860450745 0.11680261790752411
0.00543950404971838 0.16583791375160217 0.11881193518638611
0.056401301175355911 0.16136012971401215 0.11911764740943909
0.1327630877494812 0.16229167580604553 0.11898171156644821
0.22033868730068207 0.16322596371173859 0.11897159367799759
0.31685018539428711 0.1617608517408371 0.11933720856904984
0.4222140908241272 0.15917918086051941 0.11966975778341293
0.53493040800094604 0.15914735198020935 0.11949006468057632
0.65405553579330444 0.16099366545677185 0.11855395138263702
0.78456437587738037 0.16024473309516907 0.11803102493286133
0.91642540693283081 0.15745243430137634 0.11901263147592545
0.99716699123382568 0.16090542078018188 0.12000581622123718
1 0.17561131715774536 0.12037201225757599
0 0.27743938565254211 0.11762719601392746
0.0049758763052523136 0.26327502727508545 0.11936677247285843
0.054427668452262878 0.26072284579277039 0.11981406062841415
0.12947069108486176 0.26426240801811218 0.1197306290268898
0.2173040509223938 0.26569709181785583 0.11981678754091263
0.31402242183685303 0.26403233408927917 0.12027204781770706
0.41979765892028809 0.26195672154426575 0.12080393731594086
0.53483676910400391 0.26240450143814087 0.11999920010566711
0.65866959095001221 0.26348254084587097 0.1188449040055275
0.7924378514289856 0.26147663593292236 0.1176408976316452
0.92181837558746338 0.25815436244010925 0.11803033947944641
0.99719482660293579 0.26074710488319397 0.11796440929174423
1 0.27420386672019958 0.11834421753883362
0 0.40151157975196838 0.11951982229948044
0.0049912398681044579 0.39022472500801086 0.12120240181684494
0.05256320908665657 0.38929134607315063 0.12092355638742447
0.12750244140625 0.39365437626838684 0.11994805186986923
0.21544545888900757 0.39581561088562012 0.12008535116910934
0.31134364008903503 0.39316341280937195 0.12114407122135162
0.4174475371837616 0.39077368378639221 0.12193403393030167
0.53636711835861206 0.39196592569351196 0.12084944546222687
0.66614985466003418 0.39227277040481567 0.11937940865755081
0.80268704891204834 0.39016258716583252 0.1185019388794899
0.92717486619949341 0.38725519180297852 0.11812154948711395
0.99690932035446167 0.38839069008827209 0.11753734201192856
1 0.39667060971260071 0.11752451211214066
0 0.54164189100265503 0.12169859558343887
0.0054844277910888195 0.53617888689041138 0.12313266843557358
0.052494391798973083 0.53639787435531616 0.12194203585386276
0.12849648296833038 0.5405203104019165 0.11986948549747467
0.21702350676059723 0.54234153032302856 0.11999978125095367
0.31240594387054443 0.54131639003753662 0.12125414609909058
0.41789999604225159 0.53874415159225464 0.12226541340351105
0.53834939002990723 0.53863871097564697 0.12140195071697235
0.67116647958755493 0.53746211528778076 0.12009118497371674
0.80913114547729492 0.53578704595565796 0.11928664892911911
0.93218892812728882 0.5343126654624939 0.11866568773984909
0.99761992692947388 0.53373485803604126 0.11726456880569458
1 0.53487104177474976 0.11737138032913208
0 0.68124103546142578 0.12302073836326599
0.0049428902566432953 0.68057709932327271 0.12375293672084808
0.051536858081817627 0.68095606565475464 0.12254197150468826
0.12975618243217468 0.68393152952194214 0.1207294687628746
0.21887312829494476 0.68624091148376465 0.12071778625249863
0.31339102983474731 0.68810337781906128 0.12174597382545471
0.41766577959060669 0.68843114376068115 0.12230391800403595
0.53702378273010254 0.68516057729721069 0.12160459160804749
0.66963803768157959 0.68141043186187744 0.12107017636299133
0.80735486745834351 0.68011748790740967 0.1203099712729454
0.93054723739624023 0.68199795484542847 0.1195489913225174
0.99707227945327759 0.6813158392906189 0.1183919832110405
1 0.67390793561935425 0.11754694581031799
0 0.80339324474334717 0.12330292165279388
0.0051115448586642742 0.80684709548950195 0.12347075343132019
0.052139073610305786 0.80616128444671631 0.12303921580314636
0.13107611238956451 0.80626916885375977 0.12266372889280319
0.21979182958602905 0.80836451053619385 0.12263146042823792
0.31329655647277832 0.81227028369903564 0.12274503707885742
0.41643846035003662 0.81394445896148682 0.12232115864753723
0.53368771076202393 0.81009221076965332 0.12178914994001389
0.66464126110076904 0.8054538369178772 0.12150735408067703
0.80089378356933594 0.80403691530227661 0.12164562195539474
0.9234423041343689 0.80648136138916016 0.12107406556606293
0.99485993385314941 0.80567359924316406 0.11933312565088272
1 0.79564714431762695 0.11789381504058838
0 0.89707905054092407 0.12303455173969269
0.011152454651892185 0.90283030271530151 0.12259730696678162
0.059888370335102081 0.90331858396530151 0.12157732248306274
0.13626539707183838 0.90303522348403931 0.12145577371120453
0.22223411500453949 0.90355658531188965 0.12208256125450134
0.31338018178939819 0.90613490343093872 0.12249426543712616
0.41472110152244568 0.90686690807342529 0.1223146915435791
0.5308106541633606 0.90454918146133423 0.1216481551527977
0.66183567047119141 0.90116417407989502 0.12127923220396042
0.79902005195617676 0.89961057901382446 0.12218684703111649
0.91991877555847168 0.90021407604217529 0.1219392791390419
0.99234569072723389 0.89957815408706665 0.1196892112493515
1 0.89312857389450073 0.11833079904317856
0 0.95817703008651733 0.12268177419900894
0.012508856132626534 0.96325063705444336 0.12082437425851822
0.066618584096431732 0.966968834400177 0.11922028660774231
0.14298966526985168 0.97059452533721924 0.11849647760391235
0.22536049783229828 0.97120088338851929 0.11976511031389236
0.31407943367958069 0.97237586975097656 0.12156472355127335
0.41460889577865601 0.9730604887008667 0.12225472182035446
0.53089761734008789 0.97242277860641479 0.12101766467094421
0.66319102048873901 0.97026157379150391 0.12071934342384338
0.80426609516143799 0.96958553791046143 0.12159350514411926
0.92638236284255981 0.97011685371398926 0.12199120968580246
0.99222809076309204 0.9712824821472168 0.11987687647342682
0.99999767541885376 0.96812856197357178 0.11877886950969696
0 0.99328464269638062 0.12407810240983963
0.010982947424054146 0.99365472793579102 0.12168744951486588
0.068721413612365723 0.9958118200302124 0.11911477148532867
0.14536106586456299 0.99872773885726929 0.11787126958370209
0.22809498012065887 0.99965530633926392 0.11891241371631622
0.31782287359237671 1 0.1205270066857338
0.41940423846244812 1 0.12156686186790466
0.53673332929611206 1 0.12049705535173416
0.66866344213485718 1 0.12011666595935822
0.80588489770889282 1 0.12068433314561844
0.92203289270401001 1 0.12103050202131271
0.98430538177490234 1 0.12004626542329788
0.9974360466003418 1 0.12012133002281189
0.00076214660657569766 7.0205387601163238e-05 0.13489896059036255
0.010224750265479088 0 0.13740377128124237
0.0583064965903759 0 0.13674338161945343
0.13583953678607941 1.6156365063579869e-06 0.13472762703895569
0.22338627278804779 7.7191525633679703e-06 0.13503144681453705
0.31755700707435608 0 0.13542555272579193
0.42001235485076904 0 0.13317863643169403
0.53289824724197388 0 0.13290566205978394
0.65422642230987549 0 0.13290980458259583
0.78145319223403931 0 0.1329130232334137
0.90797346830368042 0 0.13301396369934082
0.99552899599075317 0.00010465733794262633 0.13491310179233551
1 0.00048557357513345778 0.13893836736679077
0 0.0090021472424268723 0.13409675657749176
0.0046259411610662937 0.0050728591158986092 0.13749808073043823
0.055341009050607681 0.0062528871931135654 0.1365407407283783
0.13582955300807953 0.0081212809309363365 0.1337151974439621
0.22270700335502625 0.0074488171376287937 0.13437519967556
0.31492853164672852 0.0049359188415110111 0.13526967167854309
0.41713297367095947 0.0044117649085819721 0.13346120715141296
0.52855378389358521 0.0044125872664153576 0.1330437958240509
0.65091425180435181 0.0046062692999839783 0.13348130881786346
0.78033959865570068 0.0045993579551577568 0.13364590704441071
0.91075617074966431 0.0050155338831245899 0.13316576182842255
0.99662333726882935 0.0074653774499893188 0.13436019420623779
1 0.014597874134778976 0.13780885934829712
0 0.04140765592455864 0.13405066728591919
0.004678389523178339 0.035126347094774246 0.13693265616893768
0.057160485535860062 0.034359816461801529 0.13564197719097137
0.13762769103050232 0.035048704594373703 0.13294042646884918
0.22408464550971985 0.034323073923587799 0.13293708860874176
0.31691223382949829 0.032956682145595551 0.13313974440097809
0.41748356819152832 0.030741298571228981 0.1331743597984314
0.52786540985107422 0.031106866896152496 0.13373172283172607
0.64929693937301636 0.03255067765712738 0.13375447690486908
0.77966165542602539 0.03261115774512291 0.13370177149772644
0.91125810146331787 0.031610555946826935 0.13438691198825836
0.99662989377975464 0.035192526876926422 0.13603253662586212
1 0.046028405427932739 0.13753041625022888
0 0.094359815120697021 0.13329434394836426
0.0049192989245057106 0.087238818407058716 0.1362149566411972
0.057015080004930496 0.084112219512462616 0.13478131592273712
0.1364409476518631 0.083843573927879333 0.13299056887626648
0.22355611622333527 0.083867043256759644 0.13294139504432678
0.31732934713363647 0.083184428513050079 0.1329779326915741
0.41992020606994629 0.080325961112976074 0.13359227776527405
0.53073775768280029 0.079953990876674652 0.13449369370937347
0.6500365138053894 0.080911733210086823 0.13374726474285126
0.78039753437042236 0.08103594183921814 0.1330382227897644
0.91322422027587891 0.079973809421062469 0.13413234055042267
0.99689799547195435 0.08373115211725235 0.13528086245059967
1 0.096444807946681976 0.13703472912311554
0 0.16825917363166809 0.13282935321331024
0.0064977309666574001 0.15861119329929352 0.133809894323349
0.057743806391954422 0.15640141069889069 0.13392716646194458
0.13472217321395874 0.15723645687103271 0.13363642990589142
0.22214435040950775 0.15762621164321899 0.13339897990226746
0.31717577576637268 0.15682691335678101 0.13356116414070129
0.42049393057823181 0.15434591472148895 0.13425661623477936
0.53176534175872803 0.15396299958229065 0.13547828793525696
0.65167158842086792 0.15490837395191193 0.13383199274539948
0.78445875644683838 0.15387977659702301 0.13294069468975067
0.91717672348022461 0.15260528028011322 0.13336378335952759
0.99730390310287476 0.15644395351409912 0.13459187746047974
1 0.16984887421131134 0.13658563792705536
0 0.26786342263221741 0.13278345763683319
0.0071140662766993046 0.25595489144325256 0.13370800018310547
0.057001553475856781 0.25463324785232544 0.13380037248134613
0.1324135959148407 0.25817537307739258 0.13376225531101227
0.21953827142715454 0.26011472940444946 0.13376225531101227
0.31433874368667603 0.2588442862033844 0.13382486999034882
0.41839626431465149 0.25742879509925842 0.13453781604766846
0.53198063373565674 0.25756514072418213 0.1345343142747879
0.65556031465530396 0.25794157385826111 0.13331563770771027
0.79113316535949707 0.25623169541358948 0.13290899991989136
0.92279064655303955 0.25368312001228333 0.13298766314983368
0.99723583459854126 0.25650420784950256 0.13501213490962982
1 0.26910653710365295 0.1368161141872406
0 0.39535042643547058 0.13394330441951752
0.0069314544089138508 0.38504406809806824 0.13471636176109314
0.055473059415817261 0.38490816950798035 0.13432815670967102
0.13081882894039154 0.38990432024002075 0.1335684210062027
0.21838019788265228 0.39220929145812988 0.13345725834369659
0.31329822540283203 0.39063817262649536 0.1338493824005127
0.41690191626548767 0.38860329985618591 0.13455882668495178
0.53395181894302368 0.388914555311203 0.13433478772640228
0.66386544704437256 0.38911724090576172 0.13352246582508087
0.80250567197799683 0.38771122694015503 0.13297268748283386
0.92847275733947754 0.38508546352386475 0.13296568393707275
0.99625694751739502 0.38628748059272766 0.13358315825462341
1 0.39355146884918213 0.13591507077217102
0 0.54134100675582886 0.13618956506252289
0.0074812346138060093 0.53501266241073608 0.13671113550662994
0.055078096687793732 0.53517812490463257 0.13504448533058167
0.1318323165178299 0.54038339853286743 0.13308951258659363
0.220264732837677 0.54261845350265503 0.13288639485836029
0.3138267993927002 0.54213058948516846 0.13400612771511078
0.41743272542953491 0.53884685039520264 0.13455882668495178
0.53527688980102539 0.53872025012969971 0.13449639081954956
0.66812312602996826 0.53806221485137939 0.13379025459289551
0.80856949090957642 0.53709703683853149 0.13360647857189178
0.93345338106155396 0.53675395250320435 0.13308295607566833
0.99721711874008179 0.53626710176467896 0.13293546438217163
1 0.5354694128036499 0.134261354804039
0 0.6857222318649292 0.1380850225687027
0.0075307060033082962 0.68212997913360596 0.13836565613746643
0.054384000599384308 0.68162804841995239 0.13667978346347809
0.13298702239990234 0.68582636117935181 0.13429872691631317
0.22256042063236237 0.68851059675216675 0.13392707705497742
0.31576311588287354 0.68969953060150146 0.13467919826507568
0.41764676570892334 0.68960106372833252 0.13456349074840546
0.53359586000442505 0.6874735951423645 0.13455882668495178
0.66446578502655029 0.68399816751480103 0.13428714871406555
0.80486130714416504 0.68323802947998047 0.13424183428287506
0.93338072299957275 0.68646419048309326 0.13462650775909424
0.99806135892868042 0.68658381700515747 0.13498732447624207
1 0.67786771059036255 0.13503541052341461
0 0.80895930528640747 0.13785126805305481
0.0051928050816059113 0.80800563097000122 0.13824333250522614
0.051636222749948502 0.80639994144439697 0.13733279705047607
0.13191951811313629 0.80738693475723267 0.13687223196029663
0.22177766263484955 0.80997532606124878 0.13644587993621826
0.31457832455635071 0.81305950880050659 0.13546366989612579
0.41616800427436829 0.81433165073394775 0.13480685651302338
0.52985459566116333 0.81256169080734253 0.13455590605735779
0.65849792957305908 0.80848431587219238 0.13449853658676147
0.79781901836395264 0.80655205249786377 0.13455882668495178
0.9289778470993042 0.8084266185760498 0.13469009101390839
0.99789893627166748 0.80794894695281982 0.13421635329723358
1 0.79949480295181274 0.1343664824962616
0 0.90291315317153931 0.13642628490924835
0.0057237511500716209 0.90534716844558716 0.13646622002124786
0.054417956620454788 0.9040217399597168 0.1359117329120636
0.13288846611976624 0.90290844440460205 0.13543488085269928
0.22138853371143341 0.90405195951461792 0.13524630665779114
0.31337738037109375 0.90684175491333008 0.13500985503196716
0.41461837291717529 0.90772557258605957 0.13461184501647949
0.52795767784118652 0.90583223104476929 0.13414770364761353
0.65696871280670166 0.90309512615203857 0.13381554186344147
0.79956626892089844 0.90037673711776733 0.13446684181690216
0.93071615695953369 0.90002191066741943 0.13452887535095215
0.99763935804367065 0.89925092458724976 0.13347929716110229
1 0.89562678337097168 0.13322725892066956
0 0.96713858842849731 0.1362752765417099
0.0059782587923109531 0.9705580472946167 0.13470602035522461
0.05878010019659996 0.96868896484375 0.13344958424568176
0.13732855021953583 0.9683765172958374 0.13283742964267731
0.22302882373332977 0.97070527076721191 0.1333257257938385
0.31359288096427917 0.97286796569824219 0.1341671496629715
0.41432285308837891 0.97351306676864624 0.13435928523540497
0.52804231643676758 0.97324889898300171 0.13364867866039276
0.66002124547958374 0.9707411527633667 0.1330016702413559
0.80774974822998047 0.96837055683135986 0.13390344381332397
0.93779236078262329 0.96764153242111206 0.13400073349475861
0.99835765361785889 0.96943652629852295 0.13300666213035583
1 0.96812856197357178 0.13333187997341156
0 0.99844807386398315 0.13898469507694244
0.0079169180244207382 0.99845969676971436 0.13595376908779144
0.063349269330501556 0.99581784009933472 0.13357007503509521
0.14099571108818054 0.99697726964950562 0.13279056549072266
0.2256806492805481 0.99950271844863892 0.13302318751811981
0.31671592593193054 1 0.13383051753044128
0.41866758465766907 1 0.13422997295856476
0.53474390506744385 1 0.13367979228496552
0.66842925548553467 0.99999207258224487 0.13304503262042999
0.81218010187149048 0.99954795837402344 0.13367299735546112
0.93455928564071655 0.99915724992752075 0.13319510221481323
0.99506634473800659 0.99953919649124146 0.13254237174987793
0.99999767541885376 0.99981528520584106 0.13516812026500702
0.0019636116921901703 0 0.15356701612472534
0.01522140484303236 0 0.15470601618289948
0.064787261188030243 1.7951517293113284e-05 0.1526360958814621
0.14210042357444763 0.00013607250002678484 0.15220588445663452
0.22685375809669495 0 0.15359124541282654
0.31860163807868958 0 0.15502810478210449
0.42050284147262573 0 0.15262174606323242
0.53340953588485718 0 0.15220588445663452
0.65523070096969604 0 0.15265160799026489
0.78295767307281494 0 0.1542384922504425
0.91017341613769531 7.9345700214616954e-05 0.15601076185703278
0.99634671211242676 0.00091385189443826675 0.15804220736026764
1 0.0015931222587823868 0.1627008467912674
0 0.0056859333999454975 0.15192019939422607
0.0064961602911353111 0.0056859333999454975 0.15481512248516083
0.057320613414049149 0.0082155261188745499 0.15369299054145813
0.13749398291110992 0.0090442579239606857 0.15234620869159698
0.22417470812797546 0.0064119976013898849 0.15453684329986572
0.3169390857219696 0.0047767041251063347 0.15483057498931885
0.41723799705505371 0.0047846776433289051 0.15232229232788086
0.52916622161865234 0.0044596502557396889 0.15220588445663452
0.65162885189056396 0.0044117649085819721 0.15265782177448273
0.78110003471374512 0.0044736075215041637 0.15452922880649567
0.91139703989028931 0.0076782228425145149 0.15579095482826233
0.99662989377975464 0.011659271083772182 0.15692305564880371
1 0.017107781022787094 0.16005930304527283
0 0.037597101181745529 0.15226039290428162
0.0054628858342766762 0.036070864647626877 0.1557086706161499
0.057436205446720123 0.037048757076263428 0.15423765778541565
0.13773612678050995 0.03677653893828392 0.15278691053390503
0.22460287809371948 0.035052251070737839 0.15292704105377197
0.31720647215843201 0.034589327871799469 0.15244308114051819
0.41677215695381165 0.033759083598852158 0.15220588445663452
0.52774131298065186 0.032039567828178406 0.15230670571327209
0.6501578688621521 0.031155575066804886 0.15319040417671204
0.78030455112457275 0.030840106308460236 0.15388220548629761
0.91165804862976074 0.032125256955623627 0.15415817499160767
0.99662989377975464 0.036991972476243973 0.15536592900753021
1 0.046933267265558243 0.15825450420379639
0 0.089056007564067841 0.15241585671901703
0.0062031317502260208 0.087089240550994873 0.15551427006721497
0.059842098504304886 0.086325854063034058 0.15314838290214539
0.13941662013530731 0.085035316646099091 0.15254680812358856
0.22566890716552734 0.08468317985534668 0.15249894559383392
0.31727543473243713 0.085084475576877594 0.15220588445663452
0.41800937056541443 0.083634123206138611 0.15225480496883392
0.52823728322982788 0.080905944108963013 0.15376237034797668
0.65100139379501343 0.079895317554473877 0.15455432236194611
0.78341639041900635 0.07951807975769043 0.15319809317588806
0.9139409065246582 0.079481370747089386 0.15232406556606293
0.99668616056442261 0.084084168076515198 0.15260106325149536
1 0.096378833055496216 0.15657967329025269
0 0.16180329024791718 0.15180526673793793
0.010599951259791851 0.15721973776817322 0.15238982439041138
0.063434705138206482 0.15688639879226685 0.15225335955619812
0.13949458301067352 0.15716840326786041 0.15240573883056641
0.22491848468780518 0.15716911852359772 0.15249998867511749
0.31724447011947632 0.15714007616043091 0.15220588445663452
0.41848251223564148 0.15590643882751465 0.15264061093330383
0.53058111667633057 0.15443333983421326 0.15503351390361786
0.65368139743804932 0.15361690521240234 0.15498311817646027
0.78821015357971191 0.15213201940059662 0.15307314693927765
0.918967604637146 0.15117290616035461 0.15230192244052887
0.99728679656982422 0.15593425929546356 0.15253667533397675
1 0.16923819482326508 0.15608716011047363
0 0.26274582743644714 0.15078368782997131
0.012094954028725624 0.25597789883613586 0.15220588445663452
0.06319020688533783 0.25586816668510437 0.15220588445663452
0.13720577955245972 0.25750181078910828 0.15220588445663452
0.22272768616676331 0.25799375772476196 0.15220588445663452
0.31574007868766785 0.25748139619827271 0.15220588445663452
0.41783091425895691 0.25665616989135742 0.15235622227191925
0.53217893838882446 0.25732201337814331 0.1532469242811203
0.65873175859451294 0.25720250606536865 0.1534627228975296
0.79606550931930542 0.25500261783599854 0.15285830199718475
0.92582184076309204 0.2535286545753479 0.15328459441661835
0.99757373332977295 0.25608968734741211 0.15534934401512146
1 0.26813599467277527 0.15685902535915375
0 0.39270073175430298 0.15206682682037354
0.0091658048331737518 0.38520878553390503 0.15220588445663452
0.058747012168169022 0.38525325059890747 0.15220588445663452
0.13415132462978363 0.388774573802948 0.15183398127555847
0.22109507024288177 0.39027273654937744 0.15085667371749878
0.3136439323425293 0.38881790637969971 0.15111331641674042
