assets/lut/others golden bright.cube
# Created by: G'MIC (https://gmic.eu)
TITLE "golden_bright"
# LUT size
LUT_3D_SIZE 13
# Data domain
DOMAIN_MIN 0.0 0.0 0.0
DOMAIN_MAX 1.0 1.0 1.0
# LUT data points
0.1623254120349884 0.1520640105009079 0.098425529897212982
0.2464546412229538 0.14972099661827087 0.10164584219455719
0.35079073905944824 0.14335232973098755 0.10583151876926422
0.46538588404655457 0.1402326226234436 0.092066265642642975
0.58297598361968994 0.14621202647686005 0.09140535444021225
0.69485920667648315 0.14447735249996185 0.088560737669467926
0.79360455274581909 0.13739384710788727 0.083826757967472076
0.87414652109146118 0.13537901639938354 0.092494264245033264
0.94593942165374756 0.13614936172962189 0.094255067408084869
0.96828782558441162 0.14637888967990875 0.081968285143375397
0.96903896331787109 0.1522916853427887 0.077687598764896393
0.96749168634414673 0.13064034283161163 0.074459359049797058
0.97671538591384888 0.12363424897193909 0.072476692497730255
0.15793716907501221 0.23188318312168121 0.10327598452568054
0.24025766551494598 0.2244667261838913 0.096221029758453369
0.34788548946380615 0.22129607200622559 0.092184595763683319
0.45550751686096191 0.21678246557712555 0.085001356899738312
0.56961899995803833 0.21565350890159607 0.08351483941078186
0.68202751874923706 0.21350809931755066 0.084324933588504791
0.78850388526916504 0.21325407922267914 0.085577629506587982
0.87725210189819336 0.21098814904689789 0.094693697988986969
0.94894635677337646 0.21066808700561523 0.10028185695409775
0.97064286470413208 0.20504038035869598 0.081471748650074005
0.96249276399612427 0.19808946549892426 0.070953413844108582
0.95431661605834961 0.19328433275222778 0.07046731561422348
0.962535560131073 0.19490177929401398 0.074280895292758942
0.15610921382904053 0.32648864388465881 0.10255985707044601
0.23529966175556183 0.31919226050376892 0.1015925407409668
0.33668315410614014 0.31264421343803406 0.091524116694927216
0.44764181971549988 0.30895990133285522 0.084100387990474701
0.56516623497009277 0.30957981944084167 0.084840528666973114
0.66984879970550537 0.30348563194274902 0.081690818071365356
0.7758944034576416 0.30070963501930237 0.07705986499786377
0.86683160066604614 0.29998773336410522 0.077601581811904907
0.94144135713577271 0.29920431971549988 0.084912121295928955
0.96892660856246948 0.29344028234481812 0.081217087805271149
0.95576262474060059 0.28682386875152588 0.071842819452285767
0.95776844024658203 0.28580039739608765 0.071277648210525513
0.97326898574829102 0.28696069121360779 0.079454623162746429
0.15077550709247589 0.42664057016372681 0.093150541186332703
0.22988305985927582 0.4220024049282074 0.094495140016078949
0.32604143023490906 0.41137674450874329 0.089436806738376617
0.4319191575050354 0.40319991111755371 0.079759024083614349
0.55189132690429688 0.40489572286605835 0.082664370536804199
0.65850609540939331 0.39887186884880066 0.076207973062992096
0.75780463218688965 0.39445638656616211 0.069399692118167877
0.8497040867805481 0.39566290378570557 0.071975290775299072
0.93122780323028564 0.3978428840637207 0.073142215609550476
0.96709698438644409 0.38927024602890015 0.071392133831977844
0.95507103204727173 0.37821829319000244 0.068509072065353394
0.96249783039093018 0.37840855121612549 0.069193385541439056
0.97659081220626831 0.37931004166603088 0.070977948606014252
0.14725491404533386 0.51807838678359985 0.084496393799781799
0.22456824779510498 0.52202236652374268 0.081063784658908844
0.31953138113021851 0.51495850086212158 0.078118495643138885
0.42818424105644226 0.50721138715744019 0.080653935670852661
0.54202103614807129 0.50318038463592529 0.079972118139266968
0.65070992708206177 0.50001239776611328 0.074714109301567078
0.75025427341461182 0.49881076812744141 0.072942085564136505
0.83413475751876831 0.49356305599212646 0.068171977996826172
0.91522109508514404 0.48958668112754822 0.065310642123222351
0.96837848424911499 0.4849303662776947 0.065062128007411957
0.96693825721740723 0.47738003730773926 0.070499926805496216
0.97217053174972534 0.47704896330833435 0.071700528264045715
0.98089128732681274 0.47992834448814392 0.073708795011043549
0.14746974408626556 0.61349177360534668 0.080787494778633118
0.22200597822666168 0.61858731508255005 0.076934278011322021
0.31219598650932312 0.61747068166732788 0.073799163103103638
0.42479416728019714 0.61270290613174438 0.079013913869857788
0.53766137361526489 0.60729044675827026 0.075154446065425873
0.64133363962173462 0.6015390157699585 0.07143237441778183
0.74262446165084839 0.60364460945129395 0.073832325637340546
0.83754986524581909 0.60166454315185547 0.072964414954185486
0.9190371036529541 0.59467756748199463 0.067616164684295654
0.97100621461868286 0.58804011344909668 0.066423363983631134
0.97300666570663452 0.57950222492218018 0.069848679006099701
0.97743934392929077 0.57940715551376343 0.070818535983562469
0.98412948846817017 0.58276981115341187 0.072479724884033203
0.14924465119838715 0.72356957197189331 0.08462873101234436
0.21642199158668518 0.72172367572784424 0.079141832888126373
0.30654877424240112 0.71657001972198486 0.080747313797473907
0.41639542579650879 0.71042132377624512 0.085309393703937531
0.53127467632293701 0.7075236439704895 0.070909105241298676
0.6358378529548645 0.70052236318588257 0.065087385475635529
0.74178272485733032 0.70371192693710327 0.069571278989315033
0.82787835597991943 0.69247114658355713 0.067373208701610565
0.90714681148529053 0.68617761135101318 0.065161295235157013
0.9726409912109375 0.69054186344146729 0.068728730082511902
0.98081904649734497 0.68740183115005493 0.068370208144187927
0.97044110298156738 0.67846500873565674 0.067091338336467743
0.9597625732421875 0.67104047536849976 0.067799858748912811
0.14696778357028961 0.81715202331542969 0.083596967160701752
0.20560038089752197 0.80813086032867432 0.078987345099449158
0.29887861013412476 0.80955958366394043 0.073785044252872467
0.40974751114845276 0.80137598514556885 0.078950934112071991
0.52418422698974609 0.79853039979934692 0.073878251016139984
0.63581252098083496 0.79744917154312134 0.068432167172431946
0.74441713094711304 0.79735487699508667 0.069188527762889862
0.83271777629852295 0.78441888093948364 0.07756679505109787
0.9037625789642334 0.77521312236785889 0.06666768342256546
0.96492868661880493 0.7805866003036499 0.066973909735679626
0.98314189910888672 0.78332722187042236 0.066738858819007874
0.97294151782989502 0.76987659931182861 0.064221583306789398
0.9495052695274353 0.7508353590965271 0.063527368009090424
0.14632804691791534 0.88954275846481323 0.077611885964870453
0.19602717459201813 0.88077658414840698 0.07717788964509964
0.29120171070098877 0.88770431280136108 0.073294259607791901
0.40068235993385315 0.88507801294326782 0.076422944664955139
0.51206362247467041 0.87726718187332153 0.070614710450172424
0.62780243158340454 0.87868893146514893 0.064093239605426788
0.73719465732574463 0.88059216737747192 0.066929623484611511
0.8291594386100769 0.86879318952560425 0.075953632593154907
0.90762507915496826 0.86562067270278931 0.07015509158372879
0.97201067209243774 0.86878281831741333 0.063777729868888855
0.98575186729431152 0.86630570888519287 0.068558603525161743
0.97195243835449219 0.8508874773979187 0.065778873860836029
0.96020585298538208 0.84023994207382202 0.06024537980556488
0.14092656970024109 0.95729219913482666 0.066467270255088806
0.19225218892097473 0.9550291895866394 0.067152135074138641
0.28227755427360535 0.94996726512908936 0.070452086627483368
0.3880249559879303 0.94476264715194702 0.068275466561317444
0.50413799285888672 0.94445586204528809 0.063765473663806915
0.62616127729415894 0.94444668292999268 0.064986765384674072
0.73041331768035889 0.94428956508636475 0.06464800238609314
0.82102549076080322 0.93928444385528564 0.068322978913784027
0.89713591337203979 0.93714731931686401 0.067395046353340149
0.96044397354125977 0.93981921672821045 0.063798747956752777
0.98231750726699829 0.93736004829406738 0.068357251584529877
0.97364836931228638 0.92265123128890991 0.066974952816963196
0.96287316083908081 0.91291344165802002 0.059678874909877777
0.14119555056095123 0.97505342960357666 0.065240047872066498
0.18405972421169281 0.97755414247512817 0.065722733736038208
0.27567762136459351 0.9770740270614624 0.069132909178733826
0.38296055793762207 0.9759904146194458 0.063411727547645569
0.49825811386108398 0.97375404834747314 0.062025722116231918
0.61444497108459473 0.97693639993667603 0.063431575894355774
0.71917474269866943 0.97339308261871338 0.06312580406665802
0.81193834543228149 0.97751128673553467 0.065283708274364471
0.88513022661209106 0.97582542896270752 0.067007876932621002
0.94773286581039429 0.97801214456558228 0.063248217105865479
0.97715038061141968 0.97592097520828247 0.060500454157590866
0.97785061597824097 0.97161316871643066 0.061207536607980728
0.97951483726501465 0.97093456983566284 0.061436865478754044
0.1332809180021286 0.96060687303543091 0.059191610664129257
0.17761251330375671 0.97050446271896362 0.059177801012992859
0.2695586085319519 0.97919833660125732 0.063039489090442657
0.37554070353507996 0.97967052459716797 0.060844704508781433
0.48238334059715271 0.97224855422973633 0.060670949518680573
0.59223443269729614 0.96746969223022461 0.059080701321363449
0.70518678426742554 0.97296357154846191 0.05975690484046936
0.80461591482162476 0.98437082767486572 0.063751220703125
0.88209950923919678 0.98150902986526489 0.0643438920378685
0.94818794727325439 0.98247998952865601 0.062974117696285248
0.97763562202453613 0.98203915357589722 0.061066091060638428
0.97833102941513062 0.9784126877784729 0.0592486672103405
0.9835284948348999 0.98297053575515747 0.064504541456699371
0.12500804662704468 0.96229362487792969 0.058094024658203125
0.16887110471725464 0.96907758712768555 0.057687181979417801
0.26021051406860352 0.97168236970901489 0.059625901281833649
0.36350962519645691 0.97002774477005005 0.058564130216836929
0.46969136595726013 0.96612471342086792 0.058168329298496246
0.58265161514282227 0.96873503923416138 0.060607537627220154
0.69998013973236084 0.98244386911392212 0.062256261706352234
0.79502779245376587 0.98304402828216553 0.062505908310413361
0.86664336919784546 0.96916472911834717 0.061248030513525009
0.93750870227813721 0.97600740194320679 0.060741767287254333
0.96943384408950806 0.97734284400939941 0.060229223221540451
0.96638381481170654 0.9671587347984314 0.058762867003679276
0.96702396869659424 0.966991126537323 0.062831804156303406
0.16349922120571136 0.14821162819862366 0.17543087899684906
0.25013226270675659 0.14620526134967804 0.17332516610622406
0.35797184705734253 0.14283061027526855 0.17115110158920288
0.47181203961372375 0.14135909080505371 0.1668369323015213
0.58798861503601074 0.14483019709587097 0.16409848630428314
0.69580918550491333 0.14407716691493988 0.159006267786026
0.7922624945640564 0.14326223731040955 0.15735314786434174
0.87411725521087646 0.13889938592910767 0.15590712428092957
0.9587172269821167 0.1387067437171936 0.15309058129787445
0.98441094160079956 0.14379365742206573 0.15174376964569092
0.97950559854507446 0.14864978194236755 0.1477968692779541
0.98636424541473389 0.13113051652908325 0.14326468110084534
0.99041950702667236 0.12492281198501587 0.14552874863147736
0.15676796436309814 0.22722184658050537 0.16825741529464722
0.24538490176200867 0.2234257310628891 0.16488847136497498
0.35872411727905273 0.22194889187812805 0.16558851301670074
0.46981632709503174 0.22044453024864197 0.16401579976081848
0.5809938907623291 0.22090372443199158 0.16298867762088776
0.68729329109191895 0.22094160318374634 0.15938349068164825
0.78873598575592041 0.21724945306777954 0.15574139356613159
0.87676215171813965 0.21249979734420776 0.15259872376918793
0.9512939453125 0.21166355907917023 0.14847229421138763
0.98178941011428833 0.20869717001914978 0.14459268748760223
0.97150534391403198 0.20056416094303131 0.13874742388725281
0.97449392080307007 0.19738109409809113 0.13695940375328064
0.98851323127746582 0.19851121306419373 0.13783228397369385
0.15769502520561218 0.32541492581367493 0.16638810932636261
0.23940736055374146 0.31871151924133301 0.16314639151096344
0.34643906354904175 0.31329664587974548 0.16081663966178894
0.45678997039794922 0.31053903698921204 0.15736633539199829
0.57078206539154053 0.31193873286247253 0.15551327168941498
0.67696201801300049 0.30964085459709167 0.15344154834747314
0.77958899736404419 0.30557376146316528 0.14865469932556152
0.86855894327163696 0.30292579531669617 0.14410786330699921
0.94362431764602661 0.30170753598213196 0.14107373356819153
0.98376047611236572 0.29785066843032837 0.13910864293575287
0.98213618993759155 0.29164573550224304 0.13679052889347076
0.98432523012161255 0.28849655389785767 0.13341149687767029
0.99258279800415039 0.28634852170944214 0.13052421808242798
0.1539616584777832 0.42961838841438293 0.16280767321586609
0.23254320025444031 0.42346155643463135 0.16105765104293823
0.33187836408615112 0.41357314586639404 0.15719778835773468
0.43780872225761414 0.40536436438560486 0.14877393841743469
0.55757671594619751 0.40627837181091309 0.14613230526447296
0.66867578029632568 0.40356290340423584 0.14192949235439301
0.77082842588424683 0.40153354406356812 0.13887640833854675
0.85747921466827393 0.40116170048713684 0.13737256824970245
0.93522346019744873 0.39930480718612671 0.13501845300197601
0.98012441396713257 0.39281639456748962 0.13248547911643982
0.97305220365524292 0.38354724645614624 0.12934188544750214
0.97724372148513794 0.37976258993148804 0.12914443016052246
0.98827284574508667 0.38016530871391296 0.13159789144992828
0.15149345993995667 0.52748942375183105 0.15782360732555389
0.2267155796289444 0.52363306283950806 0.15636959671974182
0.3204854428768158 0.51724028587341309 0.14986060559749603
0.43027621507644653 0.50999444723129272 0.14491146802902222
0.54870283603668213 0.50795108079910278 0.14087550342082977
0.66084414720535278 0.50586634874343872 0.13681891560554504
0.76288962364196777 0.50498592853546143 0.13501383364200592
0.848438560962677 0.50289583206176758 0.12996998429298401
0.92311102151870728 0.49665290117263794 0.12741468846797943
0.97252494096755981 0.48673263192176819 0.12522493302822113
0.97580766677856445 0.4805569052696228 0.1236734464764595
0.98025029897689819 0.47862806916236877 0.12333942204713821
0.9890897274017334 0.4787738025188446 0.12688438594341278
0.1528937816619873 0.6235039234161377 0.1510259211063385
0.22262860834598541 0.6235012412071228 0.14696614444255829
0.31181412935256958 0.61925423145294189 0.1418226957321167
0.41962507367134094 0.6136506199836731 0.13747228682041168
0.54139381647109985 0.61270934343338013 0.13385008275508881
0.65242463350296021 0.60858100652694702 0.13097581267356873
0.75565582513809204 0.61044490337371826 0.13037310540676117
0.85089999437332153 0.61033797264099121 0.12532311677932739
0.92521452903747559 0.60241115093231201 0.12130418419837952
0.97618144750595093 0.59237635135650635 0.11816410720348358
0.98110401630401611 0.58522266149520874 0.11776347458362579
0.98425006866455078 0.58343398571014404 0.11378797888755798
0.99029886722564697 0.58267337083816528 0.11334844678640366
0.14730849862098694 0.72592020034790039 0.14010460674762726
0.21546979248523712 0.72307723760604858 0.13992777466773987
0.3071645200252533 0.71588462591171265 0.13827437162399292
0.41291448473930359 0.71103304624557495 0.13270716369152069
0.53421396017074585 0.71281725168228149 0.12898397445678711
0.64709126949310303 0.70994746685028076 0.12654070556163788
0.75287884473800659 0.71085143089294434 0.12665516138076782
0.8418956995010376 0.70377403497695923 0.12094014137983322
0.91623270511627197 0.69312423467636108 0.11651069670915604
0.97571611404418945 0.69354826211929321 0.11344064772129059
0.98620688915252686 0.69232171773910522 0.11452572047710419
0.97675788402557373 0.68193399906158447 0.10783158987760544
0.97030580043792725 0.67501699924468994 0.10452277958393097
0.14567331969738007 0.81471866369247437 0.13126684725284576
0.20392386615276337 0.80236369371414185 0.13553042709827423
0.29827150702476501 0.80397874116897583 0.13781385123729706
0.40837308764457703 0.8021843433380127 0.13317589461803436
0.52756863832473755 0.80199307203292847 0.125423863530159
0.64331173896789551 0.80235761404037476 0.12199018895626068
0.75015509128570557 0.80194932222366333 0.12021069973707199
0.83944785594940186 0.79473990201950073 0.11558139324188232
0.9110904335975647 0.78379255533218384 0.11290621012449265
0.97038984298706055 0.78366321325302124 0.11048471927642822
0.98799103498458862 0.786945641040802 0.11096455901861191
0.98131066560745239 0.77541261911392212 0.10453135520219803
0.962615966796875 0.75860631465911865 0.097511023283004761
0.14641189575195312 0.89147663116455078 0.12714307010173798
0.19468808174133301 0.87953561544418335 0.12752896547317505
0.29183411598205566 0.88369333744049072 0.13241533935070038
0.40132072567939758 0.88756465911865234 0.1271064430475235
0.51700437068939209 0.88230979442596436 0.11825475096702576
0.63352912664413452 0.88031655550003052 0.1140935868024826
0.74036496877670288 0.87964749336242676 0.11124502122402191
0.83332830667495728 0.8704712986946106 0.11163831502199173
0.91092431545257568 0.87000048160552979 0.10979433357715607
0.97489523887634277 0.87067419290542603 0.10547992587089539
0.99159163236618042 0.87057572603225708 0.10413782298564911
0.98292416334152222 0.85880619287490845 0.098603732883930206
0.97549843788146973 0.85022079944610596 0.093540608882904053
0.13708294928073883 0.95483338832855225 0.12023665755987167
0.19015158712863922 0.95306277275085449 0.12159819900989532
0.28354054689407349 0.95077019929885864 0.12381554394960403
0.38923239707946777 0.9497566819190979 0.11766511201858521
0.5063360333442688 0.94738292694091797 0.11081934720277786
0.62040990591049194 0.94276177883148193 0.10922107845544815
0.72587120532989502 0.94171726703643799 0.1049356535077095
0.8234630823135376 0.94068378210067749 0.1045699343085289
0.90152114629745483 0.93966495990753174 0.10758933424949646
0.96784216165542603 0.94140690565109253 0.10441430658102036
0.99003428220748901 0.93783271312713623 0.099190056324005127
0.9909132719039917 0.93354159593582153 0.09522741287946701
0.98977035284042358 0.93369406461715698 0.090201407670974731
0.13432058691978455 0.97572648525238037 0.11652770638465881
0.18515625596046448 0.97492343187332153 0.11423278599977493
0.27584934234619141 0.98427337408065796 0.11364807188510895
0.38192269206047058 0.98324882984161377 0.10916610062122345
0.49684292078018188 0.97288936376571655 0.10714874416589737
0.61119198799133301 0.96881502866744995 0.10703106969594955
0.71793800592422485 0.97079992294311523 0.10046453773975372
0.81570971012115479 0.98201274871826172 0.099747434258460999
0.89297890663146973 0.98072689771652222 0.1026272177696228
0.95946967601776123 0.98269355297088623 0.099453732371330261
0.98068749904632568 0.97245031595230103 0.093621633946895599
0.98007333278656006 0.96533477306365967 0.086703628301620483
0.99043172597885132 0.98427069187164307 0.082251831889152527
0.13209743797779083 0.96950554847717285 0.10669458657503128
0.17884227633476257 0.97981369495391846 0.1057528629899025
0.2691376805305481 0.98676252365112305 0.10823158174753189
0.37456744909286499 0.98403853178024292 0.1049308180809021
0.48350852727890015 0.97557681798934937 0.10126667469739914
0.59544146060943604 0.97086459398269653 0.094993799924850464
0.70885682106018066 0.97722607851028442 0.094465784728527069
0.81102609634399414 0.98860210180282593 0.095365516841411591
0.8924904465675354 0.98975217342376709 0.090465083718299866
0.96025139093399048 0.9905620813369751 0.090159110724925995
0.9792478084564209 0.9811820387840271 0.085510194301605225
0.97006845474243164 0.96937566995620728 0.079552188515663147
0.98694771528244019 0.98620259761810303 0.086015172302722931
0.12499907612800598 0.97027552127838135 0.10284251719713211
0.17018772661685944 0.98039788007736206 0.10336584597826004
0.26134878396987915 0.98142749071121216 0.10339482873678207
0.36284419894218445 0.97526735067367554 0.098461836576461792
0.47047039866447449 0.97186791896820068 0.095767691731452942
0.58629524707794189 0.97487020492553711 0.097471646964550018
0.70506078004837036 0.98726022243499756 0.099310077726840973
0.80806505680084229 0.99374175071716309 0.095415420830249786
0.888408362865448 0.99144244194030762 0.087583236396312714
0.96154952049255371 0.99337738752365112 0.083517648279666901
0.98226320743560791 0.98404222726821899 0.081280969083309174
0.96902382373809814 0.9693177342414856 0.078998133540153503
0.98118370771408081 0.98118370771408081 0.084897778928279877
0.17556756734848022 0.14790052175521851 0.25699761509895325
0.25397685170173645 0.14676803350448608 0.25385689735412598
0.36402603983879089 0.14687046408653259 0.2533251941204071
0.47399803996086121 0.14572291076183319 0.25187331438064575
0.58780872821807861 0.14640907943248749 0.24597664177417755
0.69470584392547607 0.14433196187019348 0.24089732766151428
0.79551547765731812 0.13994394242763519 0.24086160957813263
0.87713593244552612 0.14354313910007477 0.23903612792491913
0.95897370576858521 0.14495739340782166 0.23657837510108948
0.99071139097213745 0.13870520889759064 0.23327197134494781
0.98873913288116455 0.13749128580093384 0.22992020845413208
0.98794430494308472 0.13594040274620056 0.22775517404079437
0.99537557363510132 0.12557567656040192 0.22669760882854462
0.16304066777229309 0.22736211121082306 0.25109067559242249
0.24853785336017609 0.225306436419487 0.24517799913883209
0.3606669008731842 0.22286354005336761 0.24557757377624512
0.47317400574684143 0.22015152871608734 0.24663369357585907
0.58367252349853516 0.21959617733955383 0.24500243365764618
0.68889480829238892 0.22082693874835968 0.24194963276386261
0.78792786598205566 0.21799542009830475 0.23840208351612091
0.87095171213150024 0.21137265861034393 0.23186632990837097
0.94106745719909668 0.20797975361347198 0.22856743633747101
0.97604274749755859 0.20636963844299316 0.22663015127182007
0.97920417785644531 0.20069928467273712 0.2212575376033783
0.98378747701644897 0.19958336651325226 0.22018347680568695
0.99440109729766846 0.19808416068553925 0.22101600468158722
0.16010811924934387 0.32467976212501526 0.2457868903875351
0.23965699970722198 0.31927251815795898 0.2407710999250412
0.34842932224273682 0.31366461515426636 0.23968939483165741
0.4602055549621582 0.30881145596504211 0.23984593152999878
0.57294213771820068 0.30827653408050537 0.23864197731018066
0.68238818645477295 0.30997005105018616 0.23567628860473633
0.7826734185218811 0.30812087655067444 0.23160083591938019
0.86971038579940796 0.30464416742324829 0.22621156275272369
0.93967539072036743 0.30096092820167542 0.22278206050395966
0.97759628295898438 0.29716899991035461 0.22054438292980194
0.99055951833724976 0.29209831357002258 0.21737776696681976
0.99426853656768799 0.28902995586395264 0.21649274230003357
0.99546939134597778 0.28563004732131958 0.21324388682842255
0.15704315900802612 0.4304327666759491 0.24294649064540863
0.2330339103937149 0.42340388894081116 0.23991815745830536
0.33317571878433228 0.41424638032913208 0.23623912036418915
0.4420856237411499 0.40684217214584351 0.23222728073596954
0.55999487638473511 0.40638259053230286 0.22942337393760681
0.67664772272109985 0.40702328085899353 0.22529861330986023
0.77954506874084473 0.40703049302101135 0.22180730104446411
0.86439591646194458 0.40414032340049744 0.21847012639045715
0.94000911712646484 0.3993074893951416 0.21672281622886658
0.98306286334991455 0.39211159944534302 0.21430233120918274
0.98872578144073486 0.38671582937240601 0.21061742305755615
0.99240660667419434 0.38240939378738403 0.2097894698381424
0.99599754810333252 0.37955549359321594 0.20808854699134827
0.15268778800964355 0.53015154600143433 0.23887783288955688
0.22450749576091766 0.5243910551071167 0.23752300441265106
0.31921389698982239 0.51773148775100708 0.2318282425403595
0.42985889315605164 0.51282107830047607 0.2244609147310257
0.54899430274963379 0.5114331841468811 0.22014236450195312
0.66587948799133301 0.50998741388320923 0.21621125936508179
