assets/lut/others black and white.cube
# Created by: G'MIC (https://gmic.eu)
TITLE "black_and_white"
# LUT size
LUT_3D_SIZE 13
# Data domain
DOMAIN_MIN 0.0 0.0 0.0
DOMAIN_MAX 1.0 1.0 1.0
# LUT data points
0.025726048275828362 0.025726048275828362 0.025726048275828362
0.043773189187049866 0.043773189187049866 0.043773189187049866
0.06129869818687439 0.06129869818687439 0.06129869818687439
0.078072056174278259 0.078072056174278259 0.078072056174278259
0.095071367919445038 0.095071367919445038 0.095071367919445038
0.11220807582139969 0.11220807582139969 0.11220807582139969
0.12962928414344788 0.12962928414344788 0.12962928414344788
0.14729434251785278 0.14729434251785278 0.14729434251785278
0.16521620750427246 0.16521620750427246 0.16521620750427246
0.18306490778923035 0.18306490778923035 0.18306490778923035
0.2005763053894043 0.2005763053894043 0.2005763053894043
0.21739101409912109 0.21739101409912109 0.21739101409912109
0.23295703530311584 0.23295703530311584 0.23295703530311584
0.084007352590560913 0.084007352590560913 0.084007352590560913
0.10285008698701859 0.10285008698701859 0.10285008698701859
0.11986860632896423 0.11986860632896423 0.11986860632896423
0.13707311451435089 0.13707311451435089 0.13707311451435089
0.15395417809486389 0.15395417809486389 0.15395417809486389
0.17107552289962769 0.17107552289962769 0.17107552289962769
0.18844947218894958 0.18844947218894958 0.18844947218894958
0.20609879493713379 0.20609879493713379 0.20609879493713379
0.22366990149021149 0.22366990149021149 0.22366990149021149
0.24113844335079193 0.24113844335079193 0.24113844335079193
0.25823912024497986 0.25823912024497986 0.25823912024497986
0.27457568049430847 0.27457568049430847 0.27457568049430847
0.28963455557823181 0.28963455557823181 0.28963455557823181
0.14117591083049774 0.14117591083049774 0.14117591083049774
0.15942424535751343 0.15942424535751343 0.15942424535751343
0.17719380557537079 0.17719380557537079 0.17719380557537079
0.19442118704319 0.19442118704319 0.19442118704319
0.21154120564460754 0.21154120564460754 0.21154120564460754
0.22882863879203796 0.22882863879203796 0.22882863879203796
0.24608005583286285 0.24608005583286285 0.24608005583286285
0.26351216435432434 0.26351216435432434 0.26351216435432434
0.28068697452545166 0.28068697452545166 0.28068697452545166
0.29766577482223511 0.29766577482223511 0.29766577482223511
0.31416833400726318 0.31416833400726318 0.31416833400726318
0.32990977168083191 0.32990977168083191 0.32990977168083191
0.34454172849655151 0.34454172849655151 0.34454172849655151
0.19684402644634247 0.19684402644634247 0.19684402644634247
0.21531696617603302 0.21531696617603302 0.21531696617603302
0.23318515717983246 0.23318515717983246 0.23318515717983246
0.2506415843963623 0.2506415843963623 0.2506415843963623
0.2680385410785675 0.2680385410785675 0.2680385410785675
0.28532657027244568 0.28532657027244568 0.28532657027244568
0.30269631743431091 0.30269631743431091 0.30269631743431091
0.31970646977424622 0.31970646977424622 0.31970646977424622
0.3366449773311615 0.3366449773311615 0.3366449773311615
0.35319733619689941 0.35319733619689941 0.35319733619689941
0.3690774142742157 0.3690774142742157 0.3690774142742157
0.38419842720031738 0.38419842720031738 0.38419842720031738
0.39859265089035034 0.39859265089035034 0.39859265089035034
0.25200194120407104 0.25200194120407104 0.25200194120407104
0.27038398385047913 0.27038398385047913 0.27038398385047913
0.28838866949081421 0.28838866949081421 0.28838866949081421
0.30627411603927612 0.30627411603927612 0.30627411603927612
0.32364484667778015 0.32364484667778015 0.32364484667778015
0.34106117486953735 0.34106117486953735 0.34106117486953735
0.35819703340530396 0.35819703340530396 0.35819703340530396
0.37517634034156799 0.37517634034156799 0.37517634034156799
0.39169755578041077 0.39169755578041077 0.39169755578041077
0.4080086350440979 0.4080086350440979 0.4080086350440979
0.42344695329666138 0.42344695329666138 0.42344695329666138
0.43858468532562256 0.43858468532562256 0.43858468532562256
0.45288708806037903 0.45288708806037903 0.45288708806037903
0.30715653300285339 0.30715653300285339 0.30715653300285339
0.32559633255004883 0.32559633255004883 0.32559633255004883
0.34366807341575623 0.34366807341575623 0.34366807341575623
0.36137428879737854 0.36137428879737854 0.36137428879737854
0.37890085577964783 0.37890085577964783 0.37890085577964783
0.3961128294467926 0.3961128294467926 0.3961128294467926
0.41314780712127686 0.41314780712127686 0.41314780712127686
0.42989489436149597 0.42989489436149597 0.42989489436149597
0.44631841778755188 0.44631841778755188 0.44631841778755188
0.46246057748794556 0.46246057748794556 0.46246057748794556
0.47795912623405457 0.47795912623405457 0.47795912623405457
0.49288016557693481 0.49288016557693481 0.49288016557693481
0.50739997625350952 0.50739997625350952 0.50739997625350952
0.36254289746284485 0.36254289746284485 0.36254289746284485
0.38084691762924194 0.38084691762924194 0.38084691762924194
0.39888635277748108 0.39888635277748108 0.39888635277748108
0.41643095016479492 0.41643095016479492 0.41643095016479492
0.43380939960479736 0.43380939960479736 0.43380939960479736
0.45088741183280945 0.45088741183280945 0.45088741183280945
0.4677160382270813 0.4677160382270813 0.4677160382270813
0.48432853817939758 0.48432853817939758 0.48432853817939758
0.50055348873138428 0.50055348873138428 0.50055348873138428
0.51657164096832275 0.51657164096832275 0.51657164096832275
0.53215688467025757 0.53215688467025757 0.53215688467025757
0.54715073108673096 0.54715073108673096 0.54715073108673096
0.56192409992218018 0.56192409992218018 0.56192409992218018
0.41820588707923889 0.41820588707923889 0.41820588707923889
0.43644404411315918 0.43644404411315918 0.43644404411315918
0.45412871241569519 0.45412871241569519 0.45412871241569519
0.47162726521492004 0.47162726521492004 0.47162726521492004
0.48860281705856323 0.48860281705856323 0.48860281705856323
0.5054706335067749 0.5054706335067749 0.5054706335067749
0.52216452360153198 0.52216452360153198 0.52216452360153198
0.53846544027328491 0.53846544027328491 0.53846544027328491
0.55469876527786255 0.55469876527786255 0.55469876527786255
0.57060307264328003 0.57060307264328003 0.57060307264328003
0.586201012134552 0.586201012134552 0.586201012134552
0.60138708353042603 0.60138708353042603 0.60138708353042603
0.61620593070983887 0.61620593070983887 0.61620593070983887
0.47393348813056946 0.47393348813056946 0.47393348813056946
0.49202275276184082 0.49202275276184082 0.49202275276184082
0.50950664281845093 0.50950664281845093 0.50950664281845093
0.52659636735916138 0.52659636735916138 0.52659636735916138
0.54341620206832886 0.54341620206832886 0.54341620206832886
0.55993157625198364 0.55993157625198364 0.55993157625198364
0.57633167505264282 0.57633167505264282 0.57633167505264282
0.59260249137878418 0.59260249137878418 0.59260249137878418
0.60863357782363892 0.60863357782363892 0.60863357782363892
0.6245390772819519 0.6245390772819519 0.6245390772819519
0.64017176628112793 0.64017176628112793 0.64017176628112793
0.65537810325622559 0.65537810325622559 0.65537810325622559
0.67033088207244873 0.67033088207244873 0.67033088207244873
0.52948015928268433 0.52948015928268433 0.52948015928268433
0.5474778413772583 0.5474778413772583 0.5474778413772583
0.56481540203094482 0.56481540203094482 0.56481540203094482
0.58145618438720703 0.58145618438720703 0.58145618438720703
0.59813541173934937 0.59813541173934937 0.59813541173934937
0.61428838968276978 0.61428838968276978 0.61428838968276978
0.63044250011444092 0.63044250011444092 0.63044250011444092
0.64651572704315186 0.64651572704315186 0.64651572704315186
0.66250753402709961 0.66250753402709961 0.66250753402709961
0.67838490009307861 0.67838490009307861 0.67838490009307861
0.69403135776519775 0.69403135776519775 0.69403135776519775
0.70932865142822266 0.70932865142822266 0.70932865142822266
0.72430425882339478 0.72430425882339478 0.72430425882339478
0.58480370044708252 0.58480370044708252 0.58480370044708252
0.60279029607772827 0.60279029607772827 0.60279029607772827
0.61985629796981812 0.61985629796981812 0.61985629796981812
0.63614296913146973 0.63614296913146973 0.63614296913146973
0.65237206220626831 0.65237206220626831 0.65237206220626831
0.66844934225082397 0.66844934225082397 0.66844934225082397
0.68450242280960083 0.68450242280960083 0.68450242280960083
0.70046126842498779 0.70046126842498779 0.70046126842498779
0.71638494729995728 0.71638494729995728 0.71638494729995728
0.73225647211074829 0.73225647211074829 0.73225647211074829
0.74786853790283203 0.74786853790283203 0.74786853790283203
0.76315861940383911 0.76315861940383911 0.76315861940383911
0.77816128730773926 0.77816128730773926 0.77816128730773926
0.63973343372344971 0.63973343372344971 0.63973343372344971
0.65762966871261597 0.65762966871261597 0.65762966871261597
0.67455095052719116 0.67455095052719116 0.67455095052719116
0.69081568717956543 0.69081568717956543 0.69081568717956543
0.70668846368789673 0.70668846368789673 0.70668846368789673
0.72256928682327271 0.72256928682327271 0.72256928682327271
0.73847359418869019 0.73847359418869019 0.73847359418869019
0.75440073013305664 0.75440073013305664 0.75440073013305664
0.77036333084106445 0.77036333084106445 0.77036333084106445
0.78616589307785034 0.78616589307785034 0.78616589307785034
0.80174022912979126 0.80174022912979126 0.80174022912979126
0.81714069843292236 0.81714069843292236 0.81714069843292236
0.83188235759735107 0.83188235759735107 0.83188235759735107
0.69404846429824829 0.69404846429824829 0.69404846429824829
0.71203780174255371 0.71203780174255371 0.71203780174255371
0.72880548238754272 0.72880548238754272 0.72880548238754272
0.74494814872741699 0.74494814872741699 0.74494814872741699
0.76061379909515381 0.76061379909515381 0.76061379909515381
0.77648955583572388 0.77648955583572388 0.77648955583572388
0.79228764772415161 0.79228764772415161 0.79228764772415161
0.80836647748947144 0.80836647748947144 0.80836647748947144
0.824321448802948 0.824321448802948 0.824321448802948
0.84014678001403809 0.84014678001403809 0.84014678001403809
0.85575401782989502 0.85575401782989502 0.85575401782989502
0.87086433172225952 0.87086433172225952 0.87086433172225952
0.88549536466598511 0.88549536466598511 0.88549536466598511
0.035414334386587143 0.035414334386587143 0.035414334386587143
0.053468022495508194 0.053468022495508194 0.053468022495508194
0.06998550146818161 0.06998550146818161 0.06998550146818161
0.086355842649936676 0.086355842649936676 0.086355842649936676
0.10277600586414337 0.10277600586414337 0.10277600586414337
0.11978495121002197 0.11978495121002197 0.11978495121002197
0.13705660402774811 0.13705660402774811 0.13705660402774811
0.15466585755348206 0.15466585755348206 0.15466585755348206
0.17234626412391663 0.17234626412391663 0.17234626412391663
0.19040775299072266 0.19040775299072266 0.19040775299072266
0.20765526592731476 0.20765526592731476 0.20765526592731476
0.22445528209209442 0.22445528209209442 0.22445528209209442
0.23973368108272552 0.23973368108272552 0.23973368108272552
0.093386813998222351 0.093386813998222351 0.093386813998222351
0.11163198202848434 0.11163198202848434 0.11163198202848434
0.12833358347415924 0.12833358347415924 0.12833358347415924
0.14478981494903564 0.14478981494903564 0.14478981494903564
0.16126948595046997 0.16126948595046997 0.16126948595046997
0.1783892810344696 0.1783892810344696 0.1783892810344696
0.19552750885486603 0.19552750885486603 0.19552750885486603
0.21327796578407288 0.21327796578407288 0.21327796578407288
0.23050865530967712 0.23050865530967712 0.23050865530967712
0.24826887249946594 0.24826887249946594 0.24826887249946594
0.26519608497619629 0.26519608497619629 0.26519608497619629
0.28173965215682983 0.28173965215682983 0.28173965215682983
0.2969261109828949 0.2969261109828949 0.2969261109828949
0.15019151568412781 0.15019151568412781 0.15019151568412781
0.16802152991294861 0.16802152991294861 0.16802152991294861
0.18497021496295929 0.18497021496295929 0.18497021496295929
0.20187476277351379 0.20187476277351379 0.20187476277351379
0.21862353384494781 0.21862353384494781 0.21862353384494781
0.23580142855644226 0.23580142855644226 0.23580142855644226
0.25295239686965942 0.25295239686965942 0.25295239686965942
0.27038884162902832 0.27038884162902832 0.27038884162902832
0.28759396076202393 0.28759396076202393 0.28759396076202393
0.30460360646247864 0.30460360646247864 0.30460360646247864
0.32130643725395203 0.32130643725395203 0.32130643725395203
0.33711948990821838 0.33711948990821838 0.33711948990821838
0.35206300020217896 0.35206300020217896 0.35206300020217896
0.20524618029594421 0.20524618029594421 0.20524618029594421
0.2231408953666687 0.2231408953666687 0.2231408953666687
0.24055996537208557 0.24055996537208557 0.24055996537208557
0.25771981477737427 0.25771981477737427 0.25771981477737427
0.27502578496932983 0.27502578496932983 0.27502578496932983
0.29202720522880554 0.29202720522880554 0.29202720522880554
0.30932897329330444 0.30932897329330444 0.30932897329330444
0.32637706398963928 0.32637706398963928 0.32637706398963928
0.34341391921043396 0.34341391921043396 0.34341391921043396
0.36006617546081543 0.36006617546081543 0.36006617546081543
0.3762030303478241 0.3762030303478241 0.3762030303478241
0.39169132709503174 0.39169132709503174 0.39169132709503174
0.4063626229763031 0.4063626229763031 0.4063626229763031
0.25986537337303162 0.25986537337303162 0.25986537337303162
0.27775251865386963 0.27775251865386963 0.27775251865386963
0.29554101824760437 0.29554101824760437 0.29554101824760437
0.31309700012207031 0.31309700012207031 0.31309700012207031
0.3304019570350647 0.3304019570350647 0.3304019570350647
0.34770375490188599 0.34770375490188599 0.34770375490188599
0.36480426788330078 0.36480426788330078 0.36480426788330078
0.38174960017204285 0.38174960017204285 0.38174960017204285
0.39853575825691223 0.39853575825691223 0.39853575825691223
0.41487559676170349 0.41487559676170349 0.41487559676170349
0.43074145913124084 0.43074145913124084 0.43074145913124084
0.44597765803337097 0.44597765803337097 0.44597765803337097
0.46072143316268921 0.46072143316268921 0.46072143316268921
0.31459590792655945 0.31459590792655945 0.31459590792655945
0.33260259032249451 0.33260259032249451 0.33260259032249451
0.3504239022731781 0.3504239022731781 0.3504239022731781
0.36806094646453857 0.36806094646453857 0.36806094646453857
0.38543462753295898 0.38543462753295898 0.38543462753295898
0.40267649292945862 0.40267649292945862 0.40267649292945862
0.4196268618106842 0.4196268618106842 0.4196268618106842
0.43646436929702759 0.43646436929702759 0.43646436929702759
0.45290449261665344 0.45290449261665344 0.45290449261665344
0.46918356418609619 0.46918356418609619 0.46918356418609619
0.48495745658874512 0.48495745658874512 0.48495745658874512
0.50028228759765625 0.50028228759765625 0.50028228759765625
0.51514214277267456 0.51514214277267456 0.51514214277267456
0.3698580265045166 0.3698580265045166 0.3698580265045166
0.3878275454044342 0.3878275454044342 0.3878275454044342
0.40552961826324463 0.40552961826324463 0.40552961826324463
0.42302516102790833 0.42302516102790833 0.42302516102790833
0.44031795859336853 0.44031795859336853 0.44031795859336853
0.45732367038726807 0.45732367038726807 0.45732367038726807
0.47417056560516357 0.47417056560516357 0.47417056560516357
0.4907994270324707 0.4907994270324707 0.4907994270324707
0.50715595483779907 0.50715595483779907 0.50715595483779907
0.5233161449432373 0.5233161449432373 0.5233161449432373
0.53904706239700317 0.53904706239700317 0.53904706239700317
0.55452615022659302 0.55452615022659302 0.55452615022659302
0.56946682929992676 0.56946682929992676 0.56946682929992676
0.42566531896591187 0.42566531896591187 0.42566531896591187
0.44333285093307495 0.44333285093307495 0.44333285093307495
0.46089202165603638 0.46089202165603638 0.46089202165603638
0.47809076309204102 0.47809076309204102 0.47809076309204102
0.49509376287460327 0.49509376287460327 0.49509376287460327
0.51186144351959229 0.51186144351959229 0.51186144351959229
0.5284460186958313 0.5284460186958313 0.5284460186958313
0.54486805200576782 0.54486805200576782 0.54486805200576782
0.56120008230209351 0.56120008230209351 0.56120008230209351
0.57729458808898926 0.57729458808898926 0.57729458808898926
0.59304571151733398 0.59304571151733398 0.59304571151733398
0.60859054327011108 0.60859054327011108 0.60859054327011108
0.62370306253433228 0.62370306253433228 0.62370306253433228
0.4812159538269043 0.4812159538269043 0.4812159538269043
0.49902471899986267 0.49902471899986267 0.49902471899986267
0.51620024442672729 0.51620024442672729 0.51620024442672729
0.53311634063720703 0.53311634063720703 0.53311634063720703
0.54976576566696167 0.54976576566696167 0.54976576566696167
0.56619727611541748 0.56619727611541748 0.56619727611541748
0.5825880765914917 0.5825880765914917 0.5825880765914917
0.59882813692092896 0.59882813692092896 0.59882813692092896
0.61504793167114258 0.61504793167114258 0.61504793167114258
0.63107144832611084 0.63107144832611084 0.63107144832611084
0.64691931009292603 0.64691931009292603 0.64691931009292603
0.66252845525741577 0.66252845525741577 0.66252845525741577
0.67767632007598877 0.67767632007598877 0.67767632007598877
0.5368543267250061 0.5368543267250061 0.5368543267250061
0.55440628528594971 0.55440628528594971 0.55440628528594971
0.57145792245864868 0.57145792245864868 0.57145792245864868
0.58791655302047729 0.58791655302047729 0.58791655302047729
0.60423934459686279 0.60423934459686279 0.60423934459686279
0.62046796083450317 0.62046796083450317 0.62046796083450317
0.63661253452301025 0.63661253452301025 0.63661253452301025
0.65270578861236572 0.65270578861236572 0.65270578861236572
0.66880464553833008 0.66880464553833008 0.66880464553833008
0.68477147817611694 0.68477147817611694 0.68477147817611694
0.70074343681335449 0.70074343681335449 0.70074343681335449
0.71638303995132446 0.71638303995132446 0.71638303995132446
0.73162698745727539 0.73162698745727539 0.73162698745727539
0.59213930368423462 0.59213930368423462 0.59213930368423462
0.60963106155395508 0.60963106155395508 0.60963106155395508
0.62648195028305054 0.62648195028305054 0.62648195028305054
0.64257299900054932 0.64257299900054932 0.64257299900054932
0.65861135721206665 0.65861135721206665 0.65861135721206665
0.67459416389465332 0.67459416389465332 0.67459416389465332
0.69060277938842773 0.69060277938842773 0.69060277938842773
0.70664083957672119 0.70664083957672119 0.70664083957672119
0.7226981520652771 0.7226981520652771 0.7226981520652771
0.7386854887008667 0.7386854887008667 0.7386854887008667
0.75460630655288696 0.75460630655288696 0.75460630655288696
0.7703360915184021 0.7703360915184021 0.7703360915184021
0.7855757474899292 0.7855757474899292 0.7855757474899292
0.64688456058502197 0.64688456058502197 0.64688456058502197
0.66452431678771973 0.66452431678771973 0.66452431678771973
0.68117541074752808 0.68117541074752808 0.68117541074752808
0.69718903303146362 0.69718903303146362 0.69718903303146362
0.71280688047409058 0.71280688047409058 0.71280688047409058
0.72857010364532471 0.72857010364532471 0.72857010364532471
0.74454772472381592 0.74454772472381592 0.74454772472381592
0.76063710451126099 0.76063710451126099 0.76063710451126099
0.77668154239654541 0.77668154239654541 0.77668154239654541
0.79272705316543579 0.79272705316543579 0.79272705316543579
0.80853366851806641 0.80853366851806641 0.80853366851806641
0.82419061660766602 0.82419061660766602 0.82419061660766602
0.83928930759429932 0.83928930759429932 0.83928930759429932
0.70121985673904419 0.70121985673904419 0.70121985673904419
0.7188144326210022 0.7188144326210022 0.7188144326210022
0.73540014028549194 0.73540014028549194 0.73540014028549194
0.75133198499679565 0.75133198499679565 0.75133198499679565
0.76681363582611084 0.76681363582611084 0.76681363582611084
0.7824895977973938 0.7824895977973938 0.7824895977973938
0.79850012063980103 0.79850012063980103 0.79850012063980103
0.81475764513015747 0.81475764513015747 0.81475764513015747
0.83092069625854492 0.83092069625854492 0.83092069625854492
0.84693962335586548 0.84693962335586548 0.84693962335586548
0.86259549856185913 0.86259549856185913 0.86259549856185913
0.87802642583847046 0.87802642583847046 0.87802642583847046
0.89298301935195923 0.89298301935195923 0.89298301935195923
0.044163886457681656 0.044163886457681656 0.044163886457681656
0.061042290180921555 0.061042290180921555 0.061042290180921555
0.077030882239341736 0.077030882239341736 0.077030882239341736
0.093062505125999451 0.093062505125999451 0.093062505125999451
0.109516441822052 0.109516441822052 0.109516441822052
0.12618240714073181 0.12618240714073181 0.12618240714073181
0.14363671839237213 0.14363671839237213 0.14363671839237213
0.16088233888149261 0.16088233888149261 0.16088233888149261
0.17884173989295959 0.17884173989295959 0.17884173989295959
0.19615539908409119 0.19615539908409119 0.19615539908409119
0.21364401280879974 0.21364401280879974 0.21364401280879974
0.23005160689353943 0.23005160689353943 0.23005160689353943
0.24537104368209839 0.24537104368209839 0.24537104368209839
0.10199926048517227 0.10199926048517227 0.10199926048517227
0.118996761739254 0.118996761739254 0.118996761739254
0.13529539108276367 0.13529539108276367 0.13529539108276367
0.1515069454908371 0.1515069454908371 0.1515069454908371
0.16784484684467316 0.16784484684467316 0.16784484684467316
0.18454733490943909 0.18454733490943909 0.18454733490943909
0.20211715996265411 0.20211715996265411 0.20211715996265411
0.21916987001895905 0.21916987001895905 0.21916987001895905
0.23686128854751587 0.23686128854751587 0.23686128854751587
0.25407829880714417 0.25407829880714417 0.25407829880714417
0.27127522230148315 0.27127522230148315 0.27127522230148315
0.28755062818527222 0.28755062818527222 0.28755062818527222
0.30286306142807007 0.30286306142807007 0.30286306142807007
0.15787787735462189 0.15787787735462189 0.15787787735462189
0.17524853348731995 0.17524853348731995 0.17524853348731995
0.19187432527542114 0.19187432527542114 0.19187432527542114
0.20834513008594513 0.20834513008594513 0.20834513008594513
0.22507926821708679 0.22507926821708679 0.22507926821708679
0.2418845146894455 0.2418845146894455 0.2418845146894455
0.25919672846794128 0.25919672846794128 0.25919672846794128
0.27631106972694397 0.27631106972694397 0.27631106972694397
0.29371181130409241 0.29371181130409241 0.29371181130409241
0.3107483983039856 0.3107483983039856 0.3107483983039856
0.32743480801582336 0.32743480801582336 0.32743480801582336
0.34347593784332275 0.34347593784332275 0.34347593784332275
0.35872361063957214 0.35872361063957214 0.35872361063957214
0.21275083720684052 0.21275083720684052 0.21275083720684052
0.23023396730422974 0.23023396730422974 0.23023396730422974
0.24729900062084198 0.24729900062084198 0.24729900062084198
0.26427891850471497 0.26427891850471497 0.26427891850471497
0.28119021654129028 0.28119021654129028 0.28119021654129028
0.29833638668060303 0.29833638668060303 0.29833638668060303
0.315360426902771 0.315360426902771 0.315360426902771
0.3325728178024292 0.3325728178024292 0.3325728178024292
0.34946155548095703 0.34946155548095703 0.34946155548095703
0.36631244421005249 0.36631244421005249 0.36631244421005249
0.38269758224487305 0.38269758224487305 0.38269758224487305
0.39846408367156982 0.39846408367156982 0.39846408367156982
0.41351208090782166 0.41351208090782166 0.41351208090782166
0.26716578006744385 0.26716578006744385 0.26716578006744385
0.28468713164329529 0.28468713164329529 0.28468713164329529
0.30221584439277649 0.30221584439277649 0.30221584439277649
0.31945157051086426 0.31945157051086426 0.31945157051086426
0.33667930960655212 0.33667930960655212 0.33667930960655212
0.35374075174331665 0.35374075174331665 0.35374075174331665
0.37088951468467712 0.37088951468467712 0.37088951468467712
0.38780304789543152 0.38780304789543152 0.38780304789543152
0.40460151433944702 0.40460151433944702 0.40460151433944702
