assets/lut/others vibrant alien.cube
# Created by: G'MIC (https://gmic.eu)
TITLE "vibrant_alien"
# LUT size
LUT_3D_SIZE 5
# Data domain
DOMAIN_MIN 0.0 0.0 0.0
DOMAIN_MAX 1.0 1.0 1.0
# LUT data points
0.025299446657299995 0.0088277328759431839 0.012706711888313293
0.19495221972465515 0.009852076880633831 0.012582875788211823
0.48085519671440125 0.007976531982421875 0.012534796260297298
0.79019218683242798 0.010104025714099407 0.010132210329174995
0.96957826614379883 0.0067346161231398582 0.01152140274643898
0.02844606339931488 0.23818089067935944 0.013748273253440857
0.1930048018693924 0.23165181279182434 0.015332315117120743
0.48425662517547607 0.24342663586139679 0.0090687619522213936
0.79390919208526611 0.23352374136447906 0.010605292394757271
0.96742928028106689 0.25161007046699524 0.012383509427309036
0.026078512892127037 0.7129594087600708 0.012555021792650223
0.19506566226482391 0.7088894248008728 0.012660830281674862
0.48043829202651978 0.70440888404846191 0.008725394494831562
0.79146218299865723 0.70459449291229248 0.0093535929918289185
0.96951276063919067 0.71358126401901245 0.011661425232887268
0.023238401859998703 0.82145559787750244 0.01257985457777977
0.19104801118373871 0.82244819402694702 0.013084187172353268
0.48163291811943054 0.82154935598373413 0.012641233392059803
0.79115062952041626 0.81846892833709717 0.015608858317136765
0.95827174186706543 0.81807184219360352 0.014785706996917725
0.020565751940011978 0.81960785388946533 0.013543925248086452
0.19496773183345795 0.81960785388946533 0.013784625567495823
0.47343337535858154 0.82327622175216675 0.0098806191235780716
0.79299134016036987 0.81960785388946533 0.012188496068120003
0.97185146808624268 0.82352942228317261 0.014550721272826195
0.025933045893907547 0.0087118707597255707 0.15609642863273621
0.19259990751743317 0.01104583777487278 0.15178424119949341
0.47831234335899353 0.009014383889734745 0.15865139663219452
0.7892271876335144 0.0071895373985171318 0.16237770020961761
0.97100263833999634 0.0083199143409729004 0.15717907249927521
0.021696427837014198 0.23556599020957947 0.15259459614753723
0.19601359963417053 0.23717668652534485 0.15009571611881256
0.47530421614646912 0.2321404367685318 0.15654133260250092
0.79513216018676758 0.24269235134124756 0.15075019001960754
0.9756547212600708 0.23527911305427551 0.15239743888378143
0.025940824300050735 0.70295369625091553 0.15694577991962433
0.19225452840328217 0.71058124303817749 0.15043042600154877
0.4835917055606842 0.71074360609054565 0.15411873161792755
0.79613292217254639 0.71059644222259521 0.1476941853761673
0.96882492303848267 0.71294945478439331 0.15326820313930511
0.022919269278645515 0.82264751195907593 0.15562398731708527
0.19439949095249176 0.82003259658813477 0.15576563775539398
0.48289746046066284 0.82033342123031616 0.16086845099925995
0.79058569669723511 0.82286298274993896 0.14937011897563934
0.9675406813621521 0.81840628385543823 0.15501275658607483
0.024778028950095177 0.81963819265365601 0.14487501978874207
0.19739162921905518 0.82352942228317261 0.15567679703235626
0.47992691397666931 0.82352942228317261 0.1537320464849472
0.79214465618133545 0.82352942228317261 0.16839103400707245
0.96941053867340088 0.82034432888031006 0.15377128124237061
0.025653598830103874 0.0073207630775868893 0.53929537534713745
0.19871300458908081 0.010355346836149693 0.52611380815505981
0.47806847095489502 0.010266157798469067 0.52718847990036011
0.79327404499053955 0.0055095748975872993 0.52608811855316162
0.9689868688583374 0.011499726213514805 0.5318758487701416
0.023307830095291138 0.23250475525856018 0.52421116828918457
0.1962628960609436 0.23341460525989532 0.52468967437744141
0.480173259973526 0.2437748908996582 0.52950060367584229
0.79442787170410156 0.22955124080181122 0.52179878950119019
0.96894317865371704 0.22881759703159332 0.53168344497680664
0.022680364549160004 0.71293693780899048 0.53425866365432739
0.19210703670978546 0.69889110326766968 0.52353799343109131
0.47931003570556641 0.70293682813644409 0.53338640928268433
0.7913128137588501 0.70856034755706787 0.51771408319473267
0.96559250354766846 0.71164089441299438 0.52413904666900635
0.025428382679820061 0.81849515438079834 0.52659350633621216
0.19610477983951569 0.81934362649917603 0.52556771039962769
0.47744777798652649 0.82070642709732056 0.5229794979095459
0.79042178392410278 0.81791037321090698 0.51716285943984985
0.9675668478012085 0.82396525144577026 0.52461153268814087
0.022922785952687263 0.82127386331558228 0.52151143550872803
0.19545617699623108 0.81985551118850708 0.51967751979827881
0.47330504655838013 0.82352942228317261 0.5208544135093689
0.79797118902206421 0.81965541839599609 0.53997838497161865
0.97323036193847656 0.81960785388946533 0.52895724773406982
0.041790306568145752 0.0078781275078654289 0.8696935772895813
0.19271336495876312 0.0096507947891950607 0.87337636947631836
0.47780701518058777 0.011996744200587273 0.87167185544967651
0.79705345630645752 0.0077596479095518589 0.87466025352478027
0.96967482566833496 0.012463289313018322 0.87937670946121216
0.022674486041069031 0.22956536710262299 0.87462586164474487
0.19582492113113403 0.23700211942195892 0.87355661392211914
0.48277577757835388 0.23820081353187561 0.8610461950302124
0.79214215278625488 0.24335043132305145 0.87465327978134155
0.97231709957122803 0.24285104870796204 0.86574834585189819
0.025359045714139938 0.71015870571136475 0.87058275938034058
0.19298836588859558 0.70804762840270996 0.86641448736190796
0.48396709561347961 0.70961421728134155 0.86673545837402344
0.79585760831832886 0.70780283212661743 0.87432676553726196
0.96936923265457153 0.71217954158782959 0.87142229080200195
0.027451504021883011 0.82027202844619751 0.87703561782836914
0.1947554349899292 0.82055974006652832 0.8709331750869751
0.48386955261230469 0.82093393802642822 0.87291407585144043
0.7913396954536438 0.8223760724067688 0.87148338556289673
0.96700525283813477 0.82243841886520386 0.871471107006073
0.02706858329474926 0.82236999273300171 0.86581748723983765
0.19744305312633514 0.82083749771118164 0.87174934148788452
0.48428124189376831 0.82352942228317261 0.86814194917678833
0.79534447193145752 0.81964337825775146 0.87411272525787354
0.9632183313369751 0.82021999359130859 0.86714941263198853
0.026871774345636368 0.010190043598413467 0.99115204811096191
0.19656382501125336 0.0091147925704717636 0.9878380298614502
0.48493042588233948 0.0056334999389946461 0.98779237270355225
0.7978590726852417 0.01202786061912775 0.99157059192657471
0.97234237194061279 0.0071667241863906384 0.99096804857254028
0.021866204217076302 0.2357715517282486 0.98989635705947876
0.19461184740066528 0.23606909811496735 0.99107074737548828
0.48541128635406494 0.23776844143867493 0.99016499519348145
0.79423284530639648 0.2353508323431015 0.98163235187530518
0.97087591886520386 0.23932284116744995 0.9897773265838623
0.022083431482315063 0.70812022686004639 0.98990011215209961
0.19367580115795135 0.70551604032516479 0.98588639497756958
0.48629534244537354 0.70304781198501587 0.9860684871673584
0.79335206747055054 0.70927554368972778 0.98593777418136597
0.97198492288589478 0.7087409496307373 0.98958295583724976
0.024174798280000687 0.82119661569595337 0.98619943857192993
0.19320565462112427 0.82185310125350952 0.98947560787200928
0.48219239711761475 0.8203127384185791 0.98732900619506836
0.79422718286514282 0.81918227672576904 0.98949480056762695
0.97151696681976318 0.82282119989395142 0.99203044176101685
0.024917302653193474 0.81960785388946533 0.98805969953536987
0.19624795019626617 0.82346469163894653 0.98345434665679932
0.48700639605522156 0.82330536842346191 0.99021828174591064
0.79585760831832886 0.82316052913665771 0.99171978235244751
0.97151833772659302 0.82352942228317261 0.9915584921836853
