assets/lut/others sutro fx.cube
# Created by: G'MIC (https://gmic.eu)
TITLE "sutro_fx"
# LUT size
LUT_3D_SIZE 13
# Data domain
DOMAIN_MIN 0.0 0.0 0.0
DOMAIN_MAX 1.0 1.0 1.0
# LUT data points
0.083872973918914795 0.031359266489744186 0.04268169030547142
0.16502507030963898 0.03989117220044136 0.064328305423259735
0.27935433387756348 0.061913464218378067 0.087923355400562286
0.39330899715423584 0.085137203335762024 0.11005932837724686
0.49721303582191467 0.11223476380109787 0.13465677201747894
0.59056645631790161 0.14216163754463196 0.16215170919895172
0.67122423648834229 0.17068411409854889 0.18992801010608673
0.7383037805557251 0.19657130539417267 0.2164364755153656
0.79392391443252563 0.22374628484249115 0.244275763630867
0.84521430730819702 0.25366228818893433 0.27237340807914734
0.89249616861343384 0.28753200173377991 0.30065467953681946
0.93595659732818604 0.32816684246063232 0.32827669382095337
0.9757726788520813 0.37393015623092651 0.35817387700080872
0.12882915139198303 0.071477331221103668 0.072142265737056732
0.18834426999092102 0.076559506356716156 0.09108009934425354
0.27955281734466553 0.094934485852718353 0.11315802484750748
0.38711532950401306 0.12251389771699905 0.1345868855714798
0.49597334861755371 0.1582891047000885 0.15754935145378113
0.59257352352142334 0.19771166145801544 0.18395043909549713
0.67418009042739868 0.23700420558452606 0.21267886459827423
0.74194979667663574 0.27365908026695251 0.24073611199855804
0.79878109693527222 0.3070431649684906 0.2687017023563385
0.84877932071685791 0.34125199913978577 0.29681491851806641
0.89372366666793823 0.37911632657051086 0.32535436749458313
0.93632787466049194 0.42152884602546692 0.35367277264595032
0.97671568393707275 0.46723651885986328 0.38288190960884094
0.19407036900520325 0.12377983331680298 0.1084912046790123
0.23331667482852936 0.12449601292610168 0.12322094291448593
0.29835107922554016 0.1374758780002594 0.14416947960853577
0.38875630497932434 0.1626226007938385 0.16528913378715515
0.49063846468925476 0.20172211527824402 0.18700240552425385
0.58564192056655884 0.24980233609676361 0.212844118475914
0.66851234436035156 0.30265578627586365 0.2419302761554718
0.73889464139938354 0.35170599818229675 0.27096074819564819
0.79795050621032715 0.39305216073989868 0.29853394627571106
0.84796100854873657 0.43178758025169373 0.32665368914604187
0.89191091060638428 0.47306257486343384 0.3561076819896698
0.9340938925743103 0.51726102828979492 0.38545161485671997
0.97648179531097412 0.56143772602081299 0.41415902972221375
0.27350291609764099 0.19366061687469482 0.15212884545326233
0.30073097348213196 0.19249038398265839 0.16270312666893005
0.3461034893989563 0.19906510412693024 0.18013907968997955
0.41363066434860229 0.21590180695056915 0.20056456327438354
0.49558547139167786 0.24892298877239227 0.22254785895347595
0.57929474115371704 0.29743188619613647 0.24721334874629974
0.65813153982162476 0.3586418628692627 0.27575904130935669
0.73017746210098267 0.41992515325546265 0.30464556813240051
0.7931554913520813 0.47176995873451233 0.33192378282546997
0.84624797105789185 0.51776629686355591 0.36032390594482422
0.89128106832504272 0.56151974201202393 0.39045348763465881
0.93357402086257935 0.60516554117202759 0.42061156034469604
0.97587841749191284 0.6466219425201416 0.44990509748458862
0.35436969995498657 0.28271904587745667 0.19882641732692719
0.38032621145248413 0.28121265769004822 0.20708329975605011
0.4152337908744812 0.28188788890838623 0.22171185910701752
0.46233171224594116 0.28784424066543579 0.24083921313285828
0.51896345615386963 0.30676072835922241 0.26137849688529968
0.5814012885093689 0.34248960018157959 0.28391587734222412
0.64828109741210938 0.39791864156723022 0.30963438749313354
0.71889179944992065 0.46677520871162415 0.337799072265625
0.78663104772567749 0.53500854969024658 0.36671262979507446
0.84464293718338013 0.59146153926849365 0.39636966586112976
0.8925701379776001 0.63821119070053101 0.42684966325759888
0.93490105867385864 0.68058401346206665 0.45735323429107666
0.97633856534957886 0.7184484601020813 0.48808729648590088
0.42831301689147949 0.38343888521194458 0.24505822360515594
0.45871275663375854 0.38219019770622253 0.25330290198326111
0.49185773730278015 0.37891343235969543 0.26741832494735718
0.52574640512466431 0.37603816390037537 0.28491061925888062
0.55911940336227417 0.37860748171806335 0.30281072854995728
0.59610837697982788 0.39283403754234314 0.32206445932388306
0.64535284042358398 0.43239167332649231 0.3442969024181366
0.71079510450363159 0.5024142861366272 0.37169012427330017
0.78057074546813965 0.5807378888130188 0.40187510848045349
0.84234076738357544 0.64734739065170288 0.43309193849563599
0.89314121007919312 0.69938963651657104 0.46442314982414246
0.93678778409957886 0.74223804473876953 0.49569827318191528
0.97670400142669678 0.77857595682144165 0.52717334032058716
0.49080511927604675 0.48631560802459717 0.28772825002670288
0.52608329057693481 0.48557859659194946 0.296976238489151
0.56343811750411987 0.48186546564102173 0.31280457973480225
0.59259110689163208 0.47555634379386902 0.33033847808837891
0.61129558086395264 0.46755078434944153 0.34660184383392334
0.62945574522018433 0.46419957280158997 0.36296260356903076
0.66114860773086548 0.48554635047912598 0.3828122615814209
0.71595793962478638 0.54578977823257446 0.40818989276885986
0.7804112434387207 0.62086403369903564 0.43749842047691345
0.84017336368560791 0.68866902589797974 0.46900230646133423
0.8915361762046814 0.74427038431167603 0.50130653381347656
0.93667054176330566 0.78974306583404541 0.53368628025054932
0.97698408365249634 0.82801371812820435 0.56607151031494141
0.54181098937988281 0.58597481250762939 0.32614129781723022
0.57922494411468506 0.58613622188568115 0.33658331632614136
0.62037545442581177 0.58431494235992432 0.35499751567840576
0.65207791328430176 0.58048999309539795 0.37471559643745422
0.67008185386657715 0.57258045673370361 0.39232596755027771
0.68307620286941528 0.56389409303665161 0.40927597880363464
0.70393842458724976 0.57190424203872681 0.42806562781333923
0.74193030595779419 0.60960739850997925 0.45014023780822754
0.79086101055145264 0.66526931524276733 0.47567251324653625
0.84072375297546387 0.72194123268127441 0.50526326894760132
0.8885684609413147 0.77523499727249146 0.53774601221084595
0.93477016687393188 0.82402306795120239 0.57148474454879761
0.9769245982170105 0.86537057161331177 0.60494786500930786
0.58974224328994751 0.67879676818847656 0.3677736222743988
0.625480055809021 0.67941099405288696 0.37723588943481445
0.669109046459198 0.67960363626480103 0.39806470274925232
0.70619344711303711 0.6806938648223877 0.4205879271030426
0.72998291254043579 0.67932051420211792 0.44071796536445618
0.74420595169067383 0.67153447866439819 0.45949167013168335
0.75961941480636597 0.67070597410202026 0.47785475850105286
0.78212529420852661 0.68630552291870117 0.49755117297172546
0.81077027320861816 0.71430742740631104 0.51872414350509644
0.84409970045089722 0.75048989057540894 0.54434299468994141
0.88482451438903809 0.79585087299346924 0.57500523328781128
0.93062949180603027 0.84630942344665527 0.60954070091247559
0.9750138521194458 0.89282983541488647 0.64438676834106445
0.63953661918640137 0.76356804370880127 0.41577345132827759
0.67247742414474487 0.76305556297302246 0.42385780811309814
0.71724420785903931 0.76374220848083496 0.44625702500343323
0.75624328851699829 0.76658362150192261 0.47023525834083557
0.78270983695983887 0.76856917142868042 0.49148666858673096
0.79930198192596436 0.76531308889389038 0.51117599010467529
0.81250697374343872 0.76171821355819702 0.53005564212799072
0.82522350549697876 0.7630765438079834 0.54796141386032104
0.83704656362533569 0.76788049936294556 0.56590175628662109
0.85348218679428101 0.78175389766693115 0.58736127614974976
0.88358402252197266 0.81407344341278076 0.61531811952590942
0.92666387557983398 0.86330008506774902 0.64918291568756104
0.97311848402023315 0.91455078125 0.68459963798522949
0.69026726484298706 0.83918541669845581 0.46794894337654114
0.72197699546813965 0.83845210075378418 0.47667732834815979
0.76214903593063354 0.83808952569961548 0.4970257580280304
0.79757082462310791 0.84034866094589233 0.52005988359451294
0.82380610704421997 0.84255564212799072 0.54198557138442993
0.84211182594299316 0.84185522794723511 0.56280899047851562
0.8555523157119751 0.83877325057983398 0.58207684755325317
0.86435580253601074 0.83385944366455078 0.59975129365921021
0.86894536018371582 0.82744896411895752 0.61703985929489136
0.87457042932510376 0.82666051387786865 0.63655102252960205
0.89322888851165771 0.84470027685165405 0.66129612922668457
0.93025583028793335 0.88620871305465698 0.69269692897796631
0.97343188524246216 0.93447047472000122 0.72628337144851685
0.73746979236602783 0.90592277050018311 0.52151191234588623
0.76819700002670288 0.90587252378463745 0.5323258638381958
0.80053943395614624 0.90558242797851562 0.54940736293792725
0.83045214414596558 0.90627777576446533 0.5706518292427063
0.85509419441223145 0.90725457668304443 0.59237003326416016
0.87424159049987793 0.90723961591720581 0.61369985342025757
0.88906288146972656 0.90557217597961426 0.63367044925689697
0.89976239204406738 0.90079623460769653 0.65210729837417603
0.90488910675048828 0.89335191249847412 0.67100983858108521
0.90817415714263916 0.88817304372787476 0.69098275899887085
0.91926884651184082 0.89559471607208252 0.71347671747207642
0.94355839490890503 0.91960287094116211 0.74023544788360596
0.9752960205078125 0.9533764123916626 0.76925331354141235
0.77795559167861938 0.96603888273239136 0.5754932165145874
0.8083566427230835 0.96612834930419922 0.59040683507919312
0.83500379323959351 0.96517854928970337 0.60581475496292114
0.85926258563995361 0.96507352590560913 0.62400472164154053
0.88116073608398438 0.96541690826416016 0.64428341388702393
0.900124192237854 0.96551042795181274 0.66515964269638062
0.91620075702667236 0.96507352590560913 0.68573325872421265
0.93165570497512817 0.96430873870849609 0.70438772439956665
0.94006669521331787 0.95939791202545166 0.72550219297409058
0.94395112991333008 0.95342803001403809 0.74691319465637207
0.94955378770828247 0.95176517963409424 0.76719909906387329
0.96196585893630981 0.95953696966171265 0.78947120904922485
0.98142588138580322 0.97649562358856201 0.81371873617172241
0.13712048530578613 0.051489751785993576 0.084091261029243469
0.1906772255897522 0.046007659286260605 0.099720224738121033
0.27742463350296021 0.056990634649991989 0.11939156055450439
0.38108071684837341 0.076565131545066833 0.13946641981601715
0.48849451541900635 0.10384113341569901 0.16376380622386932
0.58705949783325195 0.13510538637638092 0.19350843131542206
0.67063409090042114 0.16587543487548828 0.22448047995567322
0.73824179172515869 0.19367347657680511 0.25276309251785278
0.7940635085105896 0.22076991200447083 0.28013712167739868
0.84512531757354736 0.24897006154060364 0.30786946415901184
0.89109337329864502 0.28095775842666626 0.33621585369110107
0.93464875221252441 0.31656381487846375 0.36223581433296204
0.97659397125244141 0.35707825422286987 0.38825443387031555
0.1702335923910141 0.085443280637264252 0.099143698811531067
0.20677739381790161 0.078657291829586029 0.1109478697180748
0.27676945924758911 0.088533602654933929 0.13149458169937134
0.37671950459480286 0.11204705387353897 0.15246278047561646
0.48981973528862 0.1463857889175415 0.17548921704292297
0.59004205465316772 0.18302686512470245 0.20353302359580994
0.67357915639877319 0.22067829966545105 0.23433637619018555
0.7427704930305481 0.25756865739822388 0.26458272337913513
0.7997322678565979 0.29141554236412048 0.29321536421775818
0.84900796413421631 0.32376068830490112 0.32081124186515808
0.89316707849502563 0.35775694251060486 0.3477405309677124
0.93535923957824707 0.39463716745376587 0.37333238124847412
0.97671568393707275 0.43498057126998901 0.39945253729820251
0.22197119891643524 0.13233406841754913 0.12822242081165314
0.24182628095149994 0.12286040186882019 0.13437710702419281
0.29098570346832275 0.12895737588405609 0.15196864306926727
0.37669044733047485 0.14940185844898224 0.17329174280166626
0.48197323083877563 0.1844993531703949 0.19593040645122528
0.58172577619552612 0.22728817164897919 0.22211478650569916
0.66813153028488159 0.27570429444313049 0.25173494219779968
0.74043232202529907 0.32440382242202759 0.28266173601150513
0.79987114667892456 0.36638805270195007 0.31177189946174622
0.84947866201400757 0.40388184785842896 0.33911246061325073
0.89199209213256836 0.44110605120658875 0.36610215902328491
0.93401420116424561 0.48053571581840515 0.39296302199363708
0.97603189945220947 0.52229446172714233 0.42180392146110535
0.2902379035949707 0.19849757850170135 0.169496089220047
0.30269476771354675 0.18856775760650635 0.17174872756004333
0.33511647582054138 0.18785360455513 0.18407897651195526
0.39770075678825378 0.19905509054660797 0.20447294414043427
0.48319381475448608 0.22869798541069031 0.22713819146156311
0.57327663898468018 0.27396294474601746 0.25167953968048096
0.65750449895858765 0.33006387948989868 0.27947631478309631
0.73264604806900024 0.39017787575721741 0.30940163135528564
0.79649084806442261 0.44357824325561523 0.33833864331245422
0.84904104471206665 0.4881497323513031 0.3661181628704071
0.89256411790847778 0.52857309579849243 0.39417257905006409
0.93409532308578491 0.57003521919250488 0.42331093549728394
0.97569400072097778 0.61227500438690186 0.45513820648193359
0.36689913272857666 0.28497684001922607 0.21838739514350891
0.38123154640197754 0.27823624014854431 0.21839584410190582
0.40504041314125061 0.27232846617698669 0.22709301114082336
0.44687396287918091 0.27384558320045471 0.24475482106208801
0.50673699378967285 0.29158058762550354 0.26599660515785217
0.57560247182846069 0.32598963379859924 0.28812718391418457
0.64830160140991211 0.37894323468208313 0.31349354982376099
0.72230654954910278 0.44743961095809937 0.34247443079948425
0.7916257381439209 0.51578617095947266 0.37239709496498108
0.84928220510482788 0.57042580842971802 0.40142342448234558
0.89550846815109253 0.61408793926239014 0.43048682808876038
0.93661779165267944 0.65493446588516235 0.46146777272224426
0.97668910026550293 0.69485580921173096 0.49496525526046753
0.44093236327171326 0.38505420088768005 0.27005743980407715
0.45980757474899292 0.3809715211391449 0.26902061700820923
0.48273596167564392 0.37394979596138 0.2758534848690033
0.51222461462020874 0.36905291676521301 0.29034361243247986
0.54879587888717651 0.37128368020057678 0.30830270051956177
0.59203201532363892 0.38586616516113281 0.32725304365158081
0.64620316028594971 0.42530062794685364 0.35013288259506226
0.71414518356323242 0.49423417448997498 0.37858486175537109
0.78628158569335938 0.57350248098373413 0.41013690829277039
0.84865254163742065 0.63888192176818848 0.44106519222259521
0.89741355180740356 0.6867871880531311 0.47107893228530884
0.93816286325454712 0.72716069221496582 0.50263446569442749
0.97676080465316772 0.76430797576904297 0.53638112545013428
0.50402504205703735 0.48816725611686707 0.31811314821243286
0.5270308256149292 0.48546287417411804 0.3172890841960907
0.55343472957611084 0.48066246509552002 0.32408201694488525
0.5793272852897644 0.47426679730415344 0.33732113242149353
0.60205948352813721 0.46610090136528015 0.35305458307266235
0.62571448087692261 0.46314698457717896 0.36987981200218201
0.66110384464263916 0.48401901125907898 0.39026311039924622
0.71646726131439209 0.54173952341079712 0.41690295934677124
0.78356814384460449 0.61842459440231323 0.44813328981399536
0.84490811824798584 0.68725806474685669 0.47981095314025879
0.8954308032989502 0.73996633291244507 0.51100325584411621
0.93874555826187134 0.78271883726119995 0.5435979962348938
0.97988581657409668 0.82040923833847046 0.57729458808898926
0.55524682998657227 0.58833009004592896 0.35960522294044495
0.58013170957565308 0.58790630102157593 0.35936525464057922
0.61057883501052856 0.58587950468063354 0.36777779459953308
0.63953608274459839 0.58125674724578857 0.38276922702789307
0.66096514463424683 0.57170099020004272 0.39968192577362061
0.67763370275497437 0.5620226263999939 0.41701194643974304
0.70026689767837524 0.56853502988815308 0.43619546294212341
0.73889189958572388 0.60491907596588135 0.45951801538467407
0.78946250677108765 0.66173219680786133 0.48690956830978394
0.8409695029258728 0.72004324197769165 0.51701813936233521
0.8903275728225708 0.77369970083236694 0.54918336868286133
0.93668639659881592 0.82155519723892212 0.58304768800735474
0.9795839786529541 0.86230838298797607 0.61772048473358154
0.60186183452606201 0.68157601356506348 0.40272164344787598
0.62439596652984619 0.68194872140884399 0.39970141649246216
0.65836942195892334 0.68196952342987061 0.40991887450218201
0.69357627630233765 0.68045544624328613 0.42870602011680603
0.72009879350662231 0.67562514543533325 0.44879442453384399
0.73808580636978149 0.66814965009689331 0.46792793273925781
0.75539219379425049 0.66692721843719482 0.48716884851455688
0.77824276685714722 0.68159061670303345 0.50719588994979858
0.80648231506347656 0.70849239826202393 0.52896034717559814
0.84058851003646851 0.74505829811096191 0.55470108985900879
0.88367539644241333 0.79278600215911865 0.5864102840423584
0.93181306123733521 0.84524244070053101 0.62184381484985352
0.9764896035194397 0.89164274930953979 0.65793198347091675
0.64953374862670898 0.76695960760116577 0.45050305128097534
0.66771578788757324 0.76584714651107788 0.44356313347816467
0.70398116111755371 0.76558899879455566 0.45519733428955078
0.74343067407608032 0.76514273881912231 0.476957768201828
0.77345937490463257 0.76574766635894775 0.49926680326461792
0.79395955801010132 0.76309466361999512 0.520160973072052
0.80959516763687134 0.75970983505249023 0.53983688354492188
0.82186716794967651 0.75922739505767822 0.55769509077072144
0.83234298229217529 0.76136243343353271 0.57554382085800171
0.84848976135253906 0.77386277914047241 0.5968518853187561
0.88131982088088989 0.81006866693496704 0.6262812614440918
0.92738884687423706 0.8623010516166687 0.66160470247268677
0.97486096620559692 0.91426950693130493 0.69838255643844604
0.69892758131027222 0.84201288223266602 0.50265789031982422
0.7173956036567688 0.84121531248092651 0.49604335427284241
0.7486310601234436 0.84065705537796021 0.50481665134429932
0.78491783142089844 0.84062236547470093 0.52586871385574341
0.81477290391921997 0.84180504083633423 0.54913747310638428
0.83716320991516113 0.84152191877365112 0.57138723134994507
0.85336214303970337 0.83919894695281982 0.59164965152740479
0.86289721727371216 0.83320558071136475 0.60982906818389893
0.86714321374893188 0.82490414381027222 0.62739944458007812
0.87295836210250854 0.8237956166267395 0.64707916975021362
0.89408564567565918 0.84449392557144165 0.67319029569625854
0.9312976598739624 0.8866724967956543 0.70532268285751343
0.9750446081161499 0.93495744466781616 0.73979902267456055
0.74576699733734131 0.90822649002075195 0.55850118398666382
0.76567119359970093 0.90826326608657837 0.55461710691452026
0.79071450233459473 0.90702331066131592 0.56011807918548584
0.81966537237167358 0.90673494338989258 0.57753115892410278
0.84662407636642456 0.90794521570205688 0.60034221410751343
0.8692430853843689 0.90847474336624146 0.62293118238449097
0.88686728477478027 0.90652716159820557 0.64315056800842285
0.89897125959396362 0.90214389562606812 0.66252702474594116
0.90538269281387329 0.89499187469482422 0.6828189492225647
0.90964603424072266 0.89012926816940308 0.70388007164001465
0.92148327827453613 0.89734488725662231 0.72651559114456177
0.94504022598266602 0.92094343900680542 0.75319904088973999
0.97629553079605103 0.95330989360809326 0.78272265195846558
0.78717482089996338 0.9687652587890625 0.61686068773269653
0.8077768087387085 0.96898847818374634 0.61596369743347168
0.82878738641738892 0.9677128791809082 0.62001609802246094
0.85114127397537231 0.96576935052871704 0.63372331857681274
0.87418293952941895 0.96666455268859863 0.65456473827362061
0.89577454328536987 0.96718400716781616 0.67639434337615967
0.91406744718551636 0.96556514501571655 0.69534629583358765
0.92951875925064087 0.96487116813659668 0.71470081806182861
0.94126367568969727 0.96292030811309814 0.7388806939125061
0.94764500856399536 0.9587777853012085 0.76168501377105713
0.95291781425476074 0.95555800199508667 0.78152406215667725
0.96380209922790527 0.96104121208190918 0.80296939611434937
0.9816288948059082 0.97565776109695435 0.82725304365158081
0.2319774329662323 0.09949677437543869 0.14371064305305481
0.25358682870864868 0.078784137964248657 0.15172736346721649
0.2950805127620697 0.066638439893722534 0.16280737519264221
0.37350994348526001 0.072216913104057312 0.1775810718536377
0.47348415851593018 0.092803031206130981 0.19889068603515625
0.57440185546875 0.12337257713079453 0.22907014191150665
0.66360962390899658 0.15781086683273315 0.26227447390556335
0.73626899719238281 0.1891990453004837 0.29157322645187378
0.7960628867149353 0.21842342615127563 0.31919673085212708
0.84724611043930054 0.24723151326179504 0.34699627757072449
0.8929787278175354 0.27756553888320923 0.37517216801643372
0.93620002269744873 0.31117138266563416 0.40203672647476196
0.97671103477478027 0.34934478998184204 0.42803442478179932
0.25411802530288696 0.12997302412986755 0.14893007278442383
0.26628661155700684 0.11025947332382202 0.15249858796596527
0.29872572422027588 0.099649436771869659 0.1644006222486496
0.37274077534675598 0.10757165402173996 0.18116933107376099
0.47465997934341431 0.13113707304000854 0.20178684592247009
0.57619369029998779 0.16247442364692688 0.22903291881084442
0.66578000783920288 0.20039853453636169 0.26046520471572876
0.73972004652023315 0.23994748294353485 0.29244258999824524
0.79970270395278931 0.27597078680992126 0.32216143608093262
0.84986168146133423 0.30832254886627197 0.34977689385414124
0.89375466108322144 0.34071245789527893 0.37604820728302002
0.93548238277435303 0.37491071224212646 0.40135648846626282
0.97671568393707275 0.41223064064979553 0.4274117648601532
0.28392955660820007 0.164714515209198 0.16517525911331177
0.28375571966171265 0.14307592809200287 0.16191165149211884
0.30611202120780945 0.13331784307956696 0.170281782746315
0.37352609634399414 0.14344507455825806 0.18902556598186493
0.47020384669303894 0.16791106760501862 0.21164716780185699
0.57069355249404907 0.20249897241592407 0.2368796169757843
0.66240715980529785 0.24660985171794891 0.26611346006393433
0.73885399103164673 0.29583853483200073 0.29906058311462402
0.79976040124893188 0.33784317970275879 0.32930821180343628
0.84962373971939087 0.37406489253044128 0.35642319917678833
0.89189833402633667 0.40991654992103577 0.38216099143028259
0.93343156576156616 0.44727152585983276 0.40825673937797546
0.97525691986083984 0.48844164609909058 0.4382961094379425
0.32863494753837585 0.21431516110897064 0.19712585210800171
0.3263741135597229 0.19500268995761871 0.1904619038105011
0.34084320068359375 0.18509216606616974 0.19383403658866882
0.39142653346061707 0.19097098708152771 0.21076630055904388
0.47293013334274292 0.21435895562171936 0.23485875129699707
0.56541711091995239 0.2516198456287384 0.25943604111671448
0.65548050403594971 0.30263063311576843 0.2869361937046051
0.7337760329246521 0.36071857810020447 0.31787005066871643
0.79759031534194946 0.41073653101921082 0.34743964672088623
0.84941685199737549 0.4518565833568573 0.37442827224731445
0.89239835739135742 0.4914170503616333 0.40117290616035461
0.93361830711364746 0.5325164794921875 0.43028020858764648
0.97503542900085449 0.57752740383148193 0.4648481011390686
0.38884127140045166 0.28607609868049622 0.24238348007202148
0.3909589946269989 0.2716822624206543 0.23439843952655792
0.4025036096572876 0.26251652836799622 0.23526783287525177
0.43751797080039978 0.26464647054672241 0.24900740385055542
0.49763444066047668 0.28210052847862244 0.27135953307151794
0.57069724798202515 0.31262919306755066 0.29359608888626099
0.64887154102325439 0.36201423406600952 0.31867653131484985
0.72603327035903931 0.42807680368423462 0.3489362895488739
0.79455161094665527 0.49205845594406128 0.37957543134689331
