assets/lut/others vibrant.cube
# Created by: G'MIC (https://gmic.eu)
TITLE "vibrant"
# LUT size
LUT_3D_SIZE 13
# Data domain
DOMAIN_MIN 0.0 0.0 0.0
DOMAIN_MAX 1.0 1.0 1.0
# LUT data points
0.0042969048954546452 0.0042482861317694187 0.001775150652974844
0.017357096076011658 0.0010733212111517787 0.0054147159680724144
0.063774138689041138 0.00038637648685835302 0.0049452241510152817
0.17195615172386169 0.0034900291357189417 0.0077039529569447041
0.34678569436073303 0.0041222665458917618 0.0072165247984230518
0.536487877368927 0.0034934249706566334 0.0046602585352957249
0.69272971153259277 0.00087922037346288562 0.004070925060659647
0.82223039865493774 0.00095300114480778575 0.0039215688593685627
0.92358922958374023 0.0038235534448176622 0.003863226156681776
0.9841688871383667 0.0039215688593685627 0.0036158543080091476
0.99607843160629272 0.0039215688593685627 0.0063420315273106098
0.99607843160629272 0.0038634056691080332 0.0080181648954749107
0.99607843160629272 0.0038957183714956045 0.0088899945840239525
0.0044094757176935673 0.013370977714657784 0.0018076279666274786
0.0051121283322572708 0.0061882017180323601 0.004079901147633791
0.052132684737443924 0.0045747347176074982 0.006654402706772089
0.18370345234870911 0.012346290051937103 0.018314884975552559
0.3608061671257019 0.010727003216743469 0.020551644265651703
0.54681962728500366 0.0085230953991413116 0.012143706902861595
0.70030093193054199 0.0070830699987709522 0.0058382670395076275
0.82631403207778931 0.0049737519584596157 0.0048929252661764622
0.92629468441009521 0.0054366914555430412 0.0039373659528791904
0.98450177907943726 0.007726332638412714 0.0039215688593685627
0.99686127901077271 0.0090650971978902817 0.0062539344653487206
0.99617069959640503 0.0099821053445339203 0.0062637776136398315
0.99607843160629272 0.011571457609534264 0.0052924361079931259
0.007696742657572031 0.053760543465614319 0.0026607888285070658
0.0060153738595545292 0.056673131883144379 0.0049919728189706802
0.049808666110038757 0.055914022028446198 0.0074050305411219597
0.1741303950548172 0.050672464072704315 0.0063671334646642208
0.36012578010559082 0.048568978905677795 0.012656417675316334
0.54893380403518677 0.049426570534706116 0.017872769385576248
0.70092481374740601 0.051263429224491119 0.009377872571349144
0.82846808433532715 0.045806404203176498 0.0058861975558102131
0.92468833923339844 0.04507020115852356 0.0039617801085114479
0.98371344804763794 0.046121574938297272 0.0040483064949512482
0.9994475245475769 0.05048229917883873 0.0063541484996676445
0.99988430738449097 0.052044812589883804 0.0078330542892217636
0.99898684024810791 0.057175207883119583 0.0078952265903353691
0.004805845208466053 0.14426741003990173 0.0047336951829493046
0.011399616487324238 0.14719258248806 0.0098338853567838669
0.05209745466709137 0.14969106018543243 0.014114649035036564
0.17126691341400146 0.14798572659492493 0.0048887217417359352
0.35533362627029419 0.14354348182678223 0.0045812870375812054
0.54251557588577271 0.14041489362716675 0.0055882320739328861
0.6956784725189209 0.14346842467784882 0.0043650907464325428
0.82720637321472168 0.13904127478599548 0.0039215688593685627
0.91949796676635742 0.14040954411029816 0.0039215688593685627
0.98367166519165039 0.14021676778793335 0.0039490344934165478
0.99837541580200195 0.14310994744300842 0.0054808524437248707
1 0.1414046436548233 0.0063847112469375134
0.99747687578201294 0.13993744552135468 0.0041728750802576542
0.0030534332618117332 0.26482090353965759 0.0069172577932476997
0.013991905376315117 0.26480975747108459 0.0078829145058989525
0.061559099704027176 0.26516285538673401 0.010634912177920341
0.17114478349685669 0.26450401544570923 0.0043813367374241352
0.35143882036209106 0.26254373788833618 0.0046794665977358818
0.54498147964477539 0.25372225046157837 0.0051398035138845444
0.70029866695404053 0.25017914175987244 0.0044225207529962063
0.81895363330841064 0.25524741411209106 0.0064500547014176846
0.91361761093139648 0.25657173991203308 0.004679451696574688
0.98541975021362305 0.25220665335655212 0.0051493328064680099
0.99741417169570923 0.25210669636726379 0.0062939510680735111
0.99968838691711426 0.25419437885284424 0.0047367769293487072
0.99857211112976074 0.25637191534042358 0.0037689059972763062
0.0018949471414089203 0.41529709100723267 0.007205963134765625
0.0089552933350205421 0.40437573194503784 0.0059074400924146175
0.053832065314054489 0.40159320831298828 0.0061232172884047031
0.16777613759040833 0.40662512183189392 0.0040168911218643188
0.35244330763816833 0.40826985239982605 0.0086569841951131821
0.54249954223632812 0.4025978147983551 0.010442382656037807
0.69640123844146729 0.40135008096694946 0.0077863507904112339
0.81481087207794189 0.40066179633140564 0.0082696648314595222
0.91099041700363159 0.39980927109718323 0.0061314753256738186
0.97786688804626465 0.39244866371154785 0.0047650802880525589
0.99290961027145386 0.39466917514801025 0.008396402932703495
0.99674361944198608 0.39819732308387756 0.0071890139952301979
0.999919593334198 0.40411019325256348 0.0041320952586829662
0.00030813779449090362 0.57120978832244873 0.004774819128215313
0.006282163318246603 0.55829715728759766 0.0046807085163891315
0.050254493951797485 0.54989045858383179 0.0051164217293262482
0.1703057736158371 0.55804914236068726 0.003851916640996933
0.34838670492172241 0.56342184543609619 0.008641216903924942
0.53606098890304565 0.56400561332702637 0.011655605398118496
0.69744884967803955 0.5616297721862793 0.011527671478688717
0.81863409280776978 0.55636143684387207 0.006734122522175312
0.91433829069137573 0.54828625917434692 0.0048940619453787804
0.96792143583297729 0.54214310646057129 0.006636930163949728
0.98850381374359131 0.54642623662948608 0.0076464186422526836
0.99552637338638306 0.55246174335479736 0.0077499686740338802
0.99860858917236328 0.55826205015182495 0.0063145654276013374
0.0009133282583206892 0.71333479881286621 0.0039323396049439907
0.0052205403335392475 0.70738697052001953 0.0062343371100723743
0.049624692648649216 0.70002013444900513 0.0050332313403487206
0.17591598629951477 0.69978427886962891 0.0034917793236672878
0.3391512930393219 0.70425093173980713 0.0042532230727374554
0.52833664417266846 0.70304203033447266 0.0058411392383277416
0.69975608587265015 0.69781053066253662 0.010282045230269432
0.82992184162139893 0.69141048192977905 0.0070730769075453281
0.91967839002609253 0.68895441293716431 0.0041329176165163517
0.96831095218658447 0.68723940849304199 0.0061731524765491486
0.98697185516357422 0.6939619779586792 0.0044768541119992733
0.99543994665145874 0.69567358493804932 0.0045224507339298725
0.99747294187545776 0.68598341941833496 0.0084795337170362473
0.0039581898599863052 0.82226705551147461 0.0045499014668166637
0.0087585747241973877 0.82175463438034058 0.007434425875544548
0.05252431333065033 0.8160976767539978 0.0052820690907537937
0.17722922563552856 0.81355428695678711 0.0039309035055339336
0.33854496479034424 0.8205873966217041 0.0039122337475419044
0.53001075983047485 0.81865978240966797 0.0039452644996345043
0.69993698596954346 0.81135207414627075 0.0063540590927004814
0.83329093456268311 0.80921393632888794 0.0085955746471881866
0.92513889074325562 0.81326580047607422 0.0036940630525350571
0.97546142339706421 0.81285202503204346 0.0049953237175941467
0.98815524578094482 0.80800879001617432 0.0053629558533430099
0.99568754434585571 0.80370938777923584 0.0045467601157724857
0.99890714883804321 0.79515194892883301 0.0085306651890277863
0.0039409562014043331 0.90614932775497437 0.0047618793323636055
0.0077444636262953281 0.90987056493759155 0.0043488447554409504
0.048704814165830612 0.90909099578857422 0.0039799860678613186
0.17228707671165466 0.91171467304229736 0.0037666920106858015
0.34366142749786377 0.91087836027145386 0.0040011387318372726
0.53368794918060303 0.90875780582427979 0.006745058111846447
0.70332872867584229 0.90586519241333008 0.0083753401413559914
0.82963025569915771 0.90331029891967773 0.0099731143563985825
0.92379981279373169 0.90625864267349243 0.004282977432012558
0.97440528869628906 0.90032070875167847 0.0045339395292103291
0.99211829900741577 0.89831489324569702 0.0045483908616006374
0.9981992244720459 0.89819586277008057 0.0039728651754558086
1 0.89278066158294678 0.0059846015647053719
0.0028811285737901926 0.970711350440979 0.0046076606959104538
0.0063273110426962376 0.96835029125213623 0.0046925414353609085
0.045469816774129868 0.96747726202011108 0.0051914439536631107
0.17273831367492676 0.96668726205825806 0.0049497415311634541
0.34752756357192993 0.96851766109466553 0.0038985905703157187
0.54009556770324707 0.96741145849227905 0.0052810669876635075
0.70519214868545532 0.96554720401763916 0.0055667501874268055
0.82689625024795532 0.96696573495864868 0.0048385919071733952
0.92282384634017944 0.96787071228027344 0.0036237379536032677
0.97461336851119995 0.96436464786529541 0.003947538323700428
0.99453353881835938 0.96452099084854126 0.0054217916913330555
0.99938791990280151 0.9660530686378479 0.011966345831751823
1 0.97022420167922974 0.011441623792052269
0.00083972705760970712 0.99685603380203247 0.0049400180578231812
0.0066680158488452435 0.9917151927947998 0.0064415875822305679
0.047908257693052292 0.99046111106872559 0.0040124929510056973
0.17550209164619446 0.98937368392944336 0.0039470745250582695
0.34548670053482056 0.99138063192367554 0.0037847182247787714
0.53938513994216919 0.99408507347106934 0.0039215688593685627
0.70115631818771362 0.99389851093292236 0.0036831574980169535
0.8243371844291687 0.99415481090545654 0.0013784072361886501
0.91981178522109985 0.99109476804733276 0.0028896855656057596
0.97367280721664429 0.98529052734375 0.0058991825208067894
0.99328237771987915 0.98643702268600464 0.010838931426405907
0.99636763334274292 0.99343198537826538 0.018208477646112442
0.99964720010757446 0.99853038787841797 0.012756258249282837
0.00037590475403703749 1 0.0027652066200971603
0.0029989206232130527 0.99982732534408569 0.00401331577450037
0.049224615097045898 0.99967795610427856 0.0024278678465634584
0.1808256208896637 0.99946093559265137 0.0036114412359893322
0.34413871169090271 0.99815917015075684 0.003717699320986867
0.53826797008514404 0.99607843160629272 0.0039215688593685627
0.69266128540039062 0.99778133630752563 0.003709007753059268
0.8229026198387146 1 0.00054840388474985957
0.91959196329116821 0.99919503927230835 0.0022510304115712643
0.98021090030670166 0.99620538949966431 0.0059828963130712509
0.99097084999084473 0.99683552980422974 0.012789093889296055
0.99546158313751221 0.99842047691345215 0.013004407286643982
0.998779296875 1 0.0069189630448818207
0.0058814552612602711 0.0045773372985422611 0.027366608381271362
0.027041910216212273 0.0037797666154801846 0.036439932882785797
0.072391867637634277 0.001330701052211225 0.035036589950323105
0.16937452554702759 0.00057196523994207382 0.031566798686981201
0.35039582848548889 0.0031972250435501337 0.034808184951543808
0.53960728645324707 0.002953757531940937 0.032086197286844254
0.69608515501022339 0.00031913307611830533 0.029754368588328362
0.82509505748748779 0.00061850453494116664 0.025867791846394539
0.92187404632568359 0.0037193149328231812 0.025953555479645729
0.98388183116912842 0.0039215688593685627 0.024945203214883804
0.99603563547134399 0.0039215688593685627 0.029702220112085342
0.99607843160629272 0.003004410769790411 0.031663738191127777
0.99607843160629272 0.0013197057414799929 0.034905437380075455
0.0060543734580278397 0.013543282635509968 0.027188468724489212
0.0082594184204936028 0.0079677356407046318 0.030767358839511871
0.053838737308979034 0.0059181810356676579 0.033723238855600357
0.17242373526096344 0.0089904032647609711 0.039520233869552612
0.36069640517234802 0.0071069756522774696 0.041627459228038788
0.54708075523376465 0.0042731789872050285 0.033305719494819641
0.70294201374053955 0.0038793226704001427 0.028121933341026306
0.82545405626296997 0.0051948097534477711 0.029948052018880844
0.92507582902908325 0.0054019256494939327 0.028236344456672668
0.98198145627975464 0.006381988525390625 0.02949492447078228
0.99676162004470825 0.0079642347991466522 0.030829455703496933
0.99617433547973633 0.008162524551153183 0.028898097574710846
0.99607843160629272 0.011298220604658127 0.029288003221154213
0.0075811347924172878 0.05166168138384819 0.026043791323900223
0.005959738977253437 0.055728793144226074 0.031238347291946411
0.04730968177318573 0.05241788923740387 0.033811427652835846
0.17206539213657379 0.046014882624149323 0.02978229895234108
0.36236739158630371 0.044677630066871643 0.036832623183727264
0.54955512285232544 0.04300384595990181 0.036718510091304779
0.70529806613922119 0.044874317944049835 0.031008627265691757
0.82871979475021362 0.045214932411909103 0.030225267633795738
0.92650765180587769 0.043719466775655746 0.029349921271204948
0.98105275630950928 0.043378449976444244 0.030617045238614082
0.99854201078414917 0.046971593052148819 0.0321541428565979
0.99988716840744019 0.048313483595848083 0.031822744756937027
0.99908691644668579 0.05760771781206131 0.034043271094560623
0.004054095596075058 0.14287318289279938 0.026875948533415794
0.0074706734158098698 0.1399996429681778 0.031541232019662857
0.044436540454626083 0.13957816362380981 0.03701305016875267
0.17200009524822235 0.14237149059772491 0.031620878726243973
0.35674810409545898 0.13852079212665558 0.03078014962375164
0.54758262634277344 0.13320569694042206 0.02760588750243187
0.70189523696899414 0.13748802244663239 0.028520097956061363
0.8309817910194397 0.13686367869377136 0.027470847591757774
0.92128151655197144 0.13741935789585114 0.030275352299213409
0.9847952127456665 0.13466723263263702 0.028641510754823685
0.9963984489440918 0.14029686152935028 0.037003148347139359
0.99999505281448364 0.13920398056507111 0.037888769060373306
0.99736535549163818 0.1385728120803833 0.030216561630368233
0.0030437095556408167 0.25995352864265442 0.030299721285700798
0.0096676992252469063 0.25672337412834167 0.029713530093431473
0.050995651632547379 0.2554742693901062 0.03435942530632019
0.17147579789161682 0.2561362087726593 0.028399612754583359
0.35214665532112122 0.26225599646568298 0.031706027686595917
0.54210793972015381 0.25788119435310364 0.031602464616298676
0.70597600936889648 0.24902614951133728 0.02969575859606266
0.82827156782150269 0.25281825661659241 0.031282417476177216
0.92164605855941772 0.25817769765853882 0.030287738889455795
0.98171252012252808 0.25852811336517334 0.030588606372475624
0.99391025304794312 0.25668284296989441 0.042013145983219147
0.9991992712020874 0.2563665509223938 0.038938798010349274
0.99860626459121704 0.25625628232955933 0.02794392965734005
0.002964947372674942 0.41453319787979126 0.035637110471725464
0.0067771761678159237 0.40393969416618347 0.031758684664964676
0.049661986529827118 0.39970248937606812 0.030512163415551186
0.16947896778583527 0.40111562609672546 0.027881352230906487
0.35657241940498352 0.40638232231140137 0.035171881318092346
0.54267740249633789 0.40476977825164795 0.038177251815795898
0.70293283462524414 0.39426669478416443 0.03737252950668335
0.82661324739456177 0.39446723461151123 0.034729450941085815
0.91831690073013306 0.39701539278030396 0.032139692455530167
0.97808367013931274 0.3961564302444458 0.030809618532657623
0.99034643173217773 0.39999940991401672 0.038457535207271576
0.99629610776901245 0.3993382453918457 0.03275013342499733
0.99998241662979126 0.40343955159187317 0.027246123179793358
0.0012369343312457204 0.57029634714126587 0.032349903136491776
0.0051547479815781116 0.55908870697021484 0.030125321820378304
0.046806816011667252 0.55125921964645386 0.02903250977396965
0.16901072859764099 0.55575931072235107 0.027635926380753517
0.35606503486633301 0.55655866861343384 0.034251958131790161
0.540691077709198 0.55598491430282593 0.038529474288225174
0.69834321737289429 0.55033600330352783 0.043990835547447205
0.82728809118270874 0.55112713575363159 0.034065335988998413
0.91462665796279907 0.55206799507141113 0.03200073167681694
0.96253520250320435 0.54921811819076538 0.038389723747968674
0.9872899055480957 0.55234366655349731 0.036095190793275833
0.99540883302688599 0.55615216493606567 0.032468069344758987
0.99908208847045898 0.55961757898330688 0.029105810448527336
0.0015881706494837999 0.70941287279129028 0.028428321704268456
0.0051763197407126427 0.7045474648475647 0.029022246599197388
0.042748752981424332 0.69911295175552368 0.028023200109601021
0.17181085050106049 0.69845026731491089 0.026633244007825851
0.34566232562065125 0.69567054510116577 0.029928229749202728
0.53750526905059814 0.69278556108474731 0.034226704388856888
0.70013678073883057 0.69547188282012939 0.040640603750944138
0.82958048582077026 0.69449460506439209 0.036346182227134705
0.91671532392501831 0.69433706998825073 0.029855391010642052
0.96188962459564209 0.69227790832519531 0.035924874246120453
0.98510259389877319 0.69737142324447632 0.031719624996185303
0.99589985609054565 0.69892358779907227 0.028455756604671478
0.99788194894790649 0.68872350454330444 0.034981746226549149
0.0043502510525286198 0.81971466541290283 0.030237624421715736
0.0088271200656890869 0.8189692497253418 0.032102562487125397
0.047281347215175629 0.81703722476959229 0.028645355254411697
0.17910532653331757 0.81759017705917358 0.028262583538889885
0.34349504113197327 0.81838768720626831 0.027000801637768745
0.53862965106964111 0.81782382726669312 0.027437172830104828
0.69853788614273071 0.81072241067886353 0.034278422594070435
0.82689064741134644 0.806282639503479 0.039201609790325165
0.92212694883346558 0.81343203783035278 0.029125932604074478
0.96984386444091797 0.81118202209472656 0.032946821302175522
0.9871145486831665 0.80634170770645142 0.034986414015293121
0.99603277444839478 0.80641233921051025 0.030537370592355728
0.99920356273651123 0.79833567142486572 0.036178063601255417
0.0040249694138765335 0.9065784215927124 0.031695600599050522
0.0069424496032297611 0.90964460372924805 0.031540378928184509
0.050910111516714096 0.90972894430160522 0.030218476429581642
0.1820053905248642 0.91001158952713013 0.030878208577632904
0.34524416923522949 0.91006380319595337 0.02846711128950119
0.5391572117805481 0.9090578556060791 0.03493162989616394
0.69952690601348877 0.9055856466293335 0.037437319755554199
0.82958567142486572 0.90429532527923584 0.036729324609041214
0.92159157991409302 0.90281027555465698 0.032457582652568817
0.97528088092803955 0.89966553449630737 0.033835303038358688
0.99182331562042236 0.89858072996139526 0.033332016319036484
0.99838858842849731 0.90367013216018677 0.028878349810838699
1 0.8996850848197937 0.033146832138299942
0.0030225117225199938 0.97363013029098511 0.031314626336097717
0.007232277188450098 0.97188985347747803 0.033401757478713989
0.046346507966518402 0.97374647855758667 0.034780658781528473
0.17739419639110565 0.97235739231109619 0.03313152864575386
0.34821629524230957 0.97181302309036255 0.02728486992418766
0.54402786493301392 0.97082638740539551 0.032639730721712112
0.70227581262588501 0.96584469079971313 0.033799938857555389
0.82619661092758179 0.95931702852249146 0.032290633767843246
0.92275130748748779 0.96492159366607666 0.028972476720809937
0.97963440418243408 0.96715313196182251 0.028106868267059326
0.99640887975692749 0.96970725059509277 0.029380019754171371
0.99979662895202637 0.97527092695236206 0.03796570748090744
1 0.97309297323226929 0.043060585856437683
0.0023432115558534861 0.99780654907226562 0.032572489231824875
0.010393883101642132 0.99604552984237671 0.037892777472734451
0.043765436857938766 0.99714189767837524 0.029415100812911987
0.17538093030452728 0.99384915828704834 0.029204349964857101
0.34758815169334412 0.99285900592803955 0.027756709605455399
0.54306912422180176 0.99576056003570557 0.029032239690423012
0.70091265439987183 0.99618673324584961 0.028190597891807556
0.8250279426574707 0.99393123388290405 0.026981353759765625
0.92026990652084351 0.99308747053146362 0.026300303637981415
0.97181648015975952 0.9868130087852478 0.032785378396511078
0.99325829744338989 0.98832124471664429 0.039854146540164948
0.9980279803276062 0.99575221538543701 0.04385814443230629
0.99999982118606567 0.99619436264038086 0.041811879724264145
0.0018937803106382489 0.99958032369613647 0.028969649225473404
0.0067516998387873173 0.99999803304672241 0.032873954623937607
0.045956075191497803 1 0.028660060837864876
0.17960549890995026 1 0.028698312118649483
0.34788122773170471 0.99882501363754272 0.028023453429341316
0.54214537143707275 0.99607843160629272 0.030111020430922508
0.69391977787017822 0.99812555313110352 0.030268903821706772
0.82718575000762939 0.99946773052215576 0.026535049080848694
0.91997659206390381 0.99953973293304443 0.026636160910129547
0.97685664892196655 0.99675208330154419 0.03290640190243721
0.99108952283859253 0.99666833877563477 0.046429459005594254
0.99618172645568848 0.997822105884552 0.043428428471088409
0.99974077939987183 0.99979698657989502 0.032914988696575165
0.0042658187448978424 0.0050111659802496433 0.11465516686439514
0.015246476978063583 0.0025442384649068117 0.11858659982681274
0.05749264732003212 6.1633541008632164e-06 0.1188715472817421
0.17328032851219177 0.00042435887735337019 0.11764272302389145
0.35061514377593994 0.0034981223288923502 0.11939240992069244
0.54035943746566772 0.0039163329638540745 0.11965605616569519
0.6917959451675415 0.0031912859994918108 0.11865255236625671
0.81142604351043701 0.0021300821099430323 0.11713507026433945
0.9144357442855835 0.0034950855188071728 0.1178412064909935
0.97971457242965698 0.0038359996397048235 0.11669711023569107
0.99340128898620605 0.0039215688593685627 0.11553123593330383
0.99593329429626465 0.0039019566029310226 0.11515803635120392
0.99782520532608032 0.0016737993573769927 0.11918988823890686
0.006838824599981308 0.014704431407153606 0.11550901830196381
0.010933102108538151 0.0099511090666055679 0.11817372590303421
0.047910727560520172 0.0078863706439733505 0.11840333789587021
0.17818450927734375 0.010498629882931709 0.11557348072528839
0.36002135276794434 0.0090982327237725258 0.11644673347473145
0.54610371589660645 0.0085562616586685181 0.11854265630245209
0.70227724313735962 0.0060997307300567627 0.11858415603637695
0.82117694616317749 0.0067537496797740459 0.11948657780885696
0.91963380575180054 0.0078618666157126427 0.12041178345680237
0.97862464189529419 0.0063032410107553005 0.12151767313480377
0.99568396806716919 0.0060788472183048725 0.12135209888219833
0.99745112657546997 0.010656065307557583 0.11958055943250656
0.99864989519119263 0.017050350084900856 0.11774211376905441
0.0078431377187371254 0.056065771728754044 0.11636611074209213
0.0084887631237506866 0.056542444974184036 0.12185628712177277
0.043619535863399506 0.054074604064226151 0.12172394990921021
0.17780402302742004 0.049961838871240616 0.11883065849542618
0.36374765634536743 0.048722840845584869 0.12056230753660202
0.54951339960098267 0.051136810332536697 0.12295876443386078
0.70468121767044067 0.052805792540311813 0.12048102170228958
0.82625794410705566 0.053731702268123627 0.12064369022846222
0.92295324802398682 0.049764100462198257 0.1217588409781456
0.97757464647293091 0.045770891010761261 0.12460546940565109
0.99743556976318359 0.046214248985052109 0.12435328215360641
0.99999070167541504 0.051732681691646576 0.12070845067501068
0.99995607137680054 0.057902690023183823 0.11809415370225906
0.0054984297603368759 0.15336742997169495 0.11538069695234299
0.0077907787635922432 0.14821620285511017 0.12174078077077866
0.041229009628295898 0.13756120204925537 0.12374699860811234
0.1739380806684494 0.13706605136394501 0.12096400558948517
0.35393944382667542 0.13817225396633148 0.11970093846321106
0.54381388425827026 0.13995066285133362 0.12104666978120804
0.70146507024765015 0.14279632270336151 0.12062433362007141
0.82929891347885132 0.14280460774898529 0.11896099150180817
0.92287802696228027 0.13749592006206512 0.12143868952989578
0.97939842939376831 0.1358707994222641 0.12180787324905396
0.99571901559829712 0.13733948767185211 0.12219830602407455
