assets/lut/others faded.cube
# Created by: G'MIC (https://gmic.eu)
TITLE "faded"
# LUT size
LUT_3D_SIZE 13
# Data domain
DOMAIN_MIN 0.0 0.0 0.0
DOMAIN_MAX 1.0 1.0 1.0
# LUT data points
0.025018759071826935 0.025806965306401253 0.018494145944714546
0.066123619675636292 0.034074418246746063 0.029160637408494949
0.1052362322807312 0.042620938271284103 0.039076607674360275
0.14477637410163879 0.051370102912187576 0.048502963036298752
0.18804733455181122 0.059375014156103134 0.057799693197011948
0.23635773360729218 0.066471919417381287 0.067740663886070251
0.28823959827423096 0.075699582695960999 0.079960599541664124
0.34286198019981384 0.086458228528499603 0.09288228303194046
0.39911234378814697 0.097044758498668671 0.10408776998519897
0.45540362596511841 0.10683006048202515 0.11207965016365051
0.51096886396408081 0.11719878017902374 0.11985102295875549
0.56690132617950439 0.12827363610267639 0.13001108169555664
0.62026810646057129 0.13870419561862946 0.14101047813892365
0.056032381951808929 0.089351311326026917 0.050902735441923141
0.099603705108165741 0.098068520426750183 0.062859505414962769
0.14087443053722382 0.107425257563591 0.073155120015144348
0.18240140378475189 0.11742866039276123 0.082366392016410828
0.22679127752780914 0.12649102509021759 0.091854482889175415
0.27615165710449219 0.13508093357086182 0.10272505879402161
0.32942649722099304 0.14462672173976898 0.11480844765901566
0.38587728142738342 0.15565745532512665 0.12680837512016296
0.44413876533508301 0.16682060062885284 0.13716858625411987
0.50261729955673218 0.17775368690490723 0.1462569534778595
0.55922406911849976 0.18950304388999939 0.1553589254617691
0.61301755905151367 0.20271764695644379 0.1664007306098938
0.66295677423477173 0.21575547754764557 0.1781037449836731
0.086368843913078308 0.15498518943786621 0.084004387259483337
0.13271176815032959 0.16415759921073914 0.095955945551395416
0.17668378353118896 0.17485406994819641 0.1061139851808548
0.21979287266731262 0.1866639256477356 0.11514023691415787
0.26612484455108643 0.19750736653804779 0.12510047852993011
0.31676006317138672 0.20744313299655914 0.13679137825965881
0.37120857834815979 0.21738283336162567 0.14910390973091125
0.42901185154914856 0.22884643077850342 0.16029497981071472
0.48862102627754211 0.24107334017753601 0.16991817951202393
0.54781323671340942 0.25291574001312256 0.17913906276226044
0.6042366623878479 0.26541897654533386 0.18927155435085297
0.65546399354934692 0.28040561079978943 0.20136725902557373
0.70206981897354126 0.29488453269004822 0.21461664140224457
0.11859184503555298 0.22657717764377594 0.11821690201759338
0.16682958602905273 0.2363707423210144 0.12966611981391907
0.21287839114665985 0.24857187271118164 0.13921654224395752
0.25791418552398682 0.26210322976112366 0.14786222577095032
0.30650395154953003 0.27476757764816284 0.15855249762535095
0.35964357852935791 0.28603014349937439 0.1715957373380661
0.41546967625617981 0.29690632224082947 0.18456533551216125
0.47363743185997009 0.30926588177680969 0.19507411122322083
0.532356858253479 0.3223893940448761 0.20390012860298157
0.58968651294708252 0.33519792556762695 0.21295426785945892
0.6434747576713562 0.34848329424858093 0.22374789416790009
0.69228744506835938 0.36310729384422302 0.23673602938652039
0.73670744895935059 0.37694361805915833 0.25145667791366577
0.15483324229717255 0.3052310049533844 0.15405319631099701
0.20337358117103577 0.3163667619228363 0.16456986963748932
0.25078865885734558 0.32964840531349182 0.17397218942642212
0.29866513609886169 0.34420004487037659 0.18324658274650574
0.35034886002540588 0.35823872685432434 0.19510602951049805
0.40609395503997803 0.3712974488735199 0.20915576815605164
0.46343031525611877 0.38404721021652222 0.22251957654953003
0.52085572481155396 0.39697757363319397 0.23304000496864319
0.5765984058380127 0.41001588106155396 0.24145756661891937
0.6299586296081543 0.42304164171218872 0.25055408477783203
0.67999845743179321 0.43630886077880859 0.26147982478141785
0.72578126192092896 0.44977980852127075 0.27494147419929504
0.76838618516921997 0.46211913228034973 0.29113507270812988
0.19378098845481873 0.39008808135986328 0.19172246754169464
0.24274724721908569 0.40230640769004822 0.20185026526451111
0.29199221730232239 0.4158136248588562 0.21184654533863068
0.34323906898498535 0.43059644103050232 0.22323229908943176
0.39773043990135193 0.44553354382514954 0.23620416224002838
0.45521199703216553 0.46033179759979248 0.25056427717208862
0.51345515251159668 0.47453248500823975 0.26414072513580322
0.56914722919464111 0.48799017071723938 0.2747865617275238
0.62100929021835327 0.50030022859573364 0.28337377309799194
0.66997998952865601 0.51284021139144897 0.29260101914405823
0.71605449914932251 0.52561235427856445 0.30437970161437988
0.75900119543075562 0.53808057308197021 0.31879454851150513
0.79904723167419434 0.54897940158843994 0.33578923344612122
0.23344254493713379 0.47930699586868286 0.23070774972438812
0.28387001156806946 0.49158424139022827 0.24160993099212646
0.33535125851631165 0.50452727079391479 0.25322887301445007
0.38933432102203369 0.51856428384780884 0.26609602570533752
0.44561967253684998 0.53311663866043091 0.27978479862213135
0.50364929437637329 0.54802709817886353 0.2938913106918335
0.56153815984725952 0.56298303604125977 0.3075660765171051
0.61494231224060059 0.57616138458251953 0.31845414638519287
0.66328763961791992 0.58786875009536743 0.32752379775047302
0.7085578441619873 0.59982430934906006 0.33774292469024658
0.75126838684082031 0.6120678186416626 0.35083585977554321
0.79123330116271973 0.6239972710609436 0.3665904700756073
0.82877171039581299 0.63376325368881226 0.38387212157249451
0.27223497629165649 0.56842827796936035 0.27095174789428711
0.32541310787200928 0.58027535676956177 0.28357169032096863
0.37988713383674622 0.59180283546447754 0.29712721705436707
0.43566504120826721 0.60433065891265869 0.31082746386528015
0.49254336953163147 0.61721634864807129 0.32422539591789246
0.54961597919464111 0.63091003894805908 0.33740976452827454
0.60481077432632446 0.64431798458099365 0.35021480917930603
0.65569531917572021 0.65705901384353638 0.36139285564422607
0.70168220996856689 0.66857415437698364 0.37162122130393982
0.74450874328613281 0.68022996187210083 0.38322639465332031
0.78457576036453247 0.69214272499084473 0.39762905240058899
0.82223802804946899 0.70341557264328003 0.41485941410064697
0.85697585344314575 0.71224582195281982 0.43240088224411011
0.3126714825630188 0.65192389488220215 0.31284689903259277
0.3686680793762207 0.66311490535736084 0.326618492603302
0.42538127303123474 0.67352080345153809 0.34137910604476929
0.48233804106712341 0.68420815467834473 0.35565263032913208
0.53848767280578613 0.69508326053619385 0.36825329065322876
0.59323215484619141 0.70639503002166748 0.38044840097427368
0.6454317569732666 0.71790903806686401 0.39274570345878601
0.693165123462677 0.72918796539306641 0.40421980619430542
0.7369159460067749 0.74048668146133423 0.41535484790802002
0.77742481231689453 0.7516019344329834 0.42814207077026367
0.81565213203430176 0.7628706693649292 0.44372642040252686
0.85108751058578491 0.77346611022949219 0.46148046851158142
0.88321185111999512 0.78125280141830444 0.47931870818138123
0.35675671696662903 0.72518444061279297 0.35674834251403809
0.41453605890274048 0.73626786470413208 0.37034991383552551
0.47225084900856018 0.74613410234451294 0.38452780246734619
0.52895891666412354 0.7553752064704895 0.39834204316139221
0.5838504433631897 0.76444357633590698 0.41085168719291687
0.63592797517776489 0.77365398406982422 0.42318233847618103
0.68448889255523682 0.78305184841156006 0.43573668599128723
0.72889852523803711 0.79267591238021851 0.44782021641731262
0.76984506845474243 0.80276250839233398 0.45970213413238525
0.80816948413848877 0.81319332122802734 0.47310873866081238
0.84442746639251709 0.82311582565307617 0.4892677366733551
0.87779349088668823 0.83195078372955322 0.50667470693588257
0.90746140480041504 0.83843749761581421 0.52384567260742188
0.40324670076370239 0.78871554136276245 0.40242698788642883
0.46183553338050842 0.7996259331703186 0.41531434655189514
0.51964843273162842 0.80890291929244995 0.42792823910713196
0.57541710138320923 0.81728667020797729 0.4408021867275238
0.62817513942718506 0.82488411664962769 0.45395183563232422
0.67729806900024414 0.83218961954116821 0.46701037883758545
0.72207510471343994 0.83958989381790161 0.48068434000015259
0.76287686824798584 0.84729981422424316 0.49354666471481323
0.80097401142120361 0.85579478740692139 0.50611299276351929
0.83684360980987549 0.86494570970535278 0.51960772275924683
0.87071061134338379 0.87355238199234009 0.53501486778259277
0.90180480480194092 0.88039189577102661 0.55089795589447021
0.9287712574005127 0.88523799180984497 0.5667344331741333
0.45049574971199036 0.84428024291992188 0.4497491717338562
0.50924509763717651 0.85444849729537964 0.46232807636260986
0.56596928834915161 0.86289834976196289 0.47444584965705872
0.61944514513015747 0.87027156352996826 0.48727107048034668
0.66921514272689819 0.87661784887313843 0.50149691104888916
0.7152942419052124 0.88249838352203369 0.51521193981170654
0.75696671009063721 0.88819313049316406 0.5292518138885498
0.79475045204162598 0.8942987322807312 0.54188078641891479
0.83009576797485352 0.90141528844833374 0.55371689796447754
0.86317890882492065 0.90936481952667236 0.56661796569824219
0.89371174573898315 0.91690075397491455 0.5809023380279541
0.92113053798675537 0.92261219024658203 0.59546941518783569
0.94510221481323242 0.92605090141296387 0.60935139656066895
0.49583500623703003 0.89342242479324341 0.49702772498130798
0.553661048412323 0.90227192640304565 0.51016825437545776
0.60851222276687622 0.90971970558166504 0.52316027879714966
0.6591801643371582 0.91594809293746948 0.53748691082000732
0.70581448078155518 0.92128711938858032 0.55333977937698364
0.74805921316146851 0.92577290534973145 0.56845229864120483
0.78725194931030273 0.9306337833404541 0.58046340942382812
0.82318204641342163 0.93595659732818604 0.59040659666061401
0.85652977228164673 0.94207274913787842 0.60065931081771851
0.88683182001113892 0.94880843162536621 0.61242431402206421
0.91344636678695679 0.95551979541778564 0.62529891729354858
0.93707960844039917 0.960532546043396 0.63845342397689819
0.95804852247238159 0.96316087245941162 0.65017330646514893
0.03062368743121624 0.029580360278487206 0.056124936789274216
0.071306340396404266 0.03802764043211937 0.066698990762233734
0.10962957888841629 0.045858718454837799 0.076623834669589996
0.1488364040851593 0.053573861718177795 0.0861077681183815
0.19202178716659546 0.061206743121147156 0.09511827677488327
0.24050897359848022 0.069503560662269592 0.104922816157341
0.29280796647071838 0.079623475670814514 0.11672421544790268
0.34774774312973022 0.090425290167331696 0.12914454936981201
0.40411871671676636 0.10105635970830917 0.1401342898607254
0.46082243323326111 0.11113492399454117 0.14932166039943695
0.5171162486076355 0.12162849307060242 0.15834914147853851
0.57296866178512573 0.13286496698856354 0.16853350400924683
0.62627983093261719 0.14346452057361603 0.17925228178501129
0.061101336032152176 0.092595480382442474 0.088265150785446167
0.10379888862371445 0.1016201376914978 0.10032396763563156
0.14467833936214447 0.11074615269899368 0.111392542719841
0.18627046048641205 0.11991095542907715 0.12118413299322128
0.23118433356285095 0.12886101007461548 0.13069258630275726
0.28100371360778809 0.13789981603622437 0.14096292853355408
0.33492657542228699 0.14815077185630798 0.15272662043571472
0.39157381653785706 0.15953437983989716 0.16446049511432648
0.4496561586856842 0.1710001677274704 0.17510412633419037
0.50753378868103027 0.1823144257068634 0.18480193614959717
0.56403160095214844 0.19433553516864777 0.19492679834365845
0.61822515726089478 0.20736615359783173 0.2062888890504837
0.668853759765625 0.22014415264129639 0.21857747435569763
0.090725243091583252 0.157723069190979 0.12172872573137283
0.13587291538715363 0.16799609363079071 0.13469712436199188
0.17969518899917603 0.17905668914318085 0.14625030755996704
0.2237667441368103 0.19008567929267883 0.15592855215072632
0.27081194519996643 0.20045973360538483 0.16557908058166504
0.32246214151382446 0.21052028238773346 0.17679032683372498
0.37771874666213989 0.22112390398979187 0.18850652873516083
0.43553712964057922 0.23301427066326141 0.19959323108196259
0.49440810084342957 0.24543873965740204 0.20955897867679596
0.5526389479637146 0.25783950090408325 0.21952348947525024
0.60822868347167969 0.27079671621322632 0.23070524632930756
0.66008466482162476 0.28504148125648499 0.24325737357139587
0.70757830142974854 0.2990526556968689 0.2570672333240509
0.12282747775316238 0.22837178409099579 0.15807275474071503
0.16986978054046631 0.2400505393743515 0.17087234556674957
0.21589855849742889 0.25302734971046448 0.18202653527259827
0.26225998997688293 0.26576471328735352 0.19117425382137299
0.31174471974372864 0.27795708179473877 0.20132869482040405
0.36555477976799011 0.2893320620059967 0.2133445143699646
0.42220693826675415 0.30105328559875488 0.22562223672866821
0.48055922985076904 0.31375998258590698 0.23614202439785004
0.53851383924484253 0.32685390114784241 0.24515895545482635
0.59498071670532227 0.33986395597457886 0.25500637292861938
0.64836013317108154 0.35336422920227051 0.2669830322265625
0.69737434387207031 0.36728593707084656 0.28049370646476746
0.74219590425491333 0.38073208928108215 0.29542943835258484
0.15947318077087402 0.30633136630058289 0.19665321707725525
0.20728443562984467 0.31878525018692017 0.20823517441749573
0.25493541359901428 0.33306926488876343 0.21869833767414093
0.30336758494377136 0.34754127264022827 0.2284773588180542
0.35560464859008789 0.36142557859420776 0.23945501446723938
0.4117315411567688 0.37481012940406799 0.25269192457199097
0.46971806883811951 0.38798949122428894 0.26557186245918274
0.52708417177200317 0.40150389075279236 0.27602052688598633
0.58260637521743774 0.41467800736427307 0.28436654806137085
0.63588893413543701 0.42778035998344421 0.29417353868484497
0.68581891059875488 0.4409727156162262 0.30648884177207947
0.73193037509918213 0.45405057072639465 0.32073208689689636
0.77417051792144775 0.46616706252098083 0.33648750185966492
0.19996623694896698 0.39107480645179749 0.23646767437458038
0.24803438782691956 0.40413650870323181 0.24720177054405212
0.29656994342803955 0.41872924566268921 0.25780603289604187
0.34747177362442017 0.433807373046875 0.26898637413978577
0.40214964747428894 0.44888123869895935 0.28144451975822449
0.45995685458183289 0.46377190947532654 0.29536569118499756
0.51866507530212402 0.47857511043548584 0.3088962733745575
0.57479345798492432 0.49237987399101257 0.31982818245887756
0.62690281867980957 0.50515508651733398 0.32857617735862732
0.67616850137710571 0.51780205965042114 0.33833217620849609
0.72238516807556152 0.5307612419128418 0.35100722312927246
0.76530343294143677 0.54347407817840576 0.36602255702018738
0.80503231287002563 0.55459541082382202 0.38287365436553955
0.24048694968223572 0.48057302832603455 0.2767864465713501
0.2893655002117157 0.49349457025527954 0.28793266415596008
0.33969327807426453 0.5073235034942627 0.29954195022583008
0.39284104108810425 0.52169960737228394 0.31242349743843079
0.44908830523490906 0.53656989336013794 0.32595384120941162
0.50759363174438477 0.55186903476715088 0.34030929207801819
0.56568056344985962 0.56710332632064819 0.3540380597114563
0.61991256475448608 0.58086460828781128 0.36543488502502441
0.66896408796310425 0.59317082166671753 0.37476944923400879
0.71454894542694092 0.60551804304122925 0.38518035411834717
0.75732731819152832 0.61838191747665405 0.39846140146255493
0.79729706048965454 0.63087695837020874 0.41480407118797302
0.83451861143112183 0.64154595136642456 0.43259778618812561
0.27838736772537231 0.57044339179992676 0.31741279363632202
0.33030992746353149 0.58250969648361206 0.32995006442070007
0.38321837782859802 0.59461402893066406 0.34339728951454163
0.43815630674362183 0.60737615823745728 0.35745632648468018
0.4951745867729187 0.62087035179138184 0.37149521708488464
0.55290752649307251 0.63495880365371704 0.38556459546089172
0.60877889394760132 0.64903509616851807 0.39888566732406616
0.66028589010238647 0.66204416751861572 0.41027182340621948
0.70701378583908081 0.67427909374237061 0.42067757248878479
0.7498365044593811 0.68642187118530273 0.43208172917366028
0.78981578350067139 0.69891631603240967 0.44633021950721741
0.82736378908157349 0.71117556095123291 0.46329179406166077
0.86197185516357422 0.72103416919708252 0.48171326518058777
0.31776726245880127 0.65450203418731689 0.35946294665336609
0.37233966588973999 0.66575980186462402 0.37319755554199219
0.42761334776878357 0.67620849609375 0.38792005181312561
0.48388144373893738 0.68715459108352661 0.40269520878791809
0.54074406623840332 0.69865882396697998 0.41680154204368591
0.5962291955947876 0.71071499586105347 0.43040889501571655
0.64898812770843506 0.72269368171691895 0.44322401285171509
0.69759976863861084 0.73443949222564697 0.45485970377922058
0.74162894487380981 0.74603521823883057 0.46579441428184509
0.78226584196090698 0.75778853893280029 0.4781094491481781
0.82023829221725464 0.76964831352233887 0.49308758974075317
0.85527849197387695 0.78079169988632202 0.51060128211975098
0.88712489604949951 0.78903543949127197 0.52786070108413696
0.36040735244750977 0.7288932204246521 0.40358820557594299
0.41750666499137878 0.73953437805175781 0.41757106781005859
0.47456014156341553 0.74894160032272339 0.4322521984577179
0.53122824430465698 0.75844317674636841 0.44713404774665833
0.5864567756652832 0.76816076040267944 0.4615415632724762
0.63934445381164551 0.77806037664413452 0.475322425365448
0.68836259841918945 0.78785163164138794 0.48808580636978149
0.73298436403274536 0.79758429527282715 0.49978947639465332
0.77420240640640259 0.80781459808349609 0.511008620262146
0.81256663799285889 0.81874954700469971 0.52397698163986206
0.84860605001449585 0.82954877614974976 0.53940802812576294
0.88147079944610596 0.83920490741729736 0.55644553899765015
0.91080766916275024 0.8457028865814209 0.57248026132583618
0.4063020646572113 0.79330241680145264 0.44943076372146606
0.46548500657081604 0.80303370952606201 0.4632565975189209
0.52355945110321045 0.81178015470504761 0.47748371958732605
0.57939380407333374 0.82022386789321899 0.49218466877937317
0.63244920969009399 0.82871556282043457 0.50735610723495483
0.68190068006515503 0.83678925037384033 0.52195495367050171
0.7267189621925354 0.8442389965057373 0.53482389450073242
0.76732248067855835 0.85154908895492554 0.54586118459701538
0.80507141351699829 0.85997301340103149 0.55677056312561035
0.84089928865432739 0.86983710527420044 0.56993311643600464
0.87462711334228516 0.87966740131378174 0.58526360988616943
0.90561461448669434 0.88762068748474121 0.60168564319610596
0.93238914012908936 0.89254510402679443 0.61649966239929199
0.45431846380233765 0.84834510087966919 0.49741032719612122
0.5143589973449707 0.85720539093017578 0.51108181476593018
0.57214605808258057 0.86520212888717651 0.52484476566314697
0.62620234489440918 0.87310886383056641 0.53965979814529419
0.67635232210159302 0.88045746088027954 0.55594819784164429
0.72228127717971802 0.88719266653060913 0.57131338119506836
0.76305919885635376 0.89252173900604248 0.58340078592300415
0.79956930875778198 0.89763301610946655 0.59281212091445923
0.83399993181228638 0.90428000688552856 0.60271072387695312
0.86690407991409302 0.91324734687805176 0.61529731750488281
0.89763259887695312 0.92230439186096191 0.62994760274887085
0.92539399862289429 0.92872422933578491 0.64519268274307251
0.94899553060531616 0.93159061670303345 0.6580384373664856
0.50099515914916992 0.89672011137008667 0.54497140645980835
0.56077104806900024 0.90447735786437988 0.55889570713043213
0.61718165874481201 0.91134351491928101 0.57291489839553833
0.66854012012481689 0.91847079992294312 0.58843225240707397
0.71515440940856934 0.92484694719314575 0.60529649257659912
0.75749325752258301 0.9304235577583313 0.62080401182174683
0.79517585039138794 0.93461430072784424 0.63148409128189087
0.82890141010284424 0.93853986263275146 0.63894128799438477
0.86072665452957153 0.94382762908935547 0.64739316701889038
0.8907010555267334 0.95163500308990479 0.65873932838439941
0.91787898540496826 0.95934146642684937 0.67224836349487305
0.94185221195220947 0.96431136131286621 0.68563789129257202
0.9629020094871521 0.9662739634513855 0.69655245542526245
0.033959720283746719 0.032628510147333145 0.087254874408245087
0.074636258184909821 0.040462926030158997 0.10033632069826126
0.11348287761211395 0.048367653042078018 0.11226450651884079
0.15335753560066223 0.056242085993289948 0.12270142883062363
0.19674259424209595 0.064482055604457855 0.1323578953742981
0.24525347352027893 0.074180185794830322 0.14223568141460419
0.29765403270721436 0.084748782217502594 0.15348324179649353
0.35278084874153137 0.0950789675116539 0.16526597738265991
0.40922865271568298 0.10518172383308411 0.17658685147762299
0.46626496315002441 0.11511384695768356 0.1867213249206543
0.52298170328140259 0.1254681795835495 0.19750745594501495
0.57875210046768188 0.1362415999174118 0.20743526518344879
0.63176673650741577 0.14688666164875031 0.21812164783477783
0.063765659928321838 0.094447150826454163 0.12081261724233627
0.10637345910072327 0.10366533696651459 0.13403578102588654
0.14806567132472992 0.11334431916475296 0.14743226766586304
0.19059945642948151 0.1227496862411499 0.15875427424907684
0.23625558614730835 0.13199369609355927 0.16889633238315582
0.28674077987670898 0.14175999164581299 0.1793580949306488
0.34121701121330261 0.15254995226860046 0.19064667820930481
0.39750733971595764 0.16391505300998688 0.20242874324321747
0.4551054835319519 0.17545986175537109 0.21380177140235901
0.51259851455688477 0.18686921894550323 0.22467000782489777
0.56862491369247437 0.19859303534030914 0.23564833402633667
0.62238848209381104 0.21079325675964355 0.24735352396965027
0.67269504070281982 0.22291393578052521 0.25943118333816528
0.093219980597496033 0.15922833979129791 0.15562260150909424
0.13831765949726105 0.17022222280502319 0.16993698477745056
0.18292473256587982 0.1821010559797287 0.18414586782455444
0.22825443744659424 0.19308190047740936 0.19566237926483154
0.27641177177429199 0.20369815826416016 0.20555704832077026
0.32879531383514404 0.21412424743175507 0.2166249006986618
0.38470199704170227 0.22540917992591858 0.22840277850627899
0.44228541851043701 0.23766879737377167 0.23995302617549896
0.50020056962966919 0.25027129054069519 0.25089150667190552
0.55756139755249023 0.26276451349258423 0.26183855533599854
0.61200886964797974 0.27533653378486633 0.27352756261825562
0.6629442572593689 0.28824850916862488 0.28683751821517944
0.71021395921707153 0.30115211009979248 0.30023667216300964
0.1252436488866806 0.23018094897270203 0.19512428343296051
0.1724684089422226 0.24271190166473389 0.20925644040107727
0.21969887614250183 0.25636023283004761 0.22321699559688568
0.26750609278678894 0.26924911141395569 0.23405276238918304
0.31759950518608093 0.28119722008705139 0.24356591701507568
0.37192535400390625 0.29286378622055054 0.25507038831710815
0.4294104278087616 0.3051513135433197 0.26756635308265686
0.48765623569488525 0.31838905811309814 0.27896639704704285
0.54501378536224365 0.33164474368095398 0.28906792402267456
0.60045742988586426 0.34463495016098022 0.29980170726776123
0.65268343687057495 0.35748386383056641 0.31237459182739258
0.7007439136505127 0.37025076150894165 0.32623299956321716
0.74493682384490967 0.3827478289604187 0.34064501523971558
0.16169682145118713 0.30804747343063354 0.23712125420570374
0.21041190624237061 0.32152515649795532 0.2500864565372467
0.25917723774909973 0.3365209698677063 0.26278647780418396
0.30867516994476318 0.35091885924339294 0.27322226762771606
0.36077582836151123 0.36457526683807373 0.28349125385284424
0.41705265641212463 0.37811040878295898 0.29573288559913635
0.47573438286781311 0.39169511198997498 0.30923742055892944
0.53376185894012451 0.40560036897659302 0.3208443820476532
