assets/lut/others k tone vintage kodachrome.cube
# Created by: G'MIC (https://gmic.eu)
TITLE "k_tone_vintage_kodachrome"
# LUT size
LUT_3D_SIZE 7
# Data domain
DOMAIN_MIN 0.0 0.0 0.0
DOMAIN_MAX 1.0 1.0 1.0
# LUT data points
0.021502954885363579 0.027457742020487785 0.023699920624494553
0.10536304861307144 0.03791230171918869 0.021085163578391075
0.30715391039848328 0.032566353678703308 0.0020177355036139488
0.66793578863143921 0.026827674359083176 0
0.84380286931991577 0.035508040338754654 0
0.90924817323684692 0.039199303835630417 0
0.92478984594345093 0.05636228621006012 0
0.013593950308859348 0.083650611340999603 0.046841476112604141
0.076133802533149719 0.08466077595949173 0.029893089085817337
0.30397030711174011 0.0849432572722435 0.0019710466731339693
0.71056091785430908 0.094267934560775757 0
0.89269775152206421 0.11327477544546127 0
0.95367676019668579 0.12168239802122116 0
0.97175657749176025 0.13689416646957397 0
0.0090143242850899696 0.16878050565719604 0.078263193368911743
0.023122929036617279 0.18271993100643158 0.053577437996864319
0.2381097823381424 0.21708610653877258 0.0085494397208094597
0.59244823455810547 0.27238857746124268 0
0.77691030502319336 0.29196655750274658 0
0.82696425914764404 0.29657450318336487 0.0035666371695697308
0.83019596338272095 0.3253244161605835 0
0.024593980982899666 0.3495485782623291 0.17791019380092621
0.0081298081204295158 0.3777344822883606 0.14863711595535278
0.15817262232303619 0.41370484232902527 0.0073984931223094463
0.62486368417739868 0.51609623432159424 0
0.82525616884231567 0.54971396923065186 0
0.88063144683837891 0.54349613189697266 0.0039215688593685627
0.90914124250411987 0.54986530542373657 0.0029510497115552425
0.014972686767578125 0.48635187745094299 0.24489635229110718
0.013864973559975624 0.52311074733734131 0.19077445566654205
0.21799099445343018 0.58087193965911865 0.010687375441193581
0.65459620952606201 0.6924673318862915 0.00039870318141765893
0.87633210420608521 0.72918683290481567 0.009398740716278553
0.94436335563659668 0.73598229885101318 0.01336542796343565
0.97257697582244873 0.74842941761016846 0.0039822445251047611
0.018083535134792328 0.58311367034912109 0.27961832284927368
0.02295977994799614 0.6083991527557373 0.12962424755096436
0.37112191319465637 0.68729180097579956 0.0046643726527690887
0.73349654674530029 0.77539432048797607 0.0089203184470534325
0.93441402912139893 0.81845921277999878 0.0059815798886120319
0.99353659152984619 0.83450210094451904 0.034273542463779449
0.99997663497924805 0.85078728199005127 0.14985288679599762
0.023942446336150169 0.67563158273696899 0.34015998244285583
0.22407028079032898 0.72281414270401001 0.24547407031059265
0.60854768753051758 0.79769784212112427 0.24732422828674316
0.84651005268096924 0.85571634769439697 0.29492703080177307
0.96802437305450439 0.8906177282333374 0.4040626585483551
0.99850082397460938 0.91103488206863403 0.52204340696334839
0.99619042873382568 0.92723661661148071 0.63268107175827026
0.018120545893907547 0.037295427173376083 0.079057969152927399
0.089353986084461212 0.030964002013206482 0.079344764351844788
0.34022670984268188 0.0058877682313323021 0.023342117667198181
0.68712395429611206 0.0060645011253654957 0.0035491643939167261
0.87275642156600952 0.0079819774255156517 0.00099954043980687857
0.94125068187713623 0.0084032099694013596 0
0.9514346718788147 0.012135554105043411 0
0.012444514781236649 0.08364289253950119 0.091156899929046631
0.064521074295043945 0.081387311220169067 0.073628172278404236
0.26130509376525879 0.073561303317546844 0.019406113773584366
0.67684072256088257 0.048622161149978638 0.0017224031034857035
0.92846220731735229 0.036973167210817337 7.901659409981221e-05
0.98726761341094971 0.032859399914741516 0
0.99324256181716919 0.039904292672872543 9.1403140686452389e-05
0.010571797378361225 0.17728123068809509 0.11664672195911407
0.035233039408922195 0.19020608067512512 0.081562474370002747
0.22955471277236938 0.20948298275470734 0.020306291058659554
0.5890737771987915 0.24664272367954254 0.0019074383890256286
0.82582277059555054 0.25243225693702698 0
0.90713059902191162 0.24882204830646515 0
0.92438352108001709 0.26641204953193665 1.5557981896563433e-05
0.008441670797765255 0.34791886806488037 0.20555990934371948
0.010152150876820087 0.3789556622505188 0.16557289659976959
0.14971260726451874 0.41643613576889038 0.017651591449975967
0.62379342317581177 0.50476658344268799 0.0010564466938376427
0.84463262557983398 0.53311657905578613 0.0023811040446162224
0.90714001655578613 0.52907717227935791 0.0070748720318078995
0.94709235429763794 0.55366653203964233 0.0085948565974831581
0.0057037053629755974 0.50487697124481201 0.30010274052619934
0.0030732846353203058 0.54763054847717285 0.23551045358181
0.16409574449062347 0.59819912910461426 0.030708597972989082
0.66369867324829102 0.70272648334503174 0.0039408514276146889
0.90073680877685547 0.73964494466781616 0.005237190518528223
0.97374552488327026 0.75639152526855469 0.0028184328693896532
0.99324804544448853 0.77388006448745728 0.023202680051326752
0.0078992508351802826 0.6207277774810791 0.3752494752407074
0.0090126637369394302 0.65949523448944092 0.30775809288024902
0.34285929799079895 0.71577918529510498 0.11378470063209534
0.74485737085342407 0.79859894514083862 0.11295183748006821
0.94030165672302246 0.84141194820404053 0.14939621090888977
0.99915844202041626 0.8635978102684021 0.23473779857158661
1 0.88033962249755859 0.40409037470817566
0.0094965314492583275 0.73351258039474487 0.51915836334228516
0.20012576878070831 0.77828127145767212 0.48601117730140686
0.61722713708877563 0.83784443140029907 0.49413043260574341
0.84320104122161865 0.88469511270523071 0.53774338960647583
0.95599073171615601 0.91443616151809692 0.60138189792633057
0.99262326955795288 0.93155723810195923 0.67506617307662964
0.99597728252410889 0.94644284248352051 0.75292849540710449
0.0091614071279764175 0.1245860680937767 0.27633717656135559
0.070535711944103241 0.038154587149620056 0.26194906234741211
0.32347741723060608 0.009049643762409687 0.2672935426235199
0.5916447639465332 0.0011139664566144347 0.24270665645599365
0.71576416492462158 0 0.21175982058048248
0.75263279676437378 0 0.19431595504283905
0.76672685146331787 0 0.18551713228225708
0.009974251501262188 0.13851577043533325 0.2417789101600647
0.028902061283588409 0.10267673432826996 0.22780114412307739
0.24463175237178802 0.072189241647720337 0.21972562372684479
0.56825828552246094 0.025022275745868683 0.18910057842731476
0.78547054529190063 0.0036051133647561073 0.15817782282829285
0.85930496454238892 0.00019459443865343928 0.1486322432756424
0.89002025127410889 0.0039802552200853825 0.15661722421646118
0.011718031950294971 0.23337584733963013 0.26055225729942322
0.01457652635872364 0.22073948383331299 0.24382402002811432
0.19350549578666687 0.21901975572109222 0.20413587987422943
0.62203693389892578 0.20462487637996674 0.11987757682800293
0.94136148691177368 0.16118770837783813 0.07589663565158844
0.9971015453338623 0.14631344377994537 0.077368177473545074
0.99533820152282715 0.17701929807662964 0.086662694811820984
0.0062860823236405849 0.42727583646774292 0.35078725218772888
0.0051401173695921898 0.44634076952934265 0.337839275598526
0.10457467287778854 0.44180986285209656 0.22258144617080688
0.59054094552993774 0.49492326378822327 0.10256444662809372
0.85619544982910156 0.52202302217483521 0.13276159763336182
0.93441581726074219 0.52150446176528931 0.1916583776473999
0.96325373649597168 0.55621814727783203 0.2668578028678894
0.00025467219529673457 0.59015196561813354 0.43853989243507385
0.0010172824840992689 0.61359637975692749 0.42531588673591614
0.12353084981441498 0.6473810076713562 0.29112178087234497
0.62540292739868164 0.72023576498031616 0.18925079703330994
0.90731310844421387 0.76466381549835205 0.14598587155342102
0.99039250612258911 0.78374844789505005 0.24944645166397095
0.99537986516952515 0.81180095672607422 0.41931268572807312
0.0062584071420133114 0.69129878282546997 0.54314118623733521
0.0079874675720930099 0.72552454471588135 0.52365595102310181
0.32258197665214539 0.77395856380462646 0.46959677338600159
0.71661573648452759 0.83306390047073364 0.4540630578994751
0.92273592948913574 0.87360334396362305 0.4760182797908783
0.98914813995361328 0.89256364107131958 0.53574907779693604
0.99810588359832764 0.91137194633483887 0.63696718215942383
0.007808011956512928 0.78836089372634888 0.67223739624023438
0.31114569306373596 0.83003562688827515 0.67609512805938721
0.64607399702072144 0.87740916013717651 0.69134813547134399
0.83964759111404419 0.91419380903244019 0.7165178656578064
0.94217699766159058 0.93540489673614502 0.74914872646331787
0.98469585180282593 0.95021092891693115 0.7958064079284668
0.99273145198822021 0.9598701000213623 0.84554010629653931
0.0076014050282537937 0.22158272564411163 0.46921291947364807
0.055514376610517502 0.11558631807565689 0.47237452864646912
0.32378917932510376 0.009726550430059433 0.50939345359802246
0.62439680099487305 0.003135740989819169 0.52613002061843872
0.72970330715179443 0 0.5017508864402771
0.76234680414199829 0.0013406192883849144 0.48408195376396179
0.76311028003692627 0.00012494255497585982 0.46162816882133484
0.0062350104562938213 0.25607958436012268 0.47612753510475159
0.01136595755815506 0.22347652912139893 0.48280861973762512
0.23348036408424377 0.037660218775272369 0.49914577603340149
0.59177654981613159 0.021820323541760445 0.50716215372085571
0.75881117582321167 0.0053370455279946327 0.48569813370704651
0.80843281745910645 0.0075427936390042305 0.45705839991569519
0.82559239864349365 0.012986381538212299 0.45394358038902283
0.016957750543951988 0.33470171689987183 0.48768764734268188
0.012713712640106678 0.31922069191932678 0.49513250589370728
0.12832362949848175 0.25272905826568604 0.48494723439216614
0.55503290891647339 0.23467160761356354 0.49800291657447815
0.7829291820526123 0.20886658132076263 0.47089871764183044
0.86102819442749023 0.21628975868225098 0.46090090274810791
0.8947223424911499 0.25646758079528809 0.46813505887985229
0.014748816378414631 0.49150434136390686 0.53994333744049072
0.0040812175720930099 0.50715279579162598 0.56270623207092285
0.10750515758991241 0.50473308563232422 0.53592169284820557
0.55596011877059937 0.51753538846969604 0.50156903266906738
0.8504747748374939 0.5102953314781189 0.45372506976127625
0.96854174137115479 0.51681071519851685 0.4514487087726593
0.99139726161956787 0.53502291440963745 0.46913385391235352
0.0047880136407911777 0.65070301294326782 0.61442798376083374
0.0014527414459735155 0.67596673965454102 0.62415766716003418
0.13741700351238251 0.71347880363464355 0.60501116514205933
0.61106604337692261 0.75758141279220581 0.58122414350509644
0.87387555837631226 0.79519808292388916 0.57112568616867065
0.95469456911087036 0.81865280866622925 0.61972939968109131
0.98025882244110107 0.84842097759246826 0.69112443923950195
0.0026284910272806883 0.75937050580978394 0.70358514785766602
0.028580460697412491 0.78328084945678711 0.70964223146438599
0.41873499751091003 0.82640892267227173 0.70284336805343628
0.73284173011779785 0.87149012088775635 0.70661920309066772
0.89177685976028442 0.89299565553665161 0.71498757600784302
0.96473211050033569 0.91148442029953003 0.75840896368026733
0.98673117160797119 0.92943978309631348 0.80745512247085571
0.043131031095981598 0.82696640491485596 0.80114245414733887
0.41702240705490112 0.87099218368530273 0.81525498628616333
0.70626300573348999 0.91231632232666016 0.83770096302032471
0.85553359985351562 0.93849605321884155 0.8549848198890686
0.93075865507125854 0.94907408952713013 0.85182672739028931
0.97227019071578979 0.96150541305541992 0.88238906860351562
0.98652416467666626 0.97002577781677246 0.91424965858459473
0.0043930951505899429 0.26829609274864197 0.57388055324554443
0.024140900000929832 0.22768214344978333 0.58020830154418945
0.30774003267288208 0.0092650614678859711 0.62769913673400879
0.62157309055328369 0.00010393928096164018 0.66543972492218018
0.74902504682540894 0.0008324118098244071 0.65441977977752686
0.78641533851623535 0.0015649234410375357 0.65576916933059692
0.78139609098434448 0.001130466815084219 0.65269595384597778
0.0039215688593685627 0.31399667263031006 0.60996079444885254
0.0037959229666739702 0.30523210763931274 0.62121289968490601
0.21359442174434662 0.046499919146299362 0.66334837675094604
0.57651513814926147 0.0099913356825709343 0.69982028007507324
0.76748079061508179 0.0039846384897828102 0.70299077033996582
0.82352566719055176 0.0066178715787827969 0.69430899620056152
0.83460038900375366 0.013492240570485592 0.68910849094390869
0.013682211749255657 0.41290977597236633 0.6514098048210144
0.0085641900077462196 0.39570409059524536 0.6637580394744873
0.096079491078853607 0.30139368772506714 0.68553453683853149
0.52269989252090454 0.2479458749294281 0.72671020030975342
0.78210020065307617 0.1986033022403717 0.72141379117965698
0.86109942197799683 0.1941768079996109 0.71297991275787354
0.8823133111000061 0.26263540983200073 0.70834153890609741
0.024239633232355118 0.53640258312225342 0.69747531414031982
0.015410688705742359 0.55270624160766602 0.71601158380508423
0.040302097797393799 0.54290390014648438 0.73847180604934692
0.52096956968307495 0.55910956859588623 0.74434751272201538
0.79525387287139893 0.55792498588562012 0.73860734701156616
0.88901066780090332 0.57393378019332886 0.72345006465911865
0.92221593856811523 0.60103052854537964 0.72490441799163818
0.01036122627556324 0.68377429246902466 0.76743507385253906
0.007775280624628067 0.71468502283096313 0.77822405099868774
0.19172325730323792 0.75414645671844482 0.78800731897354126
0.63620811700820923 0.79737627506256104 0.79126691818237305
0.84757024049758911 0.82466238737106323 0.79126101732254028
0.91521334648132324 0.81088501214981079 0.769977867603302
0.93980252742767334 0.82231444120407104 0.78141814470291138
0.0041206208989024162 0.79226851463317871 0.82824057340621948
0.073662266135215759 0.82104974985122681 0.83915215730667114
0.49012845754623413 0.86381137371063232 0.84408807754516602
0.76366204023361206 0.9011269211769104 0.85649138689041138
0.88530540466308594 0.91542011499404907 0.86343050003051758
0.9509156346321106 0.92688578367233276 0.87360149621963501
0.97410124540328979 0.94019931554794312 0.89583355188369751
0.10466708242893219 0.85415691137313843 0.8857617974281311
0.50378245115280151 0.89683890342712402 0.89695960283279419
0.7481544017791748 0.93111348152160645 0.91252148151397705
0.87317562103271484 0.94968658685684204 0.92055875062942505
0.92461699247360229 0.95874518156051636 0.92284870147705078
0.9727361798286438 0.96936750411987305 0.93650174140930176
0.98002368211746216 0.96903270483016968 0.94459962844848633
0.0039215688593685627 0.28794467449188232 0.61302858591079712
0.013617122545838356 0.26402938365936279 0.62138181924819946
0.29721206426620483 0.0087417606264352798 0.6748497486114502
0.63464057445526123 0.0011744181392714381 0.73022520542144775
0.77334964275360107 0.001939676352776587 0.74516940116882324
0.80619996786117554 0.0018597472226247191 0.758464515209198
0.80039292573928833 0.00032169118640013039 0.73068404197692871
0.0010515549220144749 0.34691527485847473 0.66637355089187622
0.0029320511966943741 0.3401486873626709 0.67249411344528198
0.19274348020553589 0.079992972314357758 0.7243112325668335
0.57107913494110107 0.025882480666041374 0.77465373277664185
0.77957016229629517 0.009970017708837986 0.78971612453460693
0.83435416221618652 0.0068741594441235065 0.796214759349823
0.84505265951156616 0.015256874263286591 0.78716641664505005
0.0052023492753505707 0.43717142939567566 0.71140408515930176
0.0041558509692549706 0.42243042588233948 0.72465306520462036
0.080685965716838837 0.34259814023971558 0.76786047220230103
0.49891132116317749 0.26478308439254761 0.8169366717338562
0.7773512601852417 0.21821604669094086 0.83311516046524048
0.85692316293716431 0.20570370554924011 0.82662999629974365
0.88251501321792603 0.2658056914806366 0.82350176572799683
0.011112602427601814 0.56467980146408081 0.75425583124160767
0.0076289158314466476 0.58012086153030396 0.78981524705886841
0.031671680510044098 0.56425189971923828 0.83614730834960938
0.48747327923774719 0.56267619132995605 0.8607252836227417
0.78227591514587402 0.56749927997589111 0.86246073246002197
0.87250232696533203 0.56777697801589966 0.84376662969589233
0.91782039403915405 0.62572163343429565 0.8502732515335083
0.0098154554143548012 0.70950829982757568 0.82846873998641968
0.0062174629420042038 0.73205029964447021 0.8487555980682373
0.19413772225379944 0.76753842830657959 0.87459945678710938
0.61927610635757446 0.80960333347320557 0.88551133871078491
0.83117246627807617 0.8345223069190979 0.88722795248031616
0.89335471391677856 0.81883639097213745 0.86210852861404419
0.90727889537811279 0.81476223468780518 0.84029775857925415
0.0076556485146284103 0.80405694246292114 0.88386911153793335
0.082722589373588562 0.83757305145263672 0.90058702230453491
0.52111184597015381 0.879830002784729 0.90776002407073975
0.77698135375976562 0.9135366678237915 0.91892784833908081
0.90176880359649658 0.93421393632888794 0.92886197566986084
0.95032793283462524 0.94573879241943359 0.9368322491645813
0.9461822509765625 0.92651772499084473 0.91390979290008545
0.15639074146747589 0.8689085841178894 0.92531454563140869
0.56358486413955688 0.91035276651382446 0.93538516759872437
0.77744078636169434 0.93885594606399536 0.94370573759078979
0.88237673044204712 0.95537436008453369 0.95127874612808228
0.94344377517700195 0.96728509664535522 0.95819449424743652
0.96910321712493896 0.97362983226776123 0.96452963352203369
0.97605693340301514 0.97138947248458862 0.9636542797088623
0 0.30561065673828125 0.60723865032196045
0.010865604504942894 0.26875922083854675 0.62024039030075073
0.2827659547328949 0.019996343180537224 0.67572987079620361
0.61765122413635254 0.0040483660995960236 0.73043376207351685
0.76728612184524536 0.00046997069148346782 0.7493511438369751
0.80948102474212646 0.00017754049622453749 0.75749498605728149
0.81729334592819214 0.0015015247045084834 0.76605552434921265
0 0.36433860659599304 0.67432534694671631
0.0026304207276552916 0.33869192004203796 0.68305122852325439
0.16947591304779053 0.1183072105050087 0.73502564430236816
0.5572851300239563 0.051314797252416611 0.79509967565536499
0.77942132949829102 0.018973585218191147 0.81574320793151855
0.84139406681060791 0.0095416195690631866 0.82512986660003662
0.85883486270904541 0.026153804734349251 0.83306217193603516
0.0013572244206443429 0.45393198728561401 0.73597109317779541
0.0039546294137835503 0.42493459582328796 0.75232094526290894
0.063666053116321564 0.3709048330783844 0.79199302196502686
0.49259153008460999 0.29976612329483032 0.85352599620819092
0.77277916669845581 0.27932262420654297 0.86977404356002808
0.84708946943283081 0.25647822022438049 0.86805379390716553
0.88517415523529053 0.31206676363945007 0.87668979167938232
0.0015522825997322798 0.57104623317718506 0.78856760263442993
0.0038153855130076408 0.5766984224319458 0.82648563385009766
0.025081979110836983 0.57930237054824829 0.87224793434143066
0.4782261848449707 0.57508569955825806 0.9052886962890625
0.77902239561080933 0.60338515043258667 0.91059297323226929
0.86906099319458008 0.5913422703742981 0.90086740255355835
0.90984594821929932 0.6255946159362793 0.90168684720993042
0.0039215688593685627 0.70658856630325317 0.85226082801818848
0.010044396854937077 0.74235838651657104 0.88520652055740356
0.16564546525478363 0.77441787719726562 0.92000347375869751
0.60839200019836426 0.81813281774520874 0.93365037441253662
0.82851272821426392 0.83699494600296021 0.93213248252868652
0.90086781978607178 0.83463013172149658 0.92030173540115356
0.92731314897537231 0.84314525127410889 0.91611588001251221
0.0041944468393921852 0.81473124027252197 0.91399163007736206
0.066939443349838257 0.84795522689819336 0.93639153242111206
0.54340821504592896 0.88946783542633057 0.94472986459732056
0.78057515621185303 0.91603600978851318 0.94774347543716431
0.88825803995132446 0.93145275115966797 0.95159173011779785
0.93415790796279907 0.93456506729125977 0.94244533777236938
0.89878672361373901 0.88519793748855591 0.88867491483688354
0.17775933444499969 0.88137024641036987 0.95031696557998657
0.60523837804794312 0.92006093263626099 0.95624643564224243
0.79716509580612183 0.94530808925628662 0.96141207218170166
0.89455312490463257 0.95906025171279907 0.96549457311630249
0.94681447744369507 0.96676373481750488 0.96992194652557373
0.97316634654998779 0.97678548097610474 0.97704142332077026
0.91100186109542847 0.9085078239440918 0.90883082151412964
