assets/lut/others muted fade.cube
# Created by: G'MIC (https://gmic.eu)
TITLE "muted_fade"
# LUT size
LUT_3D_SIZE 13
# Data domain
DOMAIN_MIN 0.0 0.0 0.0
DOMAIN_MAX 1.0 1.0 1.0
# LUT data points
0.14461018145084381 0.14134146273136139 0.14409714937210083
0.19227401912212372 0.15427568554878235 0.15651953220367432
0.23762328922748566 0.16536241769790649 0.167239710688591
0.28246545791625977 0.1757875382900238 0.17729899287223816
0.32784795761108398 0.18628701567649841 0.18710556626319885
0.37358295917510986 0.19697442650794983 0.19691763818264008
0.41891458630561829 0.2076813280582428 0.20706038177013397
0.4641120433807373 0.21838551759719849 0.21784500777721405
0.50934416055679321 0.22935225069522858 0.22897012531757355
0.55532795190811157 0.24040509760379791 0.24063020944595337
0.60174757242202759 0.25153815746307373 0.25251403450965881
0.6479727029800415 0.26221337914466858 0.26404818892478943
0.69341325759887695 0.27244365215301514 0.27450719475746155
0.16696295142173767 0.19980168342590332 0.16643399000167847
0.21452820301055908 0.21263732016086578 0.17877623438835144
0.26009711623191833 0.22369913756847382 0.18935981392860413
0.30498898029327393 0.2339838445186615 0.19919115304946899
0.35012790560722351 0.24440224468708038 0.20902509987354279
0.39553630352020264 0.25485372543334961 0.21892403066158295
0.44088679552078247 0.26538777351379395 0.22926943004131317
0.48616218566894531 0.27612820267677307 0.23982414603233337
0.5317503809928894 0.2871730625629425 0.25107434391975403
0.57786118984222412 0.29826313257217407 0.26260325312614441
0.62423896789550781 0.30957868695259094 0.27422580122947693
0.67026025056838989 0.32041823863983154 0.28570190072059631
0.71582263708114624 0.33061271905899048 0.29646944999694824
0.18832522630691528 0.2570781409740448 0.18779198825359344
0.23561549186706543 0.26953533291816711 0.19959047436714172
0.28150632977485657 0.2807062566280365 0.21043813228607178
0.32668361067771912 0.29118755459785461 0.2206757664680481
0.37172815203666687 0.30137783288955688 0.23045086860656738
0.41698923707008362 0.31159159541130066 0.24030424654483795
0.46218782663345337 0.32203960418701172 0.25061520934104919
0.50754749774932861 0.33277624845504761 0.26130050420761108
0.55325061082839966 0.34384411573410034 0.27239871025085449
0.59947556257247925 0.35513639450073242 0.28374120593070984
0.64570945501327515 0.36631801724433899 0.29506424069404602
0.69181513786315918 0.3772619366645813 0.30593857169151306
0.7373424768447876 0.38735458254814148 0.3162257969379425
0.20904114842414856 0.31362205743789673 0.20844294130802155
0.25621822476387024 0.32586804032325745 0.2202254980802536
0.30215087532997131 0.33702224493026733 0.23061975836753845
0.34756386280059814 0.34750533103942871 0.24094602465629578
0.39272293448448181 0.35765355825424194 0.25118774175643921
0.43788716197013855 0.36782673001289368 0.26135122776031494
0.48306843638420105 0.37808597087860107 0.2714703381061554
0.52847176790237427 0.38873776793479919 0.28228303790092468
0.57428854703903198 0.39986100792884827 0.29336702823638916
0.62045270204544067 0.41129061579704285 0.30461376905441284
0.66665667295455933 0.42253795266151428 0.31575903296470642
0.71275049448013306 0.43351247906684875 0.32667165994644165
0.75836753845214844 0.44357874989509583 0.33681079745292664
0.22956839203834534 0.36991152167320251 0.22906489670276642
0.2764432430267334 0.38198265433311462 0.24062477052211761
0.32244026660919189 0.3930935263633728 0.2515510618686676
0.3679468035697937 0.40354984998703003 0.26149722933769226
0.41336748003959656 0.41370585560798645 0.27157828211784363
0.45861285924911499 0.42372500896453857 0.28204119205474854
0.50384187698364258 0.43387302756309509 0.29242300987243652
0.54919588565826416 0.44445887207984924 0.30314064025878906
0.59505540132522583 0.4556712806224823 0.31424823403358459
0.64121198654174805 0.467242032289505 0.32551795244216919
0.68744361400604248 0.47866618633270264 0.33665621280670166
0.73342877626419067 0.48979955911636353 0.34747016429901123
0.77909219264984131 0.50019919872283936 0.35768803954124451
0.2499845027923584 0.42637708783149719 0.25013443827629089
0.29674193263053894 0.43829831480979919 0.26146697998046875
0.34268918633460999 0.44927027821540833 0.27189800143241882
0.38832566142082214 0.45958408713340759 0.28216609358787537
0.43389987945556641 0.46966254711151123 0.29247629642486572
0.47945037484169006 0.47969144582748413 0.30290389060974121
0.52477198839187622 0.48986512422561646 0.31356990337371826
0.57014578580856323 0.50043386220932007 0.32438495755195618
0.61595612764358521 0.51165533065795898 0.33552604913711548
0.66201430559158325 0.52327662706375122 0.34671002626419067
0.70809745788574219 0.5348929762840271 0.3578546941280365
0.75401413440704346 0.5462414026260376 0.36881649494171143
0.79973673820495605 0.55706894397735596 0.37917408347129822
0.27055072784423828 0.482879638671875 0.27134379744529724
0.31716752052307129 0.49481448531150818 0.28272220492362976
0.36321985721588135 0.50562328100204468 0.29296153783798218
0.40893623232841492 0.51576429605484009 0.30312025547027588
0.45475608110427856 0.52580302953720093 0.31361252069473267
0.50041317939758301 0.53579270839691162 0.32425394654273987
0.54581087827682495 0.54609197378158569 0.334970623254776
0.59141212701797485 0.55666434764862061 0.34577187895774841
0.63704347610473633 0.56781405210494995 0.35689687728881836
0.68293654918670654 0.57933503389358521 0.36806735396385193
0.72883540391921997 0.5909917950630188 0.37917527556419373
0.77467864751815796 0.60251200199127197 0.39028912782669067
0.82033008337020874 0.61361873149871826 0.4011211097240448
0.29134282469749451 0.53920865058898926 0.2925620973110199
0.33808326721191406 0.55127334594726562 0.30385282635688782
0.38426980376243591 0.56198447942733765 0.31441578269004822
0.43012303113937378 0.57207876443862915 0.32461091876029968
0.47588124871253967 0.58201009035110474 0.33503967523574829
0.52137625217437744 0.59194809198379517 0.34569641947746277
0.56684267520904541 0.60224825143814087 0.35653173923492432
0.61247020959854126 0.61285984516143799 0.36734935641288757
0.65808629989624023 0.62386280298233032 0.37838810682296753
0.70395207405090332 0.63532644510269165 0.3895413875579834
0.7497098445892334 0.6467176079750061 0.40063801407814026
0.79542595148086548 0.65803265571594238 0.41164723038673401
0.8410065770149231 0.66895508766174316 0.4219588041305542
0.31270310282707214 0.59523707628250122 0.31349858641624451
0.35956844687461853 0.60725432634353638 0.32496258616447449
0.40583688020706177 0.61811554431915283 0.33541634678840637
0.45162519812583923 0.62821686267852783 0.34591111540794373
0.49709615111351013 0.63811194896697998 0.35657361149787903
0.54252266883850098 0.64803177118301392 0.36729863286018372
0.58793151378631592 0.6582295298576355 0.37811964750289917
0.63353449106216431 0.66882240772247314 0.38890177011489868
0.67931586503982544 0.67981231212615967 0.39980918169021606
0.72508281469345093 0.69102400541305542 0.4109007716178894
0.77075421810150146 0.70218217372894287 0.42172467708587646
0.81635493040084839 0.71291035413742065 0.43269115686416626
0.86179906129837036 0.72334551811218262 0.44331574440002441
0.33445665240287781 0.65106415748596191 0.33458244800567627
0.38149994611740112 0.66299396753311157 0.34580758213996887
0.42772603034973145 0.67402660846710205 0.35651102662086487
0.47329694032669067 0.68417245149612427 0.36708804965019226
0.51854163408279419 0.694022536277771 0.37791097164154053
0.56376755237579346 0.70395946502685547 0.38880610466003418
0.60916215181350708 0.71416991949081421 0.39961674809455872
0.65481710433959961 0.72467887401580811 0.41027569770812988
0.70064663887023926 0.73573505878448486 0.42119881510734558
0.74648886919021606 0.74688822031021118 0.432230144739151
0.79212027788162231 0.75764459371566772 0.44315606355667114
0.83759355545043945 0.76807898283004761 0.45380511879920959
0.88285642862319946 0.7779204249382019 0.46396249532699585
0.35660481452941895 0.70701295137405396 0.35623839497566223
0.40350031852722168 0.71882176399230957 0.36716008186340332
0.44944858551025391 0.7298130989074707 0.37770923972129822
0.4948001503944397 0.73991924524307251 0.38840216398239136
0.53999096155166626 0.74975216388702393 0.3993508517742157
0.58512395620346069 0.75987464189529419 0.41023385524749756
0.63055068254470825 0.77016752958297729 0.42094343900680542
0.67632067203521729 0.78080147504806519 0.43161430954933167
0.72219371795654297 0.79177623987197876 0.44243043661117554
0.7680509090423584 0.80272370576858521 0.45331647992134094
0.81374275684356689 0.81349903345108032 0.46439915895462036
0.85919702053070068 0.8239625096321106 0.47525981068611145
0.90443527698516846 0.83411335945129395 0.48576146364212036
0.37895286083221436 0.76324993371963501 0.37839749455451965
0.42534485459327698 0.77483606338500977 0.38911741971969604
0.47094541788101196 0.78552335500717163 0.39959150552749634
0.51614725589752197 0.79552268981933594 0.40997639298439026
0.5611652135848999 0.8053860068321228 0.42068463563919067
0.60649102926254272 0.81557762622833252 0.43142372369766235
0.65208393335342407 0.82612895965576172 0.44199788570404053
0.69795531034469604 0.83684557676315308 0.45271092653274536
0.74386715888977051 0.84771054983139038 0.46327322721481323
0.78974032402038574 0.85878604650497437 0.47426304221153259
0.83546465635299683 0.86963862180709839 0.48547855019569397
0.88090604543685913 0.88035833835601807 0.49664905667304993
0.92610877752304077 0.89072012901306152 0.50738513469696045
0.40034964680671692 0.81930333375930786 0.40032708644866943
0.44652882218360901 0.83074134588241577 0.41112363338470459
0.4917265772819519 0.84113401174545288 0.42126971483230591
0.53688657283782959 0.85107016563415527 0.43134787678718567
0.58217686414718628 0.86098092794418335 0.44187161326408386
0.62767541408538818 0.87130314111709595 0.4525485634803772
0.67347759008407593 0.88199079036712646 0.46276041865348816
0.71938252449035645 0.89276516437530518 0.4733424186706543
0.76535779237747192 0.90364181995391846 0.48379319906234741
0.81128203868865967 0.91465651988983154 0.49483788013458252
0.85697728395462036 0.92567765712738037 0.50600653886795044
0.90241360664367676 0.93670237064361572 0.51765060424804688
0.94760221242904663 0.94744348526000977 0.52874863147735596
0.14856576919555664 0.14636801183223724 0.18459933996200562
0.19573292136192322 0.15864843130111694 0.19630584120750427
0.24055749177932739 0.16926510632038116 0.20658300817012787
0.28452602028846741 0.17911644279956818 0.21618352830410004
0.32899865508079529 0.18912191689014435 0.22589461505413055
0.37524396181106567 0.19982422888278961 0.23562675714492798
0.42141592502593994 0.21072016656398773 0.24583211541175842
0.46733734011650085 0.22179973125457764 0.25664085149765015
0.51333749294281006 0.2328125387430191 0.26806548237800598
0.55961304903030396 0.24385477602481842 0.27979683876037598
0.60602247714996338 0.25506937503814697 0.29156699776649475
0.65195709466934204 0.26604548096656799 0.30291083455085754
0.6970754861831665 0.27620959281921387 0.31312745809555054
0.17081819474697113 0.20435936748981476 0.2065240740776062
0.21772903203964233 0.21650479733943939 0.21810418367385864
0.26297026872634888 0.22722649574279785 0.22832855582237244
0.30734959244728088 0.23716244101524353 0.23784582316875458
0.35207080841064453 0.24719533324241638 0.24759633839130402
0.3976820707321167 0.25760361552238464 0.25744932889938354
0.44360238313674927 0.26835545897483826 0.26774463057518005
0.48939275741577148 0.27925094962120056 0.27841055393218994
0.53538352251052856 0.2903594970703125 0.28973346948623657
0.581642746925354 0.30155155062675476 0.30124789476394653
0.62796401977539062 0.31283903121948242 0.31281241774559021
0.67384260892868042 0.32389345765113831 0.32406750321388245
0.71909213066101074 0.33413463830947876 0.33482131361961365
0.19175612926483154 0.26104867458343506 0.2273532897233963
0.23878189921379089 0.27305877208709717 0.23850749433040619
0.28437623381614685 0.28389781713485718 0.24924935400485992
0.32922250032424927 0.29417705535888672 0.25926041603088379
0.37431725859642029 0.30426540970802307 0.26889258623123169
0.41957235336303711 0.31452792882919312 0.27883720397949219
0.46518135070800781 0.32499676942825317 0.28900086879730225
0.51089668273925781 0.335805743932724 0.29976046085357666
0.55682849884033203 0.34696480631828308 0.31084111332893372
0.60296595096588135 0.3582703173160553 0.32210785150527954
0.6491241455078125 0.36950269341468811 0.33335074782371521
0.69502824544906616 0.38040459156036377 0.34444370865821838
0.74028438329696655 0.39076218008995056 0.35470759868621826
0.21229390799999237 0.3169701099395752 0.2474043071269989
0.25916486978530884 0.32900485396385193 0.25904253125190735
0.30509024858474731 0.34008938074111938 0.26923277974128723
0.35045412182807922 0.35038059949874878 0.27950271964073181
0.39567667245864868 0.36058300733566284 0.28963702917098999
0.44096961617469788 0.37078621983528137 0.2997816801071167
0.48644456267356873 0.38119608163833618 0.30993890762329102
0.53198719024658203 0.39190918207168579 0.32072347402572632
0.57778388261795044 0.40298950672149658 0.33169028162956238
0.62385749816894531 0.41432514786720276 0.34285908937454224
0.66993290185928345 0.4255882203578949 0.3540937602519989
0.71569085121154785 0.43644770979881287 0.36465016007423401
0.76125311851501465 0.4468931257724762 0.37532511353492737
0.23259283602237701 0.37279081344604492 0.26774871349334717
0.27937981486320496 0.38485577702522278 0.27929753065109253
0.32538226246833801 0.39598429203033447 0.29022851586341858
0.37112748622894287 0.40651580691337585 0.30010968446731567
0.41663411259651184 0.41660553216934204 0.31025958061218262
0.46203768253326416 0.42672401666641235 0.32058846950531006
0.50746864080429077 0.43710824847221375 0.33098956942558289
0.55281245708465576 0.44775757193565369 0.34165510535240173
0.59858244657516479 0.45886781811714172 0.35265868902206421
0.64459884166717529 0.47025969624519348 0.36373874545097351
0.69056302309036255 0.48167562484741211 0.37481054663658142
0.73630017042160034 0.49271804094314575 0.3856368362903595
0.78186118602752686 0.50319778919219971 0.39608326554298401
0.25294125080108643 0.42899355292320251 0.28869634866714478
0.29963970184326172 0.44108572602272034 0.30014827847480774
0.34580761194229126 0.45219013094902039 0.31078252196311951
0.3916587233543396 0.46257162094116211 0.32117608189582825
0.43741384148597717 0.47271537780761719 0.33128732442855835
0.48304957151412964 0.48282289505004883 0.34166282415390015
0.52852123975753784 0.49316704273223877 0.35219055414199829
0.57388907670974731 0.50379902124404907 0.36296451091766357
0.61947792768478394 0.51500904560089111 0.37391743063926697
0.66535139083862305 0.52642190456390381 0.38498449325561523
0.71122205257415771 0.53792673349380493 0.39597341418266296
0.75706905126571655 0.54911315441131592 0.40679746866226196
0.80268341302871704 0.55990767478942871 0.4172917902469635
0.2735874354839325 0.48586031794548035 0.31020423769950867
0.32022485136985779 0.49784612655639648 0.32174229621887207
0.36647412180900574 0.50868123769760132 0.33220252394676208
0.41244938969612122 0.51891106367111206 0.34223777055740356
0.45839622616767883 0.52892625331878662 0.35268494486808777
0.50407320261001587 0.5390128493309021 0.36307254433631897
0.5495801568031311 0.54935234785079956 0.37371030449867249
0.59492850303649902 0.56007593870162964 0.38438647985458374
0.64055103063583374 0.57129842042922974 0.39549052715301514
0.68617844581604004 0.58263623714447021 0.40636399388313293
0.73200565576553345 0.59420466423034668 0.41733482480049133
0.77779555320739746 0.60557901859283447 0.42830908298492432
0.82350122928619385 0.61657452583312988 0.4388127326965332
0.29473912715911865 0.5426521897315979 0.33181494474411011
0.34131917357444763 0.55450457334518433 0.34321671724319458
0.38758388161659241 0.56516987085342407 0.35362857580184937
0.43365427851676941 0.5751640796661377 0.36376306414604187
0.47945916652679443 0.58511924743652344 0.37408757209777832
0.52501934766769409 0.59528636932373047 0.38476723432540894
0.57042169570922852 0.6057136058807373 0.39553371071815491
0.61589270830154419 0.61645352840423584 0.40622127056121826
0.66152507066726685 0.62755978107452393 0.41702702641487122
0.70723241567611694 0.6388469934463501 0.42801207304000854
0.75300866365432739 0.65026402473449707 0.43887448310852051
0.79871857166290283 0.66147696971893311 0.44961357116699219
0.84433066844940186 0.67229568958282471 0.4600885808467865
0.31640097498893738 0.59861385822296143 0.35282966494560242
0.36313888430595398 0.61038583517074585 0.36416140198707581
0.40943273901939392 0.62103331089019775 0.37459185719490051
0.45520803332328796 0.63110840320587158 0.38500162959098816
0.50058680772781372 0.64117294549942017 0.39557579159736633
0.54573088884353638 0.65145272016525269 0.40641051530838013
0.59116387367248535 0.66195094585418701 0.41731303930282593
0.63671422004699707 0.67267394065856934 0.4280293881893158
0.6824793815612793 0.68372970819473267 0.43882286548614502
0.72831648588180542 0.69496077299118042 0.44956067204475403
0.77404820919036865 0.70606452226638794 0.46021941304206848
0.81976824998855591 0.71687066555023193 0.47101953625679016
0.86541116237640381 0.72736060619354248 0.48151189088821411
0.33853143453598022 0.6544148325920105 0.37376981973648071
0.38538825511932373 0.66588544845581055 0.38483390212059021
0.43148031830787659 0.676594078540802 0.39523902535438538
0.47692039608955383 0.68680918216705322 0.40603965520858765
0.52182066440582275 0.69706439971923828 0.41699135303497314
0.56678307056427002 0.70752352476119995 0.42814278602600098
0.61201268434524536 0.71805465221405029 0.43897330760955811
0.65769445896148682 0.72885888814926147 0.44965314865112305
0.70367646217346191 0.73988956212997437 0.46024128794670105
0.74964046478271484 0.75107800960540771 0.47108513116836548
0.79545623064041138 0.76191210746765137 0.48179188370704651
0.84103471040725708 0.77236920595169067 0.49238526821136475
0.88654184341430664 0.78255856037139893 0.50265395641326904
0.36061149835586548 0.7102627158164978 0.39528882503509521
0.40731871128082275 0.72163313627243042 0.4059508740901947
0.45322927832603455 0.73209917545318604 0.41635614633560181
0.49838784337043762 0.74246442317962646 0.42708104848861694
0.54316192865371704 0.75285631418228149 0.43820333480834961
0.58800613880157471 0.76335054636001587 0.44945231080055237
0.63327646255493164 0.7740667462348938 0.4603617787361145
0.67905497550964355 0.78495955467224121 0.47091075778007507
0.72519814968109131 0.79601573944091797 0.48155313730239868
0.77118039131164551 0.80697184801101685 0.4921301007270813
0.81701314449310303 0.81772655248641968 0.50306528806686401
0.86259526014328003 0.82821029424667358 0.51384037733078003
0.90810346603393555 0.83844196796417236 0.52445077896118164
0.38235464692115784 0.76642334461212158 0.4170687198638916
0.42868807911872864 0.77763360738754272 0.42762097716331482
0.47423124313354492 0.78816503286361694 0.43811100721359253
0.51927667856216431 0.79832452535629272 0.44857668876647949
0.56435126066207886 0.80867290496826172 0.45951932668685913
0.6095355749130249 0.81921678781509399 0.47040256857872009
0.65496349334716797 0.82998919486999512 0.4813058078289032
0.70075863599777222 0.84087860584259033 0.4915565550327301
0.74686944484710693 0.85186982154846191 0.50232112407684326
0.79287141561508179 0.86282026767730713 0.5129820704460144
0.83870381116867065 0.87368655204772949 0.52404820919036865
0.88431012630462646 0.88434970378875732 0.53507870435714722
0.92963755130767822 0.89482390880584717 0.54586440324783325
0.40331688523292542 0.82264655828475952 0.43885591626167297
0.44921004772186279 0.83380579948425293 0.44964820146560669
0.49446073174476624 0.84424585103988647 0.45968830585479736
0.53982484340667725 0.85439813137054443 0.46987694501876831
0.58525925874710083 0.86458539962768555 0.48061105608940125
0.63083738088607788 0.87512302398681641 0.49145603179931641
0.67664456367492676 0.88588398694992065 0.50166070461273193
0.72245621681213379 0.89669120311737061 0.51252913475036621
0.76847201585769653 0.9075324535369873 0.52242648601531982
0.81453847885131836 0.91838723421096802 0.5333898663520813
0.8602679967880249 0.92945003509521484 0.54442232847213745
0.90576845407485962 0.94044166803359985 0.55593633651733398
0.95118439197540283 0.95112603902816772 0.56708687543869019
0.15105292201042175 0.14990314841270447 0.2232135534286499
0.19817456603050232 0.16170923411846161 0.23431651294231415
0.24341440200805664 0.17194624245166779 0.24416506290435791
0.28752201795578003 0.18161949515342712 0.25349783897399902
0.33205068111419678 0.19164778292179108 0.26325780153274536
0.37802958488464355 0.2025342732667923 0.27331218123435974
0.42453262209892273 0.21355699002742767 0.2837461531162262
0.47085905075073242 0.22451841831207275 0.29484090209007263
0.51710933446884155 0.23558804392814636 0.30621585249900818
0.56340676546096802 0.2466835230588913 0.31795603036880493
0.60952162742614746 0.25776538252830505 0.32963550090789795
0.65510267019271851 0.26861560344696045 0.34065768122673035
0.69978058338165283 0.27920976281166077 0.35107403993606567
0.17322008311748505 0.20773501694202423 0.24490045011043549
0.22018556296825409 0.21939505636692047 0.25613820552825928
0.26550459861755371 0.22972074151039124 0.26591455936431885
0.31006234884262085 0.23958303034305573 0.27548021078109741
0.35474589467048645 0.24954195320606232 0.28507643938064575
0.40058344602584839 0.26020622253417969 0.29502871632575989
0.44664561748504639 0.27080270648002625 0.30542659759521484
0.49277734756469727 0.28191545605659485 0.31641191244125366
0.53889423608779907 0.29304379224777222 0.32767930626869202
0.58511859178543091 0.3042127788066864 0.33918064832687378
0.63116347789764404 0.31541618704795837 0.35060283541679382
0.67669427394866943 0.32637038826942444 0.36181759834289551
0.72150158882141113 0.33683556318283081 0.37183704972267151
0.1944257915019989 0.26398888230323792 0.26543614268302917
0.24119816720485687 0.27577489614486694 0.27664616703987122
0.28683075308799744 0.28650075197219849 0.28688618540763855
0.33197364211082458 0.29662445187568665 0.29651004076004028
0.37705674767494202 0.30677539110183716 0.3064018189907074
0.42254331707954407 0.31706365942955017 0.31639760732650757
0.46837100386619568 0.32769522070884705 0.32680043578147888
0.51425695419311523 0.33851757645606995 0.33759936690330505
0.56022018194198608 0.34964087605476379 0.34868806600570679
0.60628843307495117 0.36084994673728943 0.3599332869052887
0.65215826034545898 0.37198352813720703 0.37115186452865601
0.69751429557800293 0.38287326693534851 0.38196215033531189
0.74252778291702271 0.39345180988311768 0.39282697439193726
0.21470560133457184 0.31964844465255737 0.28537449240684509
0.26166775822639465 0.33143001794815063 0.29654732346534729
0.30771389603614807 0.34243118762969971 0.30738484859466553
0.35321471095085144 0.35291305184364319 0.31748062372207642
0.3986390233039856 0.36310392618179321 0.32724416255950928
0.44415190815925598 0.37342986464500427 0.33748602867126465
0.48972430825233459 0.38393157720565796 0.34798392653465271
0.53542309999465942 0.39469552040100098 0.35861340165138245
0.58124786615371704 0.40575593709945679 0.36962580680847168
0.6270143985748291 0.41693094372749329 0.38074895739555359
0.67278200387954712 0.42805346846580505 0.39165553450584412
0.71831011772155762 0.43897789716720581 0.40247920155525208
0.76322191953659058 0.449148029088974 0.41311785578727722
0.23498155176639557 0.37487334012985229 0.30532175302505493
0.28191593289375305 0.38695171475410461 0.31698706746101379
0.32824450731277466 0.398297518491745 0.32768866419792175
0.37411364912986755 0.40889441967010498 0.33817547559738159
0.4198022186756134 0.41922888159751892 0.3484155535697937
0.46545138955116272 0.42958676815032959 0.35858538746833801
0.51104390621185303 0.4400610625743866 0.3690604567527771
0.55659317970275879 0.45079097151756287 0.37976384162902832
0.60210597515106201 0.46178171038627625 0.39058619737625122
