assets/lut/others golden vibrant.cube
# Created by: G'MIC (https://gmic.eu)
TITLE "golden_vibrant"
# LUT size
LUT_3D_SIZE 5
# Data domain
DOMAIN_MIN 0.0 0.0 0.0
DOMAIN_MAX 1.0 1.0 1.0
# LUT data points
0.022273045033216476 0.031128976494073868 0.10496706515550613
0.1910291314125061 0.024245558306574821 0.1009770855307579
0.5438002347946167 0.027673952281475067 0.10169386118650436
0.91601294279098511 0.025876617059111595 0.10938084870576859
0.98076075315475464 0.022323952987790108 0.10064428299665451
0.01744314469397068 0.25954744219779968 0.097693741321563721
0.18788707256317139 0.25643515586853027 0.094419129192829132
0.54530054330825806 0.25513181090354919 0.10427660495042801
0.92212092876434326 0.25606906414031982 0.10670215636491776
0.98639005422592163 0.25468948483467102 0.097648411989212036
0.012595143169164658 0.56723332405090332 0.10543885827064514
0.18873298168182373 0.56413239240646362 0.095621369779109955
0.53530305624008179 0.56573325395584106 0.098694637417793274
0.92275035381317139 0.57530331611633301 0.10184523463249207
0.98757719993591309 0.569721519947052 0.10375470668077469
0.019645765423774719 0.84999269247055054 0.10216541588306427
0.18629090487957001 0.84945201873779297 0.10348197817802429
0.55361759662628174 0.85821151733398438 0.10222772508859634
0.91630172729492188 0.8478553295135498 0.10315106064081192
0.98313015699386597 0.84534251689910889 0.10061419755220413
0.021969469264149666 0.98751133680343628 0.10818076133728027
0.18590201437473297 0.98791599273681641 0.10057934373617172
0.55198603868484497 0.98679274320602417 0.10268121212720871
0.90715843439102173 0.98580414056777954 0.10019966214895248
0.98239684104919434 0.99044901132583618 0.11110060662031174
0.019654054194688797 0.033536754548549652 0.28707107901573181
0.1925584077835083 0.027717934921383858 0.28641796112060547
0.54429489374160767 0.02708333358168602 0.27840086817741394
0.91974776983261108 0.027895266190171242 0.28552702069282532
0.9865838885307312 0.029358088970184326 0.28823050856590271
0.018483899533748627 0.2603401243686676 0.2773679792881012
0.19415378570556641 0.2540433406829834 0.28005191683769226
0.54068261384963989 0.26169946789741516 0.28345990180969238
0.91289842128753662 0.25184813141822815 0.2896210253238678
0.98362135887145996 0.25308483839035034 0.28707107901573181
0.01877543143928051 0.56319963932037354 0.2818695604801178
0.18444794416427612 0.56548446416854858 0.28261244297027588
0.53765767812728882 0.57173448801040649 0.2801690399646759
0.92762655019760132 0.56543803215026855 0.28291624784469604
0.98908644914627075 0.57089394330978394 0.29189404845237732
0.016278928145766258 0.84984606504440308 0.27939301729202271
0.19317226111888885 0.84592235088348389 0.28786543011665344
0.54413211345672607 0.84970712661743164 0.28531879186630249
0.92633229494094849 0.8540845513343811 0.28702482581138611
0.99008011817932129 0.848865807056427 0.28953155875205994
0.021160081028938293 0.98851293325424194 0.28147667646408081
0.18572071194648743 0.99227941036224365 0.28173071146011353
0.54271626472473145 0.98890292644500732 0.28829973936080933
0.91722458600997925 0.98841565847396851 0.28877365589141846
0.98394894599914551 0.99412024021148682 0.2921413779258728
0.016311345621943474 0.027097335085272789 0.4595387876033783
0.18804755806922913 0.028625892475247383 0.45697438716888428
0.55037248134613037 0.02708333358168602 0.45580354332923889
0.91771823167800903 0.030979230999946594 0.46483412384986877
0.98260593414306641 0.026914425194263458 0.46112892031669617
0.023314068093895912 0.25707340240478516 0.46569356322288513
0.1891767680644989 0.25354495644569397 0.45756539702415466
0.5566788911819458 0.25762069225311279 0.46183374524116516
0.9207424521446228 0.25447338819503784 0.46373510360717773
0.98829919099807739 0.25375670194625854 0.46746039390563965
0.01643688790500164 0.57108116149902344 0.44911539554595947
0.18530578911304474 0.56706714630126953 0.44812202453613281
0.54876053333282471 0.56717616319656372 0.4563344419002533
0.92526328563690186 0.56890475749969482 0.46145531535148621
0.98701244592666626 0.5624503493309021 0.46077078580856323
0.015408504754304886 0.85447734594345093 0.45865246653556824
0.19043688476085663 0.85060930252075195 0.4590972363948822
0.55046051740646362 0.85073912143707275 0.4490247368812561
0.91894453763961792 0.85296928882598877 0.46390163898468018
0.98070222139358521 0.84389615058898926 0.46331864595413208
0.018855839967727661 0.99170589447021484 0.46414640545845032
0.18877600133419037 0.99186688661575317 0.46247157454490662
0.54249626398086548 0.99227416515350342 0.46380749344825745
0.91683340072631836 0.99015647172927856 0.47515490651130676
0.98611617088317871 0.98911142349243164 0.46470588445663452
0.019892927259206772 0.027675554156303406 0.65648305416107178
0.19056124985218048 0.029166741296648979 0.66323423385620117
0.55305945873260498 0.02708333358168602 0.66531360149383545
0.9123651385307312 0.0272548608481884 0.65468549728393555
0.98524284362792969 0.02708333358168602 0.65302842855453491
0.020220573991537094 0.25568270683288574 0.66976040601730347
0.1859249621629715 0.25051161646842957 0.66096276044845581
0.54603952169418335 0.2567628026008606 0.66683840751647949
0.91958987712860107 0.25755372643470764 0.6558910608291626
0.98542290925979614 0.2540435791015625 0.64864444732666016
0.019994534552097321 0.56941992044448853 0.64259707927703857
0.19458901882171631 0.57005256414413452 0.6520041823387146
0.55113309621810913 0.56732666492462158 0.66345632076263428
0.91018033027648926 0.57145112752914429 0.64766520261764526
0.98400425910949707 0.5671762228012085 0.65652614831924438
0.017608821392059326 0.85312050580978394 0.65337264537811279
0.19308006763458252 0.85335153341293335 0.65449589490890503
0.54629004001617432 0.85018879175186157 0.65465360879898071
0.92198276519775391 0.8478846549987793 0.65715557336807251
0.98396128416061401 0.85012924671173096 0.66580533981323242
0.019933378323912621 0.98616129159927368 0.66498953104019165
0.19035539031028748 0.98624902963638306 0.65278273820877075
0.53894960880279541 0.98835784196853638 0.65633630752563477
0.91932696104049683 0.99040716886520386 0.64745110273361206
0.99005788564682007 0.99037140607833862 0.681232750415802
0.025633180513978004 0.029138917103409767 0.93649709224700928
0.19398611783981323 0.028899338096380234 0.94111686944961548
0.54474925994873047 0.031207649037241936 0.93860459327697754
0.91016983985900879 0.02861519530415535 0.93661808967590332
0.98765426874160767 0.027608206495642662 0.93873089551925659
0.019432621076703072 0.25523734092712402 0.93610900640487671
0.19852140545845032 0.25363403558731079 0.94707447290420532
0.54812401533126831 0.25631594657897949 0.93817448616027832
0.91786426305770874 0.25808405876159668 0.94896858930587769
0.98178970813751221 0.25769880414009094 0.93950110673904419
0.019793221727013588 0.56134152412414551 0.93712252378463745
0.1903071403503418 0.56558209657669067 0.93192076683044434
0.54772990942001343 0.56659197807312012 0.93261617422103882
0.90976327657699585 0.56765627861022949 0.94891279935836792
0.98678362369537354 0.56789839267730713 0.9314500093460083
0.019327739253640175 0.85388612747192383 0.93765926361083984
0.19599469006061554 0.85343074798583984 0.93805181980133057
0.5479622483253479 0.85560768842697144 0.94510865211486816
0.91972547769546509 0.85352641344070435 0.94379663467407227
0.98792016506195068 0.84760767221450806 0.93366080522537231
0.024479944258928299 0.98840737342834473 0.94146537780761719
0.20236440002918243 0.99149119853973389 0.94335180521011353
0.55461442470550537 0.98429614305496216 0.93306428194046021
0.92195075750350952 0.98372179269790649 0.92752069234848022
0.98465561866760254 0.98611688613891602 0.94235330820083618
