assets/lut/others faded alt.cube
# Created by: G'MIC (https://gmic.eu)
TITLE "faded_alt"
# LUT size
LUT_3D_SIZE 7
# Data domain
DOMAIN_MIN 0.0 0.0 0.0
DOMAIN_MAX 1.0 1.0 1.0
# LUT data points
0.034325648099184036 0.036369577050209045 0.027907248586416245
0.099426373839378357 0.060932144522666931 0.059656180441379547
0.16036126017570496 0.081668436527252197 0.086037702858448029
0.22228406369686127 0.10248883068561554 0.11423993855714798
0.28521892428398132 0.12516023218631744 0.14351703226566315
0.34791457653045654 0.15053723752498627 0.173121377825737
0.4065990149974823 0.17279411852359772 0.20177076756954193
0.15664757788181305 0.18689773976802826 0.14310429990291595
0.22017504274845123 0.21013885736465454 0.17354433238506317
0.28127849102020264 0.23126551508903503 0.20007000863552094
0.34357509016990662 0.2511882483959198 0.22835434973239899
0.40699285268783569 0.27335396409034729 0.25764626264572144
0.47021660208702087 0.29918092489242554 0.28721556067466736
0.52931243181228638 0.32271495461463928 0.31565570831298828
0.27594390511512756 0.33364647626876831 0.25500968098640442
0.33759725093841553 0.3548094630241394 0.28434985876083374
0.39845976233482361 0.37580165266990662 0.31138601899147034
0.46134135127067566 0.39638802409172058 0.33996120095252991
0.52389407157897949 0.41909176111221313 0.36785236001014709
0.58716243505477905 0.44340354204177856 0.39594128727912903
0.64700996875762939 0.46562832593917847 0.42370149493217468
0.39633196592330933 0.48223990201950073 0.36545082926750183
0.45507025718688965 0.49995812773704529 0.39548259973526001
0.51570075750350952 0.51873326301574707 0.42388197779655457
0.58146208524703979 0.54330003261566162 0.45176774263381958
0.64592838287353516 0.56812530755996704 0.47793447971343994
0.70780932903289795 0.58796370029449463 0.50338566303253174
0.76270174980163574 0.60567879676818848 0.52952903509140015
0.51761424541473389 0.63567137718200684 0.4775235652923584
0.57563847303390503 0.65382540225982666 0.5079835057258606
0.63681662082672119 0.67166590690612793 0.53666549921035767
0.70951282978057861 0.70253342390060425 0.56432539224624634
0.77844482660293579 0.72730827331542969 0.59123307466506958
0.83343899250030518 0.73733937740325928 0.61655145883560181
0.87216031551361084 0.74830710887908936 0.63975363969802856
0.63977611064910889 0.79233062267303467 0.59114450216293335
0.70036453008651733 0.81517660617828369 0.62106215953826904
0.76507341861724854 0.83810633420944214 0.64845514297485352
0.83929526805877686 0.86698198318481445 0.67612206935882568
0.9022107720375061 0.88247531652450562 0.70502275228500366
0.93618476390838623 0.87777888774871826 0.73302382230758667
0.95186036825180054 0.88108038902282715 0.75545704364776611
0.75582677125930786 0.93119555711746216 0.702553391456604
0.81735247373580933 0.955058753490448 0.73283284902572632
0.87883305549621582 0.97381395101547241 0.75903177261352539
0.94512778520584106 0.98963499069213867 0.78622668981552124
0.99088507890701294 0.99215686321258545 0.81474995613098145
0.9943472146987915 0.97131747007369995 0.8422272801399231
0.9905388355255127 0.95673757791519165 0.86552304029464722
0.065511204302310944 0.077967040240764618 0.079728372395038605
0.12875516712665558 0.099901027977466583 0.11006215214729309
0.19062346220016479 0.11882121115922928 0.1366657167673111
0.2516629695892334 0.13827463984489441 0.1644282341003418
0.31266710162162781 0.16023038327693939 0.19237132370471954
0.37445184588432312 0.18361735343933105 0.22066172957420349
0.43494430184364319 0.20710287988185883 0.24943442642688751
0.18893870711326599 0.22607184946537018 0.19414110481739044
0.25056535005569458 0.24668554961681366 0.22291156649589539
0.311524897813797 0.26613935828208923 0.24979232251644135
0.37230297923088074 0.28597718477249146 0.27818232774734497
0.43277311325073242 0.30778095126152039 0.30653691291809082
0.49512931704521179 0.33255922794342041 0.33493390679359436
0.55716496706008911 0.35744690895080566 0.36387556791305542
0.30891236662864685 0.37175077199935913 0.30577218532562256
0.36900442838668823 0.39040848612785339 0.33296662569046021
0.42983222007751465 0.41075944900512695 0.3605952262878418
0.49192455410957336 0.43247464299201965 0.3902837336063385
0.54989743232727051 0.45443716645240784 0.41724064946174622
0.61157870292663574 0.47777512669563293 0.44382959604263306
0.67593479156494141 0.50222933292388916 0.47253185510635376
0.42807421088218689 0.51795262098312378 0.41746169328689575
0.485047847032547 0.53577762842178345 0.44396099448204041
0.54596936702728271 0.55791431665420532 0.47153806686401367
0.61247295141220093 0.58427762985229492 0.50108349323272705
0.67111986875534058 0.60735809803009033 0.52655291557312012
0.73211801052093506 0.62585538625717163 0.55125188827514648
0.79543596506118774 0.64688050746917725 0.57907009124755859
0.54691338539123535 0.66706264019012451 0.52979570627212524
0.60243517160415649 0.68873614072799683 0.5560300350189209
0.66500663757324219 0.71550625562667847 0.58241099119186401
0.73928624391555786 0.74953329563140869 0.611408531665802
0.80798327922821045 0.77278017997741699 0.63953620195388794
0.86515599489212036 0.78402125835418701 0.6650879979133606
0.90851700305938721 0.79993909597396851 0.68890345096588135
0.67004460096359253 0.82739925384521484 0.64364153146743774
0.72793173789978027 0.84996157884597778 0.66995078325271606
0.79188996553421021 0.8763965368270874 0.69475269317626953
0.86567121744155884 0.91066211462020874 0.72317290306091309
0.92813718318939209 0.92843770980834961 0.75322383642196655
0.96543675661087036 0.93430584669113159 0.78198885917663574
0.98364979028701782 0.95260286331176758 0.80781835317611694
0.78974646329879761 0.97053152322769165 0.7557368278503418
0.84945034980773926 0.98578339815139771 0.78394562005996704
0.90695840120315552 0.99311453104019165 0.80796557664871216
0.96199744939804077 0.99923479557037354 0.83545130491256714
0.99391061067581177 0.99958544969558716 0.86484295129776001
0.99775701761245728 0.99541169404983521 0.89286547899246216
0.99643951654434204 0.9952930212020874 0.91780900955200195
0.10166147351264954 0.11557318270206451 0.12642450630664825
0.16060979664325714 0.1356002539396286 0.15602551400661469
0.22043229639530182 0.15422189235687256 0.18364131450653076
0.28001806139945984 0.17376042902469635 0.21192620694637299
0.33913856744766235 0.19592823088169098 0.24001766741275787
0.39970999956130981 0.21843773126602173 0.26782533526420593
0.46172887086868286 0.24059821665287018 0.29660254716873169
0.21948601305484772 0.26128613948822021 0.23978595435619354
0.28042846918106079 0.28097876906394958 0.26888599991798401
0.34085801243782043 0.30057701468467712 0.29703021049499512
0.40068128705024719 0.32126355171203613 0.32607990503311157
0.45974677801132202 0.34288671612739563 0.35432565212249756
0.52112847566604614 0.36605307459831238 0.3825022280216217
0.58397102355957031 0.3903445303440094 0.41152283549308777
0.337872713804245 0.40667310357093811 0.35172465443611145
0.39844924211502075 0.42559036612510681 0.37893718481063843
0.45991331338882446 0.44719973206520081 0.40795803070068359
0.5224076509475708 0.4696076512336731 0.43882530927658081
0.58101463317871094 0.48954811692237854 0.46675202250480652
0.64202678203582764 0.51059895753860474 0.49406850337982178
0.70532643795013428 0.53590315580368042 0.52284771203994751
0.45643213391304016 0.55327033996582031 0.46473520994186401
0.51282805204391479 0.57280814647674561 0.49000287055969238
0.57536059617996216 0.5980994701385498 0.5179559588432312
0.64444923400878906 0.62432694435119629 0.54945427179336548
0.70663750171661377 0.64185374975204468 0.57806253433227539
0.76721996068954468 0.65835607051849365 0.60499686002731323
0.82713043689727783 0.68425798416137695 0.63299673795700073
0.57387441396713257 0.70077937841415405 0.57726788520812988
0.62750124931335449 0.72278428077697754 0.60093408823013306
0.68920379877090454 0.75167441368103027 0.62643063068389893
0.76789885759353638 0.78781354427337646 0.65827113389968872
0.83851510286331177 0.80480748414993286 0.69010615348815918
0.89435690641403198 0.81623882055282593 0.718345046043396
0.93389827013015747 0.84421789646148682 0.74344253540039062
0.6978117823600769 0.86058735847473145 0.69063043594360352
0.75391590595245361 0.87416571378707886 0.71406006813049316
0.81540489196777344 0.8982282280921936 0.73806196451187134
0.88881838321685791 0.93991512060165405 0.76927405595779419
0.94812935590744019 0.95507955551147461 0.80111473798751831
0.9842982292175293 0.96567922830581665 0.82994252443313599
0.99643194675445557 0.98119652271270752 0.85644996166229248
0.81987553834915161 0.99258458614349365 0.80303347110748291
0.87958675622940063 0.99146783351898193 0.82891583442687988
0.9368966817855835 0.99427992105484009 0.85294550657272339
0.97715455293655396 0.99997740983963013 0.88265389204025269
0.99747896194458008 1 0.91328573226928711
1 1 0.9415055513381958
1 1 0.96847248077392578
0.12953813374042511 0.14905603229999542 0.17180678248405457
0.18947333097457886 0.16963189840316772 0.20194064080715179
0.24866464734077454 0.18914787471294403 0.23008354008197784
0.30833747982978821 0.209870845079422 0.25892883539199829
0.3685416579246521 0.23300129175186157 0.28705465793609619
0.42864155769348145 0.2562459409236908 0.31580117344856262
0.49222028255462646 0.27611750364303589 0.34548693895339966
0.24820524454116821 0.2952587902545929 0.28648048639297485
0.30881080031394958 0.31567004323005676 0.31643861532211304
0.3686995804309845 0.33688852190971375 0.34481686353683472
0.4284597635269165 0.35922199487686157 0.37317225337028503
0.4888298511505127 0.38114356994628906 0.40130293369293213
0.55159550905227661 0.40253698825836182 0.43031859397888184
0.61473566293716431 0.42491114139556885 0.45998656749725342
0.36509540677070618 0.441273033618927 0.39848461747169495
0.42581376433372498 0.46365046501159668 0.42769822478294373
0.48800718784332275 0.48788461089134216 0.45658862590789795
0.55115187168121338 0.51074683666229248 0.48595321178436279
0.61298686265945435 0.52836829423904419 0.51473158597946167
0.67560845613479614 0.54588276147842407 0.54358214139938354
0.73700046539306641 0.56939589977264404 0.57255107164382935
0.48261424899101257 0.59053176641464233 0.51050633192062378
0.54131478071212769 0.61626273393630981 0.53812676668167114
0.60633647441864014 0.64483845233917236 0.56695300340652466
0.67650598287582397 0.66867929697036743 0.59760338068008423
0.74058061838150024 0.6795424222946167 0.62763720750808716
0.7988893985748291 0.69083660840988159 0.65630513429641724
0.85584932565689087 0.71715301275253296 0.68466687202453613
0.6015288233757019 0.74455052614212036 0.62256640195846558
0.65861421823501587 0.76958358287811279 0.64875596761703491
0.72502422332763672 0.79910242557525635 0.67681246995925903
0.80084306001663208 0.82771170139312744 0.70808374881744385
0.86479693651199341 0.8352547287940979 0.73910224437713623
0.91227662563323975 0.84490889310836792 0.76670145988464355
0.95043313503265381 0.87586605548858643 0.79167252779006958
0.72583258152008057 0.89627766609191895 0.73536843061447144
0.78488123416900635 0.90493810176849365 0.76045292615890503
0.84859806299209595 0.92566770315170288 0.78831988573074341
0.91036564111709595 0.95319116115570068 0.8188852071762085
0.95626968145370483 0.96286118030548096 0.84839421510696411
0.9850197434425354 0.9786907434463501 0.87419193983078003
0.99835884571075439 0.99229681491851807 0.90025895833969116
0.84730833768844604 0.99824219942092896 0.84726691246032715
0.90589070320129395 0.98915046453475952 0.87376612424850464
0.96084243059158325 0.99108415842056274 0.89895159006118774
0.9853593111038208 0.99849921464920044 0.92913496494293213
0.99535703659057617 0.99978625774383545 0.96019536256790161
0.99849319458007812 0.99829542636871338 0.98622387647628784
1 0.99989610910415649 0.99843919277191162
0.15572558343410492 0.18370573222637177 0.21947763860225677
0.21679714322090149 0.20447437465190887 0.25089779496192932
0.27607661485671997 0.22446718811988831 0.27899318933486938
0.33504566550254822 0.24530419707298279 0.30619370937347412
0.39858591556549072 0.26862522959709167 0.33263567090034485
0.46151977777481079 0.2919328510761261 0.36148446798324585
0.52471315860748291 0.31299605965614319 0.39223787188529968
0.27796003222465515 0.33144363760948181 0.33617740869522095
0.33844661712646484 0.35218015313148499 0.3674561083316803
0.39713114500045776 0.37415435910224915 0.39448636770248413
0.45692846179008484 0.39740502834320068 0.42085656523704529
0.52015179395675659 0.42040345072746277 0.44782242178916931
0.58539485931396484 0.44141080975532532 0.47687509655952454
0.64757508039474487 0.46269553899765015 0.5067107081413269
0.39497071504592896 0.4786527156829834 0.44764876365661621
0.45523443818092346 0.50365370512008667 0.47840917110443115
0.51720064878463745 0.5296633243560791 0.50647908449172974
0.58179950714111328 0.55339676141738892 0.5338401198387146
0.646980881690979 0.57150411605834961 0.56164151430130005
0.71065080165863037 0.58712691068649292 0.59028053283691406
0.76860135793685913 0.6074867844581604 0.61876136064529419
0.51106792688369751 0.62896609306335449 0.55747705698013306
0.57121092081069946 0.66302138566970825 0.5880887508392334
0.63856542110443115 0.69565278291702271 0.61726051568984985
0.71052801609039307 0.71869224309921265 0.64570820331573486
0.77651453018188477 0.72804111242294312 0.67405742406845093
0.83147042989730835 0.73477780818939209 0.70205748081207275
0.88125020265579224 0.75434720516204834 0.72935420274734497
0.62927371263504028 0.78322452306747437 0.66855865716934204
0.69037610292434692 0.82550376653671265 0.70008981227874756
0.76284468173980713 0.85965299606323242 0.73042178153991699
0.83732712268829346 0.88109296560287476 0.75773453712463379
0.89767050743103027 0.88814431428909302 0.78415989875793457
0.93634659051895142 0.89475584030151367 0.8096926212310791
0.96814686059951782 0.90562307834625244 0.83688652515411377
0.75269865989685059 0.92699402570724487 0.78115189075469971
0.81294870376586914 0.95879757404327393 0.81367754936218262
0.88465189933776855 0.97514170408248901 0.84590822458267212
0.9386894702911377 0.98516726493835449 0.87004125118255615
0.97572958469390869 0.99059939384460449 0.89369750022888184
0.9949222207069397 0.99900442361831665 0.91908502578735352
0.99998563528060913 0.99677592515945435 0.94805395603179932
0.87666171789169312 0.9989970326423645 0.88996285200119019
0.93722927570343018 0.99918001890182495 0.91970455646514893
0.97712677717208862 0.99951738119125366 0.94759064912796021
0.992118239402771 0.99937206506729126 0.97468990087509155
0.99792665243148804 0.993915855884552 0.99456417560577393
0.99928653240203857 0.99290937185287476 0.99996697902679443
1 0.99444812536239624 1
0.1871071457862854 0.22239294648170471 0.26946836709976196
0.24858494102954865 0.24362923204898834 0.30131921172142029
0.30708938837051392 0.26355165243148804 0.32840821146965027
0.36550793051719666 0.28510391712188721 0.35486245155334473
0.42946717143058777 0.30873030424118042 0.3808886706829071
0.49525383114814758 0.33211436867713928 0.40941902995109558
0.55650424957275391 0.35164934396743774 0.43874368071556091
0.30941858887672424 0.37068817019462585 0.38515233993530273
0.37016242742538452 0.39063936471939087 0.41678652167320251
0.42798060178756714 0.41116431355476379 0.44372138381004333
0.4879576563835144 0.43511313199996948 0.46961405873298645
0.55387705564498901 0.46018904447555542 0.49609631299972534
0.61998975276947021 0.48331522941589355 0.52421098947525024
0.67908394336700439 0.50298076868057251 0.55293005704879761
0.42549833655357361 0.51958167552947998 0.49556690454483032
0.48551902174949646 0.54266655445098877 0.52726119756698608
0.54648882150650024 0.56519466638565063 0.55553525686264038
0.61298459768295288 0.58933103084564209 0.58230340480804443
0.6829492449760437 0.6127510666847229 0.60918110609054565
0.74803346395492554 0.63242149353027344 0.63678491115570068
0.80225288867950439 0.65082693099975586 0.66419762372970581
0.54015994071960449 0.67036789655685425 0.60394966602325439
0.59984660148620605 0.70529085397720337 0.63603609800338745
0.66536378860473633 0.73434466123580933 0.66496044397354126
0.74021917581558228 0.75782746076583862 0.69230633974075317
0.81357723474502563 0.77379506826400757 0.71989530324935913
0.8714299201965332 0.78045916557312012 0.74797827005386353
0.91720354557037354 0.79582750797271729 0.77512091398239136
0.65781575441360474 0.82219451665878296 0.7136160135269165
0.71764481067657471 0.86912202835083008 0.74690055847167969
0.78494977951049805 0.9035332202911377 0.7749326229095459
0.86159241199493408 0.9238351583480835 0.8009408712387085
0.92912763357162476 0.93032932281494141 0.82869118452072144
0.96606707572937012 0.92379939556121826 0.85699081420898438
0.99104958772659302 0.92401230335235596 0.88523274660110474
0.78213566541671753 0.95695173740386963 0.82527798414230347
0.84033340215682983 0.98822367191314697 0.86011749505996704
0.90273046493530273 0.99850988388061523 0.88979578018188477
0.95777708292007446 0.99995213747024536 0.91370093822479248
0.99436658620834351 1 0.93981468677520752
1 0.99980515241622925 0.96904104948043823
1 0.99288648366928101 0.99145603179931641
0.90726387500762939 0.99994629621505737 0.93188238143920898
0.96341949701309204 1 0.96518403291702271
0.99416840076446533 1 0.99066567420959473
0.99991780519485474 0.99920111894607544 0.99942374229431152
1 0.99428892135620117 1
1 0.99195265769958496 1
1 0.99571788311004639 1
0.21543040871620178 0.25772523880004883 0.31634226441383362
0.27855661511421204 0.28124597668647766 0.34917482733726501
0.33739683032035828 0.30132105946540833 0.37702655792236328
0.39675083756446838 0.32357659935951233 0.40322014689445496
0.46069145202636719 0.34733307361602783 0.42989471554756165
0.52577763795852661 0.36939758062362671 0.45750448107719421
0.58391135931015015 0.38548398017883301 0.48490285873413086
0.33848264813423157 0.4079439640045166 0.42999297380447388
0.40112754702568054 0.42647206783294678 0.46206066012382507
0.45878085494041443 0.4458388090133667 0.49095579981803894
0.51843827962875366 0.47059562802314758 0.51784884929656982
0.58549553155899048 0.49807122349739075 0.54454845190048218
0.65060925483703613 0.52226918935775757 0.57178193330764771
0.70438086986541748 0.53824317455291748 0.5986020565032959
0.4545588493347168 0.56013870239257812 0.54081714153289795
0.51535981893539429 0.57799661159515381 0.57330507040023804
0.57524019479751587 0.5930059552192688 0.60304826498031616
0.64183926582336426 0.6167140007019043 0.63057154417037964
0.71452301740646362 0.6488000750541687 0.65682649612426758
0.77972948551177979 0.67384040355682373 0.68339061737060547
0.82926356792449951 0.68913799524307251 0.70944786071777344
0.56939435005187988 0.71769118309020996 0.64968115091323853
0.62883901596069336 0.73953640460968018 0.68194210529327393
0.69053930044174194 0.75308680534362793 0.71189159154891968
0.76511520147323608 0.77454006671905518 0.73984384536743164
0.84313440322875977 0.80650955438613892 0.76656335592269897
0.9027373194694519 0.82256853580474854 0.79413002729415894
0.95252323150634766 0.83658164739608765 0.82145357131958008
0.68747049570083618 0.87522703409194946 0.75883418321609497
0.74630343914031982 0.8963809609413147 0.79101675748825073
0.80572569370269775 0.9158671498298645 0.81753551959991455
0.88109695911407471 0.93684720993041992 0.84477537870407104
0.9544985294342041 0.95473802089691162 0.87446439266204834
0.98056268692016602 0.94584429264068604 0.90348970890045166
0.99988150596618652 0.94150161743164062 0.93244326114654541
0.81114798784255981 0.99147927761077881 0.86823374032974243
0.87025070190429688 0.99234557151794434 0.90232241153717041
0.92525887489318848 0.99707293510437012 0.93203592300415039
0.98047059774398804 0.99994552135467529 0.96065890789031982
0.99998563528060913 1 0.98461508750915527
1 0.99940353631973267 0.9978453516960144
1 0.99219858646392822 1
0.93385422229766846 1 0.97302341461181641
0.98508340120315552 0.99992424249649048 0.99692153930664062
0.99997341632843018 0.99755722284317017 1
1 0.99738395214080811 1
1 0.99995100498199463 1
1 1 1
1 1 1
