assets/lut/others faded vivid.cube
# Created by: G'MIC (https://gmic.eu)
TITLE "faded_vivid"
# LUT size
LUT_3D_SIZE 5
# Data domain
DOMAIN_MIN 0.0 0.0 0.0
DOMAIN_MAX 1.0 1.0 1.0
# LUT data points
0.069671303033828735 0.06051165983080864 0.15601706504821777
0.1576194167137146 0.059847678989171982 0.15403357148170471
0.44388309121131897 0.059484638273715973 0.1560291200876236
0.70931404829025269 0.063842996954917908 0.15986162424087524
0.89177942276000977 0.05760834738612175 0.15634669363498688
0.051659483462572098 0.32204565405845642 0.15355792641639709
0.15854264795780182 0.33171814680099487 0.15063206851482391
0.44125670194625854 0.32208347320556641 0.15123552083969116
0.70936840772628784 0.32016387581825256 0.15420694649219513
0.88747882843017578 0.33170327544212341 0.1504829078912735
0.058202467858791351 0.56003767251968384 0.15245097875595093
0.15760819613933563 0.55989843606948853 0.15262873470783234
0.44669118523597717 0.56040304899215698 0.15554161369800568
0.71203899383544922 0.55950063467025757 0.15122415125370026
0.88911467790603638 0.56228148937225342 0.15450765192508698
0.067422680556774139 0.73808985948562622 0.15410031378269196
0.15301162004470825 0.73785287141799927 0.15404412150382996
0.45047926902770996 0.73258846998214722 0.15422654151916504
0.71377700567245483 0.73604041337966919 0.1563725471496582
0.8890068531036377 0.73774337768554688 0.15527041256427765
0.062617279589176178 0.8908085823059082 0.15954171121120453
0.15327206254005432 0.89111196994781494 0.15537296235561371
0.44458803534507751 0.89385503530502319 0.15820819139480591
0.70266753435134888 0.89222198724746704 0.15925836563110352
0.89135521650314331 0.89061897993087769 0.15693087875843048
0.049770742654800415 0.051449406892061234 0.38141018152236938
0.15721328556537628 0.056501038372516632 0.37959557771682739
0.44099587202072144 0.058169420808553696 0.37682735919952393
0.70886319875717163 0.057495761662721634 0.37734851241111755
0.89135622978210449 0.056999895721673965 0.38024726510047913
0.049679342657327652 0.3229888379573822 0.38346192240715027
0.15873308479785919 0.32361459732055664 0.37616661190986633
0.43714398145675659 0.31756889820098877 0.37378731369972229
0.70460671186447144 0.3239477276802063 0.3790290355682373
0.89279335737228394 0.32232636213302612 0.37970060110092163
0.051974818110466003 0.56165432929992676 0.38172954320907593
0.16362391412258148 0.56074327230453491 0.37902534008026123
0.44358012080192566 0.56047517061233521 0.38151377439498901
0.71146214008331299 0.56011307239532471 0.38038420677185059
0.89232939481735229 0.56054800748825073 0.3748231828212738
0.063135258853435516 0.73887288570404053 0.37662285566329956
0.14732185006141663 0.73681259155273438 0.37575814127922058
0.44214671850204468 0.73390167951583862 0.37748786807060242
0.71598607301712036 0.73691707849502563 0.38120895624160767
0.8902168869972229 0.73649948835372925 0.37875041365623474
0.071650050580501556 0.89347344636917114 0.37539258599281311
0.15643018484115601 0.89156037569046021 0.38006994128227234
0.44129157066345215 0.89292663335800171 0.38047245144844055
0.70750600099563599 0.89025622606277466 0.38298431038856506
0.88907915353775024 0.89289218187332153 0.37882557511329651
0.052151773124933243 0.060152556747198105 0.54825705289840698
0.16110004484653473 0.05991656705737114 0.5520516037940979
0.44418665766716003 0.057501982897520065 0.55098903179168701
0.70829778909683228 0.058224786072969437 0.55346560478210449
0.89378654956817627 0.057151436805725098 0.5540434718132019
0.056233365088701248 0.3239457905292511 0.55398255586624146
0.15637354552745819 0.32766386866569519 0.54911649227142334
0.43708068132400513 0.31656882166862488 0.54857063293457031
0.70915895700454712 0.31957301497459412 0.54966449737548828
0.89522057771682739 0.32071048021316528 0.55270475149154663
0.051802989095449448 0.56132394075393677 0.55400151014328003
0.16833393275737762 0.56404048204421997 0.55451840162277222
0.4406207799911499 0.56292092800140381 0.55294120311737061
0.70461750030517578 0.56115990877151489 0.55248701572418213
0.88918071985244751 0.56127423048019409 0.55012428760528564
0.049727659672498703 0.73631244897842407 0.55026185512542725
0.16306576132774353 0.73622804880142212 0.55651986598968506
0.44205945730209351 0.73457014560699463 0.54953241348266602
0.70343482494354248 0.73783320188522339 0.54952764511108398
0.88969248533248901 0.73689138889312744 0.55256354808807373
0.062756165862083435 0.8902776837348938 0.54958003759384155
0.15712672472000122 0.8949316143989563 0.55636084079742432
0.44002506136894226 0.89277642965316772 0.55390304327011108
0.70570415258407593 0.89023303985595703 0.55293148756027222
0.88957518339157104 0.89355617761611938 0.55439448356628418
0.055510979145765305 0.058352556079626083 0.64070510864257812
0.15589059889316559 0.059813972562551498 0.6342628002166748
0.44610688090324402 0.06022147461771965 0.63980841636657715
0.70929944515228271 0.061643008142709732 0.63720422983169556
0.89246547222137451 0.054449118673801422 0.63663303852081299
0.049191746860742569 0.32158729434013367 0.63384169340133667
0.15496887266635895 0.33017569780349731 0.64171063899993896
0.44693401455879211 0.31754159927368164 0.63311463594436646
0.71303701400756836 0.32359877228736877 0.63527572154998779
0.89211833477020264 0.32027658820152283 0.63825321197509766
0.054957237094640732 0.56027853488922119 0.63997828960418701
0.16812075674533844 0.56207877397537231 0.64369946718215942
0.44251912832260132 0.56357204914093018 0.6369633674621582
0.70546442270278931 0.56137889623641968 0.64271461963653564
0.88897061347961426 0.56546920537948608 0.63880044221878052
0.052177354693412781 0.7333797812461853 0.64251482486724854
0.15882803499698639 0.73579919338226318 0.64103835821151733
0.43862819671630859 0.73759627342224121 0.637928307056427
0.71061509847640991 0.7364686131477356 0.63835841417312622
0.89236611127853394 0.73332995176315308 0.64204251766204834
0.065865367650985718 0.89214944839477539 0.63910812139511108
0.15165364742279053 0.89289218187332153 0.63707554340362549
0.44252607226371765 0.89034062623977661 0.63541328907012939
0.7087942361831665 0.89036208391189575 0.64116919040679932
0.89199841022491455 0.89284348487854004 0.6390223503112793
0.050027661025524139 0.060583047568798065 0.69889706373214722
0.15610234439373016 0.05148397758603096 0.69721055030822754
0.44646731019020081 0.060437954962253571 0.69921916723251343
0.70863145589828491 0.048956837505102158 0.69696396589279175
0.89460664987564087 0.064851336181163788 0.70258373022079468
0.036928065121173859 0.31955376267433167 0.6910940408706665
0.15003260970115662 0.33163249492645264 0.69047653675079346
0.4413236677646637 0.32509931921958923 0.69589245319366455
0.70715570449829102 0.32339257001876831 0.70142060518264771
0.89316737651824951 0.32182911038398743 0.69702261686325073
0.051930282264947891 0.56192553043365479 0.69353216886520386
0.1499602347612381 0.56146240234375 0.6940993070602417
0.44147494435310364 0.56043988466262817 0.69427180290222168
0.70134186744689941 0.55888307094573975 0.7033199667930603
0.89199173450469971 0.55977284908294678 0.69431710243225098
0.06355738639831543 0.73766517639160156 0.69880521297454834
0.14711253345012665 0.7351568341255188 0.69358581304550171
0.42573380470275879 0.73634719848632812 0.69476878643035889
0.70223599672317505 0.73513525724411011 0.70068657398223877
0.89057421684265137 0.73249703645706177 0.7043641209602356
0.053219545632600784 0.89001697301864624 0.71197199821472168
0.15899191796779633 0.89120930433273315 0.70553058385848999
0.44032877683639526 0.89106249809265137 0.69852322340011597
0.7033456563949585 0.89162957668304443 0.70349997282028198
0.89252030849456787 0.89357107877731323 0.70548409223556519
