assets/lut/others mute shift.cube
# Created by: G'MIC (https://gmic.eu)
TITLE "mute_shift"
# LUT size
LUT_3D_SIZE 13
# Data domain
DOMAIN_MIN 0.0 0.0 0.0
DOMAIN_MAX 1.0 1.0 1.0
# LUT data points
0.044081129133701324 0.038784429430961609 0.065112203359603882
0.10146049410104752 0.06099821999669075 0.10427063703536987
0.14719770848751068 0.095166988670825958 0.18176668882369995
0.19294975697994232 0.13854207098484039 0.26666852831840515
0.24390490353107452 0.20628684759140015 0.34604060649871826
0.29474624991416931 0.27173319458961487 0.42083090543746948
0.35575857758522034 0.33931148052215576 0.49505600333213806
0.41396942734718323 0.39480957388877869 0.56961959600448608
0.4660734236240387 0.43542248010635376 0.64813929796218872
0.52182292938232422 0.49229750037193298 0.72859847545623779
0.57987624406814575 0.55944591760635376 0.80699265003204346
0.6193811297416687 0.59416848421096802 0.88569790124893188
0.67255163192749023 0.64765340089797974 0.95778465270996094
0.05640869215130806 0.10748207569122314 0.053131192922592163
0.11089727282524109 0.098782390356063843 0.093757390975952148
0.16686500608921051 0.12664292752742767 0.16702423989772797
0.21662898361682892 0.16874101758003235 0.2465597540140152
0.2723185122013092 0.24249169230461121 0.33139777183532715
0.33220982551574707 0.31587076187133789 0.41763603687286377
0.39643418788909912 0.36838746070861816 0.49962064623832703
0.45472383499145508 0.41550225019454956 0.57526975870132446
0.51097410917282104 0.46140861511230469 0.65246528387069702
0.56068950891494751 0.52192360162734985 0.72965341806411743
0.61176955699920654 0.58063453435897827 0.8067164421081543
0.6661490797996521 0.62224459648132324 0.88361382484436035
0.71788489818572998 0.66860020160675049 0.95451843738555908
0.051651779562234879 0.18591701984405518 0.059010881930589676
0.15051840245723724 0.18463392555713654 0.094114668667316437
0.20790973305702209 0.18060770630836487 0.15579158067703247
0.24266576766967773 0.19150424003601074 0.22499766945838928
0.30601578950881958 0.2514835000038147 0.31625506281852722
0.3719143271446228 0.31760069727897644 0.40818360447883606
0.4406701922416687 0.37144461274147034 0.49670052528381348
0.50348162651062012 0.42087438702583313 0.57850152254104614
0.55989885330200195 0.47119975090026855 0.65527915954589844
0.60849839448928833 0.52690398693084717 0.72970801591873169
0.65974909067153931 0.58297950029373169 0.80598890781402588
0.7144925594329834 0.63358980417251587 0.8820728063583374
0.76776307821273804 0.68293565511703491 0.95665949583053589
0.05156257376074791 0.2632308304309845 0.061462104320526123
0.1895393431186676 0.26444911956787109 0.095575965940952301
0.25701847672462463 0.24304665625095367 0.14838552474975586
0.27617678046226501 0.21603463590145111 0.20633800327777863
0.33698377013206482 0.25660407543182373 0.29564991593360901
0.40355086326599121 0.31002423167228699 0.38819777965545654
0.47339475154876709 0.36426427960395813 0.47920802235603333
0.54523122310638428 0.41651523113250732 0.57094579935073853
0.60750973224639893 0.47059884667396545 0.65604537725448608
0.65537810325622559 0.52719020843505859 0.73150390386581421
0.70907020568847656 0.58129477500915527 0.80620437860488892
0.76510453224182129 0.63248246908187866 0.88231134414672852
0.81286627054214478 0.68060892820358276 0.95580554008483887
0.050608854740858078 0.33959931135177612 0.052930209785699844
0.19166716933250427 0.33956626057624817 0.098340369760990143
0.31199422478675842 0.32746028900146484 0.14377908408641815
0.32692447304725647 0.27803874015808105 0.19586269557476044
0.35636049509048462 0.26996544003486633 0.26075494289398193
0.41109150648117065 0.3068961501121521 0.34338507056236267
0.48319739103317261 0.3600253164768219 0.43980982899665833
0.56198889017105103 0.41704502701759338 0.54307067394256592
0.635794997215271 0.47204399108886719 0.64315205812454224
0.69764381647109985 0.52537316083908081 0.73090857267379761
0.75539040565490723 0.57965767383575439 0.80735945701599121
0.81587958335876465 0.63175112009048462 0.88424408435821533
0.86182862520217896 0.68197685480117798 0.95600926876068115
0.047049295157194138 0.41645455360412598 0.056889284402132034
0.19679908454418182 0.41733086109161377 0.096398249268531799
0.34402456879615784 0.4144948422908783 0.14249978959560394
0.39560586214065552 0.37941443920135498 0.19562138617038727
0.40783298015594482 0.33360788226127625 0.24770139157772064
0.42797324061393738 0.31825694441795349 0.30562517046928406
0.49051198363304138 0.36064815521240234 0.39937540888786316
0.56645619869232178 0.41694945096969604 0.50147610902786255
0.6420435905456543 0.47006610035896301 0.60028731822967529
0.71787416934967041 0.52406430244445801 0.70361006259918213
0.78520631790161133 0.5795741081237793 0.79489380121231079
0.8463476300239563 0.63423454761505127 0.87403237819671631
0.90095692873001099 0.68603157997131348 0.95272928476333618
0.05866534635424614 0.4949226975440979 0.055879600346088409
0.21236526966094971 0.49763190746307373 0.092235922813415527
0.36002078652381897 0.49709156155586243 0.14522546529769897
0.46201962232589722 0.47740012407302856 0.19833280146121979
0.48390856385231018 0.41642481088638306 0.24770881235599518
0.49226409196853638 0.37948298454284668 0.30161958932876587
0.5174286961555481 0.38011687994003296 0.37057045102119446
0.57951623201370239 0.42157107591629028 0.46104875206947327
0.64823049306869507 0.47023418545722961 0.55292236804962158
0.71892774105072021 0.52306485176086426 0.65404915809631348
0.79548299312591553 0.5799708366394043 0.76095324754714966
0.86781597137451172 0.63706851005554199 0.85673171281814575
0.93314152956008911 0.68605548143386841 0.94057857990264893
0.056842535734176636 0.57372021675109863 0.047972943633794785
0.20421017706394196 0.57292717695236206 0.087775349617004395
0.37240833044052124 0.57162648439407349 0.14738331735134125
0.5049317479133606 0.56593614816665649 0.20034195482730865
0.5564122200012207 0.52492994070053101 0.25074610114097595
0.56779265403747559 0.47665831446647644 0.30609562993049622
0.57349938154220581 0.43810999393463135 0.36148819327354431
0.60383754968643188 0.43839371204376221 0.43082958459854126
0.66088825464248657 0.48099055886268616 0.51822596788406372
0.72532933950424194 0.52470874786376953 0.61403393745422363
0.79910701513290405 0.57605487108230591 0.71766138076782227
0.87890571355819702 0.63510072231292725 0.82254385948181152
0.95133495330810547 0.68427425622940063 0.91208040714263916
0.064292773604393005 0.6513710618019104 0.051211263984441757
0.22033970057964325 0.6503487229347229 0.093264393508434296
0.389089435338974 0.64605695009231567 0.14785517752170563
0.52379757165908813 0.64243036508560181 0.20252649486064911
0.61940282583236694 0.63282996416091919 0.25341689586639404
0.64035803079605103 0.5820920467376709 0.30954977869987488
0.645072340965271 0.52620166540145874 0.36239802837371826
0.65349805355072021 0.49241411685943604 0.41811248660087585
0.67668169736862183 0.49271953105926514 0.48355376720428467
0.73272532224655151 0.52930200099945068 0.57409340143203735
0.79974496364593506 0.57387566566467285 0.67009621858596802
0.87842327356338501 0.63042688369750977 0.77126169204711914
0.94960665702819824 0.68092942237854004 0.86233198642730713
0.070766165852546692 0.72622197866439819 0.052598107606172562
0.23972116410732269 0.72551381587982178 0.096476443111896515
0.39605444669723511 0.7226104736328125 0.14467816054821014
0.5309520959854126 0.71734052896499634 0.20454953610897064
0.64517998695373535 0.71130728721618652 0.25615647435188293
0.70489019155502319 0.67450666427612305 0.31226381659507751
0.72096890211105347 0.61348044872283936 0.36577495932579041
0.72711551189422607 0.57148998975753784 0.42035055160522461
0.73076421022415161 0.54867327213287354 0.47440680861473083
0.74444961547851562 0.54186040163040161 0.53159052133560181
0.79777288436889648 0.57320255041122437 0.61680662631988525
0.87973976135253906 0.62899243831634521 0.72354131937026978
0.95202231407165527 0.67845863103866577 0.81599026918411255
0.077945351600646973 0.80031931400299072 0.054730433970689774
0.2404026985168457 0.79857248067855835 0.095532089471817017
0.39782276749610901 0.79899311065673828 0.14507630467414856
0.54669570922851562 0.79757589101791382 0.20107781887054443
0.67713528871536255 0.79568427801132202 0.2556111216545105
0.77167367935180664 0.77843296527862549 0.3123011589050293
0.79935669898986816 0.71575963497161865 0.36783650517463684
0.80559021234512329 0.65724354982376099 0.42291989922523499
0.80552190542221069 0.62347149848937988 0.47478580474853516
0.79848474264144897 0.59399545192718506 0.52243953943252563
0.81597834825515747 0.58985096216201782 0.58385246992111206
0.88293576240539551 0.6318817138671875 0.6797860860824585
0.95263755321502686 0.67850685119628906 0.77037698030471802
0.061657294631004333 0.87796062231063843 0.043757330626249313
0.23691447079181671 0.87549483776092529 0.093495838344097137
0.41348353028297424 0.8768538236618042 0.14566518366336823
0.56698429584503174 0.87683862447738647 0.20152220129966736
0.7041860818862915 0.87610083818435669 0.25594118237495422
0.8219151496887207 0.87440371513366699 0.31186982989311218
0.8721422553062439 0.83100497722625732 0.36671048402786255
0.8799402117729187 0.75671672821044922 0.41919666528701782
0.87952780723571777 0.69732052087783813 0.47446420788764954
0.87272882461547852 0.6685560941696167 0.53090977668762207
0.87668830156326294 0.64863008260726929 0.58598023653030396
0.89971548318862915 0.64809983968734741 0.64693480730056763
0.95035636425018311 0.67732119560241699 0.71995919942855835
0.063117802143096924 0.9526599645614624 0.040504936128854752
0.23568473756313324 0.94998854398727417 0.089998148381710052
0.41761085391044617 0.95017075538635254 0.14688295125961304
0.57949209213256836 0.94993376731872559 0.20543694496154785
0.71146577596664429 0.94581514596939087 0.26095706224441528
0.83512711524963379 0.94670426845550537 0.31367978453636169
0.93271100521087646 0.93980050086975098 0.36340931057929993
0.9502640962600708 0.87976157665252686 0.41562381386756897
0.94778263568878174 0.79337656497955322 0.4704490602016449
0.94214951992034912 0.73844873905181885 0.53060054779052734
0.94344204664230347 0.70711088180541992 0.58938950300216675
0.95149910449981689 0.68903768062591553 0.64318656921386719
0.95154529809951782 0.67859375476837158 0.68771326541900635
0.044224098324775696 0.039475787431001663 0.10971934348344803
0.10200720280408859 0.049512602388858795 0.11859099566936493
0.15288031101226807 0.079958491027355194 0.18519742786884308
0.19240899384021759 0.12849858403205872 0.26770162582397461
0.24341312050819397 0.19253279268741608 0.3448677659034729
0.29033142328262329 0.25129467248916626 0.41740584373474121
0.34725019335746765 0.30729192495346069 0.49685114622116089
0.40084719657897949 0.35847958922386169 0.57429838180541992
0.45380124449729919 0.40964013338088989 0.65196490287780762
0.50728708505630493 0.4638008177280426 0.73049271106719971
0.55953484773635864 0.52413356304168701 0.80688017606735229
0.60393607616424561 0.5758475661277771 0.88640666007995605
0.65746933221817017 0.62844431400299072 0.95818430185317993
0.042675361037254333 0.10911579430103302 0.11515018343925476
0.10539741069078445 0.1133594736456871 0.1232866644859314
0.1680624932050705 0.13030874729156494 0.17948201298713684
0.21856100857257843 0.17424999177455902 0.25865462422370911
0.27260234951972961 0.24523867666721344 0.33806595206260681
0.32618874311447144 0.31331300735473633 0.41567555069923401
0.38366886973381042 0.36430680751800537 0.49682343006134033
0.43719279766082764 0.41207709908485413 0.57280421257019043
0.49058723449707031 0.4623282253742218 0.64956909418106079
0.54674273729324341 0.51934224367141724 0.7288820743560791
0.59774959087371826 0.57144254446029663 0.80266696214675903
0.64946657419204712 0.61581528186798096 0.8795771598815918
0.70210504531860352 0.67898797988891602 0.95468312501907349
0.036086887121200562 0.18530195951461792 0.11298421025276184
0.1096542626619339 0.1892586350440979 0.12402839213609695
0.19078001379966736 0.18859703838825226 0.17453594505786896
0.24445436894893646 0.20684966444969177 0.24390803277492523
0.30410340428352356 0.26597720384597778 0.32681787014007568
0.36297518014907837 0.32789236307144165 0.40982481837272644
0.42129355669021606 0.38273152709007263 0.49215483665466309
0.47824960947036743 0.43513807654380798 0.57196909189224243
0.53651291131973267 0.48831069469451904 0.65170562267303467
0.59164190292358398 0.54293286800384521 0.72790592908859253
0.64307141304016113 0.59458845853805542 0.7998085618019104
0.69571822881698608 0.64281368255615234 0.87543922662734985
0.74626660346984863 0.69765615463256836 0.95140063762664795
0.037147164344787598 0.26362043619155884 0.11094080656766891
0.12703597545623779 0.26352605223655701 0.12506885826587677
0.23622964322566986 0.25831010937690735 0.17075322568416595
0.27616512775421143 0.2379319965839386 0.22825236618518829
0.33280807733535767 0.27669966220855713 0.31075266003608704
0.39367341995239258 0.32742181420326233 0.39548793435096741
0.45580959320068359 0.38235616683959961 0.48204439878463745
0.52086466550827026 0.43755525350570679 0.569896399974823
0.58418887853622437 0.49112036824226379 0.65451860427856445
0.63622373342514038 0.54552757740020752 0.72815889120101929
0.68884384632110596 0.59842658042907715 0.800148606300354
0.74228125810623169 0.64781755208969116 0.87544733285903931
0.78675037622451782 0.69355314970016479 0.94806545972824097
0.039769761264324188 0.34069010615348816 0.11490433663129807
0.13329502940177917 0.34321355819702148 0.12969914078712463
0.26663336157798767 0.33611425757408142 0.16907863318920135
0.32394492626190186 0.30835834145545959 0.22309152781963348
0.35752317309379578 0.30000922083854675 0.28779891133308411
0.40945997834205627 0.32943931221961975 0.36662530899047852
0.47818046808242798 0.38294968008995056 0.45999637246131897
0.55152875185012817 0.43921902775764465 0.55701512098312378
0.61823683977127075 0.491829514503479 0.64664804935455322
0.67429810762405396 0.54482203722000122 0.72590351104736328
0.73090004920959473 0.5977785587310791 0.80106139183044434
0.78754281997680664 0.65002048015594482 0.87881612777709961
0.83157533407211304 0.69721138477325439 0.94852674007415771
0.039662905037403107 0.41753074526786804 0.11388912051916122
0.13398221135139465 0.41934695839881897 0.12615564465522766
0.28196224570274353 0.41630402207374573 0.16462959349155426
0.36872008442878723 0.39547637104988098 0.22034138441085815
0.40277621150016785 0.36216095089912415 0.27600085735321045
0.42964959144592285 0.34563982486724854 0.33580297231674194
0.49213609099388123 0.38358238339424133 0.42547750473022461
0.568839430809021 0.43918618559837341 0.52858924865722656
0.63664650917053223 0.49205335974693298 0.61909288167953491
0.7020832896232605 0.54448956251144409 0.70710533857345581
0.76560980081558228 0.59698355197906494 0.79265958070755005
0.82452553510665894 0.65170842409133911 0.87321949005126953
0.87773340940475464 0.7025333046913147 0.95164179801940918
0.041562158614397049 0.49540996551513672 0.1139482706785202
0.13033713400363922 0.49552473425865173 0.12021991610527039
0.27542871236801147 0.49698284268379211 0.16702933609485626
0.41210654377937317 0.4866759181022644 0.21993520855903625
0.46545571088790894 0.4506072998046875 0.27515307068824768
0.4862377941608429 0.41265523433685303 0.32822012901306152
0.51258349418640137 0.39695024490356445 0.38792875409126282
0.57519108057022095 0.43819722533226013 0.48057389259338379
0.64959084987640381 0.49479526281356812 0.57809793949127197
0.72011905908584595 0.54715490341186523 0.67287075519561768
0.79126375913619995 0.5975612998008728 0.77222365140914917
0.85666191577911377 0.65149801969528198 0.86199891567230225
0.91667801141738892 0.7043800950050354 0.94599622488021851
0.041991755366325378 0.57515954971313477 0.11800118535757065
0.1244940385222435 0.5747218132019043 0.12263698130846024
0.27561086416244507 0.5721893310546875 0.16761837899684906
0.4373416006565094 0.56885606050491333 0.2195165753364563
0.53183478116989136 0.54958540201187134 0.27485936880111694
0.56394821405410767 0.51169282197952271 0.32833185791969299
0.57267826795578003 0.46908938884735107 0.37920969724655151
0.59594970941543579 0.46089920401573181 0.44429588317871094
0.65353691577911377 0.49715954065322876 0.53273546695709229
0.7251695990562439 0.54675078392028809 0.63096213340759277
0.79887288808822632 0.59678512811660767 0.73312443494796753
0.87794667482376099 0.6514056921005249 0.83667045831680298
0.94744068384170532 0.70403516292572021 0.92702788114547729
0.047499414533376694 0.6524166464805603 0.11799269914627075
0.13748197257518768 0.65017086267471313 0.12637011706829071
0.28867936134338379 0.64469021558761597 0.16704845428466797
0.44897204637527466 0.64252573251724243 0.21975602209568024
0.57964354753494263 0.64351123571395874 0.27627119421958923
0.64348471164703369 0.61378246545791626 0.33003330230712891
0.64656764268875122 0.55712199211120605 0.38044726848602295
0.65358036756515503 0.52162772417068481 0.43474498391151428
0.67225474119186401 0.51304394006729126 0.49973827600479126
0.72744178771972656 0.54837524890899658 0.58760935068130493
0.79903888702392578 0.59681975841522217 0.68648290634155273
0.87916713953018188 0.65243428945541382 0.79027849435806274
0.95370882749557495 0.70303559303283691 0.88532602787017822
0.04163074865937233 0.72745770215988159 0.1145438551902771
0.1462179571390152 0.7244868278503418 0.12623818218708038
0.29454272985458374 0.71980029344558716 0.16528838872909546
0.46370050311088562 0.71856176853179932 0.22025679051876068
0.59585696458816528 0.72096937894821167 0.27530944347381592
0.69193369150161743 0.70595705509185791 0.32948753237724304
0.71786892414093018 0.65201294422149658 0.38168290257453918
0.72378236055374146 0.597370445728302 0.43432313203811646
0.73072648048400879 0.56754708290100098 0.49183589220046997
0.75255054235458374 0.57116192579269409 0.55787384510040283
0.80183517932891846 0.59883725643157959 0.64003956317901611
0.88003718852996826 0.65218460559844971 0.74348855018615723
0.9511030912399292 0.70043665170669556 0.83647078275680542
0.040861494839191437 0.80193036794662476 0.10965541750192642
0.13717861473560333 0.80027651786804199 0.11850777268409729
0.29061457514762878 0.79797101020812988 0.16198720037937164
0.4677276611328125 0.79543358087539673 0.22018527984619141
0.60802525281906128 0.79758042097091675 0.274727463722229
0.73072671890258789 0.79422402381896973 0.32996842265129089
0.79887270927429199 0.76049882173538208 0.38446983695030212
0.80161464214324951 0.69658386707305908 0.4386633038520813
0.80226677656173706 0.64449399709701538 0.49355599284172058
0.80811160802841187 0.61972641944885254 0.54901635646820068
0.8252025842666626 0.61472153663635254 0.6072685718536377
0.8823009729385376 0.64940881729125977 0.69413918256759644
0.95490747690200806 0.70147180557250977 0.79312962293624878
0.043705150485038757 0.87738829851150513 0.10753054171800613
0.14219677448272705 0.87655246257781982 0.11952085047960281
0.30144578218460083 0.87642163038253784 0.16321317851543427
0.48064395785331726 0.87513875961303711 0.21984691917896271
0.6269715428352356 0.87616342306137085 0.2756730318069458
0.76072448492050171 0.8756060004234314 0.33383175730705261
0.84845739603042603 0.85528343915939331 0.38531124591827393
0.87341123819351196 0.79728764295578003 0.43954205513000488
0.87648153305053711 0.73310774564743042 0.49491009116172791
0.87473541498184204 0.68254834413528442 0.54800021648406982
0.87908506393432617 0.66096228361129761 0.59875500202178955
0.89739769697189331 0.66137886047363281 0.65614819526672363
0.95156717300415039 0.69952511787414551 0.74245947599411011
0.042261116206645966 0.95023465156555176 0.10374858975410461
0.14892640709877014 0.94986701011657715 0.12195581197738647
0.30698105692863464 0.9519311785697937 0.16555441915988922
0.47908106446266174 0.95134776830673218 0.22367163002490997
0.63078314065933228 0.95042616128921509 0.27970564365386963
0.77037566900253296 0.95177310705184937 0.33180448412895203
0.87965196371078491 0.94592875242233276 0.38212165236473083
0.94236034154891968 0.91171228885650635 0.43342038989067078
0.94844013452529907 0.8327106237411499 0.48747283220291138
0.94412630796432495 0.76650476455688477 0.54480063915252686
0.94416773319244385 0.72399556636810303 0.6047903299331665
0.9471365213394165 0.70537132024765015 0.65785092115402222
0.9551849365234375 0.70449107885360718 0.713978111743927
0.047140426933765411 0.038395285606384277 0.18766164779663086
0.10570260137319565 0.042136039584875107 0.18526895344257355
0.17419001460075378 0.046572141349315643 0.19995354115962982
0.21332606673240662 0.092833787202835083 0.26592770218849182
0.25353005528450012 0.14634399116039276 0.34194925427436829
0.29991984367370605 0.2009737640619278 0.41912364959716797
0.34514105319976807 0.25158900022506714 0.49774652719497681
0.39444008469581604 0.30719774961471558 0.57440280914306641
0.44302093982696533 0.35858666896820068 0.65051907300949097
0.48906183242797852 0.40997201204299927 0.73107659816741943
0.543132483959198 0.47281789779663086 0.80298727750778198
0.5933648943901062 0.52921897172927856 0.8769150972366333
0.64203274250030518 0.57647097110748291 0.95565801858901978
0.0397186279296875 0.11012417823076248 0.1880413293838501
0.10685719549655914 0.11516078561544418 0.18737927079200745
0.17627361416816711 0.12418247014284134 0.20579820871353149
0.2273600846529007 0.16321638226509094 0.26869788765907288
0.2778075635433197 0.21838009357452393 0.3426869809627533
0.32810282707214355 0.2730276882648468 0.41964876651763916
0.37694674730300903 0.32473447918891907 0.49793204665184021
0.42656177282333374 0.37585267424583435 0.57274371385574341
0.47761419415473938 0.42924398183822632 0.64914631843566895
0.53129059076309204 0.48363202810287476 0.7272149920463562
0.58060795068740845 0.53844696283340454 0.7996031641960144
0.62809890508651733 0.59078985452651978 0.87568122148513794
0.68040519952774048 0.64503687620162964 0.95357489585876465
0.037588529288768768 0.1850726455450058 0.18791955709457397
0.10993858426809311 0.18957003951072693 0.18978467583656311
0.18319958448410034 0.19601574540138245 0.20627398788928986
0.24558883905410767 0.21585355699062347 0.26189461350440979
0.29898247122764587 0.27756598591804504 0.33733558654785156
0.35223644971847534 0.33468148112297058 0.41553482413291931
0.40765854716300964 0.3798084557056427 0.49435776472091675
0.4598543643951416 0.42704200744628906 0.57116782665252686
0.51610863208770752 0.48776742815971375 0.64919722080230713
0.5718192458152771 0.54425925016403198 0.72458022832870483
0.62420713901519775 0.60086435079574585 0.79653358459472656
0.67331826686859131 0.64163237810134888 0.87333953380584717
0.72248315811157227 0.69010031223297119 0.95202982425689697
0.038947731256484985 0.26268914341926575 0.18555727601051331
0.11262235790491104 0.26290547847747803 0.18728311359882355
0.19191324710845947 0.26399895548820496 0.19821840524673462
0.26789644360542297 0.25754746794700623 0.25054511427879333
0.32429206371307373 0.30129754543304443 0.32429879903793335
0.38127285242080688 0.3531075119972229 0.40585702657699585
0.44099563360214233 0.40117177367210388 0.48850464820861816
0.49714711308479309 0.45196071267127991 0.56766486167907715
0.55597704648971558 0.50874125957489014 0.64956849813461304
0.61131256818771362 0.56302809715270996 0.72390145063400269
0.66536480188369751 0.61697596311569214 0.79663455486297607
0.71725106239318848 0.66357254981994629 0.87458151578903198
0.76381272077560425 0.70999807119369507 0.94888782501220703
0.038207110017538071 0.34087604284286499 0.18408368527889252
0.11557395756244659 0.34301549196243286 0.18929038941860199
0.20587950944900513 0.3401225209236145 0.19995181262493134
0.30740609765052795 0.33283266425132751 0.24787244200706482
0.35426315665245056 0.32514795660972595 0.30937254428863525
0.40438255667686462 0.35369691252708435 0.38589063286781311
0.46983003616333008 0.40570050477981567 0.47490692138671875
0.53174859285354614 0.45891222357749939 0.55966198444366455
