assets/lut/others orange tone.cube
# Created by: G'MIC (https://gmic.eu)
TITLE "orange_tone"
# LUT size
LUT_3D_SIZE 5
# Data domain
DOMAIN_MIN 0.0 0.0 0.0
DOMAIN_MAX 1.0 1.0 1.0
# LUT data points
0.09022955596446991 0.00085450714686885476 0.0013969122665002942
0.3839256763458252 0.065540045499801636 0.0062850653193891048
0.82170116901397705 0.32334572076797485 0.003907566424459219
1 0.59505140781402588 0.0020255893468856812
1 0.7718818187713623 0
0.11996940523386002 0.0060131149366497993 0.0021747963037341833
0.39743992686271667 0.066883504390716553 0.010464402846992016
0.82698464393615723 0.32635200023651123 0.0086961481720209122
1 0.60109502077102661 0.00055147061357274652
1 0.78114867210388184 0
0.14929939806461334 0.0076307407580316067 0.00075046316487714648
0.46037265658378601 0.10237966477870941 7.0010914896556642e-06
0.91597598791122437 0.39593672752380371 0.0058823530562222004
1 0.63677829504013062 0.00078795192530378699
0.9953387975692749 0.80173265933990479 0
0.17807492613792419 0.0086196297779679298 0.00028776281396858394
0.50278288125991821 0.11462584882974625 0.0023640352301299572
0.94638139009475708 0.43069937825202942 0.0039215688593685627
0.99962747097015381 0.65937060117721558 0.0039215688593685627
0.99190717935562134 0.82502412796020508 0.0039215688593685627
0.22255104780197144 0.019615966826677322 0
0.57425343990325928 0.15157349407672882 0
0.96148818731307983 0.45820373296737671 0.0019388984655961394
0.99808317422866821 0.66301393508911133 0
0.99271893501281738 0.83359569311141968 0
0.11311371624469757 0.0024114123079925776 0.0020427629351615906
0.402263343334198 0.066671721637248993 0.0039215688593685627
0.83593320846557617 0.33387410640716553 0.0040198978967964649
1 0.60931944847106934 0
0.99942195415496826 0.78113371133804321 0
0.14589808881282806 0.01112835481762886 0
0.44698277115821838 0.092728063464164734 0.0062971226871013641
0.88955843448638916 0.38260963559150696 0.0037721670232713223
1 0.6436958909034729 0.0039462069980800152
0.9980817437171936 0.80085098743438721 0.0039361091330647469
0.18171536922454834 0.015563725493848324 0.0009200750500895083
0.51910591125488281 0.12802773714065552 0.0040688160806894302
0.95718598365783691 0.43769434094429016 0.0039215688593685627
1 0.66565501689910889 0.004368247464299202
0.9953453540802002 0.81801503896713257 0.00068841071333736181
0.21518790721893311 0.017421288415789604 0.0024906233884394169
0.548880934715271 0.138932004570961 0.0039349873550236225
0.97499853372573853 0.46691125631332397 0.0050045237876474857
0.9999961256980896 0.68402940034866333 0.0039215688593685627
0.99608695507049561 0.84063953161239624 0.003634344320744276
0.26271507143974304 0.037359587848186493 0
0.62621521949768066 0.1887434720993042 0.00015402401913888752
0.99630165100097656 0.50876021385192871 0.0039215688593685627
0.99890625476837158 0.69493228197097778 7.7550554124172777e-05
0.98732566833496094 0.85594075918197632 0.00076986575732007623
0.14433175325393677 0.0035295824054628611 0
0.47193342447280884 0.10054071247577667 0.0071001988835632801
0.90103596448898315 0.39034336805343628 0.0039215688593685627
1 0.63963335752487183 0.0039215688593685627
0.99993681907653809 0.7997126579284668 0.0039215688593685627
0.18024282157421112 0.01195164117962122 0.00060082232812419534
0.50497555732727051 0.11619272828102112 0.0039215688593685627
0.95956814289093018 0.44166985154151917 0
1 0.67578256130218506 0.0079949172213673592
0.99682974815368652 0.81822574138641357 0.0081194555386900902
0.20806415379047394 0.014601464383304119 0.00043945311335846782
0.53853869438171387 0.13248638808727264 0.0032637054100632668
0.97835499048233032 0.47166916728019714 0
0.99682450294494629 0.67762821912765503 0.011183465830981731
0.98882240056991577 0.8369336724281311 0.0073808706365525723
0.25007510185241699 0.027099743485450745 0.0069484636187553406
0.60422468185424805 0.17307773232460022 0.0026633169036358595
0.99266332387924194 0.50034463405609131 1.6156365063579869e-06
0.99431413412094116 0.68927562236785889 0.0067703993991017342
0.99734866619110107 0.85897362232208252 0.0068187490105628967
0.29300239682197571 0.036042515188455582 0.0039215688593685627
0.66715270280838013 0.2084648609161377 0.0071378522552549839
1 0.54990667104721069 0.0066205789335072041
1 0.73411482572555542 9.6938192655215971e-06
0.99500066041946411 0.87521010637283325 0.0031790640205144882
0.17411899566650391 0.0087647233158349991 0
0.51318907737731934 0.12532083690166473 0
0.95962643623352051 0.4365018904209137 0.0039215688593685627
0.99999827146530151 0.65819215774536133 0.0078431377187371254
0.99829554557800293 0.82299345731735229 0.001723809284158051
0.21790125966072083 0.021122172474861145 0.0031154707539826632
0.57040739059448242 0.15031902492046356 0.0038592768833041191
0.98293721675872803 0.47432002425193787 0.0039215688593685627
1 0.69732296466827393 0.0064751571044325829
0.99833226203918457 0.83473628759384155 0.0069823469966650009
0.2486608624458313 0.029062623158097267 0.0016734403325244784
0.61698812246322632 0.17758283019065857 0.0040054470300674438
0.995391845703125 0.50822162628173828 0.002238105284050107
0.9991796612739563 0.70865041017532349 0.0054999855346977711
0.9901583194732666 0.8514702320098877 0.0037981518544256687
0.28330135345458984 0.036484677344560623 0.0039163175970315933
0.66251230239868164 0.2100861668586731 0.0039215688593685627
0.9999927282333374 0.54436743259429932 8.0781825317899347e-07
0.99768710136413574 0.72228759527206421 0
0.99680948257446289 0.8674578070640564 0
0.34404563903808594 0.049793705344200134 0.0039215688593685627
0.7592930793762207 0.27121910452842712 0.0039373212493956089
1 0.57602012157440186 0.0039215688593685627
1 0.74891948699951172 0
0.99950075149536133 0.87889766693115234 0.0030493044760078192
0.21281334757804871 0.021190449595451355 0
0.56596881151199341 0.16000506281852722 5.561978105106391e-05
0.96662342548370361 0.46619430184364319 0.0075349994003772736
0.99612224102020264 0.67086315155029297 0.003965325653553009
0.98912858963012695 0.83449673652648926 0
0.25513789057731628 0.030223308131098747 0.0037377451080828905
0.62005937099456787 0.18450869619846344 3.6351819289848208e-05
0.99771946668624878 0.51567703485488892 0.0039110668003559113
0.99938881397247314 0.70491605997085571 0
0.99719154834747314 0.85238337516784668 0
0.29145503044128418 0.036934453994035721 0.0050763445906341076
0.68241965770721436 0.22151093184947968 0.0049157682806253433
1 0.54900991916656494 6.4625460254319478e-06
1 0.73079609870910645 0
0.99576210975646973 0.86873036623001099 0
0.32398125529289246 0.042682379484176636 0
0.71858316659927368 0.25431230664253235 0.0038977828808128834
0.99989849328994751 0.55901557207107544 0.0035590976476669312
0.99389803409576416 0.73581963777542114 0
0.99642050266265869 0.87799263000488281 0
0.37506905198097229 0.066957540810108185 0
0.76305025815963745 0.30195927619934082 0.00076519837602972984
0.99861901998519897 0.57561957836151123 0.0027922536246478558
0.99758100509643555 0.75385648012161255 0
0.99308550357818604 0.89041280746459961 0
