assets/lut/others summer.cube
# Created by: G'MIC (https://gmic.eu)
TITLE "summer"
# LUT size
LUT_3D_SIZE 13
# Data domain
DOMAIN_MIN 0.0 0.0 0.0
DOMAIN_MAX 1.0 1.0 1.0
# LUT data points
0.27215230464935303 0.034040428698062897 0.26229187846183777
0.32893034815788269 0.030935443937778473 0.2627747654914856
0.38602942228317261 0.030882352963089943 0.26238510012626648
0.44393381476402283 0.032890051603317261 0.26140704751014709
0.50183820724487305 0.034803923219442368 0.26032716035842896
0.55974262952804565 0.034803923219442368 0.26073727011680603
0.61764705181121826 0.03471037745475769 0.26217889785766602
0.67555147409439087 0.03244183212518692 0.26249998807907104
0.73433774709701538 0.031048225238919258 0.26249998807907104
0.79483187198638916 0.031914997845888138 0.26249998807907104
0.85525786876678467 0.033597204834222794 0.26219233870506287
0.91494303941726685 0.033931702375411987 0.26195818185806274
0.97333437204360962 0.031845182180404663 0.26249998807907104
0.27410420775413513 0.10903338342905045 0.26515552401542664
0.33049508929252625 0.10787748545408249 0.26570919156074524
0.38602942228317261 0.10789544880390167 0.26462343335151672
0.44393381476402283 0.10829482972621918 0.26275795698165894
0.50183820724487305 0.11137005686759949 0.26249998807907104
0.55974262952804565 0.11200980097055435 0.26249998807907104
0.61811476945877075 0.11200980097055435 0.26249998807907104
0.67800396680831909 0.1106661781668663 0.26249998807907104
0.73739945888519287 0.10888420790433884 0.26298066973686218
0.79772615432739258 0.1093151643872261 0.26270601153373718
0.85803902149200439 0.11012553423643112 0.26249998807907104
0.91852343082427979 0.10966654866933823 0.26249998807907104
0.97681176662445068 0.10821893811225891 0.26249998807907104
0.27414214611053467 0.1853320449590683 0.26621681451797485
0.33155408501625061 0.1851995438337326 0.26642155647277832
0.38650032877922058 0.18517787754535675 0.26606312394142151
0.44393965601921082 0.18529412150382996 0.2637384831905365
0.50204378366470337 0.18587692081928253 0.26249998807907104
0.56092894077301025 0.18849162757396698 0.26249998807907104
0.62100648880004883 0.18864509463310242 0.26249998807907104
0.67947304248809814 0.18646831810474396 0.26300060749053955
0.7389485239982605 0.18538478016853333 0.26625394821166992
0.79937571287155151 0.18531709909439087 0.26620307564735413
0.86064517498016357 0.18531709909439087 0.26462459564208984
0.91963434219360352 0.18529807031154633 0.26268604397773743
0.97888082265853882 0.18520310521125793 0.26249998807907104
0.27414214611053467 0.26359701156616211 0.26572051644325256
0.33204656839370728 0.26249998807907104 0.26627922058105469
0.38895568251609802 0.26249998807907104 0.26548922061920166
0.44526964426040649 0.26249998807907104 0.26312723755836487
0.50321179628372192 0.26249998807907104 0.26249998807907104
0.56223052740097046 0.26254871487617493 0.26249998807907104
0.62149971723556519 0.26260975003242493 0.26249998807907104
0.67947304248809814 0.26250377297401428 0.26265999674797058
0.74037182331085205 0.26249998807907104 0.26602807641029358
0.80000412464141846 0.26249998807907104 0.26642155647277832
0.86102938652038574 0.26249998807907104 0.2664203941822052
0.91955053806304932 0.26249998807907104 0.2650754451751709
0.97824406623840332 0.26249238848686218 0.26251938939094543
0.27412194013595581 0.34349358081817627 0.26330268383026123
0.33204656839370728 0.34177094697952271 0.26357278227806091
0.389678955078125 0.34038528800010681 0.26281571388244629
0.44602152705192566 0.33984866738319397 0.26249998807907104
0.50343137979507446 0.33970588445663452 0.26249998807907104
0.56201231479644775 0.33970588445663452 0.26249998807907104
0.6212775707244873 0.33970588445663452 0.26249998807907104
0.67947304248809814 0.33970588445663452 0.26249998807907104
0.73983842134475708 0.33970588445663452 0.26388999819755554
0.79940086603164673 0.33970588445663452 0.26639357209205627
0.86060589551925659 0.33970588445663452 0.26642155647277832
0.91893380880355835 0.33970588445663452 0.26620802283287048
0.97677910327911377 0.33970588445663452 0.26293659210205078
0.27327150106430054 0.42083331942558289 0.26246461272239685
0.33204656839370728 0.42083331942558289 0.26249998807907104
0.38931974768638611 0.42083331942558289 0.26245507597923279
0.44559386372566223 0.42061617970466614 0.26165497303009033
0.50280499458312988 0.42031458020210266 0.26047870516777039
0.56092506647109985 0.41874617338180542 0.25988867878913879
0.619925856590271 0.41700002551078796 0.26079902052879333
0.67921262979507446 0.41691175103187561 0.26222711801528931
0.73784995079040527 0.41691175103187561 0.26252070069313049
0.79863160848617554 0.41729962825775146 0.2646813690662384
0.85747915506362915 0.41837432980537415 0.26637664437294006
0.91614556312561035 0.41904973983764648 0.26619559526443481
0.97349727153778076 0.41922459006309509 0.26302292943000793
0.27074867486953735 0.49988096952438354 0.25972768664360046
0.33054301142692566 0.49817392230033875 0.26009675860404968
0.38773515820503235 0.49803921580314636 0.25918740034103394
0.44441652297973633 0.49803921580314636 0.25858867168426514
0.50185805559158325 0.49803921580314636 0.25857841968536377
0.55978119373321533 0.49803921580314636 0.25857841968536377
0.61807197332382202 0.49720799922943115 0.25857841968536377
0.67705804109573364 0.49609476327896118 0.25904881954193115
0.73672974109649658 0.49685382843017578 0.26150655746459961
0.79564118385314941 0.49787899851799011 0.26255396008491516
0.85526996850967407 0.49803921580314636 0.26386472582817078
0.91373705863952637 0.4980415403842926 0.26435947418212891
0.97053366899490356 0.49845907092094421 0.262582927942276
0.27022057771682739 0.57916665077209473 0.25857841968536377
0.32815766334533691 0.5781441330909729 0.25857841968536377
0.38610291481018066 0.57553333044052124 0.25857841968536377
0.44393381476402283 0.57524508237838745 0.25852018594741821
0.50175869464874268 0.57524508237838745 0.25723105669021606
0.55925732851028442 0.57524508237838745 0.25612390041351318
0.61708205938339233 0.57524508237838745 0.25662308931350708
0.67539256811141968 0.57524508237838745 0.25820419192314148
0.73387783765792847 0.57524508237838745 0.25874215364456177
0.79388135671615601 0.57524508237838745 0.26144877076148987
0.85316759347915649 0.57528829574584961 0.26249998807907104
0.9110906720161438 0.57727551460266113 0.26249998807907104
0.96899509429931641 0.57900786399841309 0.26249998807907104
0.2692318856716156 0.6563725471496582 0.25857841968536377
0.328125 0.65630894899368286 0.25857841968536377
0.38602942228317261 0.65442746877670288 0.25857841968536377
0.44393381476402283 0.6528162956237793 0.25731924176216125
0.50097912549972534 0.65262764692306519 0.25470274686813354
0.55748832225799561 0.65249192714691162 0.25465685129165649
0.61504483222961426 0.65245097875595093 0.25465685129165649
0.67354196310043335 0.65245097875595093 0.2553209662437439
0.7330164909362793 0.65245097875595093 0.25824424624443054
0.79149061441421509 0.65245097875595093 0.25873830914497375
0.85178828239440918 0.65384584665298462 0.26187673211097717
0.9110906720161438 0.65635675191879272 0.26249998807907104
0.96899509429931641 0.6563725471496582 0.26249998807907104
0.26757106184959412 0.73251050710678101 0.25857841968536377
0.328125 0.73183274269104004 0.25857841968536377
0.38605040311813354 0.7305644154548645 0.25857841968536377
0.44394317269325256 0.73022001981735229 0.25808295607566833
0.5005345344543457 0.73095089197158813 0.25525760650634766
0.55678862333297729 0.73137283325195312 0.25465980172157288
0.61385619640350342 0.73064953088760376 0.25465685129165649
0.67234557867050171 0.72969329357147217 0.25479316711425781
0.73226171731948853 0.7296568751335144 0.2575843334197998
0.79136204719543457 0.7296568751335144 0.25857841968536377
0.85123008489608765 0.73100137710571289 0.26091116666793823
0.9110906720161438 0.73348867893218994 0.26249998807907104
0.96899509429931641 0.73357844352722168 0.26249998807907104
0.26818093657493591 0.80693274736404419 0.25960895419120789
0.32837721705436707 0.80686277151107788 0.26092362403869629
0.38768652081489563 0.80686277151107788 0.26030871272087097
0.44485136866569519 0.80686277151107788 0.25910577178001404
0.50131493806838989 0.80718517303466797 0.25821498036384583
0.55742418766021729 0.80803614854812622 0.2564886212348938
0.61465120315551758 0.80780410766601562 0.2558286190032959
0.6732291579246521 0.80689162015914917 0.25699505209922791
0.73297148942947388 0.80686277151107788 0.25850805640220642
0.79218500852584839 0.80686277151107788 0.25912636518478394
0.85290855169296265 0.80686277151107788 0.26204350590705872
0.91110622882843018 0.80733966827392578 0.26249998807907104
0.96899974346160889 0.80791562795639038 0.26249998807907104
0.27031514048576355 0.88402628898620605 0.26249107718467712
0.33128523826599121 0.88403129577636719 0.26348736882209778
0.38993176817893982 0.88402116298675537 0.26370128989219666
0.44736340641975403 0.88403558731079102 0.2630469799041748
0.50388705730438232 0.88405948877334595 0.26159527897834778
0.56018227338790894 0.88406860828399658 0.26032015681266785
0.61732232570648193 0.88406860828399658 0.25977504253387451
0.67574578523635864 0.88406860828399658 0.26005220413208008
0.73491066694259644 0.88405114412307739 0.26113227009773254
0.79493582248687744 0.88401305675506592 0.26237097382545471
0.85459208488464355 0.88402891159057617 0.26249998807907104
0.91431212425231934 0.88406860828399658 0.26254862546920776
0.97204327583312988 0.88406610488891602 0.26443791389465332
0.27243250608444214 0.95757949352264404 0.26503553986549377
0.33292713761329651 0.95764017105102539 0.26647505164146423
0.39258632063865662 0.9575188159942627 0.26701337099075317
0.45031258463859558 0.957691490650177 0.26703360676765442
0.50754916667938232 0.95797854661941528 0.26621979475021362
0.56478679180145264 0.9583093523979187 0.26517948508262634
0.62181484699249268 0.95849800109863281 0.26459255814552307
0.67958176136016846 0.95824617147445679 0.26446226239204407
0.73801678419113159 0.9578782320022583 0.26472693681716919
0.79770755767822266 0.95742136240005493 0.26488971710205078
0.85720223188400269 0.95761162042617798 0.26407930254936218
0.9156649112701416 0.958088219165802 0.26405656337738037
0.97291666269302368 0.95805788040161133 0.2662557065486908
0.27399572730064392 0.032543361186981201 0.30385202169418335
0.33013838529586792 0.030882352963089943 0.30425146222114563
0.38602942228317261 0.030882352963089943 0.30275437235832214
0.44393381476402283 0.031839229166507721 0.30115321278572083
0.50183820724487305 0.034777354449033737 0.30096757411956787
0.55974262952804565 0.034803923219442368 0.30097964406013489
0.61764705181121826 0.034803923219442368 0.30110293626785278
0.67555147409439087 0.034780777990818024 0.30110293626785278
0.73477894067764282 0.034594666212797165 0.30110293626785278
0.79509866237640381 0.034768331795930862 0.3010459840297699
0.85479837656021118 0.034803923219442368 0.29931670427322388
0.91423064470291138 0.034803923219442368 0.29844173789024353
0.97200065851211548 0.033886585384607315 0.30059146881103516
0.27414214611053467 0.10817418992519379 0.3052002489566803
0.33051025867462158 0.10730074346065521 0.30505412817001343
0.38602942228317261 0.10729717463254929 0.30501559376716614
0.44393381476402283 0.10809361934661865 0.30312997102737427
0.50183820724487305 0.11079803109169006 0.30110293626785278
0.55974262952804565 0.11200980097055435 0.30110293626785278
0.61766088008880615 0.11200980097055435 0.30110293626785278
0.67728573083877563 0.11200980097055435 0.30110293626785278
0.73736774921417236 0.11200980097055435 0.30110999941825867
0.79732328653335571 0.11200980097055435 0.30110442638397217
0.85735678672790527 0.11200980097055435 0.30110293626785278
0.91689509153366089 0.1119057908654213 0.30110293626785278
0.97510349750518799 0.10989991575479507 0.30110293626785278
0.27414214611053467 0.18529412150382996 0.30551058053970337
0.33083862066268921 0.18488013744354248 0.30512946844100952
0.38603359460830688 0.18481156229972839 0.30502450466156006
0.44393381476402283 0.18529412150382996 0.30475389957427979
0.50183820724487305 0.18578726053237915 0.30125030875205994
0.55974262952804565 0.18887881934642792 0.30110293626785278
0.61834418773651123 0.18921568989753723 0.30110293626785278
0.67930096387863159 0.18903154134750366 0.30119624733924866
0.73805779218673706 0.18820476531982422 0.30358749628067017
0.79915136098861694 0.18761095404624939 0.30390223860740662
0.8594515323638916 0.18724687397480011 0.30296227335929871
0.91893023252487183 0.18618947267532349 0.3015921413898468
0.97683393955230713 0.18533268570899963 0.30110293626785278
0.27414214611053467 0.26332145929336548 0.30502450466156006
0.33171895146369934 0.26249998807907104 0.30502450466156006
0.38628086447715759 0.26249998807907104 0.30502316355705261
0.44393381476402283 0.26249998807907104 0.30334776639938354
0.50183820724487305 0.26249998807907104 0.30110958218574524
0.55974262952804565 0.26353904604911804 0.30110293626785278
0.6189160943031311 0.26438441872596741 0.30110293626785278
0.67938703298568726 0.26327461004257202 0.30117571353912354
0.73871099948883057 0.26260101795196533 0.3043924868106842
0.79927927255630493 0.26251086592674255 0.30502450466156006
0.86052477359771729 0.26249998807907104 0.30502450466156006
0.91893380880355835 0.26249998807907104 0.30478164553642273
0.97683823108673096 0.26249998807907104 0.30164390802383423
0.27414214611053467 0.34338235855102539 0.30411988496780396
0.33163884282112122 0.34159901738166809 0.30399560928344727
0.38660541176795959 0.34048506617546082 0.3025037944316864
0.44393381476402283 0.34029302000999451 0.30114302039146423
0.50183820724487305 0.3403770923614502 0.30110293626785278
0.55974262952804565 0.34033304452896118 0.30110293626785278
0.61807012557983398 0.3397391140460968 0.30110293626785278
0.67868787050247192 0.33970588445663452 0.30110293626785278
0.73802143335342407 0.33970588445663452 0.30267280340194702
0.79909884929656982 0.33970588445663452 0.30502450466156006
0.85959756374359131 0.33970588445663452 0.30502450466156006
0.91893380880355835 0.33970588445663452 0.30502450466156006
0.97629040479660034 0.33970588445663452 0.30269157886505127
0.27252256870269775 0.42083331942558289 0.30110293626785278
0.32999944686889648 0.42083331942558289 0.30110293626785278
0.38616961240768433 0.42083331942558289 0.30109143257141113
0.44393381476402283 0.420808345079422 0.30024844408035278
0.50183820724487305 0.42075854539871216 0.29882535338401794
0.55968272686004639 0.42034253478050232 0.29820090532302856
0.61765551567077637 0.41805347800254822 0.29884052276611328
0.67645198106765747 0.41691985726356506 0.30052453279495239
0.73697024583816528 0.41691175103187561 0.30116331577301025
0.79725384712219238 0.41691750288009644 0.30389750003814697
0.85733300447463989 0.41709485650062561 0.30502450466156006
0.91644173860549927 0.41748321056365967 0.30502450466156006
0.97314870357513428 0.41778779029846191 0.30277034640312195
0.27023917436599731 0.50017422437667847 0.29972907900810242
0.32818520069122314 0.49842691421508789 0.29931369423866272
0.38602960109710693 0.49803921580314636 0.29798081517219543
0.44388237595558167 0.49803921580314636 0.29719564318656921
0.50088667869567871 0.49803921580314636 0.29717347025871277
0.55802720785140991 0.49803921580314636 0.29701900482177734
0.61621260643005371 0.49791246652603149 0.29712760448455811
0.67509984970092773 0.49653127789497375 0.29738104343414307
0.73427349328994751 0.49613738059997559 0.29987165331840515
0.79498559236526489 0.49695733189582825 0.3014104962348938
0.8546673059463501 0.4977150559425354 0.30383619666099548
0.91384530067443848 0.49794900417327881 0.30490458011627197
0.97093605995178223 0.49803921580314636 0.30214348435401917
0.27020987868309021 0.57916665077209473 0.29718136787414551
0.328125 0.57892900705337524 0.29718136787414551
0.38598906993865967 0.57709324359893799 0.29718136787414551
0.44270747900009155 0.57554227113723755 0.2964080274105072
0.49869006872177124 0.57525908946990967 0.29429110884666443
0.55598628520965576 0.57524508237838745 0.2935028076171875
0.61390042304992676 0.57524508237838745 0.29384827613830566
0.67247182130813599 0.57524508237838745 0.29574877023696899
0.73262721300125122 0.57524508237838745 0.29726928472518921
0.79216510057449341 0.57524508237838745 0.29983776807785034
0.85279113054275513 0.57524508237838745 0.30111068487167358
0.9110906720161438 0.57560497522354126 0.301401287317276
0.96899509429931641 0.57682532072067261 0.30111676454544067
0.26830410957336426 0.6563725471496582 0.29718136787414551
0.32805529236793518 0.6563725471496582 0.29718136787414551
0.38540858030319214 0.6563713550567627 0.2970600426197052
0.44130399823188782 0.65590161085128784 0.29383310675621033
0.49786543846130371 0.65496635437011719 0.29325979948043823
0.55481791496276855 0.65397876501083374 0.29325979948043823
0.61237436532974243 0.65283429622650146 0.29325979948043823
0.67137247323989868 0.65245097875595093 0.29328626394271851
0.730293869972229 0.65245097875595093 0.29575070738792419
0.79120582342147827 0.65245097875595093 0.29734125733375549
0.85011738538742065 0.6527283787727356 0.30040031671524048
0.91108345985412598 0.65553063154220581 0.30110293626785278
0.96899509429931641 0.65635675191879272 0.30110293626785278
0.26655027270317078 0.73357731103897095 0.29718136787414551
0.32741266489028931 0.73355942964553833 0.29718136787414551
0.3851226270198822 0.73350614309310913 0.29716655611991882
0.44102740287780762 0.73353725671768188 0.29487752914428711
0.49737650156021118 0.73357826471328735 0.29326602816581726
0.55321145057678223 0.73357748985290527 0.29314428567886353
0.61053478717803955 0.73331177234649658 0.29291751980781555
0.67018336057662964 0.73092186450958252 0.29325979948043823
0.72960972785949707 0.7296568751335144 0.29445099830627441
0.7907213568687439 0.7296568751335144 0.29718136787414551
0.84964525699615479 0.73021721839904785 0.29896765947341919
0.91105085611343384 0.73335278034210205 0.30110293626785278
0.96899509429931641 0.73357844352722168 0.30110293626785278
0.26758614182472229 0.80820059776306152 0.29784572124481201
0.3280634880065918 0.8078768253326416 0.29866912961006165
0.38588166236877441 0.80758959054946899 0.2982463538646698
0.44227927923202515 0.80806022882461548 0.29724544286727905
0.49785211682319641 0.8097420334815979 0.29527384042739868
0.55345362424850464 0.81072640419006348 0.29338431358337402
0.61084651947021484 0.81065648794174194 0.2932189404964447
0.67070341110229492 0.80819034576416016 0.2934839129447937
0.73034733533859253 0.80686277151107788 0.29591187834739685
0.7912786602973938 0.80686277151107788 0.29728978872299194
0.85166752338409424 0.80686277151107788 0.29989206790924072
0.9110906720161438 0.80745112895965576 0.30110293626785278
0.96899509429931641 0.80827206373214722 0.30110293626785278
0.26998135447502136 0.88406860828399658 0.30106636881828308
0.32929229736328125 0.88406860828399658 0.30174046754837036
0.38766592741012573 0.88406860828399658 0.30196622014045715
0.44449561834335327 0.88406860828399658 0.30119973421096802
0.5006212592124939 0.88410019874572754 0.29933357238769531
0.55661016702651978 0.88477843999862671 0.29727217555046082
0.61401355266571045 0.88465982675552368 0.29601165652275085
0.67319232225418091 0.88406860828399658 0.29685518145561218
0.73313456773757935 0.88406860828399658 0.29819253087043762
0.79310762882232666 0.88403594493865967 0.3003508448600769
0.8535955548286438 0.88402503728866577 0.30110293626785278
0.91330814361572266 0.88406860828399658 0.30110293626785278
0.9708440899848938 0.88406860828399658 0.30125772953033447
0.27192282676696777 0.958088219165802 0.30373069643974304
0.33205121755599976 0.958088219165802 0.30508026480674744
0.39026153087615967 0.958088219165802 0.30577889084815979
0.44781234860420227 0.958088219165802 0.30582109093666077
0.50503015518188477 0.95840108394622803 0.30490848422050476
0.56229251623153687 0.95888382196426392 0.30331432819366455
0.6196519136428833 0.95888477563858032 0.30209809541702271
0.67770802974700928 0.95885604619979858 0.30142757296562195
0.73661571741104126 0.95814579725265503 0.30198600888252258
0.79569298028945923 0.95769673585891724 0.30353891849517822
0.85643130540847778 0.95756494998931885 0.30230927467346191
0.91544163227081299 0.958088219165802 0.30110311508178711
0.97289097309112549 0.958088219165802 0.30199968814849854
0.27414214611053467 0.032625041902065277 0.34361734986305237
0.33029788732528687 0.030882352963089943 0.3436274528503418
0.38602942228317261 0.030882352963089943 0.34252595901489258
0.44393381476402283 0.032252054661512375 0.33992704749107361
0.50183820724487305 0.034793149679899216 0.33970588445663452
0.55974262952804565 0.034803923219442368 0.33970588445663452
0.61764705181121826 0.034803923219442368 0.33970588445663452
0.67555147409439087 0.034803923219442368 0.33970588445663452
0.73524236679077148 0.034803923219442368 0.33970588445663452
0.79523283243179321 0.034803923219442368 0.33956485986709595
0.85365819931030273 0.034803923219442368 0.33817887306213379
0.91218328475952148 0.034803923219442368 0.33785137534141541
0.96951842308044434 0.034020189195871353 0.33930215239524841
0.27414214611053467 0.10835155099630356 0.34444001317024231
0.33057597279548645 0.10808823257684708 0.34376490116119385
0.38602942228317261 0.10808823257684708 0.3436274528503418
0.44393381476402283 0.10826285928487778 0.3422284722328186
0.50183820724487305 0.11140338331460953 0.33970588445663452
0.55974262952804565 0.11200980097055435 0.33970588445663452
0.61764705181121826 0.11200980097055435 0.33970588445663452
0.67642110586166382 0.11200980097055435 0.33970588445663452
0.73731380701065063 0.11200980097055435 0.33970588445663452
0.79637569189071655 0.11200980097055435 0.33970588445663452
0.85690212249755859 0.11200980097055435 0.33970588445663452
0.91501545906066895 0.11200980097055435 0.33970588445663452
0.97260236740112305 0.11164049804210663 0.33970588445663452
0.27414214611053467 0.18539330363273621 0.34512874484062195
0.33055654168128967 0.18529412150382996 0.34394705295562744
0.38602942228317261 0.18529412150382996 0.3436274528503418
0.44393381476402283 0.18529412150382996 0.34322607517242432
0.50183820724487305 0.1873633861541748 0.33979421854019165
0.55974262952804565 0.18921418488025665 0.33970588445663452
0.61764705181121826 0.18921568989753723 0.33970588445663452
0.67785763740539551 0.18921568989753723 0.33970588445663452
0.73741906881332397 0.18921568989753723 0.3398892879486084
0.79840242862701416 0.18919728696346283 0.3409002423286438
0.85731810331344604 0.1889977902173996 0.34095165133476257
0.91653788089752197 0.18834908306598663 0.34009221196174622
0.9741702675819397 0.18640226125717163 0.33970588445663452
0.27414214611053467 0.26414352655410767 0.3436274528503418
0.33025547862052917 0.26252254843711853 0.3436274528503418
0.38602942228317261 0.26249998807907104 0.34359648823738098
0.44393381476402283 0.26262316107749939 0.34148955345153809
0.50183820724487305 0.26420971751213074 0.33970624208450317
0.55974262952804565 0.26632192730903625 0.33970588445663452
0.61764705181121826 0.26639661192893982 0.33970588445663452
0.67776644229888916 0.26591116189956665 0.33970588445663452
0.73749279975891113 0.26459577679634094 0.34089493751525879
0.79873031377792358 0.26352623105049133 0.34357148408889771
0.85781103372573853 0.26294159889221191 0.3436274528503418
0.9178164005279541 0.26259651780128479 0.34353744983673096
0.97505223751068115 0.26249998807907104 0.34065505862236023
0.27369588613510132 0.3435816764831543 0.34313726425170898
0.32910594344139099 0.34253525733947754 0.34267306327819824
0.38602942228317261 0.34178435802459717 0.34083473682403564
0.44393381476402283 0.34220048785209656 0.33971479535102844
0.50168317556381226 0.34311044216156006 0.33970588445663452
0.55951201915740967 0.34357589483261108 0.33965083956718445
0.61763989925384521 0.34293469786643982 0.33969870209693909
0.67635458707809448 0.34062886238098145 0.33970588445663452
0.7372400164604187 0.33971846103668213 0.34020817279815674
