assets/lut/others green mono.cube
# Created by: G'MIC (https://gmic.eu)
TITLE "green_mono"
# LUT size
LUT_3D_SIZE 7
# Data domain
DOMAIN_MIN 0.0 0.0 0.0
DOMAIN_MAX 1.0 1.0 1.0
# LUT data points
0.014410684816539288 0.023330194875597954 0.013684905134141445
0.059185415506362915 0.10483012348413467 0.059971198439598083
0.096713140606880188 0.22354835271835327 0.15297244489192963
0.12389014661312103 0.35153812170028687 0.31262728571891785
0.224129319190979 0.51316982507705688 0.38463148474693298
0.47900223731994629 0.69566082954406738 0.42578604817390442
0.84482836723327637 0.85758829116821289 0.65446937084197998
0.020640848204493523 0.029844067990779877 0.019701505079865456
0.068056352436542511 0.12254611402750015 0.073952771723270416
0.10729464143514633 0.23554503917694092 0.16887721419334412
0.13296708464622498 0.37171509861946106 0.33829286694526672
0.24405242502689362 0.53938013315200806 0.37105634808540344
0.54009169340133667 0.71789968013763428 0.46564120054244995
0.85912925004959106 0.85825234651565552 0.69456195831298828
0.028373075649142265 0.041143380105495453 0.025501281023025513
0.074033908545970917 0.13132262229919434 0.075063474476337433
0.10910354554653168 0.25343814492225647 0.18216775357723236
0.13106107711791992 0.38763511180877686 0.35512596368789673
0.2711750864982605 0.56215333938598633 0.37748700380325317
0.57528936862945557 0.73778808116912842 0.48056986927986145
0.88437312841415405 0.87749713659286499 0.71210873126983643
0.032612774521112442 0.04741891473531723 0.027314802631735802
0.078456342220306396 0.14892597496509552 0.084244973957538605
0.11273947358131409 0.27059486508369446 0.19079266488552094
0.13932646811008453 0.40878960490226746 0.3826964795589447
0.2905086874961853 0.58439105749130249 0.36231756210327148
0.62950432300567627 0.75888073444366455 0.51041018962860107
0.89700567722320557 0.88451278209686279 0.74478185176849365
0.041690796613693237 0.066204920411109924 0.039604470133781433
0.081617645919322968 0.163914754986763 0.094630375504493713
0.11933079361915588 0.2883022129535675 0.211468905210495
0.14828333258628845 0.42642027139663696 0.39292830228805542
0.31649395823478699 0.6019599437713623 0.37182170152664185
0.67651230096817017 0.78019094467163086 0.53992718458175659
0.91390424966812134 0.89918810129165649 0.7676316499710083
0.051227778196334839 0.075844801962375641 0.043851125985383987
0.086806774139404297 0.17444850504398346 0.10775360465049744
0.12014292925596237 0.30222791433334351 0.23677854239940643
0.15961533784866333 0.4475899338722229 0.39593002200126648
0.35680541396141052 0.63212889432907104 0.37331578135490417
0.70989972352981567 0.79645931720733643 0.57137030363082886
0.92621159553527832 0.91018033027648926 0.79581403732299805
0.053241699934005737 0.077294610440731049 0.04494621604681015
0.093789197504520416 0.1875016987323761 0.11922552436590195
0.12316318601369858 0.31571251153945923 0.25286045670509338
0.1764405369758606 0.46300530433654785 0.38760802149772644
0.3929046094417572 0.65214264392852783 0.37753438949584961
0.76616829633712769 0.81970489025115967 0.60202950239181519
0.9302329421043396 0.91496354341506958 0.82153421640396118
0.023135300725698471 0.036588601768016815 0.022569229826331139
0.063750892877578735 0.11709201335906982 0.067515276372432709
0.10314405709505081 0.24001362919807434 0.16324783861637115
0.13033443689346313 0.37003070116043091 0.32731202244758606
0.23533639311790466 0.5324099063873291 0.37616714835166931
0.53561264276504517 0.71739071607589722 0.45012646913528442
0.8717949390411377 0.86404204368591309 0.69382297992706299
0.031142007559537888 0.049078218638896942 0.030396614223718643
0.071619950234889984 0.13335660099983215 0.074094124138355255
0.111339271068573 0.24486036598682404 0.17329497635364532
0.13496565818786621 0.38486781716346741 0.36327281594276428
0.26570028066635132 0.55919402837753296 0.37220048904418945
0.58423733711242676 0.73868346214294434 0.48455280065536499
0.87766861915588379 0.87282025814056396 0.70327472686767578
0.031422872096300125 0.047455761581659317 0.027088090777397156
0.077708885073661804 0.14198453724384308 0.079484723508358002
0.11231332272291183 0.26004424691200256 0.18452709913253784
0.14073964953422546 0.40060210227966309 0.37667632102966309
0.29383739829063416 0.58519655466079712 0.36403661966323853
0.63355147838592529 0.76152569055557251 0.51179057359695435
0.89487987756729126 0.88691532611846924 0.74050223827362061
0.038536731153726578 0.060302585363388062 0.034245077520608902
0.080543950200080872 0.15572109818458557 0.089825361967086792
0.11588752269744873 0.27949926257133484 0.21057894825935364
0.147820845246315 0.42168295383453369 0.39239349961280823
0.31806153059005737 0.60425400733947754 0.36872872710227966
0.67685520648956299 0.78044545650482178 0.53445863723754883
0.90860211849212646 0.89934170246124268 0.77202397584915161
0.046886444091796875 0.07165902853012085 0.043157000094652176
0.085494726896286011 0.17701859772205353 0.10989954322576523
0.1205940842628479 0.29741117358207703 0.23254133760929108
0.16083636879920959 0.44602048397064209 0.39140737056732178
0.34296396374702454 0.62945848703384399 0.36297699809074402
0.72304058074951172 0.80149614810943604 0.56652307510375977
0.92165899276733398 0.90788555145263672 0.78960824012756348
0.050170179456472397 0.081638231873512268 0.045153103768825531
0.090214699506759644 0.18752482533454895 0.1171591654419899
0.12032394111156464 0.3193143904209137 0.26010921597480774
0.1796480268239975 0.46611425280570984 0.39025002717971802
0.38732308149337769 0.6537708044052124 0.37958604097366333
0.76368367671966553 0.81770294904708862 0.59509855508804321
0.92899483442306519 0.9165961742401123 0.81227225065231323
0.059342715889215469 0.090591892600059509 0.049692369997501373
0.097303919494152069 0.20243494212627411 0.12696625292301178
0.12497489899396896 0.33461889624595642 0.28409186005592346
0.1947205513715744 0.48736089468002319 0.38858267664909363
0.4392203688621521 0.67028236389160156 0.40598669648170471
0.80266326665878296 0.83523499965667725 0.62592589855194092
0.93960678577423096 0.9269719123840332 0.84004765748977661
0.03366706520318985 0.055435627698898315 0.033657342195510864
0.071830093860626221 0.13171136379241943 0.075702950358390808
0.11071014404296875 0.25097408890724182 0.17072409391403198
0.13146263360977173 0.38931480050086975 0.36597779393196106
0.2697175145149231 0.56466531753540039 0.36744797229766846
0.57539451122283936 0.73743247985839844 0.47925981879234314
0.87944382429122925 0.87222898006439209 0.71596449613571167
0.039586219936609268 0.062098067253828049 0.037169735878705978
0.076422356069087982 0.14522400498390198 0.082640521228313446
0.11190143972635269 0.26300567388534546 0.18706569075584412
0.14494387805461884 0.40838867425918579 0.37402552366256714
0.29228895902633667 0.58378356695175171 0.36017718911170959
0.6223260760307312 0.75666064023971558 0.49950510263442993
0.89207607507705688 0.88173061609268188 0.73642927408218384
0.044707160443067551 0.061073318123817444 0.035462968051433563
0.085614688694477081 0.16071464121341705 0.092839889228343964
0.11450720578432083 0.28261551260948181 0.22208763659000397
0.14864832162857056 0.42578303813934326 0.39374759793281555
0.31806713342666626 0.6011955738067627 0.37075182795524597
0.67584878206253052 0.78000229597091675 0.54398816823959351
0.9092482328414917 0.89675039052963257 0.76614546775817871
0.045303404331207275 0.072055742144584656 0.039330396801233292
0.088203608989715576 0.174160435795784 0.10639683157205582
0.11849720031023026 0.29743054509162903 0.23111565411090851
0.15988780558109283 0.44453740119934082 0.39427927136421204
0.33963727951049805 0.62423038482666016 0.36356094479560852
0.73144888877868652 0.80392575263977051 0.57225692272186279
0.9215468168258667 0.90574032068252563 0.79483997821807861
0.05222218856215477 0.083656236529350281 0.049680404365062714
0.089119046926498413 0.18621423840522766 0.11694885045289993
0.11703243106603622 0.31014600396156311 0.25116929411888123
0.17641527950763702 0.46334922313690186 0.38668566942214966
0.37388479709625244 0.64480262994766235 0.37440988421440125
0.76783925294876099 0.82226622104644775 0.59683603048324585
0.92696315050125122 0.90985238552093506 0.79811555147171021
0.058040782809257507 0.093028232455253601 0.054086886346340179
0.091939546167850494 0.19864191114902496 0.12278904765844345
0.12306927144527435 0.33305585384368896 0.28056597709655762
0.19833829998970032 0.48862358927726746 0.39195388555526733
0.42142710089683533 0.66820067167282104 0.39695584774017334
0.79907757043838501 0.83513975143432617 0.62885117530822754
0.93866783380508423 0.92757856845855713 0.84152156114578247
0.065120458602905273 0.10165201872587204 0.058035232126712799
0.097188599407672882 0.21639440953731537 0.13562798500061035
0.12697149813175201 0.35249775648117065 0.30344003438949585
0.21642355620861053 0.5103270411491394 0.38313120603561401
0.47780421376228333 0.69496572017669678 0.42253243923187256
0.82773822546005249 0.84968119859695435 0.6612967848777771
0.94774419069290161 0.937325119972229 0.86620765924453735
0.033092334866523743 0.047112230211496353 0.026312494650483131
0.07674802839756012 0.14387711882591248 0.082624442875385284
0.11098048090934753 0.26626718044281006 0.19462516903877258
0.14180052280426025 0.404552161693573 0.37550681829452515
0.28264284133911133 0.58248627185821533 0.36281374096870422
0.60965430736541748 0.75297296047210693 0.51410049200057983
0.90352112054824829 0.88572293519973755 0.74371600151062012
0.040467865765094757 0.063491448760032654 0.038091052323579788
0.087122224271297455 0.15851606428623199 0.093911565840244293
0.11577010899782181 0.28024187684059143 0.21093705296516418
0.15451456606388092 0.42812016606330872 0.37160450220108032
0.33071744441986084 0.60634332895278931 0.37441155314445496
0.67049306631088257 0.77890962362289429 0.54150760173797607
0.91634786128997803 0.89176863431930542 0.76576322317123413
0.047865834087133408 0.070302166044712067 0.040562961250543594
0.08860442042350769 0.17138263583183289 0.10456212610006332
0.11664265394210815 0.29806524515151978 0.24074339866638184
0.16436247527599335 0.44795292615890503 0.39083775877952576
0.34389257431030273 0.62328684329986572 0.37295421957969666
0.71233415603637695 0.79749399423599243 0.57622992992401123
0.9250190258026123 0.90567022562026978 0.79595839977264404
0.051232356578111649 0.080713115632534027 0.04605039581656456
0.08914579451084137 0.18309395015239716 0.11204096674919128
0.11921172589063644 0.31155490875244141 0.2539583146572113
0.17630770802497864 0.46636077761650085 0.39644983410835266
0.37048870325088501 0.64421123266220093 0.38558408617973328
0.7622300386428833 0.81762325763702393 0.60585421323776245
0.93057787418365479 0.91630452871322632 0.81378412246704102
0.05299212783575058 0.092224016785621643 0.051550291478633881
0.09357171505689621 0.20208936929702759 0.12984082102775574
0.12529690563678741 0.33323261141777039 0.27130359411239624
0.20470038056373596 0.49149733781814575 0.38045459985733032
0.42801094055175781 0.6737397313117981 0.39661669731140137
0.81284838914871216 0.84162372350692749 0.63495701551437378
0.94081598520278931 0.92820143699645996 0.83972162008285522
0.064722396433353424 0.11235151439905167 0.063239455223083496
0.095090501010417938 0.21590934693813324 0.1418035626411438
0.12685619294643402 0.35456013679504395 0.30353960394859314
0.2183985561132431 0.51154226064682007 0.37870073318481445
0.48948991298675537 0.69550865888595581 0.43576943874359131
0.84265637397766113 0.85235971212387085 0.66126728057861328
0.9498286247253418 0.93251019716262817 0.85772788524627686
0.065616682171821594 0.11722809821367264 0.067214086651802063
0.10126534104347229 0.2310100644826889 0.15746758878231049
0.13208302855491638 0.36755037307739258 0.32394850254058838
0.23611970245838165 0.52435743808746338 0.37780022621154785
0.51453232765197754 0.7060316801071167 0.45156177878379822
0.84886318445205688 0.85975617170333862 0.68878686428070068
0.96092057228088379 0.94528722763061523 0.88768309354782104
0.043735295534133911 0.06748509407043457 0.038758385926485062
0.079552352428436279 0.15703696012496948 0.089653477072715759
0.11586296558380127 0.28779560327529907 0.22366286814212799
0.14981795847415924 0.42722785472869873 0.3919793963432312
0.30414128303527832 0.59828579425811768 0.36761710047721863
0.66628813743591309 0.7749408483505249 0.54790741205215454
0.91102802753448486 0.89667636156082153 0.76882302761077881
0.045747615396976471 0.068913042545318604 0.041022956371307373
0.088255725800991058 0.17203913629055023 0.10802187770605087
0.11888131499290466 0.29506009817123413 0.22734320163726807
0.15635685622692108 0.44581824541091919 0.38783711194992065
0.34279119968414307 0.62262213230133057 0.36816766858100891
0.73152250051498413 0.8018144965171814 0.5725712776184082
0.9236445426940918 0.90752285718917847 0.79359608888626099
0.051880497485399246 0.080016329884529114 0.04582379013299942
0.091878660023212433 0.18708118796348572 0.11565802991390228
0.12109123915433884 0.31443530321121216 0.25210326910018921
0.17874598503112793 0.46774891018867493 0.38717260956764221
0.38490930199623108 0.64571279287338257 0.38753238320350647
0.76373070478439331 0.81722426414489746 0.59678167104721069
0.93417984247207642 0.91579878330230713 0.81480789184570312
0.057676143944263458 0.095609240233898163 0.054535284638404846
0.095215529203414917 0.19803141057491302 0.12139710038900375
0.12392923980951309 0.32999345660209656 0.27229508757591248
0.19941593706607819 0.48994767665863037 0.38193243741989136
0.43051481246948242 0.67495840787887573 0.39408561587333679
0.80062615871429443 0.83499634265899658 0.62845289707183838
0.93873870372772217 0.92784714698791504 0.83702343702316284
0.05980021134018898 0.10130657255649567 0.058604191988706589
0.10105624049901962 0.2135566920042038 0.1392388790845871
0.12470698356628418 0.35263144969940186 0.30952244997024536
0.21986368298530579 0.51652944087982178 0.3760240375995636
0.48255413770675659 0.69511747360229492 0.43985110521316528
0.83656901121139526 0.85467863082885742 0.66562139987945557
0.94896054267883301 0.93603599071502686 0.85980236530303955
0.069588847458362579 0.12444758415222168 0.06769435852766037
0.099267341196537018 0.23066399991512299 0.15784166753292084
0.12870699167251587 0.36878779530525208 0.33541092276573181
0.24013739824295044 0.53262835741043091 0.37869167327880859
0.53174364566802979 0.717518150806427 0.45170217752456665
0.84854203462600708 0.86067909002304077 0.69668614864349365
0.96223354339599609 0.94640040397644043 0.89138787984848022
0.069869443774223328 0.13058120012283325 0.074585661292076111
0.10399214923381805 0.24882125854492188 0.17927409708499908
0.13244709372520447 0.3832513689994812 0.34920606017112732
0.26639500260353088 0.55420541763305664 0.37046161293983459
0.57300949096679688 0.73098361492156982 0.48824989795684814
0.88349968194961548 0.87975019216537476 0.71556103229522705
0.96112591028213501 0.9557148814201355 0.90205180644989014
0.048256982117891312 0.071523226797580719 0.046052612364292145
0.085346817970275879 0.17232654988765717 0.10622712969779968
0.11553370207548141 0.29517754912376404 0.23031127452850342
0.16094230115413666 0.44736543297767639 0.39707812666893005
0.33390501141548157 0.62273353338241577 0.36307764053344727
0.70533096790313721 0.79555517435073853 0.56527376174926758
0.92384523153305054 0.90589302778244019 0.78899836540222168
0.053158704191446304 0.084351964294910431 0.048907484859228134
0.090206921100616455 0.18341156840324402 0.11264362931251526
0.12098692357540131 0.30917784571647644 0.24391217529773712
0.18037141859531403 0.46668505668640137 0.39076617360115051
0.38192391395568848 0.64674127101898193 0.37891885638237
0.76285505294799805 0.82060700654983521 0.60276645421981812
0.93126928806304932 0.9162600040435791 0.80832982063293457
0.057185646146535873 0.094997763633728027 0.054640721529722214
0.096554741263389587 0.20610257983207703 0.13279350101947784
0.12325482815504074 0.3328915536403656 0.28950971364974976
0.1986042857170105 0.4886823296546936 0.38129943609237671
0.43112823367118835 0.67479819059371948 0.39946094155311584
0.80930572748184204 0.84048956632614136 0.63591760396957397
0.94203054904937744 0.92568540573120117 0.83883291482925415
0.062042683362960815 0.099993370473384857 0.057077385485172272
0.098969206213951111 0.21563580632209778 0.13873963057994843
0.12568296492099762 0.35189712047576904 0.30931109189987183
0.21007801592350006 0.50655454397201538 0.37689080834388733
0.46743100881576538 0.69032436609268188 0.4147687554359436
0.83296281099319458 0.84947580099105835 0.65558356046676636
0.95033955574035645 0.93221890926361084 0.85579991340637207
0.066999487578868866 0.115874283015728 0.066833645105361938
0.10667841136455536 0.22961646318435669 0.15277768671512604
0.12794053554534912 0.36772683262825012 0.33328717947006226
0.23417401313781738 0.53367912769317627 0.37671184539794922
0.52655941247940063 0.71445721387863159 0.44527015089988708
0.86363780498504639 0.86591750383377075 0.6846354603767395
0.95711022615432739 0.94526642560958862 0.87891632318496704
0.070298515260219574 0.1289401650428772 0.073403708636760712
0.10591384023427963 0.24706442654132843 0.16920097172260284
0.13166630268096924 0.3812863826751709 0.35581043362617493
0.26513156294822693 0.55578875541687012 0.37735199928283691
0.58143573999404907 0.73703646659851074 0.48025205731391907
0.87887227535247803 0.87655329704284668 0.72042191028594971
0.96745568513870239 0.95631074905395508 0.9107545018196106
0.076413758099079132 0.14564478397369385 0.079677969217300415
0.10789903998374939 0.26117223501205444 0.19026775658130646
0.1338985413312912 0.39690053462982178 0.36332032084465027
0.28268313407897949 0.57534420490264893 0.36505752801895142
0.62809586524963379 0.76136249303817749 0.51108771562576294
0.89312905073165894 0.88775622844696045 0.73739087581634521
0.96991050243377686 0.96501165628433228 0.92843908071517944
0.05606391653418541 0.081604734063148499 0.051088668406009674
0.094290591776371002 0.1855895072221756 0.11439033597707748
0.11758430302143097 0.30513700842857361 0.24661807715892792
0.16326889395713806 0.45739081501960754 0.39049211144447327
0.3783661425113678 0.64998304843902588 0.37674018740653992
0.77057504653930664 0.82105374336242676 0.60441803932189941
0.92197436094284058 0.90362221002578735 0.77936679124832153
0.061086185276508331 0.096026822924613953 0.058121010661125183
0.09462960809469223 0.19812449812889099 0.129172682762146
0.12203726917505264 0.32675281167030334 0.28603971004486084
0.19940638542175293 0.48397588729858398 0.39088916778564453
0.41985580325126648 0.66819590330123901 0.39656472206115723
0.80212467908859253 0.83295273780822754 0.63141286373138428
0.94285392761230469 0.92513161897659302 0.83736902475357056
0.063731253147125244 0.10811226069927216 0.062907382845878601
0.10094249993562698 0.21450799703598022 0.13797514140605927
0.12985508143901825 0.35098052024841309 0.30284637212753296
0.23216897249221802 0.51365870237350464 0.38818293809890747
0.4671880304813385 0.69222599267959595 0.41416004300117493
0.83300596475601196 0.84983474016189575 0.65813851356506348
0.95295876264572144 0.93542873859405518 0.85677504539489746
0.069097854197025299 0.11711248010396957 0.064800739288330078
0.11012643575668335 0.23687471449375153 0.15658807754516602
0.13006410002708435 0.36476561427116394 0.3267732560634613
0.23991137742996216 0.53370684385299683 0.37885507941246033
0.53271943330764771 0.71729302406311035 0.4521338939666748
0.8618653416633606 0.86174285411834717 0.6877976655960083
0.96030634641647339 0.94586163759231567 0.88488423824310303
0.07436949759721756 0.13293562829494476 0.075963906943798065
0.10774216055870056 0.2439485490322113 0.16840249300003052
0.13082617521286011 0.38424041867256165 0.34768772125244141
0.26082080602645874 0.5607343316078186 0.36680841445922852
0.57451373338699341 0.73572558164596558 0.48382675647735596
0.88196384906768799 0.87276512384414673 0.71839898824691772
0.96426105499267578 0.95505249500274658 0.90794843435287476
0.079292714595794678 0.14927826821804047 0.082927748560905457
0.10957783460617065 0.26263973116874695 0.19355404376983643
0.13857240974903107 0.40658783912658691 0.37648802995681763
0.29765397310256958 0.58513396978378296 0.37096676230430603
0.62898653745651245 0.76069289445877075 0.51564198732376099
0.89889824390411377 0.88594192266464233 0.74109303951263428
0.97048193216323853 0.96159130334854126 0.91935241222381592
0.079404108226299286 0.16055651009082794 0.09109371155500412
0.11354196816682816 0.27820032835006714 0.20017449557781219
0.14678508043289185 0.41633546352386475 0.37867429852485657
0.30458709597587585 0.591805100440979 0.36763486266136169
0.66320890188217163 0.77664804458618164 0.53265714645385742
0.89856988191604614 0.89580839872360229 0.75435853004455566
0.97592335939407349 0.97239059209823608 0.94544655084609985
