assets/lut/others golden fade.cube
# Created by: G'MIC (https://gmic.eu)
TITLE "golden_fade"
# LUT size
LUT_3D_SIZE 7
# Data domain
DOMAIN_MIN 0.0 0.0 0.0
DOMAIN_MAX 1.0 1.0 1.0
# LUT data points
0.27862158417701721 0.12061171978712082 0.31530493497848511
0.46127653121948242 0.15725509822368622 0.34042143821716309
0.60786658525466919 0.18384943902492523 0.36362040042877197
0.72700959444046021 0.21267035603523254 0.38031178712844849
0.82136732339859009 0.2305934727191925 0.39589545130729675
0.89516365528106689 0.24044525623321533 0.41145977377891541
0.95514523983001709 0.27490618824958801 0.43168136477470398
0.35598981380462646 0.28203153610229492 0.36579549312591553
0.55863749980926514 0.32425400614738464 0.39156919717788696
0.68922215700149536 0.35405099391937256 0.40767431259155273
0.79612815380096436 0.39437142014503479 0.42660462856292725
0.8714868426322937 0.40772905945777893 0.44054996967315674
0.92939609289169312 0.43601790070533752 0.45712882280349731
0.96835356950759888 0.4794870913028717 0.48090934753417969
0.46677383780479431 0.46463233232498169 0.41148510575294495
0.62912338972091675 0.48774805665016174 0.43787950277328491
0.75915735960006714 0.52324426174163818 0.45649975538253784
0.8469582200050354 0.55308246612548828 0.47409471869468689
0.92094933986663818 0.59107929468154907 0.4877878725528717
0.95389574766159058 0.61838799715042114 0.5063939094543457
0.97963643074035645 0.67499548196792603 0.53987467288970947
0.52778017520904541 0.61500632762908936 0.44603350758552551
0.70296192169189453 0.65328633785247803 0.47624972462654114
0.80805599689483643 0.67496180534362793 0.48812985420227051
0.88942164182662964 0.71375298500061035 0.51065075397491455
0.93730956315994263 0.73038554191589355 0.51604914665222168
0.95696079730987549 0.7551693320274353 0.53404402732849121
0.96700173616409302 0.7836834192276001 0.56201887130737305
0.57683426141738892 0.74965423345565796 0.47801795601844788
0.75469440221786499 0.77955335378646851 0.50467956066131592
0.84479141235351562 0.79545968770980835 0.52457970380783081
0.90845191478729248 0.81860858201980591 0.54100716114044189
0.94862169027328491 0.83550971746444702 0.54899793863296509
0.96169817447662354 0.85420560836791992 0.56883418560028076
0.9606863260269165 0.86868047714233398 0.58051788806915283
0.67492544651031494 0.88815724849700928 0.52571922540664673
0.81403893232345581 0.88959765434265137 0.54399067163467407
0.88889080286026001 0.90316295623779297 0.56913554668426514
0.9541318416595459 0.92363601922988892 0.59516459703445435
0.96977180242538452 0.93988364934921265 0.60037088394165039
0.96953904628753662 0.9386284351348877 0.61286431550979614
0.97970849275588989 0.96343576908111572 0.64739149808883667
0.75505781173706055 0.98263406753540039 0.57832306623458862
0.87003135681152344 0.96051168441772461 0.59350800514221191
0.93387764692306519 0.96646797657012939 0.61144238710403442
0.98531955480575562 0.98668009042739868 0.63296663761138916
0.97209131717681885 0.97062718868255615 0.65015757083892822
0.96997576951980591 0.96880829334259033 0.66644066572189331
0.96780169010162354 0.96726804971694946 0.68740379810333252
0.26027780771255493 0.10194654017686844 0.36334908008575439
0.4525827169418335 0.12917867302894592 0.38642749190330505
0.58868563175201416 0.15030790865421295 0.40513911843299866
0.71947932243347168 0.18485802412033081 0.42647948861122131
0.81951570510864258 0.20519588887691498 0.44428563117980957
0.8919074535369873 0.21700827777385712 0.45904338359832764
0.9516681432723999 0.24389582872390747 0.47566354274749756
0.36013334989547729 0.28050652146339417 0.41740319132804871
0.56661158800125122 0.3237750232219696 0.44064781069755554
0.69792121648788452 0.35072055459022522 0.46187445521354675
0.79780834913253784 0.36806970834732056 0.47680029273033142
0.87930929660797119 0.40318724513053894 0.49414446949958801
0.94387602806091309 0.43936848640441895 0.51344436407089233
0.98146069049835205 0.48428457975387573 0.53853321075439453
0.46373739838600159 0.47397962212562561 0.46750977635383606
0.64008957147598267 0.5041007399559021 0.4862244725227356
0.7691352367401123 0.54207700490951538 0.50829792022705078
0.86466830968856812 0.57271486520767212 0.52838516235351562
0.91811758279800415 0.57975280284881592 0.53625756502151489
0.96794497966766357 0.61398136615753174 0.55454713106155396
0.98459374904632568 0.66304594278335571 0.58164650201797485
0.52303826808929443 0.62700945138931274 0.50201940536499023
0.70007288455963135 0.65874683856964111 0.52456724643707275
0.82319360971450806 0.69436377286911011 0.54635679721832275
0.90649658441543579 0.72537726163864136 0.56879812479019165
0.95322734117507935 0.73029321432113647 0.57519185543060303
0.97624152898788452 0.75716745853424072 0.59150040149688721
0.97833669185638428 0.79030466079711914 0.60987222194671631
0.60613256692886353 0.76936876773834229 0.54140841960906982
0.7683032751083374 0.79692691564559937 0.56093108654022217
0.85877484083175659 0.81387567520141602 0.57820409536361694
0.92569166421890259 0.83692622184753418 0.59952449798583984
0.97583544254302979 0.85554641485214233 0.61449152231216431
0.97957307100296021 0.87165158987045288 0.63038426637649536
0.97669458389282227 0.88403397798538208 0.64341670274734497
0.69626337289810181 0.90449744462966919 0.58686918020248413
0.82879573106765747 0.91031891107559204 0.60629415512084961
0.90801376104354858 0.92660129070281982 0.62553542852401733
0.95997834205627441 0.94230538606643677 0.64468967914581299
0.98218464851379395 0.95049357414245605 0.65942955017089844
0.97972524166107178 0.95335084199905396 0.67461377382278442
0.9809076189994812 0.96297788619995117 0.69396746158599854
0.76471030712127686 0.994193434715271 0.63869154453277588
0.89267760515213013 0.97685986757278442 0.65769320726394653
0.94574779272079468 0.97731095552444458 0.66499334573745728
0.98156648874282837 0.98497635126113892 0.67382752895355225
0.98175323009490967 0.98043465614318848 0.70287817716598511
0.98123317956924438 0.97883760929107666 0.72027790546417236
0.98193544149398804 0.98049330711364746 0.74338805675506592
0.26526370644569397 0.10807797312736511 0.42024317383766174
0.47156375646591187 0.14442236721515656 0.44732576608657837
0.61135607957839966 0.16611394286155701 0.46401575207710266
0.73097836971282959 0.17858690023422241 0.48087140917778015
0.83488178253173828 0.21139591932296753 0.50113457441329956
0.90620052814483643 0.22691574692726135 0.51637035608291626
0.97182399034500122 0.25774815678596497 0.53702938556671143
0.37563934922218323 0.29463082551956177 0.47653856873512268
0.58603572845458984 0.33360624313354492 0.4980168342590332
0.71167397499084473 0.35863324999809265 0.51746010780334473
0.81069403886795044 0.38835054636001587 0.53434032201766968
0.89259582757949829 0.41596600413322449 0.55332320928573608
0.95463603734970093 0.45397841930389404 0.572620689868927
0.98598778247833252 0.48175382614135742 0.59082967042922974
0.4743252694606781 0.48250880837440491 0.52283376455307007
0.66201448440551758 0.52073788642883301 0.54186302423477173
0.77882242202758789 0.55075740814208984 0.56157279014587402
0.8719819188117981 0.58423125743865967 0.58273988962173462
0.93352353572845459 0.59991705417633057 0.59745293855667114
0.98188358545303345 0.63670778274536133 0.61949533224105835
0.99242013692855835 0.685638427734375 0.64416772127151489
0.55778098106384277 0.63761734962463379 0.55953818559646606
0.7134900689125061 0.6731986403465271 0.57997268438339233
0.82761722803115845 0.70089036226272583 0.5981820821762085
0.91179263591766357 0.73247307538986206 0.62275415658950806
0.96756196022033691 0.74735546112060547 0.63763213157653809
0.98931872844696045 0.77702164649963379 0.65658861398696899
0.99031275510787964 0.81674087047576904 0.67737090587615967
0.60723245143890381 0.78034824132919312 0.59493178129196167
0.76279622316360474 0.80929207801818848 0.6160312294960022
0.87395304441452026 0.83241373300552368 0.63696199655532837
0.93777281045913696 0.85299181938171387 0.65771174430847168
0.9851069450378418 0.8683440089225769 0.67546200752258301
0.98836320638656616 0.88275176286697388 0.69228279590606689
0.98892110586166382 0.90445601940155029 0.71095496416091919
0.68804943561553955 0.90811359882354736 0.63880062103271484
0.83203953504562378 0.92646181583404541 0.66521996259689331
0.92120891809463501 0.93943637609481812 0.68854498863220215
0.96567237377166748 0.95064002275466919 0.70463389158248901
0.9888264536857605 0.95960062742233276 0.71594721078872681
0.98823529481887817 0.9666975736618042 0.73446142673492432
0.98933309316635132 0.9734804630279541 0.7524840235710144
0.76847219467163086 0.99480253458023071 0.68920260667800903
0.89095866680145264 0.98277276754379272 0.7130502462387085
0.96398025751113892 0.98866194486618042 0.7344212532043457
0.98280507326126099 0.98898637294769287 0.73904150724411011
0.98820602893829346 0.9878419041633606 0.75590544939041138
0.98823529481887817 0.98482030630111694 0.77577090263366699
0.9882928729057312 0.98567104339599609 0.80109971761703491
0.27123048901557922 0.11165556311607361 0.47475606203079224
0.48046430945396423 0.14723372459411621 0.50221872329711914
0.61822861433029175 0.16546952724456787 0.51876246929168701
0.74072587490081787 0.19008900225162506 0.53673350811004639
0.84060424566268921 0.21178270876407623 0.55531805753707886
0.91682440042495728 0.25169616937637329 0.57612228393554688
0.97950321435928345 0.27723994851112366 0.59176486730575562
0.37446120381355286 0.29666820168495178 0.52985858917236328
0.59048473834991455 0.34313008189201355 0.55656158924102783
0.72055888175964355 0.36685666441917419 0.57324755191802979
0.82350379228591919 0.40308830142021179 0.59052014350891113
0.90052312612533569 0.42587858438491821 0.6082388162612915
0.95828545093536377 0.45379668474197388 0.62386089563369751
0.99041903018951416 0.4887719452381134 0.64682686328887939
0.47864416241645813 0.49077343940734863 0.57703661918640137
0.66546726226806641 0.53079980611801147 0.59835666418075562
0.78677237033843994 0.56283974647521973 0.61925709247589111
0.88793587684631348 0.60724323987960815 0.64297938346862793
0.94429147243499756 0.62373858690261841 0.65779763460159302
0.99135875701904297 0.65774255990982056 0.67580300569534302
0.99826854467391968 0.70514392852783203 0.70325666666030884
0.5536385178565979 0.64652585983276367 0.61302918195724487
0.73208785057067871 0.68938875198364258 0.63856428861618042
0.83464598655700684 0.71315145492553711 0.65780174732208252
0.92007529735565186 0.74032831192016602 0.6789175271987915
0.976246178150177 0.77107834815979004 0.70069479942321777
0.99315983057022095 0.79283541440963745 0.71755200624465942
0.99260514974594116 0.82409918308258057 0.72962254285812378
0.6304621696472168 0.78900611400604248 0.65234148502349854
0.80620187520980835 0.82928919792175293 0.67788898944854736
0.88297384977340698 0.84288471937179565 0.69531482458114624
0.95282077789306641 0.86325693130493164 0.71605390310287476
0.98543375730514526 0.88041204214096069 0.7343248724937439
0.99171572923660278 0.89192819595336914 0.75091910362243652
0.9926835298538208 0.91237831115722656 0.76679843664169312
0.70865768194198608 0.91853433847427368 0.69826465845108032
0.85293292999267578 0.94205832481384277 0.72469604015350342
0.93203091621398926 0.94839680194854736 0.74635034799575806
0.97460460662841797 0.95630013942718506 0.75545799732208252
0.9888908863067627 0.96328085660934448 0.76696163415908813
0.99200189113616943 0.96638625860214233 0.77967500686645508
0.99495041370391846 0.98165857791900635 0.80448269844055176
0.76707679033279419 0.99474847316741943 0.7413022518157959
0.89702576398849487 0.98863834142684937 0.7684130072593689
0.96204233169555664 0.99062752723693848 0.78067362308502197
0.97822868824005127 0.97922682762145996 0.77085214853286743
0.98729032278060913 0.9750206470489502 0.7735028862953186
0.99215686321258545 0.9832414984703064 0.79927891492843628
0.99301975965499878 0.98982971906661987 0.82899731397628784
0.28239578008651733 0.11637914180755615 0.53018099069595337
0.49578946828842163 0.15225216746330261 0.55662190914154053
0.63061219453811646 0.18064424395561218 0.57541179656982422
0.74629026651382446 0.19395549595355988 0.58983355760574341
0.84323292970657349 0.2190721333026886 0.61008495092391968
0.91503691673278809 0.24191297590732574 0.62741535902023315
0.96986925601959229 0.26576471328735352 0.64169782400131226
0.39209726452827454 0.30022761225700378 0.58577603101730347
0.59704792499542236 0.33720290660858154 0.60689473152160645
0.72864347696304321 0.380118727684021 0.62826049327850342
0.82718271017074585 0.41563829779624939 0.64976435899734497
0.89939874410629272 0.4305330216884613 0.66098451614379883
0.95893675088882446 0.46360626816749573 0.67996031045913696
0.99057173728942871 0.50539791584014893 0.70382672548294067
0.49444580078125 0.49971833825111389 0.63207250833511353
0.67427486181259155 0.53107386827468872 0.65117037296295166
0.79564452171325684 0.56721055507659912 0.67356038093566895
0.8822019100189209 0.60229361057281494 0.69357752799987793
0.94153201580047607 0.62762856483459473 0.70441991090774536
0.9822421669960022 0.65662926435470581 0.72557204961776733
0.99604237079620361 0.68563342094421387 0.74530982971191406
0.57261174917221069 0.65659207105636597 0.6697048544883728
0.7496330738067627 0.69677573442459106 0.6983715295791626
0.84423094987869263 0.72584784030914307 0.71605664491653442
0.92297953367233276 0.74853086471557617 0.73279112577438354
0.96103417873382568 0.76438641548156738 0.74722868204116821
0.99044454097747803 0.79365688562393188 0.76818931102752686
0.99325919151306152 0.81106102466583252 0.7787899374961853
0.62856262922286987 0.79261219501495361 0.70612818002700806
0.79233384132385254 0.82727688550949097 0.73341387510299683
0.89218652248382568 0.85155236721038818 0.75343382358551025
0.95486730337142944 0.86963927745819092 0.77196401357650757
0.97789621353149414 0.88376212120056152 0.7882353663444519
0.99172961711883545 0.90297514200210571 0.8060917854309082
0.99530130624771118 0.92408716678619385 0.82867038249969482
0.6900603175163269 0.91593796014785767 0.74888443946838379
0.85770237445831299 0.93671834468841553 0.7779240608215332
0.93072909116744995 0.9469035267829895 0.79377931356430054
0.96843266487121582 0.94338744878768921 0.79479342699050903
0.98710966110229492 0.95500004291534424 0.80829161405563354
0.99317961931228638 0.96799904108047485 0.82949310541152954
0.9959331750869751 0.970478355884552 0.84611761569976807
0.76734739542007446 0.99644219875335693 0.79779648780822754
0.90589421987533569 0.98849856853485107 0.82315808534622192
0.95819395780563354 0.98183399438858032 0.83213073015213013
0.97266292572021484 0.9600675106048584 0.80607318878173828
0.9837186336517334 0.95586103200912476 0.80413752794265747
0.99210155010223389 0.97677546739578247 0.831656813621521
0.99719858169555664 0.99452286958694458 0.86189252138137817
0.3008008599281311 0.12057571113109589 0.58030444383621216
0.50169932842254639 0.16164837777614594 0.60629642009735107
0.62775731086730957 0.17189686000347137 0.62016540765762329
0.74907922744750977 0.1994117796421051 0.64153861999511719
0.84391051530838013 0.22458682954311371 0.65893661975860596
0.90981817245483398 0.2478213906288147 0.67370903491973877
0.96284931898117065 0.27852088212966919 0.69253230094909668
0.41235575079917908 0.3123842179775238 0.63876819610595703
0.60321706533432007 0.35295987129211426 0.65906661748886108
0.72610205411911011 0.3767237663269043 0.67415589094161987
0.82158571481704712 0.40004509687423706 0.69280576705932617
0.90186530351638794 0.44346511363983154 0.71367496252059937
0.95917129516601562 0.46972230076789856 0.72841823101043701
0.984139084815979 0.5063166618347168 0.74838995933532715
0.50507211685180664 0.51012057065963745 0.68457192182540894
0.68887746334075928 0.54325991868972778 0.70174932479858398
0.79763519763946533 0.57384175062179565 0.72476834058761597
0.88129955530166626 0.59815073013305664 0.74414551258087158
0.9374275803565979 0.6262316107749939 0.75746840238571167
0.98062390089035034 0.66022855043411255 0.77525383234024048
0.9906003475189209 0.69229483604431152 0.79530227184295654
0.56463921070098877 0.65574514865875244 0.71761143207550049
0.73691654205322266 0.69644516706466675 0.74208700656890869
0.84828752279281616 0.73335558176040649 0.7660975456237793
0.92091101408004761 0.75387281179428101 0.78787791728973389
0.95956689119338989 0.7657628059387207 0.79627805948257446
0.98227310180664062 0.78875017166137695 0.80866450071334839
0.98899257183074951 0.81726467609405518 0.83162939548492432
0.62707138061523438 0.79246717691421509 0.7560160756111145
0.79252141714096069 0.82596719264984131 0.78453999757766724
0.88785398006439209 0.85491836071014404 0.80384844541549683
0.94600069522857666 0.86320078372955322 0.81943249702453613
0.97762572765350342 0.88209313154220581 0.8373299241065979
0.98005282878875732 0.88314700126647949 0.83904188871383667
0.98624807596206665 0.91672641038894653 0.85190701484680176
0.71072351932525635 0.91602843999862671 0.79873442649841309
0.85304290056228638 0.93017864227294922 0.81802248954772949
0.92434000968933105 0.94330954551696777 0.82811123132705688
0.96271735429763794 0.93813115358352661 0.84044080972671509
0.98442810773849487 0.95475190877914429 0.85555058717727661
0.98142915964126587 0.94690960645675659 0.85666006803512573
0.98674339056015015 0.96307539939880371 0.86272144317626953
0.78333038091659546 0.99067997932434082 0.84766596555709839
0.90979683399200439 0.98209387063980103 0.86186373233795166
0.94973176717758179 0.97510015964508057 0.85481303930282593
0.96475684642791748 0.95819175243377686 0.83591258525848389
0.97751981019973755 0.95591586828231812 0.83490383625030518
0.98258429765701294 0.96256589889526367 0.85507714748382568
0.98554253578186035 0.981223464012146 0.86678522825241089
0.29669979214668274 0.12303697317838669 0.62274956703186035
0.50424867868423462 0.16232046484947205 0.64588743448257446
0.62622499465942383 0.17705592513084412 0.66080272197723389
0.74664163589477539 0.20267528295516968 0.68189477920532227
0.83459967374801636 0.22709845006465912 0.69544816017150879
0.90179210901260376 0.25173330307006836 0.71078068017959595
0.95055204629898071 0.2711237370967865 0.72903764247894287
0.40745663642883301 0.3138338029384613 0.68213182687759399
0.60308879613876343 0.34659537672996521 0.69610553979873657
0.71960854530334473 0.37652415037155151 0.71383655071258545
0.81737542152404785 0.40942668914794922 0.73404407501220703
0.88826620578765869 0.43496796488761902 0.74687927961349487
0.94786196947097778 0.47773268818855286 0.76994425058364868
0.96537429094314575 0.5008774995803833 0.78611773252487183
0.50900769233703613 0.50789523124694824 0.7261841893196106
0.69830048084259033 0.55175542831420898 0.74821943044662476
0.79330074787139893 0.57278728485107422 0.75687563419342041
0.87751883268356323 0.60911780595779419 0.78802359104156494
0.93457937240600586 0.62897771596908569 0.80235582590103149
0.96775674819946289 0.64918738603591919 0.80906516313552856
0.97166919708251953 0.69667154550552368 0.83875179290771484
0.57258409261703491 0.65781897306442261 0.76238906383514404
0.75179272890090942 0.70653468370437622 0.79034632444381714
0.83387213945388794 0.71665459871292114 0.79332655668258667
0.9109349250793457 0.7491115927696228 0.82109373807907104
0.96518385410308838 0.77806305885314941 0.84162312746047974
0.96802294254302979 0.78531277179718018 0.83702117204666138
0.97202593088150024 0.82887500524520874 0.85165214538574219
0.63444626331329346 0.79013866186141968 0.79936915636062622
0.78808069229125977 0.82570928335189819 0.82492309808731079
0.88631486892700195 0.84480136632919312 0.84481769800186157
0.93441951274871826 0.85314100980758667 0.83817464113235474
0.96749609708786011 0.8661348819732666 0.84635049104690552
0.96896481513977051 0.88941794633865356 0.84955966472625732
0.9720834493637085 0.90577030181884766 0.85122549533843994
0.7053336501121521 0.90317451953887939 0.83517396450042725
0.85456556081771851 0.9250938892364502 0.84929323196411133
0.92566394805908203 0.94401222467422485 0.85725957155227661
0.95260137319564819 0.93111920356750488 0.85109621286392212
0.96900182962417603 0.93054938316345215 0.85097402334213257
0.97264093160629272 0.96069914102554321 0.85483700037002563
0.97340679168701172 0.96801471710205078 0.85525333881378174
0.77708727121353149 0.9728284478187561 0.86138671636581421
0.89162087440490723 0.97180324792861938 0.85876381397247314
0.94967091083526611 0.97703760862350464 0.86300170421600342
0.95839071273803711 0.96275383234024048 0.85206449031829834
0.96893817186355591 0.9615979790687561 0.85094302892684937
0.96816331148147583 0.96235007047653198 0.85082370042800903
0.96412420272827148 0.96119791269302368 0.84825462102890015
