assets/lut/others sunny warm.cube
# Created by: G'MIC (https://gmic.eu)
TITLE "sunny_warm"
# LUT size
LUT_3D_SIZE 5
# Data domain
DOMAIN_MIN 0.0 0.0 0.0
DOMAIN_MAX 1.0 1.0 1.0
# LUT data points
0.07556413859128952 0.059287726879119873 0.048680145293474197
0.3344414234161377 0.085149757564067841 0.052773524075746536
0.57522773742675781 0.11914835870265961 0.044674504548311234
0.7858583927154541 0.14522391557693481 0.038439925760030746
0.95357972383499146 0.18924953043460846 0.04911741241812706
0.21376766264438629 0.32418739795684814 0.056678786873817444
0.43444836139678955 0.34327876567840576 0.048871584236621857
0.65074557065963745 0.37759372591972351 0.055631913244724274
0.83408623933792114 0.40589001774787903 0.051521331071853638
0.9644884467124939 0.44028913974761963 0.06970939040184021
0.33229449391365051 0.55894076824188232 0.03278350830078125
0.54807645082473755 0.59452331066131592 0.05407421663403511
0.7072596549987793 0.58952385187149048 0.047005806118249893
0.85697013139724731 0.61194038391113281 0.044353663921356201
0.9741286039352417 0.64520090818405151 0.057909663766622543
0.47480234503746033 0.77430790662765503 0.041370227932929993
0.6512874960899353 0.79306596517562866 0.053473170846700668
0.79632210731506348 0.81356310844421387 0.052461422979831696
0.89877825975418091 0.80861937999725342 0.052076153457164764
0.96852928400039673 0.82122868299484253 0.051424227654933929
0.58561223745346069 0.94200634956359863 0.035735845565795898
0.75329053401947021 0.96091991662979126 0.051162749528884888
0.86600375175476074 0.95980668067932129 0.054111510515213013
0.93693417310714722 0.95441961288452148 0.045563161373138428
0.9562300443649292 0.94119864702224731 0.030865553766489029
0.087085708975791931 0.062275592237710953 0.2499338835477829
0.3316461443901062 0.083859160542488098 0.24208240211009979
0.58414727449417114 0.13158804178237915 0.25050744414329529
0.79054075479507446 0.16068105399608612 0.25612512230873108
0.94610965251922607 0.19318953156471252 0.26284617185592651
0.21247069537639618 0.31869548559188843 0.25635650753974915
0.45289802551269531 0.3487076461315155 0.26418733596801758
0.6572260856628418 0.38312500715255737 0.26099333167076111
0.83574724197387695 0.41304492950439453 0.26321566104888916
0.97045689821243286 0.44831675291061401 0.27723759412765503
0.35250291228294373 0.56950366497039795 0.25306147336959839
0.56334495544433594 0.59637761116027832 0.27195525169372559
0.74323499202728271 0.6268349289894104 0.28660941123962402
0.88265913724899292 0.63981515169143677 0.26855158805847168
0.96209442615509033 0.64244025945663452 0.27260434627532959
0.49165421724319458 0.78449517488479614 0.26076781749725342
0.67179876565933228 0.80297225713729858 0.26346585154533386
0.80558949708938599 0.8101688027381897 0.26447436213493347
0.91251730918884277 0.81914806365966797 0.26643466949462891
0.97290945053100586 0.8243870735168457 0.26601460576057434
0.62388843297958374 0.95812410116195679 0.27452316880226135
0.77924996614456177 0.97010791301727295 0.2830258309841156
0.86341023445129395 0.95141249895095825 0.25753593444824219
0.95983564853668213 0.96698379516601562 0.28108227252960205
0.97732734680175781 0.96332114934921265 0.27082890272140503
0.10673099756240845 0.069388538599014282 0.48576924204826355
0.36868661642074585 0.11123145371675491 0.49781504273414612
0.59655070304870605 0.13666561245918274 0.48640227317810059
0.79542452096939087 0.1738881915807724 0.48219627141952515
0.93861466646194458 0.19838738441467285 0.47986879944801331
0.23709417879581451 0.32795929908752441 0.48843920230865479
0.46442392468452454 0.35931512713432312 0.49191015958786011
0.66307914257049561 0.37931329011917114 0.48671746253967285
0.8568732738494873 0.43853521347045898 0.5121161937713623
0.96085560321807861 0.4389500617980957 0.49994799494743347
0.37303411960601807 0.57567352056503296 0.48456847667694092
0.57199180126190186 0.59622073173522949 0.48884615302085876
0.74467229843139648 0.61997753381729126 0.49821999669075012
0.89165478944778442 0.64585572481155396 0.49975588917732239
0.97102844715118408 0.6628720760345459 0.5058179497718811
0.49730876088142395 0.77694350481033325 0.47933146357536316
0.67792743444442749 0.80464309453964233 0.49561804533004761
0.81846684217453003 0.81411242485046387 0.49728679656982422
0.92700064182281494 0.82524514198303223 0.5013543963432312
0.96938997507095337 0.82787299156188965 0.48901915550231934
0.6421128511428833 0.9480101466178894 0.4945407509803772
0.79749828577041626 0.97514849901199341 0.52060520648956299
0.87892001867294312 0.95253849029541016 0.50060570240020752
0.94437879323959351 0.94757258892059326 0.48958107829093933
0.97755205631256104 0.96650201082229614 0.49280691146850586
0.12506163120269775 0.083420321345329285 0.72577530145645142
0.36304810643196106 0.09823126345872879 0.70574980974197388
0.60420000553131104 0.14923445880413055 0.71729356050491333
0.79058897495269775 0.17151573300361633 0.7103767991065979
0.94905835390090942 0.20507402718067169 0.71135514974594116
0.25185000896453857 0.33667537569999695 0.71816176176071167
0.48749297857284546 0.37259837985038757 0.72667241096496582
0.67809730768203735 0.39923268556594849 0.72961246967315674
0.83920729160308838 0.41144505143165588 0.72068315744400024
0.97631466388702393 0.4696337878704071 0.74434322118759155
0.3861272931098938 0.5733606219291687 0.71808403730392456
0.57224977016448975 0.58737313747406006 0.71290165185928345
0.75854653120040894 0.62315744161605835 0.7340964674949646
0.89704161882400513 0.64976567029953003 0.73642241954803467
0.96489238739013672 0.65807545185089111 0.72413992881774902
0.53112787008285522 0.79474747180938721 0.72519010305404663
0.69753414392471313 0.81303137540817261 0.72917342185974121
0.82747101783752441 0.81385940313339233 0.73083174228668213
0.92029052972793579 0.82152986526489258 0.72405922412872314
0.97272056341171265 0.82835608720779419 0.72269773483276367
0.67663800716400146 0.96722233295440674 0.7435753345489502
0.78560876846313477 0.95457464456558228 0.72336423397064209
0.89235621690750122 0.96181732416152954 0.73572903871536255
0.95396703481674194 0.9587133526802063 0.72714138031005859
0.9754524827003479 0.95803165435791016 0.72409260272979736
0.14525756239891052 0.097723685204982758 0.94293081760406494
0.39891767501831055 0.12403709441423416 0.94740194082260132
0.6132122278213501 0.15096090734004974 0.93372118473052979
0.81908291578292847 0.19692739844322205 0.94906896352767944
0.95864439010620117 0.22262562811374664 0.94687533378601074
0.2704203724861145 0.34640133380889893 0.93605494499206543
0.49173435568809509 0.370656818151474 0.93495422601699829
0.70712524652481079 0.42004898190498352 0.96115618944168091
0.8500322699546814 0.43073558807373047 0.93724393844604492
0.97303205728530884 0.46734920144081116 0.95345920324325562
0.39666473865509033 0.57040750980377197 0.93072932958602905
0.59772467613220215 0.60851263999938965 0.94691318273544312
0.78018873929977417 0.65156561136245728 0.95601260662078857
0.86736929416656494 0.62281286716461182 0.92936700582504272
0.98463058471679688 0.67930120229721069 0.95798897743225098
0.55232733488082886 0.80067169666290283 0.94332790374755859
0.70427966117858887 0.80946928262710571 0.95356404781341553
0.84949016571044922 0.83209222555160522 0.95518302917480469
0.92864251136779785 0.83200562000274658 0.94398659467697144
0.98173844814300537 0.84903466701507568 0.94818061590194702
0.69028574228286743 0.96466881036758423 0.9565880298614502
0.81485724449157715 0.96551352739334106 0.95849072933197021
0.91226005554199219 0.97177433967590332 0.95552068948745728
0.97083860635757446 0.97100180387496948 0.94612675905227661
0.97935754060745239 0.96656447649002075 0.94723302125930786
