assets/lut/others lomo.cube
# Created by: G'MIC (https://gmic.eu)
TITLE "lomo"
# LUT size
LUT_3D_SIZE 5
# Data domain
DOMAIN_MIN 0.0 0.0 0.0
DOMAIN_MAX 1.0 1.0 1.0
# LUT data points
0 0.0028607237618416548 0.11906474828720093
0.1318199634552002 0.00087079813238233328 0.11948734521865845
0.42008063197135925 0 0.11726877838373184
0.77756482362747192 0 0.11589904129505157
1 0.00014935662329662591 0.1187407523393631
0 0.10322187840938568 0.11756729334592819
0.13668814301490784 0.087880872189998627 0.11790180951356888
0.42147025465965271 0.084004588425159454 0.11878956854343414
0.77836984395980835 0.087296612560749054 0.11835841834545135
1 0.10097925364971161 0.12175223976373672
0 0.40151157975196838 0.11951982229948044
0.12750244140625 0.39365437626838684 0.11994805186986923
0.4174475371837616 0.39077368378639221 0.12193403393030167
0.80268704891204834 0.39016258716583252 0.1185019388794899
1 0.39667060971260071 0.11752451211214066
0 0.80339324474334717 0.12330292165279388
0.13107611238956451 0.80626916885375977 0.12266372889280319
0.41643846035003662 0.81394445896148682 0.12232115864753723
0.80089378356933594 0.80403691530227661 0.12164562195539474
1 0.79564714431762695 0.11789381504058838
0 0.99328464269638062 0.12407810240983963
0.14536106586456299 0.99872773885726929 0.11787126958370209
0.41940423846244812 1 0.12156686186790466
0.80588489770889282 1 0.12068433314561844
0.9974360466003418 1 0.12012133002281189
0.00069233012618497014 0 0.18051621317863464
0.14297270774841309 0.00041019215132109821 0.17640094459056854
0.41945245862007141 0 0.17745688557624817
0.78193014860153198 0 0.1803620308637619
1 0.0013094434980303049 0.19053338468074799
0 0.085065118968486786 0.17753264307975769
0.14421689510345459 0.087135881185531616 0.17910368740558624
0.41697573661804199 0.086329683661460876 0.17718222737312317
0.78261232376098633 0.079821549355983734 0.17932447791099548
1 0.09784216433763504 0.18349243700504303
0 0.39096134901046753 0.17498482763767242
0.13513121008872986 0.38829746842384338 0.17634804546833038
0.41750708222389221 0.38786482810974121 0.17643788456916809
0.80466389656066895 0.38787379860877991 0.17737451195716858
1 0.39324113726615906 0.18212726712226868
0 0.80911040306091309 0.17552098631858826
0.13979761302471161 0.80600780248641968 0.1795022040605545
0.42079171538352966 0.80811864137649536 0.1771446019411087
0.78130239248275757 0.80738347768783569 0.17601938545703888
1 0.80191230773925781 0.1816193163394928
0 1 0.1822509765625
0.14069683849811554 0.99998438358306885 0.17799076437950134
0.41906583309173584 1 0.17773328721523285
0.80426549911499023 0.99921107292175293 0.17727392911911011
1 0.99922323226928711 0.18392108380794525
0 0.00030356014030985534 0.33892965316772461
0.13951776921749115 2.423454679956194e-05 0.32142624258995056
0.42192196846008301 0 0.32627588510513306
0.78672629594802856 0.00044412052375264466 0.32461825013160706
1 0.00029871324659325182 0.34220466017723083
0 0.085811272263526917 0.32676252722740173
0.13284872472286224 0.085821039974689484 0.32414877414703369
0.4169718325138092 0.084708012640476227 0.3235836923122406
0.7785952091217041 0.082785770297050476 0.32276111841201782
1 0.09502410888671875 0.33293983340263367
0 0.38918417692184448 0.32587048411369324
0.13172039389610291 0.38667950034141541 0.32498660683631897
0.41714632511138916 0.39133679866790771 0.32426470518112183
0.79541236162185669 0.39016032218933105 0.32383182644844055
1 0.39357027411460876 0.33522516489028931
0 0.80687606334686279 0.32688716053962708
0.13900350034236908 0.80755889415740967 0.32458820939064026
0.41818317770957947 0.80734384059906006 0.32472062110900879
0.79601460695266724 0.8114769458770752 0.3227328360080719
1 0.7955513596534729 0.33684632182121277
0 0.9996415376663208 0.33088696002960205
0.13392341136932373 0.99692094326019287 0.32343313097953796
0.41894915699958801 1 0.32705563306808472
0.78258496522903442 1 0.32737988233566284
1 0.99955195188522339 0.34675750136375427
0 0 0.65671169757843018
0.12990233302116394 0 0.6457594633102417
0.42428910732269287 0.0001537547359475866 0.64837318658828735
0.79971390962600708 9.1193702246528119e-05 0.65724307298660278
1 0.00031343346927314997 0.6574702262878418
0 0.083009772002696991 0.64279389381408691
0.13186274468898773 0.080657899379730225 0.64315611124038696
0.41675403714179993 0.085633374750614166 0.64079195261001587
0.79761409759521484 0.08086000382900238 0.63861775398254395
1 0.089082129299640656 0.64149922132492065
0 0.39273041486740112 0.6438712477684021
0.12837544083595276 0.3899877667427063 0.63857060670852661
0.4130885899066925 0.39147338271141052 0.63948285579681396
0.78371745347976685 0.39273309707641602 0.63970637321472168
1 0.39023229479789734 0.64172989130020142
0 0.80942451953887939 0.64473241567611694
0.13868582248687744 0.81022936105728149 0.64316445589065552
0.41766998171806335 0.80371487140655518 0.64752215147018433
0.79831451177597046 0.81320083141326904 0.64382302761077881
1 0.80076956748962402 0.65371596813201904
0 1 0.652271568775177
0.1416151374578476 1 0.64639067649841309
0.42397436499595642 0.99966967105865479 0.64342802762985229
0.79939526319503784 0.99985349178314209 0.64415115118026733
1 0.99950814247131348 0.66097491979598999
0.0043064341880381107 6.0676124121528119e-05 1
0.13909895718097687 0 0.99824434518814087
0.42133262753486633 0.00083185831317678094 0.99891203641891479
0.78033846616744995 0.0031843746546655893 0.99983662366867065
1 0.00046284994459711015 1
0 0.09479089081287384 1
0.14643724262714386 0.087914317846298218 1
0.42126160860061646 0.090824723243713379 1
0.77593398094177246 0.091152563691139221 1
0.99616891145706177 0.09768136590719223 1
0 0.38959816098213196 1
0.13954861462116241 0.39006832242012024 1
0.4208102822303772 0.38955101370811462 1
0.7834358811378479 0.39126724004745483 1
0.99983543157577515 0.40032410621643066 1
0.0007771211676299572 0.79807257652282715 1
0.14791303873062134 0.80042022466659546 1
0.41993239521980286 0.80470383167266846 1
0.79541540145874023 0.80519300699234009 1
0.99974459409713745 0.80563294887542725 1
0.00044359694584272802 0.99825501441955566 1
0.14009927213191986 0.99751871824264526 1
0.41878902912139893 0.99880510568618774 1
0.78049832582473755 0.99241894483566284 1
0.98919475078582764 0.99685770273208618 1
