assets/lut/others rotated.cube
# Created by: G'MIC (https://gmic.eu)
TITLE "rotated"
# LUT size
LUT_3D_SIZE 5
# Data domain
DOMAIN_MIN 0.0 0.0 0.0
DOMAIN_MAX 1.0 1.0 1.0
# LUT data points
0.011783345602452755 0.023298494517803192 0.013148738071322441
0.20448119938373566 0.005636267364025116 0.172323077917099
0.45518326759338379 0.00024512797244824469 0.42831158638000488
0.7144324779510498 0 0.68994075059890747
0.97677016258239746 0 0.94567197561264038
0.0087609384208917618 0.22256180644035339 0.0024458493571728468
0.23252572119235992 0.1278417706489563 0.017521457746624947
0.45341706275939941 0.0094393407925963402 0.068038985133171082
0.73491930961608887 0.0046834759414196014 0.29889991879463196
0.98208564519882202 0.0024229611735790968 0.54121881723403931
0.010324814356863499 0.45797345042228699 0.0054044085554778576
0.27954381704330444 0.45650443434715271 0.015127833001315594
0.49683618545532227 0.30565077066421509 0.024534488096833229
0.73883640766143799 0.069755285978317261 0.016255995258688927
0.97233575582504272 0.0091341054067015648 0.15293240547180176
0.014925654046237469 0.72421574592590332 0.00012368595344014466
0.28476479649543762 0.73388803005218506 0.0063172285445034504
0.61846262216567993 0.72455000877380371 0.010571244172751904
0.7572561502456665 0.48313426971435547 0.030980173498392105
0.98418188095092773 0.2190413624048233 0.023355536162853241
0.018553804606199265 0.97206753492355347 0.00023336971935350448
0.27903711795806885 0.97880691289901733 0.0048002353869378567
0.66264635324478149 0.97186785936355591 0.010990756563842297
0.97810417413711548 0.96460902690887451 0.016757126897573471
0.98631894588470459 0.65279209613800049 0.045041266828775406
0.00843048095703125 0.030692875385284424 0.20386767387390137
0.14280514419078827 0.042010214179754257 0.234212726354599
0.36206305027008057 0.039167515933513641 0.45025962591171265
0.62658405303955078 0.025851454585790634 0.72413825988769531
0.89161056280136108 0.010914941318333149 0.97238254547119141
0.0090223122388124466 0.23181283473968506 0.032216913998126984
0.20110942423343658 0.210972860455513 0.20672962069511414
0.4512399435043335 0.17169669270515442 0.42057985067367554
0.72327548265457153 0.13878875970840454 0.6923261284828186
0.9763140082359314 0.12183007597923279 0.95633929967880249
0.01144937239587307 0.46455934643745422 0.011194251477718353
0.20075160264968872 0.45714452862739563 0.15912316739559174
0.48023441433906555 0.37263292074203491 0.22628270089626312
0.72707098722457886 0.20369824767112732 0.2941133975982666
0.97207874059677124 0.17911919951438904 0.56599891185760498
0.0096711702644824982 0.73382681608200073 0.0039215688593685627
0.18252095580101013 0.73743140697479248 0.14012803137302399
0.54085695743560791 0.73088502883911133 0.19727092981338501
0.76361083984375 0.57230037450790405 0.23393124341964722
0.98051106929779053 0.31447538733482361 0.21554680168628693
0.0042328629642724991 0.98991477489471436 0.0058055352419614792
0.15086939930915833 0.98009473085403442 0.10191281139850616
0.52747160196304321 0.97441637516021729 0.17736457288265228
0.90210223197937012 0.96989887952804565 0.216126948595047
0.99393147230148315 0.7405131459236145 0.24335339665412903
0.0091151818633079529 0.024896195158362389 0.45555469393730164
0.13069306313991547 0.037875846028327942 0.45138102769851685
0.31693887710571289 0.11192642152309418 0.48801499605178833
0.55200374126434326 0.10298051685094833 0.73538506031036377
0.79866945743560791 0.081252649426460266 0.96914100646972656
0.0024427527096122503 0.41745942831039429 0.42379632592201233
0.1746918112039566 0.2142702043056488 0.4508310854434967
0.3873043954372406 0.26413702964782715 0.48448437452316284
0.62622153759002686 0.25369790196418762 0.72876977920532227
0.8816412091255188 0.22565007209777832 0.9705849289894104
0.002592812292277813 0.49032002687454224 0.029099887236952782
0.17911604046821594 0.4837697446346283 0.22002705931663513
0.45204594731330872 0.45370116829872131 0.45523342490196228
0.71865701675415039 0.420217365026474 0.69140481948852539
0.96778863668441772 0.39568838477134705 0.96109652519226074
0.011611100286245346 0.7369917631149292 0.013757533393800259
0.15079005062580109 0.72971212863922119 0.14867110550403595
0.46267843246459961 0.73263227939605713 0.41521733999252319
0.76489752531051636 0.62700718641281128 0.4692903459072113
0.97376519441604614 0.4549839198589325 0.54565948247909546
0.0039254431612789631 0.9872862696647644 0.005749422125518322
0.14009016752243042 0.96899747848510742 0.1304265558719635
0.41457211971282959 0.97555708885192871 0.38464394211769104
0.82176655530929565 0.97537362575531006 0.44519776105880737
0.99363833665847778 0.85681831836700439 0.49250370264053345
0.0012634876184165478 0.014262299984693527 0.71969491243362427
0.12854471802711487 0.025894120335578918 0.72915267944335938
0.31734186410903931 0.10789813101291656 0.72362589836120605
0.5037003755569458 0.18625298142433167 0.75746697187423706
0.72908765077590942 0.17960216104984283 0.97996985912322998
0.0045232884585857391 0.45401492714881897 0.745472252368927
0.14269617199897766 0.18738850951194763 0.72959858179092407
0.38085255026817322 0.25382688641548157 0.73033857345581055
0.5673530101776123 0.33565804362297058 0.74919432401657104
0.80578267574310303 0.32453727722167969 0.97060686349868774
0.002010345458984375 0.73301059007644653 0.4594113826751709
0.14876680076122284 0.69486689567565918 0.6909986138343811
0.42659595608711243 0.45799896121025085 0.72727358341217041
0.65680408477783203 0.52715575695037842 0.76245808601379395
0.89569449424743652 0.51111763715744019 0.97113281488418579
0.0024141347967088223 0.76748812198638916 0.02360159158706665
0.15357798337936401 0.75216388702392578 0.20003494620323181
0.42451867461204529 0.75653034448623657 0.47060143947601318
0.72314751148223877 0.73399341106414795 0.7441636323928833
0.97268372774124146 0.69435411691665649 0.95254594087600708
0.0020087596494704485 0.98715722560882568 0.0067838779650628567
0.13566754758358002 0.98437058925628662 0.13562090694904327
0.4201565682888031 0.97782152891159058 0.41410878300666809
0.7268860936164856 0.97164607048034668 0.67308396100997925
0.99381637573242188 0.93249070644378662 0.73807066679000854
0.0060885860584676266 0.015363491140305996 0.96917515993118286
0.10848059505224228 0.013822922483086586 0.97750216722488403
0.32267022132873535 0.083534687757492065 0.98851388692855835
0.52507877349853516 0.18575452268123627 0.97034651041030884
0.68975245952606201 0.25752779841423035 0.98648309707641602
0.0035560459364205599 0.4364573061466217 0.98338687419891357
0.12819522619247437 0.15948972105979919 0.97778034210205078
0.36620008945465088 0.23833063244819641 0.96962976455688477
0.58427083492279053 0.32993331551551819 0.96785742044448853
0.76450520753860474 0.41100475192070007 0.99225592613220215
0.00088494992814958096 0.96379375457763672 0.96572047472000122
0.13773119449615479 0.69460964202880859 0.97486966848373413
0.39446300268173218 0.43780571222305298 0.97940695285797119
0.65504765510559082 0.52249181270599365 0.9701351523399353
0.83760517835617065 0.59661835432052612 0.99020582437515259
0.0014283573254942894 0.97517979145050049 0.45105016231536865
0.13356578350067139 0.98657685518264771 0.70879721641540527
0.40300244092941284 0.9631202220916748 0.94845116138458252
0.69587582349777222 0.73530369997024536 0.97183847427368164
0.93043816089630127 0.79028224945068359 0.99180859327316284
0.00020769904949702322 0.99505376815795898 0.014071954414248466
0.12887543439865112 0.99289178848266602 0.16239109635353088
0.40087765455245972 0.98826628923416138 0.43523547053337097
0.70736968517303467 0.98795145750045776 0.75372391939163208
0.98065340518951416 0.9752691388130188 0.9819868803024292
