assets/lut/others soft fade.cube
# Created by: G'MIC (https://gmic.eu)
TITLE "soft_fade"
# LUT size
LUT_3D_SIZE 7
# Data domain
DOMAIN_MIN 0.0 0.0 0.0
DOMAIN_MAX 1.0 1.0 1.0
# LUT data points
0.035095676779747009 0.038510207086801529 0.096410401165485382
0.17525941133499146 0.039371371269226074 0.10168654471635818
0.38814947009086609 0.03811892494559288 0.10067849606275558
0.61326557397842407 0.041007053107023239 0.093420423567295074
0.77820158004760742 0.051405109465122223 0.091736376285552979
0.89161044359207153 0.049406044185161591 0.094488047063350677
0.97481667995452881 0.048172071576118469 0.10429768264293671
0.032853547483682632 0.22052237391471863 0.09809296578168869
0.17155537009239197 0.21796721220016479 0.099618948996067047
0.39123579859733582 0.22264726459980011 0.1008056178689003
0.61369925737380981 0.22154831886291504 0.098773956298828125
0.77620476484298706 0.21881914138793945 0.10095088928937912
0.89152884483337402 0.2178320586681366 0.09008508175611496
0.97582381963729858 0.22158938646316528 0.09133458137512207
0.041376225650310516 0.45530226826667786 0.10002697259187698
0.1766815185546875 0.44858822226524353 0.096921123564243317
0.3872869610786438 0.44802019000053406 0.0899992436170578
0.6127205491065979 0.44107893109321594 0.095277480781078339
0.77406662702560425 0.45035645365715027 0.096682392060756683
0.89006519317626953 0.44775941967964172 0.092485465109348297
0.97028231620788574 0.45001974701881409 0.11144881695508957
0.042933668941259384 0.65635353326797485 0.088938511908054352
0.17338511347770691 0.65560990571975708 0.09198431670665741
0.38269826769828796 0.65348231792449951 0.096118420362472534
0.6108887791633606 0.65164989233016968 0.095139443874359131
0.7760002613067627 0.65395474433898926 0.102416031062603
0.89209181070327759 0.65145987272262573 0.10903893411159515
0.97094988822937012 0.6539531946182251 0.10243627429008484
0.031831346452236176 0.79735523462295532 0.089062124490737915
0.18091537058353424 0.79709523916244507 0.099739685654640198
0.39151552319526672 0.80010449886322021 0.10117194801568985
0.61037701368331909 0.79832994937896729 0.10042980313301086
0.77664154767990112 0.79874145984649658 0.10391177237033844
0.8919026255607605 0.79965686798095703 0.10555276274681091
0.9606509804725647 0.79675722122192383 0.10874292999505997
0.031017931178212166 0.90191084146499634 0.099993400275707245
0.18210403621196747 0.90133273601531982 0.098243027925491333
0.38916310667991638 0.89921784400939941 0.10035858303308487
0.6153939962387085 0.90023010969161987 0.10923162847757339
0.77776914834976196 0.89810127019882202 0.096146978437900543
0.88775444030761719 0.90078920125961304 0.10365734994411469
0.9631161093711853 0.90030443668365479 0.10024340450763702
0.042700391262769699 0.9776151180267334 0.098150469362735748
0.1830066442489624 0.97208058834075928 0.10358850657939911
0.38596460223197937 0.96818292140960693 0.11077889800071716
0.61196678876876831 0.96970587968826294 0.097661919891834259
0.77721452713012695 0.97092068195343018 0.093261078000068665
0.88989919424057007 0.97438663244247437 0.097880221903324127
0.96834760904312134 0.9688103199005127 0.09766630083322525
0.033191576600074768 0.045141153037548065 0.44369614124298096
0.17561691999435425 0.039997339248657227 0.44639557600021362
0.39726302027702332 0.044460728764533997 0.43799474835395813
0.61014449596405029 0.040234822779893875 0.43782943487167358
0.77576351165771484 0.037792880088090897 0.43379706144332886
0.8917994499206543 0.038714762777090073 0.43820679187774658
0.97336035966873169 0.041924182325601578 0.44066730141639709
0.030767897143959999 0.22650228440761566 0.44217917323112488
0.17481531202793121 0.21924082934856415 0.4430866539478302
0.39063990116119385 0.22463563084602356 0.44145515561103821
0.61069631576538086 0.21626931428909302 0.44420582056045532
0.78121888637542725 0.21897797286510468 0.44062170386314392
0.89229762554168701 0.22471132874488831 0.44085708260536194
0.96961027383804321 0.228928342461586 0.43365728855133057
0.032780800014734268 0.44665482640266418 0.43944975733757019
0.17591515183448792 0.45012950897216797 0.43018501996994019
0.38559240102767944 0.44897258281707764 0.42869848012924194
0.6107184886932373 0.44422993063926697 0.43054461479187012
0.77792298793792725 0.44285097718238831 0.44030430912971497
0.88785362243652344 0.44956573843955994 0.43515604734420776
0.97445577383041382 0.45221036672592163 0.43304538726806641
0.032645776867866516 0.65188992023468018 0.42785140872001648
0.17305870354175568 0.65183645486831665 0.42589589953422546
0.3756977915763855 0.65228128433227539 0.43819594383239746
0.61020797491073608 0.64693856239318848 0.43280249834060669
0.77885812520980835 0.64986300468444824 0.44564169645309448
0.88632321357727051 0.65359538793563843 0.43434420228004456
0.97152924537658691 0.65243959426879883 0.44327759742736816
0.037330165505409241 0.79625791311264038 0.4418470561504364
0.18529880046844482 0.79644191265106201 0.44625154137611389
0.39046850800514221 0.79575151205062866 0.45041546225547791
0.61080694198608398 0.79785501956939697 0.44252535700798035
0.7810550332069397 0.79555761814117432 0.4427972137928009
0.89331793785095215 0.79864668846130371 0.44275423884391785
0.96815973520278931 0.79359817504882812 0.44273272156715393
0.041647758334875107 0.90053915977478027 0.43842753767967224
0.17770963907241821 0.89724934101104736 0.43959107995033264
0.39051598310470581 0.89697134494781494 0.43649956583976746
0.6142086386680603 0.90216410160064697 0.43436545133590698
0.77410447597503662 0.89751130342483521 0.44066879153251648
0.88897061347961426 0.89783298969268799 0.4412902295589447
0.96248465776443481 0.89954698085784912 0.44517213106155396
0.03982938826084137 0.97831481695175171 0.43767422437667847
0.18399932980537415 0.96835851669311523 0.42616534233093262
0.38753041625022888 0.97182005643844604 0.44260689616203308
0.60361194610595703 0.97225427627563477 0.42913782596588135
0.77816987037658691 0.97140228748321533 0.43490162491798401
0.89123868942260742 0.97561192512512207 0.44590461254119873
0.97055411338806152 0.97512936592102051 0.4495297372341156
0.031449846923351288 0.040634319186210632 0.60848808288574219
0.17707571387290955 0.038697876036167145 0.60426425933837891
0.39939090609550476 0.046156849712133408 0.61114680767059326
0.613899827003479 0.041029747575521469 0.61051726341247559
0.77662515640258789 0.038889747112989426 0.60939979553222656
0.89543390274047852 0.040551338344812393 0.61074668169021606
0.97384440898895264 0.038773391395807266 0.60991209745407104
0.032625999301671982 0.21967290341854095 0.61184322834014893
0.17911426723003387 0.21889255940914154 0.60579377412796021
0.39470735192298889 0.21845591068267822 0.60816335678100586
0.60991770029067993 0.22110462188720703 0.61328530311584473
0.78137266635894775 0.2296806126832962 0.60945510864257812
0.89161866903305054 0.22610357403755188 0.60529500246047974
0.96613681316375732 0.22271528840065002 0.61085325479507446
0.039846129715442657 0.4350946843624115 0.61226397752761841
0.17952068150043488 0.44996488094329834 0.61368703842163086
0.3877701461315155 0.4536801278591156 0.61154186725616455
0.60655689239501953 0.44463244080543518 0.61163246631622314
0.77549362182617188 0.43726715445518494 0.6041795015335083
0.88657456636428833 0.44747829437255859 0.6042487621307373
0.97044938802719116 0.45386898517608643 0.60648101568222046
0.039334375411272049 0.63903427124023438 0.60931342840194702
0.17723698914051056 0.64856815338134766 0.61070257425308228
0.39002427458763123 0.65205281972885132 0.60747551918029785
0.61314815282821655 0.64839214086532593 0.60618674755096436
0.77608484029769897 0.64484655857086182 0.59843415021896362
0.88359850645065308 0.64938503503799438 0.60729241371154785
0.95596921443939209 0.65002363920211792 0.61664462089538574
0.040497183799743652 0.79461747407913208 0.61566406488418579
0.17658481001853943 0.79473698139190674 0.60889041423797607
0.39137861132621765 0.79649072885513306 0.60820502042770386
0.61181235313415527 0.79513633251190186 0.60928249359130859
0.77578949928283691 0.79214149713516235 0.60015374422073364
0.88650321960449219 0.79289740324020386 0.60597914457321167
0.96705937385559082 0.7935183048248291 0.61564904451370239
0.046888627111911774 0.89843595027923584 0.60955941677093506
0.18305613100528717 0.9009515643119812 0.61086183786392212
0.3974820077419281 0.89907699823379517 0.61445635557174683
0.60688638687133789 0.89656251668930054 0.60700035095214844
0.77314502000808716 0.89885777235031128 0.60702204704284668
0.89223551750183105 0.89912587404251099 0.61188304424285889
0.97303348779678345 0.90034490823745728 0.61834079027175903
0.03607216477394104 0.97480666637420654 0.6146807074546814
0.18315427005290985 0.9688534140586853 0.60950148105621338
0.3850649893283844 0.96687906980514526 0.61141043901443481
0.60849767923355103 0.9747234582901001 0.60127252340316772
0.78347986936569214 0.97106093168258667 0.61136257648468018
0.88917338848114014 0.96591770648956299 0.60644775629043579
0.97564184665679932 0.97779756784439087 0.62021571397781372
0.034742690622806549 0.04151356965303421 0.72848093509674072
0.18167831003665924 0.041157368570566177 0.72770023345947266
0.38794010877609253 0.041155107319355011 0.72936946153640747
0.60503649711608887 0.043001197278499603 0.72935652732849121
0.77936184406280518 0.04158681258559227 0.73318350315093994
0.89303290843963623 0.06003468856215477 0.72903835773468018
0.97284799814224243 0.044918898493051529 0.73344904184341431
0.039536315947771072 0.22300541400909424 0.72184139490127563
0.17893330752849579 0.22188416123390198 0.73077178001403809
0.38274896144866943 0.21686968207359314 0.73130488395690918
0.60819536447525024 0.22303387522697449 0.73230057954788208
0.78114372491836548 0.22031517326831818 0.73164957761764526
0.8879895806312561 0.22149313986301422 0.73639720678329468
0.96045750379562378 0.2261316180229187 0.73793166875839233
0.034115269780158997 0.44082441926002502 0.72645384073257446
0.1732216477394104 0.43917468190193176 0.72755569219589233
0.38055530190467834 0.44733715057373047 0.73229575157165527
0.60722911357879639 0.44598099589347839 0.73760014772415161
0.77735757827758789 0.44396147131919861 0.73460847139358521
0.88727861642837524 0.44379764795303345 0.73553448915481567
0.96288275718688965 0.4477098286151886 0.73255890607833862
0.034792926162481308 0.64964121580123901 0.73133569955825806
0.18279366195201874 0.65244424343109131 0.73520535230636597
0.38920918107032776 0.6554640531539917 0.73327529430389404
0.6092536449432373 0.6522974967956543 0.73279762268066406
0.77710533142089844 0.65505349636077881 0.73801785707473755
0.88894122838973999 0.65144479274749756 0.73364216089248657
0.96677881479263306 0.64435702562332153 0.73310679197311401
0.033737301826477051 0.79450094699859619 0.7360081672668457
0.17765708267688751 0.79327106475830078 0.73330235481262207
0.38469856977462769 0.79723507165908813 0.73566579818725586
0.61045557260513306 0.79154348373413086 0.72870117425918579
0.77578920125961304 0.78584891557693481 0.73214602470397949
0.88683122396469116 0.79015856981277466 0.73926436901092529
0.97242677211761475 0.79227375984191895 0.74082762002944946
0.035489294677972794 0.89875900745391846 0.73465758562088013
0.17950502038002014 0.89827072620391846 0.73489981889724731
0.39123865962028503 0.89728158712387085 0.73725008964538574
0.60972827672958374 0.89487332105636597 0.73405402898788452
0.77927905321121216 0.89853841066360474 0.73166203498840332
0.89111113548278809 0.89989262819290161 0.73830854892730713
0.97083967924118042 0.89914578199386597 0.74187624454498291
0.036522511392831802 0.96077430248260498 0.7290271520614624
0.18425066769123077 0.96631014347076416 0.72719866037368774
0.38614588975906372 0.96543318033218384 0.72942841053009033
0.60778915882110596 0.96813350915908813 0.72778874635696411
0.77300548553466797 0.96284288167953491 0.73852992057800293
0.88960129022598267 0.97047156095504761 0.73277789354324341
0.97121638059616089 0.95612049102783203 0.7359316349029541
0.042142007499933243 0.046931412070989609 0.83091199398040771
0.18227460980415344 0.046812858432531357 0.82655531167984009
0.39885589480400085 0.048128046095371246 0.82530248165130615
0.61450850963592529 0.045928191393613815 0.83105409145355225
0.773628830909729 0.052427046000957489 0.83200317621231079
0.89050555229187012 0.044199220836162567 0.83266752958297729
0.96350514888763428 0.060020595788955688 0.8279603123664856
0.039211887866258621 0.22580744326114655 0.82301449775695801
0.1747136116027832 0.22117534279823303 0.82822710275650024
0.39766117930412292 0.22396868467330933 0.82846105098724365
0.61926639080047607 0.22964762151241302 0.83042854070663452
0.78058958053588867 0.22614172101020813 0.83558732271194458
0.89045286178588867 0.22708715498447418 0.83185499906539917
0.95535355806350708 0.22771279513835907 0.83033120632171631
0.03937651589512825 0.45349970459938049 0.83102160692214966
0.17763090133666992 0.44137316942214966 0.82973212003707886
0.38590282201766968 0.44731247425079346 0.83055359125137329
0.61201155185699463 0.44868820905685425 0.83281528949737549
0.7735825777053833 0.44610646367073059 0.83027935028076172
0.88698041439056396 0.44425112009048462 0.828990638256073
0.96169751882553101 0.43933230638504028 0.82210683822631836
0.045483428984880447 0.65191382169723511 0.83445090055465698
0.17643655836582184 0.64580374956130981 0.83562839031219482
0.38177004456520081 0.64935410022735596 0.82894229888916016
0.6055867075920105 0.64880663156509399 0.82830774784088135
0.77299660444259644 0.64611762762069702 0.83265739679336548
0.8849416971206665 0.64877653121948242 0.83184349536895752
0.96103394031524658 0.6494411826133728 0.82936322689056396
0.034124143421649933 0.79936093091964722 0.83425408601760864
0.17399491369724274 0.79950034618377686 0.83302885293960571
0.38938286900520325 0.79803895950317383 0.83495742082595825
0.60837912559509277 0.79704856872558594 0.82756441831588745
0.77454018592834473 0.79108071327209473 0.83230948448181152
0.88824832439422607 0.79151058197021484 0.83408117294311523
0.96926659345626831 0.78810340166091919 0.83144348859786987
0.032339565455913544 0.90090596675872803 0.83287376165390015
0.17499803006649017 0.89842700958251953 0.8368992805480957
0.38577437400817871 0.89894002676010132 0.83159422874450684
0.61271208524703979 0.899586021900177 0.83110833168029785
0.77710801362991333 0.89848512411117554 0.82964152097702026
0.89116370677947998 0.89355194568634033 0.83397442102432251
0.97287046909332275 0.896678626537323 0.83189100027084351
0.032340735197067261 0.9758337140083313 0.82873952388763428
0.17816440761089325 0.97448664903640747 0.8281283974647522
0.38686853647232056 0.96832495927810669 0.8235134482383728
0.60772860050201416 0.97315800189971924 0.83036601543426514
0.77519088983535767 0.97002953290939331 0.834026038646698
0.88638418912887573 0.9706234335899353 0.83373165130615234
0.95506101846694946 0.96930783987045288 0.83232760429382324
0.036430761218070984 0.041183248162269592 0.91062361001968384
0.18161012232303619 0.041907276958227158 0.90816229581832886
0.38191932439804077 0.048918928951025009 0.90778583288192749
0.6134074330329895 0.04695872962474823 0.91295260190963745
0.77652662992477417 0.049484986811876297 0.91087770462036133
0.88924050331115723 0.046789504587650299 0.91075992584228516
0.97145003080368042 0.045702781528234482 0.91028320789337158
0.036196481436491013 0.22452655434608459 0.91305631399154663
0.18101169168949127 0.21837344765663147 0.91205590963363647
0.39829361438751221 0.22977130115032196 0.91557449102401733
0.61872893571853638 0.22997230291366577 0.91476929187774658
0.7764207124710083 0.22408322989940643 0.91127347946166992
0.891551673412323 0.22017240524291992 0.91006147861480713
0.96326768398284912 0.23225529491901398 0.90824878215789795
0.037558343261480331 0.45209306478500366 0.90854805707931519
0.18108001351356506 0.44993320107460022 0.91124331951141357
0.3918464183807373 0.45465022325515747 0.91304075717926025
0.60927051305770874 0.44825929403305054 0.91804736852645874
0.77144336700439453 0.44958597421646118 0.91126686334609985
0.88215667009353638 0.44362390041351318 0.90659058094024658
0.95702594518661499 0.44286343455314636 0.90262657403945923
0.035516776144504547 0.65253621339797974 0.90780401229858398
0.17769025266170502 0.64583843946456909 0.90749675035476685
0.39447510242462158 0.64425849914550781 0.91108834743499756
0.60453009605407715 0.64687377214431763 0.91127341985702515
0.77284646034240723 0.64320409297943115 0.91108494997024536
0.88586974143981934 0.64861196279525757 0.90839111804962158
0.96561664342880249 0.64976018667221069 0.90936738252639771
0.032781053334474564 0.79750919342041016 0.9112555980682373
0.18235960602760315 0.79423236846923828 0.91105824708938599
0.38896819949150085 0.79614150524139404 0.91294354200363159
0.61386048793792725 0.79622107744216919 0.9077269434928894
0.77806121110916138 0.79284870624542236 0.91344833374023438
0.88963967561721802 0.79316157102584839 0.91125965118408203
0.96480751037597656 0.79876089096069336 0.91518324613571167
0.041127029806375504 0.89558511972427368 0.90759110450744629
0.18194536864757538 0.89550334215164185 0.91118180751800537
0.39736196398735046 0.89996522665023804 0.91307693719863892
0.61353713274002075 0.89824146032333374 0.90778762102127075
0.77751255035400391 0.89372968673706055 0.91132396459579468
0.89024549722671509 0.89502114057540894 0.9112555980682373
0.97275400161743164 0.89629107713699341 0.91405016183853149
0.034289788454771042 0.97474086284637451 0.91194206476211548
0.18411985039710999 0.97375977039337158 0.90661096572875977
0.39225128293037415 0.97139734029769897 0.90483349561691284
0.61463803052902222 0.97071593999862671 0.90707868337631226
0.78533244132995605 0.96477842330932617 0.90735000371932983
0.88390249013900757 0.97118991613388062 0.90597116947174072
0.96056252717971802 0.96617847681045532 0.90766578912734985
0.034714881330728531 0.038581773638725281 0.96853858232498169
0.18100312352180481 0.039792723953723907 0.97470784187316895
0.39201587438583374 0.041409540921449661 0.9752805233001709
0.61122810840606689 0.04521382600069046 0.97389674186706543
0.77961903810501099 0.040974903851747513 0.97225964069366455
0.88775914907455444 0.042346835136413574 0.96624237298965454
0.96966791152954102 0.042755171656608582 0.97130835056304932
0.045957736670970917 0.22453150153160095 0.97163313627243042
0.17499208450317383 0.2224109023809433 0.98018532991409302
0.3935183584690094 0.22976048290729523 0.97719264030456543
0.61340981721878052 0.21964585781097412 0.97971963882446289
0.77888357639312744 0.21977058053016663 0.97161424160003662
0.88535994291305542 0.21941177546977997 0.97146522998809814
0.97581201791763306 0.22378309071063995 0.97441619634628296
0.049714572727680206 0.44493672251701355 0.97316122055053711
0.17742125689983368 0.44925376772880554 0.98228120803833008
0.38410106301307678 0.44970405101776123 0.97788745164871216
0.61222237348556519 0.44334825873374939 0.97955185174942017
0.77317178249359131 0.44048452377319336 0.97583472728729248
0.88664698600769043 0.438873291015625 0.97510433197021484
0.96319019794464111 0.44425353407859802 0.97470670938491821
0.031769756227731705 0.64994734525680542 0.97460025548934937
0.1796136200428009 0.64337378740310669 0.97410911321640015
0.38530626893043518 0.64361560344696045 0.97417968511581421
0.61550414562225342 0.65089452266693115 0.97886085510253906
0.7820972204208374 0.65132075548171997 0.97157746553421021
0.89392828941345215 0.65272051095962524 0.97846269607543945
0.97543418407440186 0.64774924516677856 0.96897810697555542
0.03526369109749794 0.79748010635375977 0.97235012054443359
0.18115521967411041 0.79260289669036865 0.9769214391708374
0.38432922959327698 0.78845399618148804 0.97540611028671265
0.61572563648223877 0.79817754030227661 0.97865444421768188
0.77681422233581543 0.79383689165115356 0.97072196006774902
0.89441156387329102 0.79507803916931152 0.97502374649047852
0.97306132316589355 0.79421317577362061 0.97547066211700439
0.042257063090801239 0.89763391017913818 0.97383451461791992
0.17967686057090759 0.89869368076324463 0.97548288106918335
0.3899330198764801 0.90311247110366821 0.98246216773986816
0.61201417446136475 0.89691787958145142 0.97829312086105347
0.77366548776626587 0.89310568571090698 0.96951639652252197
0.8902173638343811 0.89636391401290894 0.97580152750015259
0.96288526058197021 0.89994549751281738 0.97923761606216431
0.039190120995044708 0.97011464834213257 0.98178499937057495
0.17312990128993988 0.97407412528991699 0.97515749931335449
0.38234499096870422 0.96981096267700195 0.9738694429397583
0.61283332109451294 0.96926254034042358 0.98057401180267334
0.77654135227203369 0.97320199012756348 0.97818410396575928
0.88283044099807739 0.9700438380241394 0.97359836101531982
0.97438979148864746 0.96996474266052246 0.96733874082565308
