assets/lut/others golden fade.cube
# Created by: G'MIC (https://gmic.eu)
TITLE "golden_fade"
# LUT size
LUT_3D_SIZE 13
# Data domain
DOMAIN_MIN 0.0 0.0 0.0
DOMAIN_MAX 1.0 1.0 1.0
# LUT data points
0.27862158417701721 0.12061171978712082 0.31530493497848511
0.38305819034576416 0.13640940189361572 0.33084410429000854
0.46127653121948242 0.15725509822368622 0.34042143821716309
0.53386086225509644 0.17014563083648682 0.35235652327537537
0.60786658525466919 0.18384943902492523 0.36362040042877197
0.66901785135269165 0.19483199715614319 0.36986875534057617
0.72700959444046021 0.21267035603523254 0.38031178712844849
0.78238433599472046 0.23278559744358063 0.39198446273803711
0.82136732339859009 0.2305934727191925 0.39589545130729675
0.86752694845199585 0.25993549823760986 0.41076108813285828
0.89516365528106689 0.24044525623321533 0.41145977377891541
0.92163980007171631 0.24704021215438843 0.41592469811439514
0.95514523983001709 0.27490618824958801 0.43168136477470398
0.32484394311904907 0.19638417661190033 0.34092047810554504
0.44670349359512329 0.22499276697635651 0.36046245694160461
0.50727236270904541 0.22336606681346893 0.36260309815406799
0.5660589337348938 0.22499763965606689 0.36728441715240479
0.63197547197341919 0.23555807769298553 0.37672832608222961
0.70115464925765991 0.26315081119537354 0.38880664110183716
0.75251662731170654 0.27834203839302063 0.39792343974113464
0.79361993074417114 0.27618318796157837 0.40137296915054321
0.83615654706954956 0.2916259765625 0.41041150689125061
0.87310671806335449 0.3083672821521759 0.41866639256477356
0.90301614999771118 0.31131607294082642 0.42584404349327087
0.9274524450302124 0.31678864359855652 0.43039628863334656
0.9542040228843689 0.34565743803977966 0.44294881820678711
0.35598981380462646 0.28203153610229492 0.36579549312591553
0.49074006080627441 0.31653442978858948 0.38426494598388672
0.55863749980926514 0.32425400614738464 0.39156919717788696
0.61523520946502686 0.32613900303840637 0.39450094103813171
0.68922215700149536 0.35405099391937256 0.40767431259155273
0.74556928873062134 0.3681272566318512 0.41667145490646362
0.79612815380096436 0.39437142014503479 0.42660462856292725
0.84036964178085327 0.4014124870300293 0.4357089102268219
0.8714868426322937 0.40772905945777893 0.44054996967315674
0.90555906295776367 0.42587184906005859 0.45013654232025146
0.92939609289169312 0.43601790070533752 0.45712882280349731
0.95579135417938232 0.45255780220031738 0.46672353148460388
0.96835356950759888 0.4794870913028717 0.48090934753417969
0.40224155783653259 0.36565467715263367 0.38438749313354492
0.51834976673126221 0.38821884989738464 0.40374639630317688
0.58995652198791504 0.39845961332321167 0.41241550445556641
0.64831346273422241 0.40522381663322449 0.41486859321594238
0.71566575765609741 0.42450433969497681 0.42501243948936462
0.76849651336669922 0.43584403395652771 0.43412870168685913
0.8212776780128479 0.46863949298858643 0.44940200448036194
0.85763859748840332 0.47570991516113281 0.45598515868186951
0.88767081499099731 0.4835544228553772 0.45856168866157532
0.92310518026351929 0.51268261671066284 0.47206750512123108
0.93847465515136719 0.51825141906738281 0.47784838080406189
0.9542773962020874 0.52819561958312988 0.48770302534103394
0.96656101942062378 0.56698977947235107 0.50095599889755249
0.46677383780479431 0.46463233232498169 0.41148510575294495
0.55984103679656982 0.47558963298797607 0.42660269141197205
0.62912338972091675 0.48774805665016174 0.43787950277328491
0.69417315721511841 0.50373446941375732 0.44596749544143677
0.75915735960006714 0.52324426174163818 0.45649975538253784
0.80600011348724365 0.53570705652236938 0.4651390016078949
0.8469582200050354 0.55308246612548828 0.47409471869468689
0.88393771648406982 0.56856459379196167 0.48132264614105225
0.92094933986663818 0.59107929468154907 0.4877878725528717
0.94669151306152344 0.60933160781860352 0.4951331615447998
0.95389574766159058 0.61838799715042114 0.5063939094543457
0.96600067615509033 0.63746339082717896 0.52069860696792603
0.97963643074035645 0.67499548196792603 0.53987467288970947
0.49305397272109985 0.54292213916778564 0.43125617504119873
0.5987592339515686 0.56390655040740967 0.44877675175666809
0.66920661926269531 0.5781019926071167 0.46041643619537354
0.73241931200027466 0.59303927421569824 0.47034996747970581
0.79160839319229126 0.6093820333480835 0.47921580076217651
0.83408659696578979 0.62426900863647461 0.48648306727409363
0.87467974424362183 0.64632660150527954 0.49691680073738098
0.90749919414520264 0.65972423553466797 0.50300943851470947
0.93058508634567261 0.66508364677429199 0.50292837619781494
0.94875222444534302 0.67442512512207031 0.50669652223587036
0.95958220958709717 0.69546592235565186 0.52221196889877319
0.97046500444412231 0.72292983531951904 0.54247808456420898
0.98231250047683716 0.75264072418212891 0.56366258859634399
0.52778017520904541 0.61500632762908936 0.44603350758552551
0.63422328233718872 0.64040756225585938 0.46586281061172485
0.70296192169189453 0.65328633785247803 0.47624972462654114
0.76283019781112671 0.66498804092407227 0.48420953750610352
0.80805599689483643 0.67496180534362793 0.48812985420227051
0.8486257791519165 0.69018584489822388 0.49495691061019897
0.88942164182662964 0.71375298500061035 0.51065075397491455
0.91965752840042114 0.7279057502746582 0.51807165145874023
0.93730956315994263 0.73038554191589355 0.51604914665222168
0.9506797194480896 0.73854202032089233 0.51942640542984009
0.95696079730987549 0.7551693320274353 0.53404402732849121
0.96247923374176025 0.77087569236755371 0.54920995235443115
0.96700173616409302 0.7836834192276001 0.56201887130737305
0.54494965076446533 0.68393278121948242 0.46202528476715088
0.65913927555084229 0.70492762327194214 0.47904527187347412
0.73144841194152832 0.72081315517425537 0.48927006125450134
0.79134649038314819 0.73291397094726562 0.49804824590682983
0.82656121253967285 0.73629653453826904 0.50424474477767944
0.86141854524612427 0.74651604890823364 0.51163661479949951
0.89507043361663818 0.76340740919113159 0.52158063650131226
0.92381095886230469 0.77616071701049805 0.52678376436233521
0.94274234771728516 0.78439623117446899 0.53037035465240479
0.95406049489974976 0.79529237747192383 0.54037165641784668
0.95791339874267578 0.80651372671127319 0.55071806907653809
0.95940876007080078 0.8168904185295105 0.55822533369064331
0.95978611707687378 0.82400542497634888 0.56293118000030518
0.57683426141738892 0.74965423345565796 0.47801795601844788
0.67188572883605957 0.76507842540740967 0.4938751757144928
0.75469440221786499 0.77955335378646851 0.50467956066131592
0.81057089567184448 0.78974670171737671 0.51393485069274902
0.84479141235351562 0.79545968770980835 0.52457970380783081
0.87817788124084473 0.80511444807052612 0.53459072113037109
0.90845191478729248 0.81860858201980591 0.54100716114044189
0.93414551019668579 0.82847428321838379 0.54453104734420776
0.94862169027328491 0.83550971746444702 0.54899793863296509
0.95821934938430786 0.84441578388214111 0.55819547176361084
0.96169817447662354 0.85420560836791992 0.56883418560028076
0.96168726682662964 0.86284798383712769 0.57798099517822266
0.9606863260269165 0.86868047714233398 0.58051788806915283
0.62585353851318359 0.81826061010360718 0.49927410483360291
0.71032989025115967 0.82833868265151978 0.51570296287536621
0.78062278032302856 0.83610820770263672 0.52154862880706787
0.82920855283737183 0.84379822015762329 0.52873390913009644
0.86468029022216797 0.85361450910568237 0.54421347379684448
0.89811503887176514 0.86329376697540283 0.55736148357391357
0.92977255582809448 0.87338435649871826 0.56731432676315308
0.95104861259460449 0.88210034370422363 0.57343053817749023
0.9588657021522522 0.88720560073852539 0.57436162233352661
0.96324211359024048 0.88973623514175415 0.57526677846908569
0.96472674608230591 0.8975871205329895 0.58691662549972534
0.96495622396469116 0.90669745206832886 0.59876257181167603
0.96965569257736206 0.91845178604125977 0.61163979768753052
0.67492544651031494 0.88815724849700928 0.52571922540664673
0.75813591480255127 0.88849902153015137 0.53787422180175781
0.81403893232345581 0.88959765434265137 0.54399067163467407
0.85229378938674927 0.89130890369415283 0.55383670330047607
0.88889080286026001 0.90316295623779297 0.56913554668426514
0.92383241653442383 0.91409307718276978 0.58385235071182251
0.9541318416595459 0.92363601922988892 0.59516459703445435
0.96633583307266235 0.93200075626373291 0.59996211528778076
0.96977180242538452 0.93988364934921265 0.60037088394165039
0.97120565176010132 0.94121217727661133 0.60252863168716431
0.96953904628753662 0.9386284351348877 0.61286431550979614
0.97001677751541138 0.94188946485519409 0.62737327814102173
0.97970849275588989 0.96343576908111572 0.64739149808883667
0.714996337890625 0.94135004281997681 0.54994696378707886
0.7979283332824707 0.93693262338638306 0.55891174077987671
0.84004801511764526 0.93327450752258301 0.56725811958312988
0.87606346607208252 0.93038898706436157 0.57940942049026489
0.91308790445327759 0.94028204679489136 0.59312492609024048
0.94913125038146973 0.95788282155990601 0.60814100503921509
0.97638225555419922 0.96850895881652832 0.61953037977218628
0.97953742742538452 0.97054052352905273 0.6243743896484375
0.97625690698623657 0.97134846448898315 0.62557929754257202
0.97512847185134888 0.97164547443389893 0.63051408529281616
0.97345030307769775 0.96597331762313843 0.64281469583511353
0.97366952896118164 0.96498739719390869 0.66033273935317993
0.97743320465087891 0.97412413358688354 0.68444544076919556
0.75505781173706055 0.98263406753540039 0.57832306623458862
0.84386128187179565 0.96552175283432007 0.58931088447570801
0.87003135681152344 0.96051168441772461 0.59350800514221191
0.90104460716247559 0.95978295803070068 0.60107254981994629
0.93387764692306519 0.96646797657012939 0.61144238710403442
0.96553313732147217 0.97997081279754639 0.62365508079528809
0.98531955480575562 0.98668009042739868 0.63296663761138916
0.9802669882774353 0.97848880290985107 0.64272779226303101
0.97209131717681885 0.97062718868255615 0.65015757083892822
0.96994751691818237 0.96838146448135376 0.65732598304748535
0.96997576951980591 0.96880829334259033 0.66644066572189331
0.96875011920928955 0.96792638301849365 0.67579376697540283
0.96780169010162354 0.96726804971694946 0.68740379810333252
0.2427268773317337 0.10196982324123383 0.33340123295783997
0.37097299098968506 0.12798856198787689 0.35319334268569946
0.45431539416313171 0.13933435082435608 0.3624998927116394
0.5234297513961792 0.14802484214305878 0.37289842963218689
0.58920580148696899 0.15549981594085693 0.38013353943824768
0.65026730298995972 0.16858223080635071 0.38697731494903564
0.71840786933898926 0.1954255998134613 0.40200933814048767
0.77204155921936035 0.20567077398300171 0.41121581196784973
0.81636857986450195 0.21318265795707703 0.41946518421173096
0.8553919792175293 0.21835501492023468 0.4265846312046051
0.88707655668258667 0.21609851717948914 0.43145224452018738
0.91702932119369507 0.22558620572090149 0.43672439455986023
0.94733548164367676 0.25432899594306946 0.45021498203277588
0.30046296119689941 0.17429964244365692 0.35833433270454407
0.42253148555755615 0.19180911779403687 0.37491410970687866
0.4968755841255188 0.20271198451519012 0.38367840647697449
0.56129580736160278 0.20724181830883026 0.39009812474250793
0.63138294219970703 0.22582346200942993 0.40245187282562256
0.69257527589797974 0.24255858361721039 0.41015857458114624
0.74461013078689575 0.25211194157600403 0.41742157936096191
0.80222421884536743 0.2859548032283783 0.43152520060539246
0.83916819095611572 0.28028938174247742 0.43632563948631287
0.87681764364242554 0.29400962591171265 0.44401371479034424
0.9069024920463562 0.30243441462516785 0.45213651657104492
0.93367254734039307 0.3125883936882019 0.4577726423740387
0.96028929948806763 0.33682647347450256 0.47051054239273071
0.35012617707252502 0.27479487657546997 0.38848671317100525
0.48062792420387268 0.30064767599105835 0.40357407927513123
0.55546557903289795 0.31503504514694214 0.41339164972305298
0.62173748016357422 0.33027464151382446 0.42182838916778564
0.6896134614944458 0.34986129403114319 0.43309947848320007
0.74516218900680542 0.36249467730522156 0.44175365567207336
0.79020136594772339 0.36737734079360962 0.44782182574272156
0.83561831712722778 0.38673055171966553 0.45669430494308472
0.8723406195640564 0.40222495794296265 0.46578732132911682
0.90660464763641357 0.41606804728507996 0.47509706020355225
0.93542516231536865 0.42995569109916687 0.48404788970947266
0.9592825174331665 0.44440922141075134 0.49160605669021606
0.97427535057067871 0.47368785738945007 0.50535768270492554
0.41374722123146057 0.37212225794792175 0.41356071829795837
0.52402549982070923 0.39099553227424622 0.42622652649879456
0.59728717803955078 0.4065280556678772 0.43523666262626648
0.66506576538085938 0.42571184039115906 0.44553762674331665
0.72885441780090332 0.44461575150489807 0.45655372738838196
0.78034472465515137 0.45604875683784485 0.46526691317558289
0.82426285743713379 0.46485379338264465 0.47264224290847778
0.8622819185256958 0.47866204380989075 0.47954782843589783
0.89355742931365967 0.49310505390167236 0.48782321810722351
0.92666018009185791 0.51544135808944702 0.49922582507133484
0.95544159412384033 0.53716695308685303 0.50874757766723633
0.97098994255065918 0.54942268133163452 0.51523655652999878
0.97937226295471191 0.57916855812072754 0.52985864877700806
0.460906982421875 0.46512800455093384 0.43839877843856812
0.55902540683746338 0.4786994457244873 0.44924896955490112
0.6308550238609314 0.49260517954826355 0.45761802792549133
0.70231181383132935 0.51461923122406006 0.47032806277275085
0.76568830013275146 0.53567445278167725 0.48272711038589478
0.81568229198455811 0.54974311590194702 0.49221023917198181
0.85648590326309204 0.56177359819412231 0.49977532029151917
0.88778769969940186 0.57209539413452148 0.50480371713638306
0.91674673557281494 0.58171141147613525 0.51026982069015503
0.94277650117874146 0.59521698951721191 0.51832973957061768
0.96141648292541504 0.61388164758682251 0.52709740400314331
0.97435271739959717 0.63599145412445068 0.53856509923934937
0.98504829406738281 0.67169654369354248 0.55821067094802856
0.49732911586761475 0.55355888605117798 0.45968931913375854
0.59600275754928589 0.56704014539718628 0.47205084562301636
0.66480439901351929 0.57835572957992554 0.48103362321853638
0.73317062854766846 0.59581917524337769 0.49223542213439941
0.7961309552192688 0.6186099648475647 0.5052153468132019
0.84649884700775146 0.63726282119750977 0.51519316434860229
0.88457167148590088 0.65263080596923828 0.52368408441543579
0.90924537181854248 0.65507280826568604 0.52643060684204102
0.93041080236434937 0.65726906061172485 0.52728897333145142
0.95186471939086914 0.66756564378738403 0.53310912847518921
0.96427446603775024 0.68605679273605347 0.54320037364959717
0.97169399261474609 0.70876908302307129 0.55610990524291992
0.97876507043838501 0.73576658964157104 0.57062274217605591
0.52359277009963989 0.62127631902694702 0.47316262125968933
0.62283951044082642 0.64055949449539185 0.48830696940422058
0.69677072763442993 0.65342807769775391 0.49828064441680908
0.76211094856262207 0.66723692417144775 0.50780749320983887
0.81465399265289307 0.68384659290313721 0.51680296659469604
0.86047458648681641 0.70114994049072266 0.52742654085159302
0.89838999509811401 0.71986925601959229 0.53950965404510498
0.92595356702804565 0.72871625423431396 0.54515665769577026
0.94491159915924072 0.73111402988433838 0.5452924370765686
0.9599573016166687 0.74146008491516113 0.5507245659828186
0.96631544828414917 0.75805205106735229 0.56097692251205444
0.97046846151351929 0.7746461033821106 0.57249337434768677
0.97180420160293579 0.78658205270767212 0.58035886287689209
0.56102114915847778 0.69262510538101196 0.49294757843017578
0.64967465400695801 0.707175612449646 0.50366705656051636
0.72900640964508057 0.7238280177116394 0.51465660333633423
0.79144978523254395 0.73642003536224365 0.52374684810638428
0.83272141218185425 0.74453139305114746 0.53116780519485474
0.87061846256256104 0.75699210166931152 0.54125559329986572
0.90492451190948486 0.77301901578903198 0.55136430263519287
0.93370252847671509 0.78431850671768188 0.55761456489562988
0.95463830232620239 0.79267269372940063 0.56209814548492432
0.96508544683456421 0.80358362197875977 0.57003027200698853
0.96816390752792358 0.8146699070930481 0.57959425449371338
0.96953147649765015 0.82555454969406128 0.58848482370376587
0.96934062242507935 0.83305013179779053 0.59480303525924683
0.62066316604614258 0.76531517505645752 0.51395469903945923
0.69180965423583984 0.77513188123703003 0.52359485626220703
0.76468187570571899 0.78778964281082153 0.53296935558319092
0.81415045261383057 0.79772061109542847 0.54078143835067749
0.85088586807250977 0.80381804704666138 0.55033564567565918
0.88545161485671997 0.81347548961639404 0.56061148643493652
0.91658961772918701 0.82774943113327026 0.56858080625534058
0.94409143924713135 0.83845978975296021 0.57530760765075684
0.96151930093765259 0.84591752290725708 0.58126688003540039
0.96906441450119019 0.85367345809936523 0.58861595392227173
0.97084200382232666 0.86257177591323853 0.59811937808990479
0.97011303901672363 0.87056612968444824 0.60619205236434937
0.9685177206993103 0.87667590379714966 0.61145758628845215
0.63960564136505127 0.82809692621231079 0.53121381998062134
0.73551273345947266 0.8390311598777771 0.54305547475814819
0.79873895645141602 0.84790468215942383 0.55186706781387329
0.83657306432723999 0.85473275184631348 0.5602995753288269
0.87241023778915405 0.86187213659286499 0.57123726606369019
0.90375977754592896 0.87025707960128784 0.58292776346206665
0.9338071346282959 0.8815268874168396 0.59241968393325806
0.95803052186965942 0.89147448539733887 0.59933233261108398
0.96875923871994019 0.89656853675842285 0.60372483730316162
0.97161543369293213 0.90037649869918823 0.60935139656066895
0.97158569097518921 0.90736126899719238 0.61806291341781616
0.97130674123764038 0.91373735666275024 0.62632006406784058
0.97131216526031494 0.9168093204498291 0.63492971658706665
0.68739461898803711 0.89746737480163574 0.55609273910522461
0.77362692356109619 0.8966713547706604 0.56686407327651978
0.82529217004776001 0.89878517389297485 0.57482695579528809
0.86134529113769531 0.90584123134613037 0.58411592245101929
0.8970147967338562 0.91502803564071655 0.59563201665878296
0.92702591419219971 0.92342501878738403 0.60739809274673462
0.95423316955566406 0.93283617496490479 0.61774551868438721
0.97156023979187012 0.94140982627868652 0.62435436248779297
0.97615569829940796 0.9451485276222229 0.62823361158370972
0.97562050819396973 0.94516557455062866 0.63350385427474976
0.97389417886734009 0.94470041990280151 0.64120882749557495
0.97343796491622925 0.94591504335403442 0.65124934911727905
0.97445452213287354 0.95024013519287109 0.66154694557189941
0.74483346939086914 0.95494037866592407 0.58556121587753296
0.81470143795013428 0.9475020170211792 0.59526562690734863
0.85093724727630615 0.94276911020278931 0.59947532415390015
0.88510525226593018 0.94528502225875854 0.60747009515762329
0.92079216241836548 0.95333731174468994 0.61902779340744019
0.95186299085617065 0.96528995037078857 0.63114702701568604
0.97502368688583374 0.97380238771438599 0.64092010259628296
0.98073166608810425 0.97551929950714111 0.64744687080383301
0.97923201322555542 0.97337126731872559 0.65211266279220581
0.97811543941497803 0.97046303749084473 0.65843772888183594
0.97705709934234619 0.96729916334152222 0.66806429624557495
0.97741782665252686 0.96851950883865356 0.68407326936721802
0.97912365198135376 0.97322922945022583 0.70128142833709717
0.77126556634902954 0.99187403917312622 0.61128002405166626
0.8553423285484314 0.98242956399917603 0.62147754430770874
0.87860405445098877 0.97070544958114624 0.62371265888214111
0.90741795301437378 0.96710693836212158 0.62725257873535156
0.9372062087059021 0.97114169597625732 0.63490229845046997
0.96645891666412354 0.98098194599151611 0.64574170112609863
0.98183786869049072 0.98428183794021606 0.65081614255905151
0.98034429550170898 0.97983777523040771 0.65988850593566895
0.97607910633087158 0.97478199005126953 0.67281854152679443
0.97502094507217407 0.97323042154312134 0.68222534656524658
0.97558063268661499 0.97408276796340942 0.69096291065216064
0.97684532403945923 0.97565102577209473 0.70219159126281738
0.9782031774520874 0.97779321670532227 0.71490061283111572
0.26027780771255493 0.10194654017686844 0.36334908008575439
0.37327933311462402 0.12168122828006744 0.37737494707107544
0.4525827169418335 0.12917867302894592 0.38642749190330505
0.52283096313476562 0.14169959723949432 0.39784711599349976
0.58868563175201416 0.15030790865421295 0.40513911843299866
0.65856224298477173 0.17062756419181824 0.41545012593269348
0.71947932243347168 0.18485802412033081 0.42647948861122131
0.77173519134521484 0.18634426593780518 0.43343105912208557
0.81951570510864258 0.20519588887691498 0.44428563117980957
0.8587227463722229 0.21279798448085785 0.45168164372444153
0.8919074535369873 0.21700827777385712 0.45904338359832764
0.92293703556060791 0.22814898192882538 0.46612843871116638
0.9516681432723999 0.24389582872390747 0.47566354274749756
0.31140363216400146 0.17322631180286407 0.38738638162612915
0.4341278076171875 0.19969736039638519 0.40303218364715576
0.50625991821289062 0.20632028579711914 0.41137334704399109
0.58035421371459961 0.23226536810398102 0.425005704164505
0.64250320196151733 0.23267835378646851 0.4322756826877594
0.70105206966400146 0.23725464940071106 0.4366898238658905
0.75240504741668701 0.24944587051868439 0.44522863626480103
0.80607002973556519 0.27531737089157104 0.45797041058540344
0.84704029560089111 0.28217440843582153 0.46473485231399536
0.88319557905197144 0.29607060551643372 0.47169816493988037
0.91531342267990112 0.31331256031990051 0.48263710737228394
0.94530349969863892 0.32509666681289673 0.49114146828651428
0.96558946371078491 0.33952885866165161 0.50076448917388916
0.36013334989547729 0.28050652146339417 0.41740319132804871
0.49405163526535034 0.30994021892547607 0.43184605240821838
0.56661158800125122 0.3237750232219696 0.44064781069755554
0.63544589281082153 0.34243905544281006 0.45221152901649475
0.69792121648788452 0.35072055459022522 0.46187445521354675
0.75376713275909424 0.36304441094398499 0.46964234113693237
0.79780834913253784 0.36806970834732056 0.47680029273033142
0.84373050928115845 0.39330574870109558 0.48738124966621399
0.87930929660797119 0.40318724513053894 0.49414446949958801
0.91216504573822021 0.41749852895736694 0.5027739405632019
0.94387602806091309 0.43936848640441895 0.51344436407089233
0.9702460765838623 0.45447832345962524 0.52147585153579712
0.98146069049835205 0.48428457975387573 0.53853321075439453
0.41524717211723328 0.37684813141822815 0.44179904460906982
0.53642672300338745 0.40238884091377258 0.45571130514144897
0.61004960536956787 0.42006632685661316 0.46453672647476196
0.67983889579772949 0.44227179884910583 0.47603681683540344
0.73725169897079468 0.45202711224555969 0.48500311374664307
0.79007083177566528 0.46968793869018555 0.49529314041137695
0.83224177360534668 0.47531422972679138 0.50282889604568481
0.87268209457397461 0.49669566750526428 0.51127541065216064
0.89967465400695801 0.49603331089019775 0.51638376712799072
0.92952007055282593 0.50991761684417725 0.52523958683013916
0.9607471227645874 0.53736573457717896 0.53598278760910034
0.97862821817398071 0.54912573099136353 0.54222244024276733
0.98518484830856323 0.58727526664733887 0.56309086084365845
0.46373739838600159 0.47397962212562561 0.46750977635383606
0.57083654403686523 0.49075815081596375 0.47841170430183411
0.64008957147598267 0.5041007399559021 0.4862244725227356
0.70886582136154175 0.5224229097366333 0.49638888239860535
0.7691352367401123 0.54207700490951538 0.50829792022705078
0.82336604595184326 0.56156617403030396 0.52014350891113281
0.86466830968856812 0.57271486520767212 0.52838516235351562
0.89269864559173584 0.5768161416053772 0.53240513801574707
0.91811758279800415 0.57975280284881592 0.53625756502151489
