assets/lut/others green mono.cube
# Created by: G'MIC (https://gmic.eu)
TITLE "green_mono"
# LUT size
LUT_3D_SIZE 5
# Data domain
DOMAIN_MIN 0.0 0.0 0.0
DOMAIN_MAX 1.0 1.0 1.0
# LUT data points
0.014410684816539288 0.023330194875597954 0.013684905134141445
0.078606322407722473 0.16300246119499207 0.10320304334163666
0.12389014661312103 0.35153812170028687 0.31262728571891785
0.31659409403800964 0.60557734966278076 0.36374542117118835
0.84482836723327637 0.85758829116821289 0.65446937084197998
0.023779610171914101 0.03373158723115921 0.022655995562672615
0.092142648994922638 0.18192023038864136 0.11895416676998138
0.13406746089458466 0.38122954964637756 0.34561997652053833
0.36789828538894653 0.64105510711669922 0.37776082754135132
0.87662142515182495 0.86959201097488403 0.70554637908935547
0.032612774521112442 0.04741891473531723 0.027314802631735802
0.097175061702728271 0.20773360133171082 0.12888669967651367
0.13932646811008453 0.40878960490226746 0.3826964795589447
0.42802619934082031 0.67398601770401001 0.394998699426651
0.89700567722320557 0.88451278209686279 0.74478185176849365
0.048049896955490112 0.075428873300552368 0.043835043907165527
0.10232030600309372 0.23035737872123718 0.15668566524982452
0.15224149823188782 0.43554311990737915 0.39725038409233093
0.49237436056137085 0.70162791013717651 0.43543887138366699
0.92005687952041626 0.90438812971115112 0.78056919574737549
0.053241699934005737 0.077294610440731049 0.04494621604681015
0.11355318874120712 0.25396144390106201 0.17712455987930298
0.1764405369758606 0.46300530433654785 0.38760802149772644
0.58630353212356567 0.74054771661758423 0.48245695233345032
0.9302329421043396 0.91496354341506958 0.82153421640396118
0.029753919690847397 0.048996090888977051 0.031189488247036934
0.088768914341926575 0.18592970073223114 0.11675316095352173
0.13011015951633453 0.38157999515533447 0.35274922847747803
0.3696703314781189 0.63749462366104126 0.37836340069770813
0.87671458721160889 0.86849868297576904 0.70358967781066895
0.039789117872714996 0.05488230288028717 0.032580655068159103
0.097004041075706482 0.19944068789482117 0.12564782798290253
0.14076867699623108 0.40890306234359741 0.38554921746253967
0.4368554949760437 0.67583328485488892 0.3975837230682373
0.89423626661300659 0.88645118474960327 0.73405343294143677
0.041814751923084259 0.06557127833366394 0.036262765526771545
0.10538831353187561 0.22297361493110657 0.14605790376663208
0.1544795036315918 0.43335840106010437 0.39687058329582214
0.50676059722900391 0.70900678634643555 0.43431365489959717
0.91131919622421265 0.90312439203262329 0.78148490190505981
0.053052086383104324 0.082196898758411407 0.048392664641141891
0.10372211039066315 0.24260422587394714 0.16714709997177124
0.17834748327732086 0.46534076333045959 0.39020475745201111
0.57159429788589478 0.73301750421524048 0.46900898218154907
0.92947214841842651 0.91350626945495605 0.80930507183074951
0.065199486911296844 0.096879012882709503 0.054463107138872147
0.11354208737611771 0.27427059412002563 0.20054540038108826
0.20393908023834229 0.49866721034049988 0.38565635681152344
0.65405267477035522 0.7704809308052063 0.52598637342453003
0.9417908787727356 0.93088233470916748 0.85373854637145996
0.033092334866523743 0.047112230211496353 0.026312494650483131
0.093423359096050262 0.20319058001041412 0.13274876773357391
0.14180052280426025 0.404552161693573 0.37550681829452515
0.41987749934196472 0.67134952545166016 0.40175899863243103
0.90352112054824829 0.88572293519973755 0.74371600151062012
0.043658971786499023 0.067646622657775879 0.040797185152769089
0.10428778082132339 0.22392569482326508 0.15239086747169495
0.16065013408660889 0.44078657031059265 0.3832758367061615
0.49473485350608826 0.70312440395355225 0.43979015946388245
0.92117029428482056 0.898814857006073 0.78212672472000122
0.051232356578111649 0.080713115632534027 0.04605039581656456
0.10600285232067108 0.24545390903949738 0.17392642796039581
0.17630770802497864 0.46636077761650085 0.39644983410835266
0.56185758113861084 0.73208475112915039 0.48649045825004578
0.93057787418365479 0.91630452871322632 0.81378412246704102
0.058770976960659027 0.10343943536281586 0.057672835886478424
0.11177355051040649 0.27830874919891357 0.2109026163816452
0.21284133195877075 0.50199216604232788 0.37718558311462402
0.66417741775512695 0.77529102563858032 0.53017342090606689
0.94462156295776367 0.92912882566452026 0.84824866056442261
0.065616682171821594 0.11722809821367264 0.067214086651802063
0.12057158350944519 0.29775393009185791 0.22945131361484528
0.23611970245838165 0.52435743808746338 0.37780022621154785
0.71273839473724365 0.79687637090682983 0.56949406862258911
0.96092057228088379 0.94528722763061523 0.88768309354782104
0.047792937606573105 0.07386162132024765 0.04415690153837204
0.099945247173309326 0.22589111328125 0.1553887277841568
0.15596188604831696 0.43802979588508606 0.39555007219314575
0.49007546901702881 0.69805371761322021 0.43942680954933167
0.91990619897842407 0.90266335010528564 0.78359460830688477
0.051564369350671768 0.083210870623588562 0.046374812722206116
0.105787493288517 0.24840685725212097 0.17854598164558411
0.18247315287590027 0.46959778666496277 0.38136112689971924
0.57811957597732544 0.73780906200408936 0.47877079248428345
0.93612164258956909 0.91836786270141602 0.81992250680923462
0.059889834374189377 0.098100550472736359 0.055326469242572784
0.11384017020463943 0.27034181356430054 0.19026648998260498
0.20402716100215912 0.49813991785049438 0.38418173789978027
0.65170079469680786 0.76748937368392944 0.51791882514953613
0.94540607929229736 0.93012809753417969 0.84815347194671631
0.065092988312244415 0.11483152955770493 0.067699968814849854
0.11657364666461945 0.29584649205207825 0.23009206354618073
0.23713254928588867 0.53423178195953369 0.37718954682350159
0.71758472919464111 0.79774773120880127 0.56880635023117065
0.95841890573501587 0.94575673341751099 0.88503730297088623
0.071305878460407257 0.13392022252082825 0.075415410101413727
0.12117602676153183 0.32102373242378235 0.25881731510162354
0.27573326230049133 0.56829571723937988 0.36447083950042725
0.78245729207992554 0.82892113924026489 0.61583107709884644
0.96544057130813599 0.9630274772644043 0.91805344820022583
0.05606391653418541 0.081604734063148499 0.051088668406009674
0.10721138119697571 0.2447192519903183 0.17613127827644348
0.16326889395713806 0.45739081501960754 0.39049211144447327
0.58305889368057251 0.74112528562545776 0.48647582530975342
0.92197436094284058 0.90362221002578735 0.77936679124832153
0.063293635845184326 0.104928158223629 0.06206849217414856
0.11273263394832611 0.26811721920967102 0.19651249051094055
0.21864801645278931 0.50221669673919678 0.38639304041862488
0.64298886060714722 0.76627552509307861 0.52155476808547974
0.94785493612289429 0.92840051651000977 0.84702175855636597
0.069097854197025299 0.11711248010396957 0.064800739288330078
0.12168671935796738 0.29787009954452515 0.22562325000762939
0.23991137742996216 0.53370684385299683 0.37885507941246033
0.71741187572479248 0.79533207416534424 0.5687633752822876
0.96030634641647339 0.94586163759231567 0.88488423824310303
0.074754483997821808 0.13777534663677216 0.07963910698890686
0.12142904102802277 0.32175230979919434 0.26460811495780945
0.28018727898597717 0.57508832216262817 0.36625957489013672
0.78534835577011108 0.82721608877182007 0.61898553371429443
0.96689677238464355 0.95870769023895264 0.91521799564361572
0.079404108226299286 0.16055651009082794 0.09109371155500412
0.1273752897977829 0.34394225478172302 0.29211524128913879
0.30458709597587585 0.591805100440979 0.36763486266136169
0.82072627544403076 0.84924161434173584 0.6498827338218689
0.97592335939407349 0.97239059209823608 0.94544655084609985
