assets/lut/others sunny warm.cube
# Created by: G'MIC (https://gmic.eu)
TITLE "sunny_warm"
# LUT size
LUT_3D_SIZE 7
# Data domain
DOMAIN_MIN 0.0 0.0 0.0
DOMAIN_MAX 1.0 1.0 1.0
# LUT data points
0.07556413859128952 0.059287726879119873 0.048680145293474197
0.24754078686237335 0.075205735862255096 0.050726857036352158
0.41153451800346375 0.087680742144584656 0.046287789940834045
0.57522773742675781 0.11914835870265961 0.044674504548311234
0.70855265855789185 0.13011986017227173 0.041021473705768585
0.85241949558258057 0.15997104346752167 0.04583040252327919
0.95357972383499146 0.18924953043460846 0.04911741241812706
0.15509343147277832 0.22444535791873932 0.045965291559696198
0.33627033233642578 0.26997458934783936 0.061115968972444534
0.50416308641433716 0.28776487708091736 0.076555602252483368
0.63650280237197876 0.30341470241546631 0.064984999597072601
0.75370270013809204 0.30751621723175049 0.053475279361009598
0.88112270832061768 0.33807170391082764 0.064795881509780884
0.95432782173156738 0.35989224910736084 0.070739075541496277
0.25444447994232178 0.41583916544914246 0.056621968746185303
0.41184529662132263 0.43736124038696289 0.053727123886346817
0.54268652200698853 0.43782946467399597 0.045138057321310043
0.66920101642608643 0.45724660158157349 0.044618494808673859
0.77360397577285767 0.45774918794631958 0.037523366510868073
0.90020120143890381 0.50109678506851196 0.057870347052812576
0.96535158157348633 0.50809216499328613 0.061342425644397736
0.33229449391365051 0.55894076824188232 0.03278350830078125
0.47402182221412659 0.57710999250411987 0.035348135977983475
0.60719156265258789 0.59241420030593872 0.060941807925701141
0.7072596549987793 0.58952385187149048 0.047005806118249893
0.8219984769821167 0.61839866638183594 0.049559976905584335
0.90107011795043945 0.62140363454818726 0.056140884757041931
0.9741286039352417 0.64520090818405151 0.057909663766622543
0.42709997296333313 0.70834642648696899 0.044007141143083572
0.55768394470214844 0.72822088003158569 0.05072021484375
0.6724541187286377 0.72665882110595703 0.054475251585245132
0.75719332695007324 0.73277747631072998 0.048738501965999603
0.84143757820129395 0.73902183771133423 0.041901383548974991
0.91862404346466064 0.74970191717147827 0.050784345716238022
0.96938693523406982 0.76392263174057007 0.053673237562179565
0.51806461811065674 0.84300655126571655 0.046441830694675446
0.64303374290466309 0.86115384101867676 0.055049881339073181
0.73312932252883911 0.8599621057510376 0.0494510717689991
0.83699917793273926 0.88411056995391846 0.059521365910768509
0.8755495548248291 0.85871827602386475 0.044800374656915665
0.95911955833435059 0.89159870147705078 0.062469962984323502
0.9677053689956665 0.87683796882629395 0.047410253435373306
0.58561223745346069 0.94200634956359863 0.035735845565795898
0.70140492916107178 0.95450979471206665 0.052699699997901917
0.79399019479751587 0.95645767450332642 0.063236996531486511
0.86600375175476074 0.95980668067932129 0.054111510515213013
0.91781038045883179 0.95778113603591919 0.055452726781368256
0.96323609352111816 0.96069353818893433 0.051295921206474304
0.9562300443649292 0.94119864702224731 0.030865553766489029
0.071452349424362183 0.050034794956445694 0.17365445196628571
0.27021872997283936 0.087009519338607788 0.18554630875587463
0.43004715442657471 0.10514786839485168 0.18424613773822784
0.58429020643234253 0.13008007407188416 0.17792068421840668
0.71768319606781006 0.14581751823425293 0.17350193858146667
0.85255908966064453 0.16733916103839874 0.18131692707538605
0.95732760429382324 0.19350312650203705 0.18790595233440399
0.16562226414680481 0.23625871539115906 0.1817648708820343
0.34590309858322144 0.25889080762863159 0.19091865420341492
0.48817664384841919 0.27579578757286072 0.1864800900220871
0.6461784839630127 0.31536227464675903 0.20116585493087769
0.77121341228485107 0.32408067584037781 0.19523406028747559
0.88689368963241577 0.34886068105697632 0.1987072080373764
0.95780003070831299 0.35649806261062622 0.19877852499485016
0.27240779995918274 0.42232644557952881 0.19788843393325806
0.41551575064659119 0.43251496553421021 0.19328616559505463
0.55105710029602051 0.43813210725784302 0.1781173050403595
0.68207526206970215 0.46471878886222839 0.18623089790344238
0.79718023538589478 0.4848446249961853 0.18841774761676788
0.90559893846511841 0.51165050268173218 0.1970289945602417
0.9576185941696167 0.50100213289260864 0.18709059059619904
0.35182148218154907 0.56822508573532104 0.17848262190818787
0.48831856250762939 0.57983499765396118 0.19184151291847229
0.61674207448959351 0.5992242693901062 0.18842390179634094
0.7340017557144165 0.61990463733673096 0.20939621329307556
0.83775663375854492 0.63489389419555664 0.20175972580909729
0.91311770677566528 0.63615435361862183 0.19610863924026489
0.95851624011993408 0.63965225219726562 0.19479362666606903
0.45411786437034607 0.72118276357650757 0.19363118708133698
0.56170427799224854 0.71836739778518677 0.18312165141105652
0.68711227178573608 0.74311524629592896 0.1998240053653717
0.78934568166732788 0.75500094890594482 0.20589572191238403
0.87959772348403931 0.77065920829772949 0.21822658181190491
0.93186968564987183 0.76363837718963623 0.19466829299926758
0.97561788558959961 0.77342075109481812 0.19857750833034515
0.53090953826904297 0.84948694705963135 0.19083534181118011
0.64636743068695068 0.86055809259414673 0.19126996397972107
0.76055812835693359 0.88133490085601807 0.20638497173786163
0.83867532014846802 0.88071614503860474 0.20299774408340454
0.89501053094863892 0.87261569499969482 0.19282808899879456
0.94423562288284302 0.87088143825531006 0.18830752372741699
0.96619939804077148 0.87123280763626099 0.17494577169418335
0.61442095041275024 0.94888007640838623 0.18805360794067383
0.71635341644287109 0.95412516593933105 0.19825056195259094
0.80895829200744629 0.96471220254898071 0.20253361761569977
0.88250142335891724 0.96594882011413574 0.20814257860183716
0.92295962572097778 0.95663726329803467 0.18526235222816467
0.96958863735198975 0.96218729019165039 0.1978892982006073
0.96449774503707886 0.94559311866760254 0.17191310226917267
0.098273470997810364 0.068195909261703491 0.33806899189949036
0.26825657486915588 0.089039072394371033 0.3305605947971344
0.44305017590522766 0.11317366361618042 0.34131771326065063
0.59449917078018188 0.13182894885540009 0.33566057682037354
0.72173804044723511 0.14784277975559235 0.3244413435459137
0.84168541431427002 0.16677586734294891 0.32029515504837036
0.95799499750137329 0.20590740442276001 0.35273534059524536
0.18340194225311279 0.24378876388072968 0.33517736196517944
0.35790705680847168 0.27139875292778015 0.34542787075042725
0.49723604321479797 0.28549417853355408 0.34334668517112732
0.6477961540222168 0.30768021941184998 0.35374590754508972
0.76709318161010742 0.32437187433242798 0.34334829449653625
0.89037537574768066 0.35432624816894531 0.36469164490699768
0.96252620220184326 0.3659517765045166 0.35505127906799316
0.26899212598800659 0.41692832112312317 0.33481577038764954
0.43770343065261841 0.44924956560134888 0.3555813729763031
0.5590398907661438 0.45008856058120728 0.33204329013824463
0.67895692586898804 0.46661067008972168 0.33345824480056763
0.80384498834609985 0.4900549054145813 0.35337045788764954
0.89500409364700317 0.49977597594261169 0.3454623818397522
0.97208249568939209 0.52101314067840576 0.35667073726654053
0.34765493869781494 0.55920743942260742 0.32666108012199402
0.50893229246139526 0.5939440131187439 0.34340059757232666
0.61896824836730957 0.58750814199447632 0.33151233196258545
0.75330597162246704 0.63177168369293213 0.3629545271396637
0.82431620359420776 0.62022203207015991 0.33395463228225708
0.90699690580368042 0.63050955533981323 0.34207594394683838
0.97103947401046753 0.64761233329772949 0.34696438908576965
0.46123805642127991 0.71606099605560303 0.33450067043304443
0.57153975963592529 0.72120904922485352 0.33699062466621399
0.69443833827972412 0.74660474061965942 0.35417360067367554
0.78853309154510498 0.75469708442687988 0.34423869848251343
0.85323226451873779 0.74742233753204346 0.33160868287086487
0.92659366130828857 0.75733649730682373 0.33822804689407349
0.97211378812789917 0.77247262001037598 0.34434676170349121
0.53420525789260864 0.83687251806259155 0.33463761210441589
0.65858221054077148 0.85949498414993286 0.33898696303367615
0.74804246425628662 0.86153388023376465 0.33421024680137634
0.82925581932067871 0.86241608858108521 0.33670923113822937
0.89814853668212891 0.86976754665374756 0.33998382091522217
0.95215535163879395 0.88185125589370728 0.34892821311950684
0.96965241432189941 0.87572455406188965 0.33884707093238831
0.63787329196929932 0.96315145492553711 0.35907056927680969
0.73680609464645386 0.96631962060928345 0.35387134552001953
0.81006962060928345 0.95959413051605225 0.34912946820259094
0.87251967191696167 0.95659929513931274 0.34481781721115112
0.94222813844680786 0.96689909696578979 0.36206826567649841
0.97470414638519287 0.97204709053039551 0.35529440641403198
0.98278194665908813 0.97228097915649414 0.35648715496063232
0.10673099756240845 0.069388538599014282 0.48576924204826355
0.2789330780506134 0.087624534964561462 0.48782563209533691
0.45245131850242615 0.12312943488359451 0.49488192796707153
0.59655070304870605 0.13666561245918274 0.48640227317810059
0.73467987775802612 0.16515089571475983 0.49177840352058411
0.8519824743270874 0.18721778690814972 0.47946852445602417
0.93861466646194458 0.19838738441467285 0.47986879944801331
0.19618324935436249 0.25228977203369141 0.48734861612319946
0.37850791215896606 0.2942548394203186 0.50701671838760376
0.51397973299026489 0.2966306209564209 0.50376325845718384
0.65785282850265503 0.31664890050888062 0.5109131932258606
0.78506970405578613 0.33984643220901489 0.50636500120162964
0.87337356805801392 0.34478956460952759 0.49207746982574463
0.97011637687683105 0.37523952126502991 0.51453375816345215
0.2829471230506897 0.42003002762794495 0.49207106232643127
0.44386515021324158 0.44702908396720886 0.50079852342605591
0.55937892198562622 0.44244122505187988 0.47962078452110291
0.6999962329864502 0.47859904170036316 0.49846154451370239
0.80192703008651733 0.48758772015571594 0.49349284172058105
0.88871419429779053 0.50341439247131348 0.48951545357704163
0.97168773412704468 0.52740705013275146 0.50820255279541016
0.37303411960601807 0.57567352056503296 0.48456847667694092
0.51573818922042847 0.59547090530395508 0.49064791202545166
0.65159809589385986 0.61589837074279785 0.5081067681312561
0.74467229843139648 0.61997753381729126 0.49821999669075012
0.84315115213394165 0.6366921067237854 0.50227344036102295
0.92689961194992065 0.6534959077835083 0.50213748216629028
0.97102844715118408 0.6628720760345459 0.5058179497718811
0.47493302822113037 0.73359733819961548 0.49922913312911987
0.58340024948120117 0.73231357336044312 0.49044901132583618
0.71123600006103516 0.7550768256187439 0.50673091411590576
0.78920441865921021 0.75102967023849487 0.4952852725982666
0.86526036262512207 0.75554555654525757 0.48675987124443054
0.94385445117950439 0.77648019790649414 0.50411427021026611
0.96671396493911743 0.76886898279190063 0.4851403534412384
0.56177693605422974 0.86028409004211426 0.49574267864227295
0.6582108736038208 0.85304683446884155 0.48593038320541382
0.75717014074325562 0.86632257699966431 0.49218156933784485
0.8342089056968689 0.86208003759384155 0.49306729435920715
0.90580230951309204 0.8732265830039978 0.4952094554901123
0.96361535787582397 0.88999474048614502 0.50700259208679199
0.97593945264816284 0.88093692064285278 0.49071329832077026
0.6421128511428833 0.9480101466178894 0.4945407509803772
0.74834150075912476 0.96659040451049805 0.50974613428115845
0.83369827270507812 0.97280669212341309 0.52106082439422607
0.87892001867294312 0.95253849029541016 0.50060570240020752
0.93547451496124268 0.95776975154876709 0.50288152694702148
0.9660370945930481 0.96074259281158447 0.49907961487770081
0.97755205631256104 0.96650201082229614 0.49280691146850586
0.11487925052642822 0.073791220784187317 0.64827311038970947
0.28349649906158447 0.08580220490694046 0.63478201627731323
0.45547765493392944 0.12341060489416122 0.63684201240539551
0.59784048795700073 0.13586923480033875 0.63580083847045898
0.74671322107315063 0.17383421957492828 0.64975053071975708
0.85683661699295044 0.18992267549037933 0.64355003833770752
0.95571750402450562 0.21897688508033752 0.64537668228149414
0.21296878159046173 0.25426772236824036 0.64122879505157471
0.35811543464660645 0.26690548658370972 0.63763386011123657
0.51673418283462524 0.29778194427490234 0.65532666444778442
0.65373104810714722 0.313100665807724 0.65169340372085571
0.77751857042312622 0.33540159463882446 0.65761375427246094
0.90559440851211548 0.37513214349746704 0.6735607385635376
0.97682589292526245 0.38593721389770508 0.66856741905212402
0.29104334115982056 0.42324236035346985 0.64697575569152832
0.45151036977767944 0.45393159985542297 0.6532890796661377
0.58612018823623657 0.46775996685028076 0.65169477462768555
0.71177327632904053 0.48762136697769165 0.65230739116668701
0.80895119905471802 0.49150910973548889 0.65459215641021729
0.90851670503616333 0.51693886518478394 0.65793454647064209
0.96232056617736816 0.51354712247848511 0.64564061164855957
0.38271355628967285 0.57605808973312378 0.63941240310668945
0.52929443120956421 0.60068023204803467 0.65539723634719849
0.62810486555099487 0.5960584282875061 0.63790863752365112
0.73991203308105469 0.61061131954193115 0.64140868186950684
0.85228639841079712 0.64242202043533325 0.66190284490585327
0.93343281745910645 0.66240185499191284 0.66255325078964233
0.95222169160842896 0.63102865219116211 0.63247936964035034
0.48925378918647766 0.73497164249420166 0.65234774351119995
0.60555726289749146 0.74158936738967896 0.65913474559783936
0.70264697074890137 0.74183464050292969 0.64799094200134277
0.79621177911758423 0.74804526567459106 0.64791059494018555
0.86713540554046631 0.74970912933349609 0.64281702041625977
0.94937741756439209 0.78202593326568604 0.66224181652069092
0.97373014688491821 0.77984380722045898 0.64908868074417114
0.57776910066604614 0.85857230424880981 0.64952027797698975
0.66539239883422852 0.85303330421447754 0.63882428407669067
0.76627433300018311 0.86776691675186157 0.65234249830245972
0.85423314571380615 0.87509548664093018 0.65949928760528564
0.92159819602966309 0.88929307460784912 0.66742491722106934
0.94708067178726196 0.8722221851348877 0.64522528648376465
0.97562283277511597 0.88228893280029297 0.65741813182830811
0.67030161619186401 0.96368831396102905 0.66245174407958984
0.73769789934158325 0.94515293836593628 0.64346063137054443
0.82398146390914917 0.96345818042755127 0.64817440509796143
0.88525897264480591 0.9591832160949707 0.65434807538986206
0.95063811540603638 0.97255426645278931 0.66455274820327759
0.9576229453086853 0.94955176115036011 0.64182400703430176
0.9746471643447876 0.96030646562576294 0.64533466100692749
0.12248927354812622 0.082128606736660004 0.78904706239700317
0.30257904529571533 0.09923446923494339 0.79405784606933594
0.47888082265853882 0.13647593557834625 0.80719470977783203
0.615928053855896 0.15927295386791229 0.80689036846160889
0.74012702703475952 0.17333163321018219 0.7963181734085083
0.85478949546813965 0.200434610247612 0.79095286130905151
0.95149201154708862 0.21464236080646515 0.79388928413391113
0.22733661532402039 0.27247625589370728 0.80647504329681396
0.36615261435508728 0.26725736260414124 0.7888418436050415
0.52403372526168823 0.30164885520935059 0.80405813455581665
0.66019213199615479 0.32346251606941223 0.81123769283294678
0.78715783357620239 0.34987252950668335 0.80979663133621216
0.89387887716293335 0.3618941605091095 0.81040406227111816
0.96794086694717407 0.39390501379966736 0.81820279359817505
0.31868931651115417 0.43682017922401428 0.81692016124725342
0.46233841776847839 0.44964620471000671 0.80161881446838379
0.59147435426712036 0.46855106949806213 0.80908411741256714
0.69883942604064941 0.4762190580368042 0.79531389474868774
0.80075228214263916 0.48687496781349182 0.79505747556686401
0.92107236385345459 0.52768290042877197 0.81748384237289429
0.97684198617935181 0.54409670829772949 0.81735312938690186
0.39238271117210388 0.5724189281463623 0.79256486892700195
0.51885783672332764 0.58729934692382812 0.79186844825744629
0.65623873472213745 0.61940044164657593 0.81348037719726562
0.76240682601928711 0.62582111358642578 0.81059449911117554
0.8366207480430603 0.62596863508224487 0.80155158042907715
0.92192888259887695 0.64317852258682251 0.79824608564376831
0.97191107273101807 0.67386090755462646 0.81475162506103516
0.49785736203193665 0.7361522912979126 0.80631816387176514
0.61117219924926758 0.74066990613937378 0.80651235580444336
0.72062093019485474 0.75379306077957153 0.81705778837203979
0.79654330015182495 0.74778878688812256 0.79691570997238159
0.8829416036605835 0.76640015840530396 0.80984872579574585
0.93923479318618774 0.77015393972396851 0.804981529712677
0.97981339693069458 0.79352080821990967 0.82612961530685425
0.5792776346206665 0.85323405265808105 0.79584366083145142
0.68303567171096802 0.86252695322036743 0.79935359954833984
0.79605704545974731 0.88517481088638306 0.82037758827209473
0.85417014360427856 0.87206518650054932 0.80706751346588135
0.90074676275253296 0.86266845464706421 0.79479855298995972
0.94608783721923828 0.87417590618133545 0.7936781644821167
0.97878742218017578 0.89879578351974487 0.8141103982925415
0.68744218349456787 0.97718232870101929 0.82753556966781616
0.77388471364974976 0.9693339467048645 0.82500648498535156
0.82906699180603027 0.95720642805099487 0.80401647090911865
0.90276193618774414 0.96915715932846069 0.81881213188171387
0.94181066751480103 0.96068876981735229 0.80994808673858643
0.97180628776550293 0.96264386177062988 0.80632025003433228
0.97274011373519897 0.95115917921066284 0.79484015703201294
0.14525756239891052 0.097723685204982758 0.94293081760406494
0.31944838166236877 0.10564231127500534 0.94358545541763306
0.47267827391624451 0.13641886413097382 0.94527071714401245
0.6132122278213501 0.15096090734004974 0.93372118473052979
0.76535642147064209 0.19360527396202087 0.95629310607910156
0.85612308979034424 0.19409200549125671 0.93437725305557251
0.95864439010620117 0.22262562811374664 0.94687533378601074
0.22864550352096558 0.2689746618270874 0.93782395124435425
0.38942369818687439 0.28126233816146851 0.93659192323684692
0.54997014999389648 0.31511792540550232 0.95136094093322754
0.67041945457458496 0.3257562518119812 0.95647799968719482
0.79924559593200684 0.35787874460220337 0.9530913233757019
0.9025275707244873 0.37212398648262024 0.95373010635375977
0.9708939790725708 0.39097067713737488 0.95197463035583496
0.32217437028884888 0.43780550360679626 0.94617247581481934
0.47063994407653809 0.45850366353988647 0.93663287162780762
0.61488801240921021 0.4843672513961792 0.96116787195205688
0.72279077768325806 0.49790310859680176 0.94698655605316162
0.83938288688659668 0.52468341588973999 0.9647640585899353
0.91823393106460571 0.53099548816680908 0.95326274633407593
0.97871005535125732 0.55191946029663086 0.96063446998596191
0.39666473865509033 0.57040750980377197 0.93072932958602905
0.55199426412582397 0.61618131399154663 0.95730608701705933
0.65725433826446533 0.61578893661499023 0.94776278734207153
0.78018873929977417 0.65156561136245728 0.95601260662078857
0.8424573540687561 0.63460284471511841 0.94254410266876221
0.9206540584564209 0.64915996789932251 0.9397614598274231
0.98463058471679688 0.67930120229721069 0.95798897743225098
0.50313228368759155 0.72516167163848877 0.93248236179351807
0.62875336408615112 0.75121462345123291 0.96005672216415405
0.72465687990188599 0.75158530473709106 0.94984608888626099
0.82677310705184937 0.77618587017059326 0.95512539148330688
0.87539416551589966 0.75966978073120117 0.93598878383636475
0.9596407413482666 0.79152292013168335 0.95975309610366821
0.98141050338745117 0.79979312419891357 0.95047247409820557
0.58522051572799683 0.84999954700469971 0.93058431148529053
0.69470036029815674 0.86503416299819946 0.94751173257827759
0.77608722448348999 0.86273682117462158 0.9439733624458313
0.86237239837646484 0.87790060043334961 0.94466108083724976
0.93057239055633545 0.89000952243804932 0.94792830944061279
0.97965878248214722 0.91102516651153564 0.96524059772491455
0.9883263111114502 0.90327006578445435 0.9547799825668335
0.69028574228286743 0.96466881036758423 0.9565880298614502
0.77761268615722656 0.96824318170547485 0.96098846197128296
0.85912233591079712 0.97701585292816162 0.95827525854110718
0.91226005554199219 0.97177433967590332 0.95552068948745728
0.95600903034210205 0.97148668766021729 0.95695090293884277
0.96702557802200317 0.95590031147003174 0.92925125360488892
0.97935754060745239 0.96656447649002075 0.94723302125930786
