assets/lut/others sunny warm.cube
# Created by: G'MIC (https://gmic.eu)
TITLE "sunny_warm"
# LUT size
LUT_3D_SIZE 13
# Data domain
DOMAIN_MIN 0.0 0.0 0.0
DOMAIN_MAX 1.0 1.0 1.0
# LUT data points
0.07556413859128952 0.059287726879119873 0.048680145293474197
0.18106642365455627 0.090663418173789978 0.060642600059509277
0.24754078686237335 0.075205735862255096 0.050726857036352158
0.3344414234161377 0.085149757564067841 0.052773524075746536
0.41153451800346375 0.087680742144584656 0.046287789940834045
0.50179469585418701 0.11287165433168411 0.042775876820087433
0.57522773742675781 0.11914835870265961 0.044674504548311234
0.64566189050674438 0.1291373074054718 0.052549473941326141
0.70855265855789185 0.13011986017227173 0.041021473705768585
0.7858583927154541 0.14522391557693481 0.038439925760030746
0.85241949558258057 0.15997104346752167 0.04583040252327919
0.91942662000656128 0.19353748857975006 0.060377500951290131
0.95357972383499146 0.18924953043460846 0.04911741241812706
0.10660141706466675 0.1342172771692276 0.044809527695178986
0.21552668511867523 0.17573511600494385 0.057850182056427002
0.29009369015693665 0.16755424439907074 0.052745938301086426
0.3719211220741272 0.18139532208442688 0.049596194177865982
0.45740529894828796 0.19169290363788605 0.055108029395341873
0.52576911449432373 0.19064891338348389 0.044069986790418625
0.6001887321472168 0.20643101632595062 0.045602999627590179
0.6674538254737854 0.213885098695755 0.046938188374042511
0.74203157424926758 0.23089548945426941 0.049763906747102737
0.80647039413452148 0.23956246674060822 0.052778251469135284
0.87227904796600342 0.254057377576828 0.062057241797447205
0.90805917978286743 0.25462999939918518 0.052389524877071381
0.94589114189147949 0.25716361403465271 0.043798305094242096
0.15509343147277832 0.22444535791873932 0.045965291559696198
0.25185951590538025 0.26054391264915466 0.049867264926433563
0.33627033233642578 0.26997458934783936 0.061115968972444534
0.41980960965156555 0.28037935495376587 0.068706721067428589
0.50416308641433716 0.28776487708091736 0.076555602252483368
0.54704201221466064 0.27189067006111145 0.044306438416242599
0.63650280237197876 0.30341470241546631 0.064984999597072601
0.67486226558685303 0.28337916731834412 0.042795952409505844
0.75370270013809204 0.30751621723175049 0.053475279361009598
0.8181566596031189 0.321512371301651 0.054689817130565643
0.88112270832061768 0.33807170391082764 0.064795881509780884
0.91921305656433105 0.34577271342277527 0.058435611426830292
0.95432782173156738 0.35989224910736084 0.070739075541496277
0.21376766264438629 0.32418739795684814 0.056678786873817444
0.31166225671768188 0.36182472109794617 0.064269617199897766
0.36798968911170959 0.3479495644569397 0.053841400891542435
0.43444836139678955 0.34327876567840576 0.048871584236621857
0.5076720118522644 0.34435933828353882 0.04019458219408989
0.57701236009597778 0.36096999049186707 0.040461625903844833
0.65074557065963745 0.37759372591972351 0.055631913244724274
0.70253956317901611 0.37317565083503723 0.052910793572664261
0.75894707441329956 0.37623864412307739 0.03684539720416069
0.83408623933792114 0.40589001774787903 0.051521331071853638
0.88963276147842407 0.42233061790466309 0.06385987251996994
0.92891925573348999 0.42743226885795593 0.059372622519731522
0.9644884467124939 0.44028913974761963 0.06970939040184021
0.25444447994232178 0.41583916544914246 0.056621968746185303
0.35965391993522644 0.45352655649185181 0.067541442811489105
0.41184529662132263 0.43736124038696289 0.053727123886346817
0.46717417240142822 0.42831337451934814 0.042851138859987259
0.54268652200698853 0.43782946467399597 0.045138057321310043
0.60440725088119507 0.44226095080375671 0.039512693881988525
0.66920101642608643 0.45724660158157349 0.044618494808673859
0.71625113487243652 0.45137408375740051 0.040289066731929779
0.77360397577285767 0.45774918794631958 0.037523366510868073
0.84810429811477661 0.48579925298690796 0.049756668508052826
0.90020120143890381 0.50109678506851196 0.057870347052812576
0.92529958486557007 0.49708786606788635 0.052984528243541718
0.96535158157348633 0.50809216499328613 0.061342425644397736
0.29185089468955994 0.49300920963287354 0.043238844722509384
0.37045827507972717 0.50238692760467529 0.040201000869274139
0.44224816560745239 0.51013559103012085 0.044016581028699875
0.51555097103118896 0.52391958236694336 0.050429742783308029
0.56548303365707397 0.5116267204284668 0.043137300759553909
0.63032561540603638 0.518016517162323 0.045528411865234375
0.69337749481201172 0.53102833032608032 0.049836326390504837
0.76610857248306274 0.55331557989120483 0.06179211288690567
0.80347353219985962 0.54638797044754028 0.052810654044151306
0.85122686624526978 0.55061739683151245 0.051063567399978638
0.90093708038330078 0.56528156995773315 0.049812614917755127
0.9297260046005249 0.56701725721359253 0.050618533045053482
0.96720319986343384 0.58266252279281616 0.061069607734680176
0.33229449391365051 0.55894076824188232 0.03278350830078125
0.39801955223083496 0.56217539310455322 0.027320323511958122
0.47402182221412659 0.57710999250411987 0.035348135977983475
0.54807645082473755 0.59452331066131592 0.05407421663403511
0.60719156265258789 0.59241420030593872 0.060941807925701141
0.66488736867904663 0.59318691492080688 0.059713102877140045
0.7072596549987793 0.58952385187149048 0.047005806118249893
0.77145397663116455 0.6125527024269104 0.04961070790886879
0.8219984769821167 0.61839866638183594 0.049559976905584335
0.85697013139724731 0.61194038391113281 0.044353663921356201
0.90107011795043945 0.62140363454818726 0.056140884757041931
0.94294959306716919 0.63752520084381104 0.060562357306480408
0.9741286039352417 0.64520090818405151 0.057909663766622543
0.37624934315681458 0.62975025177001953 0.033318597823381424
0.44794672727584839 0.64249885082244873 0.039904829114675522
0.51008236408233643 0.64674341678619385 0.036682292819023132
0.57513755559921265 0.65574336051940918 0.049801141023635864
0.63931334018707275 0.6615910530090332 0.061620194464921951
0.70009034872055054 0.66851788759231567 0.06684538722038269
0.72873061895370483 0.65396589040756226 0.048550773411989212
0.77971017360687256 0.67022335529327393 0.047141026705503464
0.83020311594009399 0.68032824993133545 0.047927990555763245
0.88231402635574341 0.69351989030838013 0.056562207639217377
0.90952092409133911 0.68455302715301514 0.059686113148927689
0.95204585790634155 0.70466029644012451 0.065221987664699554
0.97067928314208984 0.70176571607589722 0.054858606308698654
0.42709997296333313 0.70834642648696899 0.044007141143083572
0.49027281999588013 0.71470826864242554 0.050116177648305893
0.55768394470214844 0.72822088003158569 0.05072021484375
0.60796612501144409 0.72001224756240845 0.05060945451259613
0.6724541187286377 0.72665882110595703 0.054475251585245132
0.72042381763458252 0.73409569263458252 0.048051811754703522
0.75719332695007324 0.73277747631072998 0.048738501965999603
0.7994731068611145 0.73805385828018188 0.04824543371796608
0.84143757820129395 0.73902183771133423 0.041901383548974991
0.88580185174942017 0.74770611524581909 0.045729737728834152
0.91862404346466064 0.74970191717147827 0.050784345716238022
0.95330649614334106 0.76173877716064453 0.050479725003242493
0.96938693523406982 0.76392263174057007 0.053673237562179565
0.47480234503746033 0.77430790662765503 0.041370227932929993
0.5485718846321106 0.79367798566818237 0.05577557161450386
0.60663747787475586 0.80136483907699585 0.061909455806016922
0.6512874960899353 0.79306596517562866 0.053473170846700668
0.71297538280487061 0.80647718906402588 0.056787930428981781
0.747752845287323 0.80215513706207275 0.045001085847616196
0.79632210731506348 0.81356310844421387 0.052461422979831696
0.82670825719833374 0.80786854028701782 0.045749619603157043
0.85119503736495972 0.79327887296676636 0.034576818346977234
0.89877825975418091 0.80861937999725342 0.052076153457164764
0.94330549240112305 0.82509630918502808 0.070191189646720886
0.96046543121337891 0.82526475191116333 0.055249515920877457
0.96852928400039673 0.82122868299484253 0.051424227654933929
0.51806461811065674 0.84300655126571655 0.046441830694675446
0.58064860105514526 0.85269415378570557 0.05008329451084137
0.64303374290466309 0.86115384101867676 0.055049881339073181
0.68792802095413208 0.85943448543548584 0.05351937934756279
0.73312932252883911 0.8599621057510376 0.0494510717689991
0.78045654296875 0.86580425500869751 0.047058477997779846
0.83699917793273926 0.88411056995391846 0.059521365910768509
0.84654712677001953 0.86285644769668579 0.041815783828496933
0.8755495548248291 0.85871827602386475 0.044800374656915665
0.91448843479156494 0.87035650014877319 0.053497001528739929
0.95911955833435059 0.89159870147705078 0.062469962984323502
0.95361083745956421 0.86779171228408813 0.047278355807065964
0.9677053689956665 0.87683796882629395 0.047410253435373306
0.56518328189849854 0.90906214714050293 0.051864966750144958
0.61563420295715332 0.90503758192062378 0.048724289983510971
0.67371571063995361 0.91112947463989258 0.050732765346765518
0.70756262540817261 0.90296566486358643 0.03999798372387886
0.76359975337982178 0.91337507963180542 0.05562075600028038
0.81475603580474854 0.92507094144821167 0.059012468904256821
0.84974682331085205 0.92934179306030273 0.056518629193305969
0.88517093658447266 0.93423306941986084 0.055647801607847214
0.91484189033508301 0.93365544080734253 0.060022570192813873
0.92031961679458618 0.91308838129043579 0.043562557548284531
0.94530832767486572 0.91431701183319092 0.045278348028659821
0.95434218645095825 0.90937399864196777 0.045047655701637268
0.95952355861663818 0.90624648332595825 0.038267727941274643
0.58561223745346069 0.94200634956359863 0.035735845565795898
0.6442224383354187 0.94477319717407227 0.038328446447849274
0.70140492916107178 0.95450979471206665 0.052699699997901917
0.75329053401947021 0.96091991662979126 0.051162749528884888
0.79399019479751587 0.95645767450332642 0.063236996531486511
0.82408684492111206 0.95000737905502319 0.055110841989517212
0.86600375175476074 0.95980668067932129 0.054111510515213013
0.8824201226234436 0.9508662223815918 0.045755978673696518
0.91781038045883179 0.95778113603591919 0.055452726781368256
0.93693417310714722 0.95441961288452148 0.045563161373138428
0.96323609352111816 0.96069353818893433 0.051295921206474304
0.95742356777191162 0.94343197345733643 0.04088236391544342
0.9562300443649292 0.94119864702224731 0.030865553766489029
0.079781807959079742 0.059071365743875504 0.11585953831672668
0.17486509680747986 0.068963788449764252 0.10939426720142365
0.26421427726745605 0.081025965511798859 0.11656015366315842
0.34245869517326355 0.086794264614582062 0.113984115421772
0.42758733034133911 0.10049521923065186 0.11571885645389557
0.51816916465759277 0.11995052546262741 0.11594133824110031
0.59193944931030273 0.14324131608009338 0.10996042937040329
0.66333550214767456 0.16026598215103149 0.11373665183782578
0.71296888589859009 0.13738135993480682 0.097459800541400909
0.78413307666778564 0.14353223145008087 0.10068025439977646
0.85169351100921631 0.16362586617469788 0.11201435327529907
0.9095502495765686 0.17939293384552002 0.11505219340324402
0.96490418910980225 0.20537388324737549 0.12216220796108246
0.11162319034337997 0.13826043903827667 0.10977835208177567
0.21869118511676788 0.16377775371074677 0.11910954117774963
0.31453707814216614 0.18481554090976715 0.12671941518783569
0.39007526636123657 0.1899118572473526 0.12320858985185623
0.46202367544174194 0.19094203412532806 0.11350391060113907
0.54066556692123413 0.2072141021490097 0.11769240349531174
0.62087547779083252 0.23098424077033997 0.12341399490833282
0.67626124620437622 0.22262698411941528 0.11172957718372345
0.73916590213775635 0.22499600052833557 0.11127859354019165
0.79899579286575317 0.22944042086601257 0.10809029638767242
0.85192173719406128 0.23436421155929565 0.10458698868751526
0.90763896703720093 0.25295776128768921 0.11252383142709732
0.95630735158920288 0.27452445030212402 0.11642090976238251
0.15736690163612366 0.23064926266670227 0.10727730393409729
0.26869344711303711 0.26564455032348633 0.12891793251037598
0.36242249608039856 0.28774303197860718 0.13864578306674957
0.42812502384185791 0.28355163335800171 0.1275598555803299
0.49807342886924744 0.28035107254981995 0.1207537055015564
0.56051045656204224 0.2854924201965332 0.1129690557718277
0.64984673261642456 0.31941443681716919 0.13653925061225891
0.69998979568481445 0.30630537867546082 0.11826711893081665
0.77568727731704712 0.32564860582351685 0.13055916130542755
0.82365679740905762 0.32701924443244934 0.12407228350639343
0.88339167833328247 0.34380620718002319 0.12649071216583252
0.94505524635314941 0.36962565779685974 0.14197422564029694
0.95791316032409668 0.35761129856109619 0.12675990164279938
0.22774367034435272 0.32964673638343811 0.12353689223527908
0.32980012893676758 0.36394426226615906 0.14732383191585541
0.39348545670509338 0.36433979868888855 0.13643863797187805
0.46279320120811462 0.36950874328613281 0.12923207879066467
0.52675807476043701 0.36674174666404724 0.11326739937067032
0.59378451108932495 0.37790018320083618 0.11413771659135818
0.64562928676605225 0.37018376588821411 0.10383233428001404
0.71147662401199341 0.38003569841384888 0.10987424850463867
0.77818435430526733 0.39953884482383728 0.11430288851261139
0.82501852512359619 0.40072375535964966 0.10214242339134216
0.88531744480133057 0.41960376501083374 0.11707356572151184
0.92381167411804199 0.42360842227935791 0.11383020877838135
0.95332390069961548 0.42868059873580933 0.1147167906165123
0.27609911561012268 0.42617976665496826 0.13312222063541412
0.36130812764167786 0.44481998682022095 0.13369053602218628
0.4013066291809082 0.42258968949317932 0.10536178946495056
0.47307473421096802 0.43339502811431885 0.10852987319231033
0.55248188972473145 0.44629755616188049 0.11041120439767838
0.61607140302658081 0.45393496751785278 0.11011750251054764
0.66455507278442383 0.45213553309440613 0.09958890825510025
0.72824281454086304 0.46273484826087952 0.10661317408084869
0.78814053535461426 0.47550013661384583 0.10560732334852219
0.85377556085586548 0.49924841523170471 0.11865541338920593
0.90700465440750122 0.51013565063476562 0.12935492396354675
0.93541526794433594 0.50761103630065918 0.11884742975234985
0.95162534713745117 0.50159502029418945 0.11150214821100235
0.29663673043251038 0.49318650364875793 0.10352856665849686
0.3806128203868866 0.51034128665924072 0.11252091079950333
0.4475284218788147 0.51236838102340698 0.11705265194177628
0.51134496927261353 0.51923209428787231 0.11740082502365112
0.58566105365753174 0.53315681219100952 0.11959963291883469
0.64145678281784058 0.52870446443557739 0.11453689634799957
0.6904950737953186 0.53258419036865234 0.11018311977386475
0.74844110012054443 0.53999704122543335 0.1055498942732811
0.81687229871749878 0.56000417470932007 0.12221866846084595
0.86953020095825195 0.57005816698074341 0.13043098151683807
0.90212231874465942 0.56587731838226318 0.12392729520797729
0.94218814373016357 0.57703256607055664 0.12750148773193359
0.95993900299072266 0.57614028453826904 0.12017832696437836
0.34419283270835876 0.569935142993927 0.10117451101541519
0.39912506937980652 0.5629737377166748 0.093432992696762085
0.47252684831619263 0.57192546129226685 0.098049387335777283
0.54024142026901245 0.58612143993377686 0.11041874438524246
0.62313282489776611 0.61178934574127197 0.13254933059215546
0.66986584663391113 0.60268515348434448 0.12024471908807755
0.71848207712173462 0.60380560159683228 0.11378303915262222
0.77519124746322632 0.61732739210128784 0.11411500722169876
0.83264124393463135 0.62966072559356689 0.12305127084255219
0.87200689315795898 0.62844252586364746 0.11832138895988464
0.91134500503540039 0.62987637519836426 0.12512430548667908
0.94415587186813354 0.63528764247894287 0.12568902969360352
0.96929144859313965 0.64879554510116577 0.12572303414344788
0.38106995820999146 0.63067668676376343 0.094670206308364868
0.4526793360710144 0.64269721508026123 0.10452503710985184
0.51079005002975464 0.64293485879898071 0.096653163433074951
0.57894790172576904 0.65872824192047119 0.10755348950624466
0.65468132495880127 0.68110299110412598 0.12963452935218811
0.71398246288299561 0.68197840452194214 0.14025850594043732
0.75133395195007324 0.67481160163879395 0.12441641092300415
0.79367530345916748 0.68063890933990479 0.11536546796560287
0.84446620941162109 0.69189286231994629 0.11587729305028915
0.89937430620193481 0.71133005619049072 0.12796021997928619
0.92196601629257202 0.69649261236190796 0.1212218776345253
0.94932031631469727 0.70031297206878662 0.11998213082551956
0.96221780776977539 0.70000952482223511 0.10834307223558426
0.43423217535018921 0.70120131969451904 0.10034869611263275
0.51590782403945923 0.73239338397979736 0.12865917384624481
0.56043446063995361 0.72605329751968384 0.11173936724662781
0.61733549833297729 0.72882163524627686 0.11393795907497406
0.68002820014953613 0.73604464530944824 0.11955434828996658
0.72820430994033813 0.7374071478843689 0.12127848714590073
0.77520275115966797 0.74488931894302368 0.12376336753368378
0.80968183279037476 0.74070018529891968 0.11252429336309433
0.85455012321472168 0.74430447816848755 0.11056587100028992
0.90376955270767212 0.76378017663955688 0.12227226793766022
0.93825894594192505 0.76917397975921631 0.12696227431297302
0.9691968560218811 0.77699047327041626 0.12846250832080841
0.97815412282943726 0.77442818880081177 0.12817336618900299
0.4876406192779541 0.78184777498245239 0.1050984263420105
0.56112802028656006 0.80572402477264404 0.13016822934150696
0.61926722526550293 0.80998265743255615 0.13473236560821533
0.66269361972808838 0.80307328701019287 0.11952550709247589
0.71584451198577881 0.80593609809875488 0.12148386985063553
0.75447016954421997 0.8014761209487915 0.11509596556425095
0.79743009805679321 0.80799263715744019 0.11608225852251053
0.8226122260093689 0.79627507925033569 0.10342702269554138
0.85907661914825439 0.79716593027114868 0.10406866669654846
0.91005808115005493 0.81991595029830933 0.11970717459917068
0.93935441970825195 0.82296597957611084 0.12412083894014359
0.95351624488830566 0.81815797090530396 0.11303979903459549
0.97893470525741577 0.8302503228187561 0.12617257237434387
0.52135646343231201 0.84528380632400513 0.10788220912218094
0.58667236566543579 0.85500907897949219 0.11898830533027649
0.64958447217941284 0.86494565010070801 0.12659667432308197
0.69862192869186401 0.8707391619682312 0.12386702001094818
0.7362329363822937 0.8615419864654541 0.11636649072170258
0.78196507692337036 0.86281073093414307 0.11507538706064224
0.83847486972808838 0.88319867849349976 0.12355835735797882
0.85875660181045532 0.86968445777893066 0.11033820360898972
0.88291698694229126 0.86459815502166748 0.11087805032730103
0.92366260290145874 0.87798219919204712 0.12567304074764252
0.95094907283782959 0.87831825017929077 0.12402668595314026
0.95111018419265747 0.86355859041213989 0.10511618107557297
0.97814208269119263 0.88222312927246094 0.1173793151974678
0.56577759981155396 0.89554858207702637 0.11438211053609848
0.61691004037857056 0.90103060007095337 0.11716560274362564
0.68024665117263794 0.91695952415466309 0.12299752235412598
0.71106767654418945 0.90997779369354248 0.10750792175531387
0.75875186920166016 0.91084331274032593 0.11525582522153854
0.80219370126724243 0.91235661506652832 0.11685413867235184
0.86424034833908081 0.94149386882781982 0.13391061127185822
0.89089512825012207 0.93335741758346558 0.12813223898410797
0.92084664106369019 0.93555366992950439 0.12818357348442078
0.94356167316436768 0.93594110012054443 0.12943567335605621
0.96772950887680054 0.93689370155334473 0.13285015523433685
0.97543942928314209 0.93302375078201294 0.12667149305343628
0.97311753034591675 0.93335080146789551 0.12205369025468826
0.61430507898330688 0.9529796838760376 0.11994917690753937
0.66834008693695068 0.95764327049255371 0.12225829809904099
0.71582907438278198 0.96400660276412964 0.12344373762607574
0.76073664426803589 0.96548378467559814 0.12448627501726151
0.79612421989440918 0.95644843578338623 0.12423016130924225
0.82529342174530029 0.94658684730529785 0.12051492184400558
0.86665540933609009 0.95575296878814697 0.11626721918582916
0.89049047231674194 0.95377582311630249 0.111522376537323
0.92975389957427979 0.96779680252075195 0.11942380666732788
0.94788080453872681 0.96215111017227173 0.11496806144714355
0.96235013008117676 0.95643806457519531 0.12187711149454117
0.97071057558059692 0.95741564035415649 0.11966968327760696
0.97256976366043091 0.96544176340103149 0.1132161021232605
0.071452349424362183 0.050034794956445694 0.17365445196628571
0.1658322811126709 0.067872561514377594 0.1772167831659317
0.27021872997283936 0.087009519338607788 0.18554630875587463
0.34242385625839233 0.089386403560638428 0.17879290878772736
0.43004715442657471 0.10514786839485168 0.18424613773822784
0.51065552234649658 0.11589837074279785 0.18313942849636078
0.58429020643234253 0.13008007407188416 0.17792068421840668
0.65381497144699097 0.14827902615070343 0.17572964727878571
0.71768319606781006 0.14581751823425293 0.17350193858146667
0.7969048023223877 0.15927043557167053 0.18506824970245361
0.85255908966064453 0.16733916103839874 0.18131692707538605
0.91021716594696045 0.17964686453342438 0.18837279081344604
0.95732760429382324 0.19350312650203705 0.18790595233440399
0.12900736927986145 0.14644178748130798 0.18865293264389038
0.23459669947624207 0.17595754563808441 0.20762139558792114
0.29823395609855652 0.16516649723052979 0.1805378794670105
0.38566768169403076 0.18395954370498657 0.18940827250480652
0.45293101668357849 0.18583032488822937 0.18465906381607056
0.5231202244758606 0.18758088350296021 0.17453734576702118
0.62610876560211182 0.23638713359832764 0.20077407360076904
0.67521333694458008 0.22239105403423309 0.18156662583351135
0.74292707443237305 0.23247291147708893 0.18730376660823822
0.80613398551940918 0.24156650900840759 0.18791143596172333
0.86401534080505371 0.25129708647727966 0.18817898631095886
0.91590481996536255 0.25947493314743042 0.19299577176570892
0.96221446990966797 0.28455570340156555 0.20311567187309265
0.16562226414680481 0.23625871539115906 0.1817648708820343
0.26691627502441406 0.25825640559196472 0.20081166923046112
0.34590309858322144 0.25889080762863159 0.19091865420341492
0.41889658570289612 0.26805600523948669 0.18869785964488983
0.48817664384841919 0.27579578757286072 0.1864800900220871
0.56687980890274048 0.2923024594783783 0.19072021543979645
0.6461784839630127 0.31536227464675903 0.20116585493087769
0.69895255565643311 0.30693060159683228 0.1880326122045517
0.77121341228485107 0.32408067584037781 0.19523406028747559
0.81678640842437744 0.32225045561790466 0.18529720604419708
0.88689368963241577 0.34886068105697632 0.1987072080373764
0.93074029684066772 0.35557624697685242 0.20254833996295929
0.95780003070831299 0.35649806261062622 0.19877852499485016
0.22409449517726898 0.33257827162742615 0.1932150274515152
0.31616947054862976 0.34884265065193176 0.20918135344982147
0.39442291855812073 0.35807067155838013 0.20814310014247894
0.4623018205165863 0.3615698516368866 0.20162704586982727
0.51641690731048584 0.35321030020713806 0.17967106401920319
0.58786982297897339 0.36928799748420715 0.18544113636016846
0.65101927518844604 0.37741440534591675 0.18114437162876129
0.72390544414520264 0.39689347147941589 0.19329749047756195
0.78600943088531494 0.40789845585823059 0.19370090961456299
0.83720201253890991 0.4123828113079071 0.18813882768154144
0.90348619222640991 0.44018298387527466 0.20440711081027985
0.94248420000076294 0.44875416159629822 0.2068040668964386
0.96839946508407593 0.4437483549118042 0.19858965277671814
0.27240779995918274 0.42232644557952881 0.19788843393325806
0.35573619604110718 0.43517193198204041 0.20616087317466736
0.41551575064659119 0.43251496553421021 0.19328616559505463
0.49273049831390381 0.44619908928871155 0.20552186667919159
0.55105710029602051 0.43813210725784302 0.1781173050403595
0.63143515586853027 0.46435743570327759 0.19422172009944916
