assets/lut/others expired fade.cube
# Created by: G'MIC (https://gmic.eu)
TITLE "expired_fade"
# LUT size
LUT_3D_SIZE 13
# Data domain
DOMAIN_MIN 0.0 0.0 0.0
DOMAIN_MAX 1.0 1.0 1.0
# LUT data points
0.21707382798194885 0.12044046074151993 0.022406110540032387
0.2388153076171875 0.12133365869522095 0.023266855627298355
0.27535617351531982 0.12818746268749237 0.027601264417171478
0.32622823119163513 0.14286850392818451 0.037506043910980225
0.38990718126296997 0.16601109504699707 0.054141610860824585
0.46278059482574463 0.19696758687496185 0.076640740036964417
0.54046732187271118 0.2337128221988678 0.10424273461103439
0.61945158243179321 0.27358734607696533 0.13560862839221954
0.69565010070800781 0.31377905607223511 0.16880150139331818
0.76519370079040527 0.35141617059707642 0.20130608975887299
0.82388889789581299 0.38315412402153015 0.23064564168453217
0.87249350547790527 0.40956613421440125 0.2566494345664978
0.91473740339279175 0.43339040875434875 0.28037244081497192
0.22197920083999634 0.141172856092453 0.025224408134818077
0.24167506396770477 0.14081621170043945 0.023874813690781593
0.27447277307510376 0.14607781171798706 0.026587661355733871
0.32192620635032654 0.1588607132434845 0.035007163882255554
0.3834787905216217 0.18064053356647491 0.049854397773742676
0.45576733350753784 0.21115361154079437 0.071397773921489716
0.53492873907089233 0.24816939234733582 0.0987677201628685
0.61561983823776245 0.28834223747253418 0.13028086721897125
0.6935192346572876 0.32850992679595947 0.16373957693576813
0.76435887813568115 0.36558052897453308 0.19634529948234558
0.82423156499862671 0.39738926291465759 0.22645114362239838
0.87355971336364746 0.42490032315254211 0.25384265184402466
0.91568195819854736 0.45003578066825867 0.27886524796485901
0.23294843733310699 0.17339850962162018 0.031512286514043808
0.25094056129455566 0.17061352729797363 0.028590139001607895
0.28010654449462891 0.17320063710212708 0.029730807989835739
0.32305961847305298 0.18293245136737823 0.036081708967685699
0.38070416450500488 0.20204439759254456 0.048520404845476151
0.45116451382637024 0.23068615794181824 0.067963875830173492
0.52991735935211182 0.26654648780822754 0.094010628759860992
0.61114203929901123 0.30583494901657104 0.1249392181634903
0.69016242027282715 0.34509861469268799 0.15802572667598724
0.76218777894973755 0.38102945685386658 0.19049608707427979
0.82369011640548706 0.41240119934082031 0.22098609805107117
0.87359738349914551 0.44077345728874207 0.24913367629051208
0.91502690315246582 0.4678337574005127 0.27539864182472229
0.2508150041103363 0.21847903728485107 0.041366007179021835
0.26741325855255127 0.21351657807826996 0.037733249366283417
0.29294103384017944 0.2125728577375412 0.037610717117786407
0.33072683215141296 0.21782208979129791 0.041623823344707489
0.38375064730644226 0.23286120593547821 0.050731673836708069
0.45061424374580383 0.25822126865386963 0.066731475293636322
0.52749162912368774 0.29138508439064026 0.090132616460323334
0.60848373174667358 0.32911932468414307 0.12005269527435303
0.68782168626785278 0.36731526255607605 0.15303957462310791
0.76117360591888428 0.40239271521568298 0.18544723093509674
0.82343465089797974 0.43316972255706787 0.21517527103424072
0.87359738349914551 0.46146517992019653 0.2430671751499176
0.9148070216178894 0.48857194185256958 0.26909187436103821
0.27705687284469604 0.27487668395042419 0.056473031640052795
0.29246082901954651 0.26883676648139954 0.052768167108297348
0.31490445137023926 0.26512986421585083 0.051222380250692368
0.34801694750785828 0.26655286550521851 0.052583206444978714
0.39524948596954346 0.27658742666244507 0.057393781840801239
0.45654088258743286 0.29671397805213928 0.068429328501224518
0.52927428483963013 0.32523694634437561 0.088143430650234222
0.60879778861999512 0.35978710651397705 0.11642266064882278
0.68833273649215698 0.39645972847938538 0.14918607473373413
0.76169174909591675 0.43076780438423157 0.18123547732830048
0.82351279258728027 0.46096837520599365 0.20986488461494446
0.8735802173614502 0.48825451731681824 0.23607750236988068
0.91573327779769897 0.51403450965881348 0.26056888699531555
0.31008672714233398 0.33949968218803406 0.077579379081726074
0.32506641745567322 0.33402624726295471 0.073992468416690826
0.34591636061668396 0.33001270890235901 0.071629360318183899
0.37560969591140747 0.32947623729705811 0.070259809494018555
0.41657370328903198 0.33441945910453796 0.070579051971435547
0.47017982602119446 0.34726908802986145 0.075593896210193634
0.53638029098510742 0.36910554766654968 0.089951291680335999
0.61185002326965332 0.39852732419967651 0.11428025364875793
0.68995821475982666 0.43174263834953308 0.14514258503913879
0.76194131374359131 0.46414050459861755 0.17600424587726593
0.82284224033355713 0.49291786551475525 0.20261432230472565
0.8734443187713623 0.51939201354980469 0.22776046395301819
0.9166109561920166 0.54399532079696655 0.25146365165710449
0.3479156494140625 0.40823566913604736 0.10423718392848969
0.36344978213310242 0.40500235557556152 0.10101883858442307
0.38361728191375732 0.40221205353736877 0.098143860697746277
0.41066998243331909 0.40066072344779968 0.094905495643615723
0.44630035758018494 0.40234649181365967 0.091480821371078491
0.49213340878486633 0.40897965431213379 0.090635724365711212
0.55004346370697021 0.42264431715011597 0.097875304520130157
0.618336021900177 0.44405794143676758 0.1150023490190506
0.69042325019836426 0.4701964259147644 0.1392962634563446
0.75894105434417725 0.4986301064491272 0.16604897379875183
0.81996721029281616 0.52637147903442383 0.19219550490379333
0.87255972623825073 0.55300486087799072 0.21803037822246552
0.9167400598526001 0.57658833265304565 0.24227632582187653
0.38880985975265503 0.4783141016960144 0.13448923826217651
0.40532216429710388 0.47761553525924683 0.13189557194709778
0.42525765299797058 0.47647950053215027 0.12899781763553619
0.45050305128097534 0.47590774297714233 0.12492398917675018
0.48258128762245178 0.4755493700504303 0.11911085247993469
0.52249747514724731 0.47724327445030212 0.11366435140371323
0.57160019874572754 0.48357883095741272 0.1132124662399292
0.63056683540344238 0.49496486783027649 0.12057116627693176
0.6928829550743103 0.51153230667114258 0.1347908079624176
0.75566470623016357 0.53397160768508911 0.15531270205974579
0.8157573938369751 0.56027591228485107 0.18050611019134521
0.87008899450302124 0.58703219890594482 0.20720416307449341
0.91560757160186768 0.60981100797653198 0.23232640326023102
0.43137308955192566 0.54709386825561523 0.16671998798847198
0.44836592674255371 0.54808425903320312 0.16447706520557404
0.46795409917831421 0.54793190956115723 0.16152606904506683
0.49211603403091431 0.54746675491333008 0.15697398781776428
0.52243137359619141 0.54669570922851562 0.14994069933891296
0.55930012464523315 0.54618299007415771 0.14199957251548767
0.60159575939178467 0.54680508375167847 0.13579192757606506
0.64996111392974854 0.549549400806427 0.13333088159561157
0.70144128799438477 0.55640840530395508 0.13665013015270233
0.75634729862213135 0.57216948270797729 0.15019547939300537
0.81296467781066895 0.59567725658416748 0.17219261825084686
0.86596757173538208 0.62035912275314331 0.19730989634990692
0.91187953948974609 0.64172244071960449 0.22137464582920074
0.47302514314651489 0.61140090227127075 0.19905237853527069
0.49004963040351868 0.61303573846817017 0.19697938859462738
0.50889045000076294 0.61295878887176514 0.19368371367454529
0.53224289417266846 0.61263883113861084 0.18836782872676849
0.56181609630584717 0.61177140474319458 0.18098543584346771
0.59667056798934937 0.61060762405395508 0.17229597270488739
0.63564556837081909 0.6089215874671936 0.16314180195331573
0.67689955234527588 0.6068120002746582 0.15525667369365692
0.72010517120361328 0.6077842116355896 0.151093989610672
0.76698517799377441 0.61725497245788574 0.15686103701591492
0.81668782234191895 0.63523197174072266 0.17229226231575012
0.86486643552780151 0.65507262945175171 0.19199879467487335
0.90931254625320435 0.67291402816772461 0.21274462342262268
0.51179641485214233 0.66833752393722534 0.23016393184661865
0.52819788455963135 0.66986799240112305 0.22784173488616943
0.54588037729263306 0.66966903209686279 0.22417262196540833
0.56881064176559448 0.66918760538101196 0.21845786273479462
0.59762173891067505 0.66832691431045532 0.21067096292972565
0.63164597749710083 0.66724705696105957 0.20179130136966705
0.66915112733840942 0.66542530059814453 0.19230890274047852
0.70817714929580688 0.66341471672058105 0.18353612720966339
0.74790835380554199 0.66367954015731812 0.177488774061203
0.78799474239349365 0.6682468056678772 0.17650319635868073
0.82894796133041382 0.67827725410461426 0.1821446418762207
0.86994105577468872 0.69111472368240356 0.19363154470920563
0.91038745641708374 0.70394688844680786 0.20880773663520813
0.54631948471069336 0.71645826101303101 0.25873285531997681
0.5617671012878418 0.71805626153945923 0.25589627027511597
0.57874864339828491 0.71758276224136353 0.25158011913299561
0.60075974464416504 0.71677744388580322 0.24541166424751282
0.62883859872817993 0.7160840630531311 0.23769807815551758
0.66210037469863892 0.71560686826705933 0.2288556694984436
0.699074387550354 0.71485215425491333 0.21983665227890015
0.73809182643890381 0.71466189622879028 0.21201357245445251
0.77712255716323853 0.71601194143295288 0.20580536127090454
0.81251657009124756 0.71693772077560425 0.19962701201438904
0.84638601541519165 0.72013592720031738 0.19717641174793243
0.88071346282958984 0.72595697641372681 0.20043708384037018
0.91596007347106934 0.733867347240448 0.20946760475635529
0.576671302318573 0.75845474004745483 0.28437355160713196
0.59133327007293701 0.75922876596450806 0.28057393431663513
0.60758340358734131 0.75821125507354736 0.27565571665763855
0.62889778614044189 0.7574036717414856 0.26923948526382446
0.65619182586669922 0.75710785388946533 0.2612936794757843
0.68831324577331543 0.75710785388946533 0.25281241536140442
0.7243921160697937 0.75710785388946533 0.24408261477947235
0.76291674375534058 0.75742822885513306 0.23581399023532867
0.79998993873596191 0.75922191143035889 0.22805923223495483
0.83341711759567261 0.75829136371612549 0.21944437921047211
0.86373978853225708 0.75763875246047974 0.21246787905693054
0.8934052586555481 0.75905823707580566 0.21018829941749573
0.9238092303276062 0.76311498880386353 0.21402625739574432
0.22181953489780426 0.1222648024559021 0.035308223217725754
0.23989859223365784 0.1212879866361618 0.035501725971698761
0.27310007810592651 0.12577216327190399 0.038448169827461243
0.32255357503890991 0.13884076476097107 0.047641094774007797
0.3870377242565155 0.16153563559055328 0.064055457711219788
0.46164238452911377 0.1930554062128067 0.087305255234241486
0.54183489084243774 0.23054058849811554 0.11599979549646378
0.6218106746673584 0.2708829939365387 0.1484074741601944
0.698100745677948 0.31133142113685608 0.18242247402667999
0.76638120412826538 0.34900453686714172 0.21499566733837128
0.82459312677383423 0.38124546408653259 0.24420550465583801
0.87329381704330444 0.40840953588485718 0.27012917399406433
0.91595309972763062 0.4327692985534668 0.29380041360855103
0.22321708500385284 0.14165997505187988 0.037763107568025589
0.24007362127304077 0.13914200663566589 0.035361673682928085
0.27006638050079346 0.14263804256916046 0.036825262010097504
0.31703236699104309 0.15402299165725708 0.044179383665323257
0.37916809320449829 0.1751818060874939 0.059067938476800919
0.45369565486907959 0.20600788295269012 0.081449888646602631
0.53526729345321655 0.2440936267375946 0.11028190702199936
0.61773782968521118 0.28552639484405518 0.14330333471298218
0.69612312316894531 0.32654854655265808 0.17755760252475739
0.76637303829193115 0.36406093835830688 0.21034538745880127
0.82554435729980469 0.39634093642234802 0.24025975167751312
0.87469911575317383 0.42419284582138062 0.26690983772277832
0.91779452562332153 0.44938504695892334 0.29136854410171509
0.23071499168872833 0.17204172909259796 0.043807473033666611
0.24652945995330811 0.16798825562000275 0.039392463862895966
0.27457764744758606 0.16922235488891602 0.03944772481918335
0.31727439165115356 0.17782673239707947 0.044933721423149109
0.3757203221321106 0.19615587592124939 0.057308048009872437
0.44812574982643127 0.22484654188156128 0.077389977872371674
0.52932572364807129 0.26175248622894287 0.10494308173656464
0.61314952373504639 0.30304405093193054 0.13761480152606964
0.69305753707885742 0.34315565228462219 0.17181779444217682
0.7652277946472168 0.38033184409141541 0.2046649158000946
0.82561272382736206 0.41220343112945557 0.23458755016326904
0.87534517049789429 0.4404674768447876 0.2619788646697998
0.91789215803146362 0.46681693196296692 0.28715437650680542
0.24615465104579926 0.21550077199935913 0.053456805646419525
0.26137760281562805 0.20965108275413513 0.048631526529788971
0.28642481565475464 0.20843727886676788 0.047465633600950241
0.32492744922637939 0.21344679594039917 0.05054778978228569
0.37851890921592712 0.2276177704334259 0.059115976095199585
0.44692513346672058 0.25216200947761536 0.075099438428878784
0.52620118856430054 0.28616297245025635 0.10014491528272629
0.60972630977630615 0.32553768157958984 0.13187696039676666
0.691273033618927 0.36486127972602844 0.16591386497020721
0.76452004909515381 0.40121197700500488 0.19880081713199615
0.82586503028869629 0.43277549743652344 0.22859281301498413
0.87552475929260254 0.46076589822769165 0.25552785396575928
0.91789215803146362 0.48691818118095398 0.28040555119514465
0.27062439918518066 0.27143353223800659 0.069033920764923096
0.28515738248825073 0.26527568697929382 0.064057491719722748
0.30819374322891235 0.26264235377311707 0.062081370502710342
0.34222903847694397 0.26351743936538696 0.062129884958267212
0.38991376757621765 0.27201768755912781 0.065740160644054413
0.45225769281387329 0.29038158059120178 0.076052449643611908
0.52700620889663696 0.31922158598899841 0.096802517771720886
0.60912233591079712 0.35556018352508545 0.12688687443733215
0.69130384922027588 0.39369374513626099 0.16110274195671082
0.76503747701644897 0.42898043990135193 0.19388996064662933
0.82657986879348755 0.459734708070755 0.22271157801151276
0.87634837627410889 0.48678499460220337 0.24845729768276215
0.91786432266235352 0.51185250282287598 0.27224701642990112
0.30315300822257996 0.3366333544254303 0.09091264009475708
0.31829240918159485 0.33183041214942932 0.086592070758342743
0.3397558331489563 0.32836511731147766 0.083684004843235016
0.37006387114524841 0.32770457863807678 0.081118039786815643
0.41136559844017029 0.33080354332923889 0.079281643033027649
0.46539545059204102 0.34111538529396057 0.082394108176231384
0.53399360179901123 0.36286917328834534 0.097266271710395813
0.612296462059021 0.39441734552383423 0.12425205111503601
0.6917462944984436 0.42930370569229126 0.15681758522987366
0.76518779993057251 0.46243837475776672 0.18830232322216034
0.82619774341583252 0.49177604913711548 0.21590545773506165
0.87654858827590942 0.5181235671043396 0.24091386795043945
0.91789215803146362 0.54178810119628906 0.2639957070350647
0.34146520495414734 0.40707290172576904 0.11813462525606155
0.35760429501533508 0.40460485219955444 0.11470332741737366
0.37878298759460449 0.40362975001335144 0.11184370517730713
0.40652993321418762 0.40115565061569214 0.10791146010160446
0.44228833913803101 0.40083009004592896 0.10256312042474747
0.4893244206905365 0.40535002946853638 0.099511824548244476
0.54935568571090698 0.4188762903213501 0.10676787048578262
0.61997091770172119 0.44201818108558655 0.12633349001407623
0.6937224268913269 0.46994668245315552 0.15275320410728455
0.7632414698600769 0.49878272414207458 0.18070022761821747
0.82418465614318848 0.52658718824386597 0.20720700919628143
0.87591123580932617 0.55247288942337036 0.23227767646312714
0.91789215803146362 0.57528716325759888 0.25561097264289856
0.38354605436325073 0.47937402129173279 0.14869743585586548
0.40054666996002197 0.47982111573219299 0.1463865339756012
0.42153322696685791 0.47981950640678406 0.14392058551311493
0.44788011908531189 0.4793546199798584 0.14019766449928284
0.48050099611282349 0.4778868556022644 0.13341008126735687
0.52240514755249023 0.47800031304359436 0.12629060447216034
0.57365286350250244 0.48405984044075012 0.12592397630214691
0.63361841440200806 0.49641135334968567 0.134739950299263
0.6974913477897644 0.51430594921112061 0.1506078690290451
0.76067978143692017 0.53668004274368286 0.17260713875293732
0.82018643617630005 0.56228280067443848 0.19738800823688507
0.87329959869384766 0.58774024248123169 0.2227761447429657
0.91775709390640259 0.60970056056976318 0.24645349383354187
0.42694026231765747 0.54982876777648926 0.18103262782096863
0.44426333904266357 0.55165082216262817 0.17916795611381531
0.46466585993766785 0.55230343341827393 0.17682074010372162
0.49025100469589233 0.55252248048782349 0.17271178960800171
0.52206188440322876 0.55188250541687012 0.16566891968250275
0.56038641929626465 0.5508720874786377 0.15717180073261261
0.60487323999404907 0.55110281705856323 0.1511400043964386
0.65399539470672607 0.55405080318450928 0.1501011848449707
0.70646375417709351 0.56192469596862793 0.15530438721179962
0.76150494813919067 0.57722914218902588 0.16946530342102051
0.81704407930374146 0.59901338815689087 0.19007942080497742
0.86920315027236938 0.62259149551391602 0.21365810930728912
0.91437935829162598 0.64305061101913452 0.23678210377693176
0.46897792816162109 0.61525708436965942 0.21322004497051239
0.48593232035636902 0.61758089065551758 0.21143545210361481
0.50563400983810425 0.61790090799331665 0.20841467380523682
0.53026473522186279 0.61787950992584229 0.20354549586772919
0.56140148639678955 0.61750239133834839 0.19653299450874329
0.59881526231765747 0.61701846122741699 0.18839973211288452
0.63928902149200439 0.61533302068710327 0.17985306680202484
0.68064385652542114 0.61250084638595581 0.17228764295578003
0.72395914793014526 0.61346101760864258 0.16961014270782471
0.77040815353393555 0.62219512462615967 0.17571194469928741
0.81943780183792114 0.6384507417678833 0.18959957361221313
0.86755472421646118 0.65756618976593018 0.20827484130859375
0.91144829988479614 0.67511379718780518 0.22878572344779968
0.50678056478500366 0.67236244678497314 0.24365495145320892
0.52315622568130493 0.67440366744995117 0.2414981871843338
0.54178327322006226 0.67422878742218018 0.23781841993331909
0.56595438718795776 0.67384195327758789 0.23229967057704926
0.59673964977264404 0.67347508668899536 0.2251257598400116
0.63301587104797363 0.6729695200920105 0.21690887212753296
0.67198902368545532 0.67088979482650757 0.20787252485752106
0.71082961559295654 0.66765016317367554 0.19913001358509064
0.74984729290008545 0.66705691814422607 0.19355151057243347
0.78961658477783203 0.67103409767150879 0.19262686371803284
0.83059853315353394 0.68060475587844849 0.19825960695743561
0.87202745676040649 0.69351398944854736 0.20951305329799652
0.91209238767623901 0.70620399713516235 0.22459699213504791
0.53926181793212891 0.71951019763946533 0.2710297703742981
0.55489170551300049 0.72090780735015869 0.26808902621269226
0.57309907674789429 0.72077971696853638 0.2640593945980072
0.59663695096969604 0.72041982412338257 0.25806990265846252
0.62646764516830444 0.71973609924316406 0.25062078237533569
0.66169393062591553 0.71853739023208618 0.2420307993888855
0.69995355606079102 0.71735358238220215 0.23306256532669067
0.73919141292572021 0.71669811010360718 0.22550949454307556
0.7778623104095459 0.71734845638275146 0.21976971626281738
0.81371122598648071 0.71845555305480957 0.21431934833526611
0.84800571203231812 0.72176283597946167 0.21216990053653717
0.88206672668457031 0.72760486602783203 0.21548137068748474
0.91639029979705811 0.73514533042907715 0.22435779869556427
0.56771183013916016 0.76099187135696411 0.29548594355583191
0.58302140235900879 0.76102942228317261 0.29169681668281555
0.6007533073425293 0.76102495193481445 0.28705024719238281
0.62374472618103027 0.76087141036987305 0.28082618117332458
0.65233522653579712 0.76015686988830566 0.27308905124664307
0.68619120121002197 0.75780946016311646 0.26433765888214111
0.72322243452072144 0.75710785388946533 0.25559094548225403
0.76270025968551636 0.75732147693634033 0.24796289205551147
0.80050992965698242 0.75940948724746704 0.24129359424114227
0.83509290218353271 0.7595219612121582 0.23382753133773804
0.86567312479019165 0.75890940427780151 0.22717531025409698
0.89411622285842896 0.75960463285446167 0.22474931180477142
0.92326062917709351 0.76318144798278809 0.22823190689086914
0.23312132060527802 0.13025292754173279 0.058287691324949265
0.24958910048007965 0.12700781226158142 0.055878240615129471
0.27868035435676575 0.12897795438766479 0.056949060410261154
0.3247542679309845 0.13928540050983429 0.064505524933338165
0.38791513442993164 0.15998907387256622 0.080138564109802246
0.46302542090415955 0.19011099636554718 0.10310359299182892
0.54314130544662476 0.22685162723064423 0.13214921951293945
0.62221884727478027 0.26607635617256165 0.16473759710788727
0.69705158472061157 0.3054816722869873 0.19802141189575195
0.76367777585983276 0.34244495630264282 0.22962063550949097
0.82143330574035645 0.37515786290168762 0.25819724798202515
0.87075924873352051 0.40380218625068665 0.28389623761177063
0.91404610872268677 0.42946654558181763 0.30746141076087952
0.23099949955940247 0.14888741075992584 0.058811604976654053
0.24607931077480316 0.14422523975372314 0.054766427725553513
0.27416825294494629 0.14508543908596039 0.054825413972139359
0.31800150871276855 0.15352395176887512 0.060730684548616409
0.37888532876968384 0.17238089442253113 0.074615210294723511
0.45350530743598938 0.2020113617181778 0.096778437495231628
0.53620606660842896 0.23993131518363953 0.12635950744152069
0.61960834264755249 0.28171828389167786 0.16019366681575775
0.69744277000427246 0.32238385081291199 0.19433526694774628
0.76599466800689697 0.3593747615814209 0.22623543441295624
0.82413703203201294 0.39172905683517456 0.25472590327262878
0.87321799993515015 0.42033955454826355 0.28067722916603088
0.91600459814071655 0.44629073143005371 0.30470177531242371
0.23461270332336426 0.17705102264881134 0.063298769295215607
0.2492305189371109 0.17117577791213989 0.057752061635255814
0.27585408091545105 0.17081190645694733 0.056798793375492096
0.31709977984428406 0.17746123671531677 0.061390716582536697
0.37474307417869568 0.19350956380367279 0.072871491312980652
0.44744592905044556 0.22078527510166168 0.09296080470085144
0.53033053874969482 0.25799781084060669 0.12147590517997742
0.61591053009033203 0.30024725198745728 0.15544407069683075
0.6961066722869873 0.34142729640007019 0.18974989652633667
0.7664254903793335 0.37728050351142883 0.22134745121002197
0.82535725831985474 0.40899527072906494 0.24978542327880859
0.87452924251556396 0.43747392296791077 0.27576258778572083
0.91736632585525513 0.46345749497413635 0.30006134510040283
0.24616792798042297 0.21760527789592743 0.072057120501995087
0.26066601276397705 0.21113124489784241 0.066127806901931763
0.28546419739723206 0.2094244658946991 0.064408786594867706
0.32365226745605469 0.21340346336364746 0.066430740058422089
0.37727087736129761 0.2252444326877594 0.074547559022903442
0.44562014937400818 0.24881187081336975 0.091278970241546631
0.52702575922012329 0.28282627463340759 0.1163264736533165
0.61240905523300171 0.32305887341499329 0.14925187826156616
0.69419306516647339 0.36318168044090271 0.18342456221580505
0.76625490188598633 0.39882013201713562 0.21522468328475952
0.82713544368743896 0.43000730872154236 0.24349634349346161
0.87518858909606934 0.45766511559486389 0.26929256319999695
0.91660147905349731 0.48322218656539917 0.29331874847412109
0.26783105731010437 0.27131587266921997 0.087435752153396606
0.282417893409729 0.26545187830924988 0.081748425960540771
0.30575212836265564 0.26305338740348816 0.07927347719669342
0.34014785289764404 0.26381853222846985 0.078135259449481964
0.38868227601051331 0.27092710137367249 0.081136353313922882
0.45130166411399841 0.28762805461883545 0.091793447732925415
0.52749621868133545 0.3159349262714386 0.11270123720169067
