assets/lut/others sunny rich.cube
# Created by: G'MIC (https://gmic.eu)
TITLE "sunny_rich"
# LUT size
LUT_3D_SIZE 7
# Data domain
DOMAIN_MIN 0.0 0.0 0.0
DOMAIN_MAX 1.0 1.0 1.0
# LUT data points
0.02888997457921505 0.024971920996904373 0.033066872507333755
0.16174902021884918 0.02339516393840313 0.033484216779470444
0.3052845299243927 0.023161765187978745 0.030961697921156883
0.46583342552185059 0.023161765187978745 0.030536681413650513
0.6388126015663147 0.023161765187978745 0.028782429173588753
0.81136852502822876 0.023638064041733742 0.027537999674677849
0.96030932664871216 0.023357974365353584 0.025264006108045578
0.028439376503229141 0.14289215207099915 0.034503068774938583
0.16544748842716217 0.13911579549312592 0.034156560897827148
0.31863445043563843 0.1392788290977478 0.033275753259658813
0.49558943510055542 0.13929866254329681 0.032109726220369339
0.66544061899185181 0.14085835218429565 0.02985769510269165
0.82080936431884766 0.14289215207099915 0.028402246534824371
0.96359533071517944 0.14238652586936951 0.029411764815449715
0.029480399563908577 0.25480973720550537 0.031294833868741989
0.17380529642105103 0.25091218948364258 0.032475490123033524
0.33565381169319153 0.248096764087677 0.030602280050516129
0.51734822988510132 0.25360873341560364 0.027282491326332092
0.68376338481903076 0.25471687316894531 0.025400258600711823
0.82884258031845093 0.2535245418548584 0.024270718917250633
0.96285557746887207 0.25769892334938049 0.026540359482169151
0.033676072955131531 0.38465404510498047 0.034841470420360565
0.18527697026729584 0.38388094305992126 0.031674373894929886
0.35186731815338135 0.37281453609466553 0.028889525681734085
0.54580622911453247 0.3800162672996521 0.025177570059895515
0.70531207323074341 0.38299727439880371 0.025001645088195801
0.8399195671081543 0.37609300017356873 0.023161765187978745
0.96394068002700806 0.38229897618293762 0.023161765187978745
0.033765427768230438 0.56043517589569092 0.034435153007507324
0.19983123242855072 0.56276088953018188 0.027444817125797272
0.37469866871833801 0.55824738740921021 0.027193240821361542
0.5588381290435791 0.55965405702590942 0.028717879205942154
0.7147405743598938 0.56182694435119629 0.029801297932863235
0.8408692479133606 0.56249988079071045 0.027181977406144142
0.96555233001708984 0.5684698224067688 0.023161765187978745
0.034129317849874496 0.75550603866577148 0.026526477187871933
0.21077845990657806 0.75661766529083252 0.022967049852013588
0.40142831206321716 0.75493276119232178 0.024697441607713699
0.59032243490219116 0.75269609689712524 0.02708333358168602
0.7272602915763855 0.75778239965438843 0.025131704285740852
0.84178215265274048 0.76739144325256348 0.021887475624680519
0.96579712629318237 0.77368992567062378 0.023161765187978745
0.035115081816911697 0.9480774998664856 0.027743574231863022
0.21583414077758789 0.94963234663009644 0.023309759795665741
0.41503027081489563 0.94835227727890015 0.024633863940834999
0.61117386817932129 0.94571077823638916 0.02708333358168602
0.73409062623977661 0.94779676198959351 0.026667291298508644
0.84919863939285278 0.95221298933029175 0.026066664606332779
0.96696245670318604 0.95177853107452393 0.027485506609082222
0.028745090588927269 0.023990601301193237 0.18921568989753723
0.16817042231559753 0.02338193915784359 0.18696415424346924
0.32147786021232605 0.023161765187978745 0.18196210265159607
0.49060603976249695 0.023161765187978745 0.17317430675029755
0.66125190258026123 0.023161765187978745 0.1667228639125824
0.82172310352325439 0.025482611730694771 0.1565486341714859
0.96422505378723145 0.02501995675265789 0.14863690733909607
0.032258816063404083 0.1407647430896759 0.18743224442005157
0.17634826898574829 0.14104196429252625 0.17834471166133881
0.33759081363677979 0.13897058367729187 0.17494580149650574
0.51349765062332153 0.13897058367729187 0.16705872118473053
0.68384641408920288 0.13897058367729187 0.1598038524389267
0.83304113149642944 0.14289215207099915 0.15250878036022186
0.96740376949310303 0.14289215207099915 0.14692996442317963
0.031128093600273132 0.25167295336723328 0.18105162680149078
0.18631458282470703 0.25248420238494873 0.17185688018798828
0.35595011711120605 0.25000888109207153 0.16781792044639587
0.53516173362731934 0.24937084317207336 0.1588074117898941
0.69820123910903931 0.25086334347724915 0.15008656680583954
0.83722025156021118 0.25416868925094604 0.14427506923675537
0.96425879001617432 0.25997579097747803 0.14357990026473999
0.034135691821575165 0.37850785255432129 0.17407025396823883
0.195717453956604 0.38123041391372681 0.16589954495429993
0.37439602613449097 0.37809118628501892 0.1629645973443985
0.56074076890945435 0.38092705607414246 0.15316897630691528
0.71452856063842773 0.38454979658126831 0.14499804377555847
0.84272629022598267 0.3858044445514679 0.13584981858730316
0.96495091915130615 0.39902451634407043 0.13722443580627441
0.034500375390052795 0.55680149793624878 0.16440828144550323
0.20829524099826813 0.55968135595321655 0.15486659109592438
0.39726072549819946 0.55832928419113159 0.15001527965068817
0.58349144458770752 0.56325489282608032 0.1472366601228714
0.72634315490722656 0.56973922252655029 0.14680653810501099
0.84505051374435425 0.57491451501846313 0.14006796479225159
0.96699714660644531 0.58636963367462158 0.13505978882312775
0.033815644681453705 0.75756525993347168 0.15258312225341797
0.21798460185527802 0.75662869215011597 0.14460030198097229
0.41778925061225891 0.75662004947662354 0.13990502059459686
0.60737353563308716 0.75974935293197632 0.14051727950572968
0.73667466640472412 0.76659250259399414 0.14109964668750763
0.84534311294555664 0.77529895305633545 0.1383131742477417
0.96622169017791748 0.78475677967071533 0.13616649806499481
0.032361272722482681 0.95020872354507446 0.1537570059299469
0.22112920880317688 0.95062541961669922 0.14061549305915833
0.42342430353164673 0.94916564226150513 0.13844625651836395
0.61410856246948242 0.9475063681602478 0.14150074124336243
0.73783552646636963 0.94869661331176758 0.13898886740207672
0.84961920976638794 0.95200079679489136 0.14051374793052673
0.96681094169616699 0.95641970634460449 0.14282530546188354
0.027452027425169945 0.023161765187978745 0.33615574240684509
0.17380614578723907 0.023161765187978745 0.32583928108215332
0.33787679672241211 0.023161765187978745 0.31675234436988831
0.51291447877883911 0.023161765187978745 0.30126214027404785
0.67826706171035767 0.023192640393972397 0.28979432582855225
0.82936745882034302 0.024942167103290558 0.27168017625808716
0.9640955924987793 0.024760138243436813 0.26430463790893555
0.031686116009950638 0.13897058367729187 0.32786360383033752
0.18517081439495087 0.1415107250213623 0.31449353694915771
0.35536283254623413 0.14124606549739838 0.30426281690597534
0.53231644630432129 0.14182209968566895 0.28861957788467407
0.69480609893798828 0.14208649098873138 0.27591982483863831
0.83801108598709106 0.1433572918176651 0.26188379526138306
0.96776193380355835 0.14557626843452454 0.25652998685836792
0.034650914371013641 0.25116133689880371 0.31641682982444763
0.19543209671974182 0.2547793984413147 0.30072295665740967
0.3740655779838562 0.2543027400970459 0.29216372966766357
0.55476564168930054 0.25100386142730713 0.27529966831207275
0.71018451452255249 0.25218164920806885 0.26305916905403137
0.84165287017822266 0.26151925325393677 0.25472572445869446
0.96573281288146973 0.27001246809959412 0.25421804189682007
0.035560712218284607 0.38212177157402039 0.3008483350276947
0.20517513155937195 0.38632774353027344 0.28668123483657837
0.39496400952339172 0.38254263997077942 0.28002035617828369
0.58482545614242554 0.37776532769203186 0.26263189315795898
0.72540390491485596 0.38330060243606567 0.25564241409301758
0.84508734941482544 0.40448105335235596 0.24968798458576202
0.965526282787323 0.42180314660072327 0.24875620007514954
0.036660872399806976 0.5599055290222168 0.28622040152549744
0.21670229732990265 0.56165504455566406 0.27260982990264893
0.41473552584648132 0.55980449914932251 0.26089262962341309
0.60324501991271973 0.56388485431671143 0.25356420874595642
0.73586070537567139 0.57493066787719727 0.25916880369186401
0.84534311294555664 0.59271138906478882 0.25353464484214783
0.96567094326019287 0.60724616050720215 0.24693627655506134
0.036710329353809357 0.75995314121246338 0.27589458227157593
0.22378703951835632 0.75661790370941162 0.26423847675323486
0.4229564368724823 0.75893735885620117 0.24904285371303558
0.60867822170257568 0.76646369695663452 0.24817058444023132
0.73680132627487183 0.77611154317855835 0.25627505779266357
0.84534913301467896 0.78508174419403076 0.25230062007904053
0.9669424295425415 0.79230356216430664 0.24475784599781036
0.036052808165550232 0.95092916488647461 0.26417645812034607
0.22529330849647522 0.94963377714157104 0.25300118327140808
0.42554774880409241 0.94964820146560669 0.24725870788097382
0.6093449592590332 0.95236629247665405 0.25567469000816345
0.73318207263946533 0.95384454727172852 0.25675538182258606
0.84561872482299805 0.95472663640975952 0.25175613164901733
0.96672302484512329 0.95734435319900513 0.24953931570053101
0.029986511915922165 0.023161765187978745 0.48078510165214539
0.18176166713237762 0.023161765187978745 0.45986947417259216
0.35762277245521545 0.023161765187978745 0.44464221596717834
0.54061758518218994 0.023161765187978745 0.43023240566253662
0.69730633497238159 0.023161765187978745 0.4170372486114502
0.8386460542678833 0.023161765187978745 0.39161401987075806
0.96289026737213135 0.022505607455968857 0.39259204268455505
0.032540146261453629 0.13992536067962646 0.46632698178291321
0.19359384477138519 0.14289215207099915 0.44757524132728577
0.37738460302352905 0.14289215207099915 0.43184861540794373
0.56096345186233521 0.14300575852394104 0.41486313939094543
0.70687597990036011 0.13916356861591339 0.39897239208221436
0.84106886386871338 0.14299818873405457 0.3806326687335968
0.96572506427764893 0.14885906875133514 0.38368114829063416
0.034803923219442368 0.25627368688583374 0.44762220978736877
0.20410802960395813 0.25866290926933289 0.43234756588935852
0.39788615703582764 0.25563845038414001 0.41849103569984436
0.58651739358901978 0.25503337383270264 0.3989231288433075
0.72645044326782227 0.25799760222434998 0.38608208298683167
0.84521502256393433 0.27098065614700317 0.37815171480178833
0.96678584814071655 0.28617995977401733 0.38321202993392944
0.036801014095544815 0.38960826396942139 0.42752435803413391
0.21612700819969177 0.3903501033782959 0.41599208116531372
0.41947916150093079 0.38422974944114685 0.4037204384803772
0.61655509471893311 0.38091534376144409 0.37877088785171509
0.74164456129074097 0.39845773577690125 0.37627518177032471
0.84615588188171387 0.42630162835121155 0.37639284133911133
0.9658820629119873 0.44735941290855408 0.3803059458732605
0.039433393627405167 0.5628858208656311 0.4116705060005188
0.22430655360221863 0.56357860565185547 0.40481680631637573
0.42658388614654541 0.56068640947341919 0.39391571283340454
0.61658406257629395 0.56774848699569702 0.37696927785873413
0.74281120300292969 0.58799892663955688 0.38284409046173096
0.84559231996536255 0.61246997117996216 0.38108119368553162
0.9623907208442688 0.63105833530426025 0.37721133232116699
0.039033282548189163 0.75661766529083252 0.39970141649246216
0.22751183807849884 0.75661766529083252 0.39720895886421204
0.42195922136306763 0.76125764846801758 0.38311547040939331
0.60807377099990845 0.77314794063568115 0.37515079975128174
0.7379346489906311 0.78562682867050171 0.38006019592285156
0.84538322687149048 0.79552179574966431 0.38278770446777344
0.96655470132827759 0.80279654264450073 0.37330237030982971
0.03447386622428894 0.94963234663009644 0.37675186991691589
0.22752389311790466 0.94905298948287964 0.38520705699920654
0.42039597034454346 0.94899439811706543 0.37839600443840027
0.6035761833190918 0.95574438571929932 0.38640549778938293
0.73225265741348267 0.9579271674156189 0.38775348663330078
0.84534311294555664 0.9573550820350647 0.38380396366119385
0.96546679735183716 0.95828455686569214 0.38365662097930908
0.034859213978052139 0.023161765187978745 0.62794989347457886
0.19614554941654205 0.023161765187978745 0.61030232906341553
0.37820646166801453 0.023161765187978745 0.59780508279800415
0.56557047367095947 0.023161765187978745 0.58816558122634888
0.71932566165924072 0.023161765187978745 0.57688266038894653
0.84820151329040527 0.02319120429456234 0.56253516674041748
0.96115195751190186 0.022852998226881027 0.56132602691650391
0.035049021244049072 0.14250203967094421 0.61413681507110596
0.20323924720287323 0.14162895083427429 0.59791922569274902
0.39817306399345398 0.13820749521255493 0.58766001462936401
0.58728426694869995 0.13895300030708313 0.57711535692214966
0.72634238004684448 0.14193157851696014 0.56619805097579956
0.84604430198669434 0.14767789840698242 0.55682176351547241
0.96410703659057617 0.15684971213340759 0.55935066938400269
0.035721916705369949 0.25692257285118103 0.59354245662689209
0.21272461116313934 0.25774261355400085 0.58617371320724487
0.41691708564758301 0.25333335995674133 0.57629626989364624
0.60660308599472046 0.25753393769264221 0.56462717056274414
0.73832368850708008 0.27150878310203552 0.55556917190551758
0.84939342737197876 0.28891474008560181 0.55403614044189453
0.96511632204055786 0.3066551685333252 0.5605207085609436
0.036845818161964417 0.3827204704284668 0.57886272668838501
0.22570225596427917 0.38372600078582764 0.57272320985794067
0.43016356229782104 0.38905090093612671 0.56662225723266602
0.61613917350769043 0.40166926383972168 0.55449807643890381
0.74547022581100464 0.42459005117416382 0.54832369089126587
0.85228490829467773 0.45047292113304138 0.55076873302459717
0.96706867218017578 0.47246122360229492 0.55871820449829102
0.038851987570524216 0.5586274266242981 0.56950598955154419
0.22788950800895691 0.5603451132774353 0.56863158941268921
0.42850449681282043 0.56987667083740234 0.56816059350967407
0.61012738943099976 0.58722865581512451 0.55731731653213501
0.74172741174697876 0.60732483863830566 0.55197644233703613
0.8521803617477417 0.62646728754043579 0.55393522977828979
0.96833705902099609 0.64435720443725586 0.5601959228515625
0.039217226207256317 0.75643634796142578 0.56433683633804321
0.22769607603549957 0.75911951065063477 0.56800633668899536
0.42516031861305237 0.76912450790405273 0.56751179695129395
0.60623276233673096 0.78349673748016357 0.56015187501907349
0.7366795539855957 0.7941741943359375 0.55470746755599976
0.84872293472290039 0.80381762981414795 0.55969530344009399
0.96816563606262207 0.80986708402633667 0.56364554166793823
0.039353031665086746 0.94963234663009644 0.56257337331771851
0.23130801320075989 0.94829940795898438 0.57084208726882935
0.42802077531814575 0.95175063610076904 0.56695526838302612
0.606251060962677 0.95870697498321533 0.56385654211044312
0.7344585657119751 0.96126300096511841 0.56002503633499146
0.84924817085266113 0.96286946535110474 0.55968135595321655
0.96507352590560913 0.96075314283370972 0.56707489490509033
0.035716772079467773 0.02708333358168602 0.78220802545547485
0.20188654959201813 0.023161765187978745 0.77288186550140381
0.38959887623786926 0.023161765187978745 0.77112454175949097
0.58250528573989868 0.023161765187978745 0.76565146446228027
0.73258990049362183 0.023163201287388802 0.7563965916633606
0.849700927734375 0.025159917771816254 0.75467431545257568
0.96120148897171021 0.027985291555523872 0.75269609689712524
0.037912227213382721 0.14288389682769775 0.77565139532089233
0.21213461458683014 0.13666027784347534 0.76958030462265015
0.40878146886825562 0.13504901528358459 0.76838952302932739
0.59751325845718384 0.13877511024475098 0.76448583602905273
0.74063467979431152 0.14616090059280396 0.76118522882461548
0.85060399770736694 0.15525172650814056 0.75967520475387573
0.96728885173797607 0.16644169390201569 0.75761109590530396
0.038610152900218964 0.25433996319770813 0.76954108476638794
0.22227892279624939 0.25071299076080322 0.76379811763763428
0.4220726490020752 0.25168260931968689 0.76015323400497437
0.60373514890670776 0.2654649019241333 0.75625091791152954
0.74107688665390015 0.28699582815170288 0.75473088026046753
0.85318624973297119 0.30759045481681824 0.75640016794204712
0.96899509429931641 0.32464560866355896 0.75714623928070068
0.036557275801897049 0.37673431634902954 0.75990802049636841
0.22969581186771393 0.3802221417427063 0.75619739294052124
0.42864143848419189 0.39742493629455566 0.75644928216934204
0.60793823003768921 0.42230242490768433 0.75346177816390991
0.74143517017364502 0.45058926939964294 0.75274264812469482
0.85436064004898071 0.47585299611091614 0.75508671998977661
0.96899509429931641 0.49614810943603516 0.75957685708999634
0.035087406635284424 0.56327146291732788 0.75710618495941162
0.22536030411720276 0.56986010074615479 0.75663501024246216
0.42563259601593018 0.58566546440124512 0.75827181339263916
0.60369324684143066 0.60892355442047119 0.75970083475112915
0.73715734481811523 0.63115352392196655 0.75834304094314575
0.85316020250320435 0.64737981557846069 0.75711596012115479
0.96899509429931641 0.66449946165084839 0.76066559553146362
0.034041654318571091 0.76216208934783936 0.75500041246414185
0.22333785891532898 0.76985591650009155 0.76049613952636719
0.42369204759597778 0.77971142530441284 0.76053923368453979
0.60328197479248047 0.79349303245544434 0.76053744554519653
0.73137348890304565 0.80422013998031616 0.7575564980506897
0.84630018472671509 0.81402897834777832 0.75657916069030762
0.96717321872711182 0.8222048282623291 0.75658345222473145
0.036889407783746719 0.95164936780929565 0.76017612218856812
0.22751547396183014 0.95309650897979736 0.76409423351287842
0.42513129115104675 0.95395278930664062 0.76086360216140747
0.60933029651641846 0.95767265558242798 0.75968712568283081
0.73170644044876099 0.96249902248382568 0.75630921125411987
0.84540861845016479 0.96411973237991333 0.75269609689712524
0.9682580828666687 0.96452778577804565 0.75332033634185791
0.036628454923629761 0.024417668581008911 0.9512743353843689
0.21192893385887146 0.023161765187978745 0.94783037900924683
0.40499159693717957 0.023161765187978745 0.95174920558929443
0.60349839925765991 0.023433834314346313 0.94917851686477661
0.7409977912902832 0.02461680956184864 0.94732683897018433
0.84839153289794922 0.026396866887807846 0.94962769746780396
0.96076512336730957 0.0289028100669384 0.94571077823638916
0.039942692965269089 0.13936085999011993 0.94866520166397095
0.22325398027896881 0.13873054087162018 0.9487612247467041
0.41914069652557373 0.1387929767370224 0.95219314098358154
0.6026579737663269 0.14593601226806641 0.95153313875198364
0.73760783672332764 0.15449069440364838 0.95125168561935425
0.84926468133926392 0.16495467722415924 0.95056992769241333
0.96771728992462158 0.17348550260066986 0.94960904121398926
0.0363910011947155 0.25660106539726257 0.95169007778167725
0.22769986093044281 0.25392234325408936 0.95039528608322144
0.4249306321144104 0.2646089494228363 0.94888728857040405
0.60220891237258911 0.28270635008811951 0.94741964340209961
0.73707503080368042 0.30259054899215698 0.94777220487594604
0.84979993104934692 0.32339006662368774 0.94712477922439575
0.96829515695571899 0.33649072051048279 0.94444316625595093
0.038637768477201462 0.38541474938392639 0.94790422916412354
0.23186109960079193 0.3965144157409668 0.94973266124725342
0.42884969711303711 0.41784572601318359 0.94796782732009888
0.60856461524963379 0.4428589940071106 0.9471251368522644
0.73950374126434326 0.46899312734603882 0.94720977544784546
0.85317462682723999 0.49515944719314575 0.95049858093261719
0.96899509429931641 0.51350003480911255 0.95000779628753662
0.036352626979351044 0.57717502117156982 0.95346915721893311
0.22479520738124847 0.59166580438613892 0.95429325103759766
0.4250999391078949 0.60554009675979614 0.94880294799804688
0.60631871223449707 0.62432438135147095 0.951121985912323
0.73650968074798584 0.64705723524093628 0.95188868045806885
0.85220670700073242 0.66445577144622803 0.95178520679473877
0.96823465824127197 0.67996907234191895 0.95008563995361328
0.036040183156728745 0.77235329151153564 0.94642484188079834
0.22225932776927948 0.783843994140625 0.95312917232513428
0.42073231935501099 0.79094815254211426 0.94477188587188721
0.60669612884521484 0.80264765024185181 0.9512944221496582
0.7362208366394043 0.81043916940689087 0.95233851671218872
0.84765422344207764 0.824268639087677 0.94628638029098511
0.96229779720306396 0.83538639545440674 0.94343632459640503
0.038610734045505524 0.95214974880218506 0.94780451059341431
0.2275906503200531 0.95856863260269165 0.95285439491271973
0.42061725258827209 0.95727860927581787 0.94824314117431641
0.6089855432510376 0.96103018522262573 0.94789141416549683
0.73428809642791748 0.95830243825912476 0.94591003656387329
0.84731453657150269 0.95975315570831299 0.94714653491973877
0.97178620100021362 0.96552163362503052 0.94715458154678345
