assets/lut/others lomo.cube
# Created by: G'MIC (https://gmic.eu)
TITLE "lomo"
# LUT size
LUT_3D_SIZE 7
# Data domain
DOMAIN_MIN 0.0 0.0 0.0
DOMAIN_MAX 1.0 1.0 1.0
# LUT data points
0 0.0028607237618416548 0.11906474828720093
0.053192093968391418 0.00023336971935350448 0.12225008010864258
0.22105883061885834 0.0015091840177774429 0.11795099079608917
0.42008063197135925 0 0.11726877838373184
0.65268266201019287 0 0.11605493724346161
0.90136992931365967 0 0.11479779332876205
1 0.00014935662329662591 0.1187407523393631
0 0.048778608441352844 0.11878100782632828
0.060516119003295898 0.035809937864542007 0.11956857144832611
0.22433747351169586 0.038419343531131744 0.11708325892686844
0.41839355230331421 0.033612135797739029 0.11798775196075439
0.64933127164840698 0.036488819867372513 0.11802566796541214
0.90877771377563477 0.034631181508302689 0.11948617547750473
1 0.048489231616258621 0.12094546854496002
0 0.17871227860450745 0.11680261790752411
0.056401301175355911 0.16136012971401215 0.11911764740943909
0.22033868730068207 0.16322596371173859 0.11897159367799759
0.4222140908241272 0.15917918086051941 0.11966975778341293
0.65405553579330444 0.16099366545677185 0.11855395138263702
0.91642540693283081 0.15745243430137634 0.11901263147592545
1 0.17561131715774536 0.12037201225757599
0 0.40151157975196838 0.11951982229948044
0.05256320908665657 0.38929134607315063 0.12092355638742447
0.21544545888900757 0.39581561088562012 0.12008535116910934
0.4174475371837616 0.39077368378639221 0.12193403393030167
0.66614985466003418 0.39227277040481567 0.11937940865755081
0.92717486619949341 0.38725519180297852 0.11812154948711395
1 0.39667060971260071 0.11752451211214066
0 0.68124103546142578 0.12302073836326599
0.051536858081817627 0.68095606565475464 0.12254197150468826
0.21887312829494476 0.68624091148376465 0.12071778625249863
0.41766577959060669 0.68843114376068115 0.12230391800403595
0.66963803768157959 0.68141043186187744 0.12107017636299133
0.93054723739624023 0.68199795484542847 0.1195489913225174
1 0.67390793561935425 0.11754694581031799
0 0.89707905054092407 0.12303455173969269
0.059888370335102081 0.90331858396530151 0.12157732248306274
0.22223411500453949 0.90355658531188965 0.12208256125450134
0.41472110152244568 0.90686690807342529 0.1223146915435791
0.66183567047119141 0.90116417407989502 0.12127923220396042
0.91991877555847168 0.90021407604217529 0.1219392791390419
1 0.89312857389450073 0.11833079904317856
0 0.99328464269638062 0.12407810240983963
0.068721413612365723 0.9958118200302124 0.11911477148532867
0.22809498012065887 0.99965530633926392 0.11891241371631622
0.41940423846244812 1 0.12156686186790466
0.66866344213485718 1 0.12011666595935822
0.92203289270401001 1 0.12103050202131271
0.9974360466003418 1 0.12012133002281189
0.0019636116921901703 0 0.15356701612472534
0.064787261188030243 1.7951517293113284e-05 0.1526360958814621
0.22685375809669495 0 0.15359124541282654
0.42050284147262573 0 0.15262174606323242
0.65523070096969604 0 0.15265160799026489
0.91017341613769531 7.9345700214616954e-05 0.15601076185703278
1 0.0015931222587823868 0.1627008467912674
0 0.037597101181745529 0.15226039290428162
0.057436205446720123 0.037048757076263428 0.15423765778541565
0.22460287809371948 0.035052251070737839 0.15292704105377197
0.41677215695381165 0.033759083598852158 0.15220588445663452
0.6501578688621521 0.031155575066804886 0.15319040417671204
0.91165804862976074 0.032125256955623627 0.15415817499160767
1 0.046933267265558243 0.15825450420379639
0 0.16180329024791718 0.15180526673793793
0.063434705138206482 0.15688639879226685 0.15225335955619812
0.22491848468780518 0.15716911852359772 0.15249998867511749
0.41848251223564148 0.15590643882751465 0.15264061093330383
0.65368139743804932 0.15361690521240234 0.15498311817646027
0.918967604637146 0.15117290616035461 0.15230192244052887
1 0.16923819482326508 0.15608716011047363
0 0.39270073175430298 0.15206682682037354
0.058747012168169022 0.38525325059890747 0.15220588445663452
0.22109507024288177 0.39027273654937744 0.15085667371749878
0.41708636283874512 0.38710883259773254 0.15213820338249207
0.66450339555740356 0.38859283924102783 0.15238001942634583
0.93015205860137939 0.38468238711357117 0.1525711864233017
1 0.39224761724472046 0.15646912157535553
0 0.68795233964920044 0.15408627688884735
0.057198930531740189 0.68013834953308105 0.15540802478790283
0.22361063957214355 0.68663966655731201 0.15256612002849579
0.41800311207771301 0.6875072717666626 0.15220588445663452
0.65776902437210083 0.68326246738433838 0.15220588445663452
0.92821186780929565 0.68557226657867432 0.15291985869407654
1 0.67793542146682739 0.15639209747314453
0 0.9032820463180542 0.15222696959972382
0.055301111191511154 0.90036821365356445 0.15342363715171814
0.2219841331243515 0.90097063779830933 0.15226751565933228
0.41859838366508484 0.90331250429153442 0.15220588445663452
0.65231466293334961 0.90088403224945068 0.1521957665681839
0.92805415391921997 0.89922243356704712 0.15336309373378754
1 0.89658612012863159 0.15480498969554901
0 0.99988603591918945 0.15729096531867981
0.064419597387313843 0.9987027645111084 0.15264403820037842
0.22509455680847168 0.99983376264572144 0.15171632170677185
0.41942501068115234 1 0.15233033895492554
0.66711634397506714 0.99995404481887817 0.15177007019519806
0.94021153450012207 0.99652957916259766 0.14989227056503296
1 0.99901443719863892 0.15532118082046509
0 0 0.21892471611499786
0.060854803770780563 0.0006100822938606143 0.21137510240077972
0.22490105032920837 0 0.21312244236469269
0.41772323846817017 0.00040696086944080889 0.21145595610141754
0.65384930372238159 0 0.21245197951793671
0.91025376319885254 0 0.21327827870845795
1 0.0010314941173419356 0.22605031728744507
0 0.03766181692481041 0.21378688514232635
0.061753038316965103 0.038611274212598801 0.21307373046875
0.22468137741088867 0.037490606307983398 0.21363022923469543
0.41525089740753174 0.038098622113466263 0.21022696793079376
0.64674645662307739 0.033335156738758087 0.21256722509860992
0.90944474935531616 0.033858370035886765 0.21298788487911224
1 0.047039255499839783 0.22067227959632874
1.5079273907758761e-05 0.15438191592693329 0.21053621172904968
0.063414551317691803 0.15605302155017853 0.21323598921298981
0.22635234892368317 0.15678606927394867 0.21447661519050598
0.41784235835075378 0.15803207457065582 0.21367427706718445
0.65305256843566895 0.15556846559047699 0.21417415142059326
0.91556072235107422 0.15457545220851898 0.21353252232074738
1 0.17113237082958221 0.2207132875919342
0 0.39099577069282532 0.21024532616138458
0.055071394890546799 0.38903117179870605 0.21155931055545807
0.22215917706489563 0.38793081045150757 0.21176131069660187
0.4178486168384552 0.39030373096466064 0.21276932954788208
0.66459488868713379 0.39149641990661621 0.21300993859767914
0.92767363786697388 0.38799124956130981 0.2105218917131424
1 0.39508673548698425 0.21878841519355774
0 0.68371415138244629 0.21042715013027191
0.062783092260360718 0.6876671314239502 0.21384705603122711
0.22631999850273132 0.68738734722137451 0.21307767927646637
0.41861253976821899 0.68703335523605347 0.21299019455909729
0.65781444311141968 0.68648004531860352 0.21294741332530975
0.9258352518081665 0.68814027309417725 0.21035850048065186
1 0.67829841375350952 0.21866120398044586
0 0.90035867691040039 0.2097322940826416
0.064505495131015778 0.90032732486724854 0.21279183030128479
0.22749501466751099 0.90275132656097412 0.21138375997543335
0.42248275876045227 0.90149837732315063 0.21214909851551056
0.65378302335739136 0.90416932106018066 0.2127050906419754
0.9196973443031311 0.90804612636566162 0.21057116985321045
1 0.89850759506225586 0.21819660067558289
0 0.99995476007461548 0.21742519736289978
0.062132786959409714 0.99969053268432617 0.21413798630237579
0.22098985314369202 1 0.21365219354629517
0.4177338182926178 1 0.21427106857299805
0.65734022855758667 1 0.2147623747587204
0.91914856433868408 0.99980467557907104 0.2136041522026062
1 0.99947327375411987 0.22412858903408051
0 0.00030356014030985534 0.33892965316772461
0.06325078010559082 0.00061522837495431304 0.32226955890655518
0.22588646411895752 0 0.32349890470504761
0.42192196846008301 0 0.32627588510513306
0.65794485807418823 0.0011495254002511501 0.3251664936542511
0.91326868534088135 0 0.32404926419258118
1 0.00029871324659325182 0.34220466017723083
0 0.038650795817375183 0.32875221967697144
0.054375816136598587 0.038155499845743179 0.32234525680541992
0.22193868458271027 0.037281110882759094 0.32368612289428711
0.41597622632980347 0.036482673138380051 0.32254374027252197
0.64722579717636108 0.036689430475234985 0.32248294353485107
0.90958642959594727 0.034757576882839203 0.32290962338447571
1 0.044094294309616089 0.33434858918190002
0 0.15602140128612518 0.32407188415527344
0.053281418979167938 0.15551020205020905 0.32439443469047546
0.22315748035907745 0.15376308560371399 0.32517328858375549
0.41785153746604919 0.15716911852359772 0.32426470518112183
0.65451675653457642 0.15508812665939331 0.32408192753791809
0.91496342420578003 0.15330077707767487 0.32293868064880371
1 0.16774152219295502 0.33281555771827698
0 0.38918417692184448 0.32587048411369324
0.05162498727440834 0.38674134016036987 0.32625457644462585
0.22267135977745056 0.38759541511535645 0.3241763710975647
0.41714632511138916 0.39133679866790771 0.32426470518112183
0.66001588106155396 0.39148911833763123 0.32306396961212158
0.92287373542785645 0.38775873184204102 0.32599124312400818
1 0.39357027411460876 0.33522516489028931
0 0.68574559688568115 0.32909730076789856
0.056396842002868652 0.68717819452285767 0.32614061236381531
0.22283922135829926 0.68713521957397461 0.32441249489784241
0.41731917858123779 0.68513232469558716 0.32585316896438599
0.66049063205718994 0.6857839822769165 0.32397329807281494
0.92470854520797729 0.68880128860473633 0.32289472222328186
1 0.67610126733779907 0.3358614444732666
0 0.90026026964187622 0.32543191313743591
0.058393321931362152 0.90072512626647949 0.32586756348609924
0.22574537992477417 0.89958828687667847 0.32286962866783142
0.41949412226676941 0.90290719270706177 0.32297813892364502
0.65779036283493042 0.90422719717025757 0.3227328360080719
0.92050647735595703 0.90268510580062866 0.32290700078010559
1 0.89030897617340088 0.33763590455055237
0 0.9996415376663208 0.33088696002960205
0.057562120258808136 0.99775266647338867 0.32511943578720093
0.22006866335868835 0.99740827083587646 0.32338044047355652
0.41894915699958801 1 0.32705563306808472
0.65497863292694092 1 0.32804101705551147
0.90323668718338013 1 0.32736417651176453
1 0.99955195188522339 0.34675750136375427
0 0 0.53385335206985474
0.061805307865142822 3.7339155824156478e-05 0.51870965957641602
0.22495710849761963 0 0.51515549421310425
0.42614975571632385 0 0.51923495531082153
0.66675597429275513 3.3748852729331702e-05 0.52633363008499146
0.91962987184524536 0.0010680403793230653 0.52071833610534668
1 0.00071806064806878567 0.53377747535705566
0 0.035535100847482681 0.5212254524230957
0.055144663900136948 0.03383166715502739 0.51500433683395386
0.22221355140209198 0.034893561154603958 0.51653164625167847
0.41780072450637817 0.035595569759607315 0.51266747713088989
0.65745669603347778 0.034534662961959839 0.51266574859619141
0.92026382684707642 0.038562953472137451 0.51082062721252441
1 0.044267214834690094 0.52018624544143677
0 0.15880835056304932 0.51543891429901123
0.054662007838487625 0.15554724633693695 0.51158732175827026
0.22290666401386261 0.15540769696235657 0.51354169845581055
0.41609048843383789 0.15888476371765137 0.51330441236495972
0.65130728483200073 0.15552905201911926 0.51110595464706421
0.91923683881759644 0.15414761006832123 0.51544809341430664
1 0.16263668239116669 0.51786994934082031
0 0.39287450909614563 0.51688158512115479
0.051668353378772736 0.38976070284843445 0.51355654001235962
0.22031648457050323 0.39036786556243896 0.51234203577041626
0.4141765832901001 0.39189189672470093 0.5142020583152771
0.64906424283981323 0.39249807596206665 0.51423376798629761
0.91593760251998901 0.3887079656124115 0.5147097110748291
1 0.38996660709381104 0.51936614513397217
0 0.68719303607940674 0.51829302310943604
0.060238197445869446 0.68558049201965332 0.51528513431549072
0.22341763973236084 0.68716728687286377 0.51481610536575317
0.41466826200485229 0.68045759201049805 0.51854348182678223
0.65487140417098999 0.68713968992233276 0.51767575740814209
0.92412871122360229 0.68999952077865601 0.51452195644378662
1 0.67737674713134766 0.52656656503677368
0 0.90407949686050415 0.51674932241439819
0.059949614107608795 0.90379816293716431 0.51525402069091797
0.22830493748188019 0.90350598096847534 0.51664119958877563
0.41920500993728638 0.89985966682434082 0.51886463165283203
0.66019779443740845 0.90393745899200439 0.51656824350357056
0.92668741941452026 0.90228825807571411 0.51236808300018311
1 0.89077246189117432 0.52992159128189087
0 1 0.52481198310852051
0.065666794776916504 0.99994361400604248 0.51827114820480347
0.22801920771598816 0.99881941080093384 0.51743519306182861
0.42233061790466309 0.99990469217300415 0.51915979385375977
0.66039580106735229 1 0.51880663633346558
0.91880911588668823 1 0.51495170593261719
1 0.99955195188522339 0.53798270225524902
0 0 0.78918176889419556
0.049566008150577545 0 0.78603184223175049
0.21696119010448456 0 0.78321504592895508
0.4216555655002594 0.00026281020836904645 0.79833614826202393
0.66549170017242432 0 0.80696403980255127
0.92501264810562134 0 0.79313033819198608
1 0 0.79219359159469604
0 0.030840227380394936 0.78347009420394897
0.055917687714099884 0.031546171754598618 0.78470337390899658
0.22107824683189392 0.036095637828111649 0.78912913799285889
0.41604423522949219 0.035914476960897446 0.78553718328475952
0.66033422946929932 0.031102918088436127 0.78503155708312988
0.9268639087677002 0.033939916640520096 0.77994805574417114
1 0.0379958376288414 0.78070920705795288
0 0.15652208030223846 0.78071284294128418
0.054196871817111969 0.15263047814369202 0.77787911891937256
0.22231437265872955 0.15501683950424194 0.78068333864212036
0.41738355159759521 0.15665918588638306 0.78053110837936401
0.65700513124465942 0.15350869297981262 0.77828836441040039
0.9312978982925415 0.15443186461925507 0.78169965744018555
1 0.15983691811561584 0.77761250734329224
0 0.38903683423995972 0.78338980674743652
0.05369529128074646 0.38828772306442261 0.77915477752685547
0.2193351686000824 0.38792383670806885 0.77747154235839844
0.41385737061500549 0.38874894380569458 0.77925127744674683
0.64976179599761963 0.39076501131057739 0.77911627292633057
0.91423755884170532 0.39015287160873413 0.78102177381515503
1 0.39240625500679016 0.78026866912841797
0 0.68305665254592896 0.78327584266662598
0.05744253471493721 0.6839105486869812 0.78331559896469116
0.22342550754547119 0.68379920721054077 0.78128141164779663
0.4154428243637085 0.68278688192367554 0.7841072678565979
0.65529161691665649 0.68732672929763794 0.78390872478485107
0.92659538984298706 0.69055330753326416 0.77839463949203491
1 0.68458718061447144 0.78572040796279907
0 0.90526056289672852 0.78427988290786743
0.05411674827337265 0.90418714284896851 0.78589200973510742
0.22514776885509491 0.90509128570556641 0.78333336114883423
0.4203982949256897 0.9000173807144165 0.78667533397674561
0.6619725227355957 0.90352648496627808 0.78811812400817871
0.92885392904281616 0.90122693777084351 0.78966444730758667
1 0.89752531051635742 0.79694634675979614
0 1 0.78886836767196655
0.057149805128574371 0.99999463558197021 0.78652423620223999
0.22429089248180389 0.99942213296890259 0.78253448009490967
0.42237013578414917 0.99993789196014404 0.77899205684661865
0.66429668664932251 0.99915707111358643 0.78480207920074463
0.91943800449371338 0.99934834241867065 0.7874068021774292
1 0.99926471710205078 0.79963064193725586
0.0043064341880381107 6.0676124121528119e-05 1
0.066811412572860718 0 0.99922752380371094
0.22628410160541534 0 0.99777114391326904
0.42133262753486633 0.00083185831317678094 0.99891203641891479
0.65541708469390869 0.0031492495909333229 0.99956125020980835
0.91009724140167236 0.0038472493179142475 1
1 0.00046284994459711015 1
0.00017541623674333096 0.040994156152009964 1
0.068449057638645172 0.040006257593631744 1
0.22824756801128387 0.03829662874341011 1
0.41843923926353455 0.041621848940849304 1
0.65237283706665039 0.042473677545785904 1
0.90441298484802246 0.041348475962877274 1
0.99573904275894165 0.044944163411855698 1
0 0.1671229749917984 1
0.064377307891845703 0.16086338460445404 1
0.22842437028884888 0.16024318337440491 1
0.42192366719245911 0.16219282150268555 1
0.65429067611694336 0.16031183302402496 1
0.8964729905128479 0.16311641037464142 1
0.99752259254455566 0.17331518232822418 1
0 0.38959816098213196 1
0.059889879077672958 0.39192163944244385 1
0.22795070707798004 0.38880535960197449 1
0.4208102822303772 0.38955101370811462 1
0.65522676706314087 0.39010235667228699 1
0.90554714202880859 0.38895004987716675 1
0.99983543157577515 0.40032410621643066 1
7.0010915806051344e-05 0.67826694250106812 1
0.069347932934761047 0.68426990509033203 1
0.23223105072975159 0.68043011426925659 1
0.42083728313446045 0.68221640586853027 1
0.65745234489440918 0.68273335695266724 1
0.92055338621139526 0.68394190073013306 1
0.99953228235244751 0.68637490272521973 1
0.0019846148788928986 0.89295560121536255 1
0.064510375261306763 0.89301490783691406 1
0.22864872217178345 0.89470088481903076 1
0.41888570785522461 0.89800524711608887 1
0.65653985738754272 0.89478230476379395 1
0.92331194877624512 0.89672768115997314 0.99932897090911865
0.9998432993888855 0.89821267127990723 0.99975568056106567
0.00044359694584272802 0.99825501441955566 1
0.064981825649738312 0.99513590335845947 1
0.22395506501197815 0.99254798889160156 1
0.41878902912139893 0.99880510568618774 1
0.65341126918792725 0.99397891759872437 1
0.90257894992828369 0.99798130989074707 1
0.98919475078582764 0.99685770273208618 1
