assets/lut/others summer.cube
# Created by: G'MIC (https://gmic.eu)
TITLE "summer"
# LUT size
LUT_3D_SIZE 7
# Data domain
DOMAIN_MIN 0.0 0.0 0.0
DOMAIN_MAX 1.0 1.0 1.0
# LUT data points
0.27215230464935303 0.034040428698062897 0.26229187846183777
0.38602942228317261 0.030882352963089943 0.26238510012626648
0.50183820724487305 0.034803923219442368 0.26032716035842896
0.61764705181121826 0.03471037745475769 0.26217889785766602
0.73433774709701538 0.031048225238919258 0.26249998807907104
0.85525786876678467 0.033597204834222794 0.26219233870506287
0.97333437204360962 0.031845182180404663 0.26249998807907104
0.27414214611053467 0.1853320449590683 0.26621681451797485
0.38650032877922058 0.18517787754535675 0.26606312394142151
0.50204378366470337 0.18587692081928253 0.26249998807907104
0.62100648880004883 0.18864509463310242 0.26249998807907104
0.7389485239982605 0.18538478016853333 0.26625394821166992
0.86064517498016357 0.18531709909439087 0.26462459564208984
0.97888082265853882 0.18520310521125793 0.26249998807907104
0.27412194013595581 0.34349358081817627 0.26330268383026123
0.389678955078125 0.34038528800010681 0.26281571388244629
0.50343137979507446 0.33970588445663452 0.26249998807907104
0.6212775707244873 0.33970588445663452 0.26249998807907104
0.73983842134475708 0.33970588445663452 0.26388999819755554
0.86060589551925659 0.33970588445663452 0.26642155647277832
0.97677910327911377 0.33970588445663452 0.26293659210205078
0.27074867486953735 0.49988096952438354 0.25972768664360046
0.38773515820503235 0.49803921580314636 0.25918740034103394
0.50185805559158325 0.49803921580314636 0.25857841968536377
0.61807197332382202 0.49720799922943115 0.25857841968536377
0.73672974109649658 0.49685382843017578 0.26150655746459961
0.85526996850967407 0.49803921580314636 0.26386472582817078
0.97053366899490356 0.49845907092094421 0.262582927942276
0.2692318856716156 0.6563725471496582 0.25857841968536377
0.38602942228317261 0.65442746877670288 0.25857841968536377
0.50097912549972534 0.65262764692306519 0.25470274686813354
0.61504483222961426 0.65245097875595093 0.25465685129165649
0.7330164909362793 0.65245097875595093 0.25824424624443054
0.85178828239440918 0.65384584665298462 0.26187673211097717
0.96899509429931641 0.6563725471496582 0.26249998807907104
0.26818093657493591 0.80693274736404419 0.25960895419120789
0.38768652081489563 0.80686277151107788 0.26030871272087097
0.50131493806838989 0.80718517303466797 0.25821498036384583
0.61465120315551758 0.80780410766601562 0.2558286190032959
0.73297148942947388 0.80686277151107788 0.25850805640220642
0.85290855169296265 0.80686277151107788 0.26204350590705872
0.96899974346160889 0.80791562795639038 0.26249998807907104
0.27243250608444214 0.95757949352264404 0.26503553986549377
0.39258632063865662 0.9575188159942627 0.26701337099075317
0.50754916667938232 0.95797854661941528 0.26621979475021362
0.62181484699249268 0.95849800109863281 0.26459255814552307
0.73801678419113159 0.9578782320022583 0.26472693681716919
0.85720223188400269 0.95761162042617798 0.26407930254936218
0.97291666269302368 0.95805788040161133 0.2662557065486908
0.27414214611053467 0.032625041902065277 0.34361734986305237
0.38602942228317261 0.030882352963089943 0.34252595901489258
0.50183820724487305 0.034793149679899216 0.33970588445663452
0.61764705181121826 0.034803923219442368 0.33970588445663452
0.73524236679077148 0.034803923219442368 0.33970588445663452
0.85365819931030273 0.034803923219442368 0.33817887306213379
0.96951842308044434 0.034020189195871353 0.33930215239524841
0.27414214611053467 0.18539330363273621 0.34512874484062195
0.38602942228317261 0.18529412150382996 0.3436274528503418
0.50183820724487305 0.1873633861541748 0.33979421854019165
0.61764705181121826 0.18921568989753723 0.33970588445663452
0.73741906881332397 0.18921568989753723 0.3398892879486084
0.85731810331344604 0.1889977902173996 0.34095165133476257
0.9741702675819397 0.18640226125717163 0.33970588445663452
0.27369588613510132 0.3435816764831543 0.34313726425170898
0.38602942228317261 0.34178435802459717 0.34083473682403564
0.50168317556381226 0.34311044216156006 0.33970588445663452
0.61763989925384521 0.34293469786643982 0.33969870209693909
0.7372400164604187 0.33971846103668213 0.34020817279815674
0.85750651359558105 0.33970588445663452 0.3436274528503418
0.97391432523727417 0.33970588445663452 0.34194156527519226
0.27022057771682739 0.5001489520072937 0.3384627103805542
0.38586914539337158 0.49804100394248962 0.3362525999546051
0.49799779057502747 0.49803921580314636 0.33559715747833252
0.61377352476119995 0.49803921580314636 0.3353860080242157
0.73323255777359009 0.4961216151714325 0.33788332343101501
0.85393834114074707 0.4965302050113678 0.34215787053108215
0.97135305404663086 0.49778574705123901 0.34170955419540405
0.26678204536437988 0.6563725471496582 0.33578431606292725
0.38224074244499207 0.6563725471496582 0.33454874157905579
0.49538964033126831 0.65626019239425659 0.33186274766921997
0.60983091592788696 0.65347123146057129 0.33173391222953796
0.72956079244613647 0.65245097875595093 0.33369553089141846
0.8499065637588501 0.65245097875595093 0.33882629871368408
0.96899509429931641 0.65420699119567871 0.33970588445663452
0.26646873354911804 0.80969119071960449 0.33581653237342834
0.38302105665206909 0.80894142389297485 0.33597832918167114
0.49497932195663452 0.81045806407928467 0.33307918906211853
0.60980391502380371 0.81074833869934082 0.33119741082191467
0.72963333129882812 0.80686277151107788 0.33319643139839172
0.85055625438690186 0.80686277151107788 0.337858647108078
0.96899509429931641 0.80808669328689575 0.33970588445663452
0.27063363790512085 0.958088219165802 0.34101510047912598
0.38847944140434265 0.958088219165802 0.34374073147773743
0.50215870141983032 0.95873135328292847 0.34293815493583679
0.61744832992553711 0.95888477563858032 0.33921387791633606
0.73565167188644409 0.95815575122833252 0.3387380838394165
0.85428380966186523 0.95735830068588257 0.3412502110004425
0.97095447778701782 0.958088219165802 0.33970588445663452
0.27370283007621765 0.034803923219442368 0.42083331942558289
0.38602942228317261 0.034803923219442368 0.4173617959022522
0.49799111485481262 0.034803923219442368 0.41555783152580261
0.61736208200454712 0.034803923219442368 0.4144541323184967
0.73631471395492554 0.034803923219442368 0.41691175103187561
0.85318624973297119 0.034503847360610962 0.41691175103187561
0.96738547086715698 0.031232466921210289 0.41691175103187561
0.27376258373260498 0.18921568989753723 0.42083331942558289
0.38602942228317261 0.18921412527561188 0.41999205946922302
0.49806344509124756 0.18921568989753723 0.41691175103187561
0.61764705181121826 0.18921568989753723 0.41691175103187561
0.73737746477127075 0.18921568989753723 0.41691175103187561
0.85683870315551758 0.18921568989753723 0.41691175103187561
0.97001105546951294 0.18921568989753723 0.41691175103187561
0.27022057771682739 0.3436274528503418 0.41793650388717651
0.38598871231079102 0.3436274528503418 0.41691845655441284
0.49791666865348816 0.3436274528503418 0.41671046614646912
0.61586695909500122 0.3436274528503418 0.41634732484817505
0.73541933298110962 0.34361618757247925 0.41691175103187561
0.85472625494003296 0.34342256188392639 0.41859692335128784
0.97215592861175537 0.3436274528503418 0.41773387789726257
0.27022057771682739 0.49836185574531555 0.41429346799850464
0.38290852308273315 0.49828165769577026 0.41302153468132019
0.49789798259735107 0.49813622236251831 0.41286012530326843
0.61368250846862793 0.49803921580314636 0.41268286108970642
0.73298114538192749 0.49792438745498657 0.41383153200149536
0.85318624973297119 0.49456116557121277 0.41692104935646057
0.97228139638900757 0.49803921580314636 0.42083331942558289
0.26704016327857971 0.6563725471496582 0.41299018263816833
0.38210785388946533 0.6563725471496582 0.411752849817276
0.49399891495704651 0.6563725471496582 0.40906861424446106
0.60980391502380371 0.65297162532806396 0.40906861424446106
0.72985565662384033 0.65245097875595093 0.41135835647583008
0.8517875075340271 0.65244907140731812 0.41624647378921509
0.96968430280685425 0.65243947505950928 0.41976970434188843
0.26637035608291626 0.81067299842834473 0.41299018263816833
0.38214370608329773 0.80964177846908569 0.41299018263816833
0.49413830041885376 0.80986517667770386 0.41076096892356873
0.60995644330978394 0.80770313739776611 0.40907862782478333
0.7307935357093811 0.80686277151107788 0.41090446710586548
0.85243088006973267 0.80686277151107788 0.41536885499954224
0.96899509429931641 0.80686277151107788 0.41893094778060913
0.27007728815078735 0.95888477563858032 0.41691175103187561
0.38646793365478516 0.95817071199417114 0.41840025782585144
0.49995008111000061 0.958881676197052 0.41880887746810913
0.6164252758026123 0.95884007215499878 0.41598671674728394
0.7363896369934082 0.95746368169784546 0.41496667265892029
0.85471838712692261 0.95735293626785278 0.41691175103187561
0.96899509429931641 0.95735293626785278 0.41989746689796448
0.27026376128196716 0.034803923219442368 0.49667391180992126
0.38418525457382202 0.034659232944250107 0.49355930089950562
0.49791666865348816 0.034803923219442368 0.49019607901573181
0.61741656064987183 0.034803923219442368 0.49122655391693115
0.73737746477127075 0.034803923219442368 0.49411764740943909
0.85709619522094727 0.033531669527292252 0.49411764740943909
0.97011590003967285 0.031486868858337402 0.49411764740943909
0.27022057771682739 0.18921568989753723 0.49672156572341919
0.38559234142303467 0.18921568989753723 0.49411764740943909
0.49796351790428162 0.19048324227333069 0.49411764740943909
0.61764705181121826 0.18921568989753723 0.49411764740943909
0.73737746477127075 0.18921568989753723 0.49411764740943909
0.85614657402038574 0.18921568989753723 0.49411764740943909
0.96900659799575806 0.1901315450668335 0.49411764740943909
0.27022057771682739 0.3436274528503418 0.49411764740943909
0.38501548767089844 0.34698820114135742 0.49411764740943909
0.49792888760566711 0.34754902124404907 0.49411764740943909
0.61744111776351929 0.3436274528503418 0.49411764740943909
0.73591464757919312 0.3436274528503418 0.49411764740943909
0.85318624973297119 0.3436274528503418 0.49411764740943909
0.96899509429931641 0.34633520245552063 0.49411764740943909
0.27022057771682739 0.49803921580314636 0.49022355675697327
0.38414090871810913 0.49846071004867554 0.49139729142189026
0.49791666865348816 0.50190550088882446 0.4904438853263855
0.61375671625137329 0.49803921580314636 0.49019607901573181
0.73345589637756348 0.49803921580314636 0.49137836694717407
0.85318624973297119 0.4980047345161438 0.49411764740943909
0.97102254629135132 0.49803921580314636 0.4980047345161438
0.27022057771682739 0.65245097875595093 0.4908345639705658
0.38382354378700256 0.6532483696937561 0.49019607901573181
0.4969731867313385 0.6563725471496582 0.48836848139762878
0.61310005187988281 0.652721107006073 0.48690509796142578
0.73265731334686279 0.65245097875595093 0.49019607901573181
0.85318624973297119 0.64885926246643066 0.49411764740943909
0.97291666269302368 0.64852941036224365 0.49803921580314636
0.27143430709838867 0.80686277151107788 0.49561357498168945
0.38558495044708252 0.80735218524932861 0.49196931719779968
0.49737975001335144 0.81060361862182617 0.48982700705528259
0.61349856853485107 0.80720466375350952 0.48886600136756897
0.7335740327835083 0.80686277151107788 0.49019607901573181
0.8533705472946167 0.8045116662979126 0.49411764740943909
0.97277629375457764 0.80294120311737061 0.49803921580314636
0.27406749129295349 0.95786994695663452 0.49594190716743469
0.38975480198860168 0.958088219165802 0.49416977167129517
0.50137370824813843 0.95888477563858032 0.49578547477722168
0.61767697334289551 0.95860022306442261 0.49444201588630676
0.7381511926651001 0.95735293626785278 0.49398767948150635
0.85710781812667847 0.95735293626785278 0.49417248368263245
0.97142326831817627 0.95735293626785278 0.49803921580314636
0.27021047472953796 0.032042201608419418 0.57132351398468018
0.38399174809455872 0.030882352963089943 0.5704798698425293
0.50146627426147461 0.030968520790338516 0.57073134183883667
0.61825275421142578 0.031048165634274483 0.57132351398468018
0.73737746477127075 0.034591943025588989 0.57136660814285278
0.85600101947784424 0.034803923219442368 0.57132351398468018
0.96909636259078979 0.034486927092075348 0.57132351398468018
0.26972523331642151 0.18804880976676941 0.57132351398468018
0.38602942228317261 0.18920339643955231 0.57136452198028564
0.50183820724487305 0.18921568989753723 0.57261967658996582
0.62101238965988159 0.18921568989753723 0.57444334030151367
0.73737746477127075 0.18921568989753723 0.57524007558822632
0.85621505975723267 0.19144445657730103 0.57277429103851318
0.96900731325149536 0.19311687350273132 0.57420915365219116
0.2663576602935791 0.34368035197257996 0.57078033685684204
0.38602942228317261 0.34544748067855835 0.57279223203659058
0.50183820724487305 0.34528976678848267 0.57415002584457397
0.61801362037658691 0.3436274528503418 0.57223421335220337
0.73736977577209473 0.3436274528503418 0.57165622711181641
0.85318624973297119 0.34577414393424988 0.57159978151321411
0.96899509429931641 0.34754902124404907 0.5750201940536499
0.26671275496482849 0.49847251176834106 0.56773889064788818
0.38602942228317261 0.49803921580314636 0.57157856225967407
0.50044351816177368 0.49803921580314636 0.57133740186691284
0.61668705940246582 0.49803921580314636 0.57065647840499878
0.73354226350784302 0.49803921580314636 0.57125282287597656
0.85318624973297119 0.49803921580314636 0.57132351398468018
0.96900445222854614 0.49878641963005066 0.57524508237838745
0.27021437883377075 0.65245097875595093 0.57114464044570923
0.38600906729698181 0.65245097875595093 0.57132351398468018
0.49791666865348816 0.65357041358947754 0.56826263666152954
0.61372548341751099 0.65254795551300049 0.5674019455909729
0.73345589637756348 0.65245097875595093 0.56758999824523926
0.85318624973297119 0.65245097875595093 0.57132351398468018
0.96995919942855835 0.65245097875595093 0.57524508237838745
0.27156049013137817 0.80686277151107788 0.57524508237838745
0.38602942228317261 0.80686277151107788 0.57149416208267212
0.49791666865348816 0.81076890230178833 0.56787174940109253
0.61386567354202271 0.80758804082870483 0.56762993335723877
0.7345244288444519 0.80686277151107788 0.5693475604057312
0.85356736183166504 0.80686277151107788 0.57132351398468018
0.96961671113967896 0.80686277151107788 0.57524508237838745
0.27275684475898743 0.95735293626785278 0.57329648733139038
0.3885306715965271 0.957855224609375 0.57521206140518188
0.50135302543640137 0.95888477563858032 0.5749548077583313
0.61811459064483643 0.95887547731399536 0.57382231950759888
0.73922038078308105 0.95735865831375122 0.57152563333511353
0.85774856805801392 0.95735293626785278 0.57132977247238159
0.97292602062225342 0.95754194259643555 0.57522642612457275
0.26836201548576355 0.030882352963089943 0.64810973405838013
0.38602942228317261 0.030882352963089943 0.64852941036224365
0.50219285488128662 0.030882352963089943 0.64852941036224365
0.62116783857345581 0.030882352963089943 0.6503593921661377
0.73553723096847534 0.034803923219442368 0.65053319931030273
0.85236406326293945 0.034803923219442368 0.64818716049194336
0.96899509429931641 0.034803923219442368 0.64861404895782471
0.26719138026237488 0.18921957910060883 0.64847493171691895
0.38602942228317261 0.18743574619293213 0.65226972103118896
0.50554728507995605 0.18587973713874817 0.65245097875595093
0.62156862020492554 0.1875728964805603 0.65245097875595093
0.73737746477127075 0.18921568989753723 0.65245097875595093
0.85318624973297119 0.19313037395477295 0.65242785215377808
0.97276216745376587 0.19304955005645752 0.65245097875595093
0.26666834950447083 0.34673765301704407 0.64694404602050781
0.38602942228317261 0.3436274528503418 0.6524277925491333
0.50193268060684204 0.34353753924369812 0.65244597196578979
0.62029474973678589 0.3436274528503418 0.65126723051071167
0.73737746477127075 0.3436274528503418 0.65090161561965942
0.85318624973297119 0.34753614664077759 0.6524234414100647
0.97196328639984131 0.34754902124404907 0.65245097875595093
0.26899111270904541 0.50027221441268921 0.64767897129058838
0.38626959919929504 0.49677351117134094 0.65245097875595093
0.50182199478149414 0.49776530265808105 0.64985370635986328
0.61722785234451294 0.49803921580314636 0.64852368831634521
0.73347347974777222 0.49803921580314636 0.64852941036224365
0.85318624973297119 0.50165307521820068 0.64852941036224365
0.96899509429931641 0.50196081399917603 0.65245097875595093
0.27020502090454102 0.65245097875595093 0.65008771419525146
0.38602942228317261 0.65235251188278198 0.65245097875595093
0.49810287356376648 0.65245097875595093 0.64852941036224365
0.61372548341751099 0.65245097875595093 0.644756019115448
0.73345589637756348 0.65245658159255981 0.64778071641921997
0.85263407230377197 0.65574353933334351 0.64852941036224365
0.96899509429931641 0.6563725471496582 0.65245097875595093
0.27022057771682739 0.80316329002380371 0.65245097875595093
0.38602942228317261 0.80633813142776489 0.65245097875595093
0.49802291393280029 0.80686277151107788 0.64880979061126709
0.61506932973861694 0.80686277151107788 0.64852941036224365
0.73416829109191895 0.80686277151107788 0.64852941036224365
0.85318624973297119 0.80686724185943604 0.64852941036224365
0.96899509429931641 0.81015312671661377 0.65245026350021362
0.27022057771682739 0.95735293626785278 0.65028858184814453
0.38602942228317261 0.95735293626785278 0.65245097875595093
0.50183820724487305 0.95954525470733643 0.65245097875595093
0.61858916282653809 0.95949262380599976 0.65245097875595093
0.73831331729888916 0.95775520801544189 0.6516914963722229
0.85720020532608032 0.95740264654159546 0.64852941036224365
0.97294002771377563 0.95877552032470703 0.64872527122497559
0.27022057771682739 0.034745577722787857 0.72573530673980713
0.3853088915348053 0.030882352963089943 0.72541671991348267
0.50183820724487305 0.030882352963089943 0.72573530673980713
0.62016761302947998 0.030882352963089943 0.72573530673980713
0.73347312211990356 0.034551102668046951 0.72573530673980713
0.85095196962356567 0.034803923219442368 0.72577494382858276
0.96899509429931641 0.034803923219442368 0.72833651304244995
0.27005508542060852 0.19037027657032013 0.72573530673980713
0.38602942228317261 0.18589474260807037 0.72779995203018188
0.5039374828338623 0.18529412150382996 0.72628390789031982
0.6214911937713623 0.18551802635192871 0.7264590859413147
0.73737746477127075 0.18921568989753723 0.72801917791366577
0.85318624973297119 0.18921568989753723 0.7296568751335144
0.97291666269302368 0.18921568989753723 0.73339402675628662
0.27018946409225464 0.34754902124404907 0.72507780790328979
0.38672134280204773 0.3436274528503418 0.72577512264251709
0.50183820724487305 0.33970588445663452 0.72573530673980713
0.61769801378250122 0.34332245588302612 0.72570574283599854
0.73624891042709351 0.3436274528503418 0.7257506251335144
0.85318624973297119 0.34363031387329102 0.72955501079559326
0.97280454635620117 0.3436274528503418 0.73063713312149048
0.27388527989387512 0.50098073482513428 0.72573530673980713
0.38846698403358459 0.49800512194633484 0.7264091968536377
0.49880862236022949 0.49534034729003906 0.7230759859085083
0.61393612623214722 0.49803921580314636 0.72181373834609985
0.73345589637756348 0.49803921580314636 0.72507768869400024
0.85261619091033936 0.50170600414276123 0.72573530673980713
0.96899509429931641 0.50141841173171997 0.72835361957550049
0.27219986915588379 0.6524236798286438 0.72909116744995117
0.38610252737998962 0.65143084526062012 0.72944086790084839
0.49799087643623352 0.65245097875595093 0.72549086809158325
0.61372548341751099 0.65245097875595093 0.72192889451980591
0.73326921463012695 0.6539422869682312 0.72470080852508545
0.84940940141677856 0.6563725471496582 0.72573530673980713
0.96899509429931641 0.6563725471496582 0.72580528259277344
0.27022057771682739 0.80294120311737061 0.7296568751335144
0.38602942228317261 0.80423867702484131 0.7296568751335144
0.50089234113693237 0.80686277151107788 0.72793233394622803
0.61548548936843872 0.80686277151107788 0.72573530673980713
0.73347443342208862 0.80686277151107788 0.72573530673980713
0.85296863317489624 0.80686277151107788 0.72573530673980713
0.96899509429931641 0.8072514533996582 0.72581928968429565
0.27053815126419067 0.95735293626785278 0.72731053829193115
0.38659805059432983 0.95735293626785278 0.7296568751335144
0.50183820724487305 0.96103507280349731 0.7296568751335144
0.61786210536956787 0.96021103858947754 0.7296568751335144
0.73735880851745605 0.95768290758132935 0.7296568751335144
0.85449528694152832 0.9573899507522583 0.72573530673980713
0.96929401159286499 0.95799952745437622 0.72573530673980713
