assets/lut/others green mono.cube
# Created by: G'MIC (https://gmic.eu)
TITLE "green_mono"
# LUT size
LUT_3D_SIZE 13
# Data domain
DOMAIN_MIN 0.0 0.0 0.0
DOMAIN_MAX 1.0 1.0 1.0
# LUT data points
0.014410684816539288 0.023330194875597954 0.013684905134141445
0.037135463207960129 0.061760801821947098 0.035367105156183243
0.059185415506362915 0.10483012348413467 0.059971198439598083
0.078606322407722473 0.16300246119499207 0.10320304334163666
0.096713140606880188 0.22354835271835327 0.15297244489192963
0.11224509030580521 0.28284469246864319 0.2138478010892868
0.12389014661312103 0.35153812170028687 0.31262728571891785
0.14823523163795471 0.42561089992523193 0.39469501376152039
0.224129319190979 0.51316982507705688 0.38463148474693298
0.31659409403800964 0.60557734966278076 0.36374542117118835
0.47900223731994629 0.69566082954406738 0.42578604817390442
0.67930799722671509 0.78406685590744019 0.54606914520263672
0.84482836723327637 0.85758829116821289 0.65446937084197998
0.016940740868449211 0.026242619380354881 0.016312034800648689
0.041872419416904449 0.068033300340175629 0.039648048579692841
0.063276030123233795 0.11597930639982224 0.067472450435161591
0.082714185118675232 0.17224805057048798 0.10706924647092819
0.10156389325857162 0.22984172403812408 0.1601870059967041
0.11725200712680817 0.29214173555374146 0.23173168301582336
0.12786848843097687 0.36018750071525574 0.32830744981765747
0.15744757652282715 0.43536525964736938 0.39139875769615173
0.23316285014152527 0.5236085057258606 0.37972429394721985
0.3283478319644928 0.61137819290161133 0.37020236253738403
0.51027160882949829 0.70348316431045532 0.44403621554374695
0.70762604475021362 0.7923882007598877 0.55488407611846924
0.85020625591278076 0.85699170827865601 0.66751039028167725
0.020640848204493523 0.029844067990779877 0.019701505079865456
0.046239681541919708 0.072770707309246063 0.043494533747434616
0.068056352436542511 0.12254611402750015 0.073952771723270416
0.087459728121757507 0.17754119634628296 0.1142251268029213
0.10729464143514633 0.23554503917694092 0.16887721419334412
0.12247303873300552 0.30078089237213135 0.24491389095783234
0.13296708464622498 0.37171509861946106 0.33829286694526672
0.17071311175823212 0.45096483826637268 0.38412290811538696
0.24405242502689362 0.53938013315200806 0.37105634808540344
0.35066989064216614 0.62672305107116699 0.37929141521453857
0.54009169340133667 0.71789968013763428 0.46564120054244995
0.72822690010070801 0.8013647198677063 0.57475394010543823
0.85912925004959106 0.85825234651565552 0.69456195831298828
0.023779610171914101 0.03373158723115921 0.022655995562672615
0.04871884360909462 0.07886999100446701 0.046067345887422562
0.07205122709274292 0.12583485245704651 0.073541708290576935
0.092142648994922638 0.18192023038864136 0.11895416676998138
0.10920912772417068 0.24338224530220032 0.17883455753326416
0.12291394174098969 0.31006234884262085 0.2565135657787323
0.13406746089458466 0.38122954964637756 0.34561997652053833
0.1748024970293045 0.46197587251663208 0.38946866989135742
0.25560572743415833 0.55198746919631958 0.3729548454284668
0.36789828538894653 0.64105510711669922 0.37776082754135132
0.5594031810760498 0.73066157102584839 0.47515535354614258
0.75376719236373901 0.81379169225692749 0.59491825103759766
0.87662142515182495 0.86959201097488403 0.70554637908935547
0.028373075649142265 0.041143380105495453 0.025501281023025513
0.051827643066644669 0.084752865135669708 0.048394057899713516
0.074033908545970917 0.13132262229919434 0.075063474476337433
0.093039445579051971 0.19018703699111938 0.12270349264144897
0.10910354554653168 0.25343814492225647 0.18216775357723236
0.12049143016338348 0.3199925422668457 0.26542085409164429
0.13106107711791992 0.38763511180877686 0.35512596368789673
0.17457170784473419 0.46737384796142578 0.39834979176521301
0.2711750864982605 0.56215333938598633 0.37748700380325317
0.39003276824951172 0.65324634313583374 0.38104009628295898
0.57528936862945557 0.73778808116912842 0.48056986927986145
0.76857614517211914 0.82045274972915649 0.60303515195846558
0.88437312841415405 0.87749713659286499 0.71210873126983643
0.031167348846793175 0.043662380427122116 0.025395352393388748
0.053658563643693924 0.090521872043609619 0.050946611911058426
0.076994575560092926 0.14155019819736481 0.081040054559707642
0.09505869448184967 0.20012620091438293 0.12677398324012756
0.11085167527198792 0.26302015781402588 0.18625347316265106
0.12131253629922867 0.32954287528991699 0.27852585911750793
0.13344752788543701 0.39742013812065125 0.37014448642730713
0.18635831773281097 0.47830122709274292 0.3928820788860321
0.27823570370674133 0.57350289821624756 0.3656870424747467
0.40577009320259094 0.66345560550689697 0.3834688663482666
0.60602277517318726 0.74820005893707275 0.49424275755882263
0.78168737888336182 0.82458841800689697 0.61569744348526001
0.88494384288787842 0.87792092561721802 0.73278439044952393
0.032612774521112442 0.04741891473531723 0.027314802631735802
0.056067418307065964 0.097737871110439301 0.054595302790403366
0.078456342220306396 0.14892597496509552 0.084244973957538605
0.097175061702728271 0.20773360133171082 0.12888669967651367
0.11273947358131409 0.27059486508369446 0.19079266488552094
0.12284883856773376 0.33824154734611511 0.29060262441635132
0.13932646811008453 0.40878960490226746 0.3826964795589447
0.2025504857301712 0.49235036969184875 0.38920578360557556
0.2905086874961853 0.58439105749130249 0.36231756210327148
0.42802619934082031 0.67398601770401001 0.394998699426651
0.62950432300567627 0.75888073444366455 0.51041018962860107
0.80707502365112305 0.8368033766746521 0.63492673635482788
0.89700567722320557 0.88451278209686279 0.74478185176849365
0.037321560084819794 0.057228550314903259 0.03400421142578125
0.059909235686063766 0.10599657148122787 0.059524103999137878
0.081492222845554352 0.15589028596878052 0.087782539427280426
0.10019058734178543 0.21485012769699097 0.13131548464298248
0.1150553822517395 0.27730047702789307 0.19296151399612427
0.12557151913642883 0.34718778729438782 0.29903355240821838
0.14428409934043884 0.4206601083278656 0.39293324947357178
0.2136273980140686 0.50493031740188599 0.3920806348323822
0.30576795339584351 0.5953788161277771 0.36798679828643799
0.46082955598831177 0.68619829416275024 0.41499686241149902
0.6614309549331665 0.77377951145172119 0.53086811304092407
0.82957345247268677 0.84827977418899536 0.64962506294250488
0.9036526083946228 0.89043557643890381 0.74692600965499878
0.041690796613693237 0.066204920411109924 0.039604470133781433
0.062118321657180786 0.11322546750307083 0.064362227916717529
0.081617645919322968 0.163914754986763 0.094630375504493713
0.10095125436782837 0.22341816127300262 0.14382737874984741
0.11933079361915588 0.2883022129535675 0.211468905210495
0.12889790534973145 0.35500004887580872 0.30868914723396301
0.14828333258628845 0.42642027139663696 0.39292830228805542
0.22058965265750885 0.51195347309112549 0.39199888706207275
0.31649395823478699 0.6019599437713623 0.37182170152664185
0.47631099820137024 0.69380497932434082 0.42327594757080078
0.67651230096817017 0.78019094467163086 0.53992718458175659
0.8392297625541687 0.85291182994842529 0.65463662147521973
0.91390424966812134 0.89918810129165649 0.7676316499710083
0.048049896955490112 0.075428873300552368 0.043835043907165527
0.064540430903434753 0.11954936385154724 0.068265996873378754
0.082382366061210632 0.16780668497085571 0.098012842237949371
0.10232030600309372 0.23035737872123718 0.15668566524982452
0.12203896045684814 0.29683449864387512 0.22774893045425415
0.13063980638980865 0.36339029669761658 0.32526111602783203
0.15224149823188782 0.43554311990737915 0.39725038409233093
0.23109672963619232 0.52592068910598755 0.38607165217399597
0.33327856659889221 0.6154099702835083 0.37225747108459473
0.49237436056137085 0.70162791013717651 0.43543887138366699
0.6828310489654541 0.78436738252639771 0.55251103639602661
0.84796708822250366 0.85805612802505493 0.66871702671051025
0.92005687952041626 0.90438812971115112 0.78056919574737549
0.051227778196334839 0.075844801962375641 0.043851125985383987
0.069010652601718903 0.12111521512269974 0.06900680810213089
0.086806774139404297 0.17444850504398346 0.10775360465049744
0.1038542240858078 0.23699767887592316 0.16632570326328278
0.12014292925596237 0.30222791433334351 0.23677854239940643
0.12921282649040222 0.37139222025871277 0.33520081639289856
0.15961533784866333 0.4475899338722229 0.39593002200126648
0.24305307865142822 0.5397835373878479 0.37890404462814331
0.35680541396141052 0.63212889432907104 0.37331578135490417
0.52649855613708496 0.71566855907440186 0.45094719529151917
0.70989972352981567 0.79645931720733643 0.57137030363082886
0.86295068264007568 0.86604589223861694 0.6901049017906189
0.92621159553527832 0.91018033027648926 0.79581403732299805
0.052012842148542404 0.07494691014289856 0.043843153864145279
0.073080472648143768 0.12259870022535324 0.070479236543178558
0.091963358223438263 0.18295013904571533 0.11756983399391174
0.10866022855043411 0.24564817547798157 0.17360806465148926
0.1212749108672142 0.30947291851043701 0.24471123516559601
0.1299641877412796 0.38011401891708374 0.34246551990509033
0.16767816245555878 0.45856919884681702 0.39320114254951477
0.25320437550544739 0.54931581020355225 0.37496075034141541
0.37721773982048035 0.64490622282028198 0.37580353021621704
0.56440943479537964 0.73139411211013794 0.46850189566612244
0.75282663106918335 0.8135828971862793 0.59157127141952515
0.86271655559539795 0.87018078565597534 0.70544534921646118
0.92755991220474243 0.91443949937820435 0.80976402759552002
0.053241699934005737 0.077294610440731049 0.04494621604681015
0.073095478117465973 0.12405272573232651 0.072354048490524292
0.093789197504520416 0.1875016987323761 0.11922552436590195
0.11355318874120712 0.25396144390106201 0.17712455987930298
0.12316318601369858 0.31571251153945923 0.25286045670509338
0.13356083631515503 0.38533264398574829 0.3452090322971344
0.1764405369758606 0.46300530433654785 0.38760802149772644
0.26671591401100159 0.55644917488098145 0.3692072331905365
0.3929046094417572 0.65214264392852783 0.37753438949584961
0.58630353212356567 0.74054771661758423 0.48245695233345032
0.76616829633712769 0.81970489025115967 0.60202950239181519
0.86432892084121704 0.87202370166778564 0.71784079074859619
0.9302329421043396 0.91496354341506958 0.82153421640396118
0.014989216811954975 0.024816729128360748 0.014334031380712986
0.038649030029773712 0.065798848867416382 0.036779936403036118
0.061439052224159241 0.11284080892801285 0.062286093831062317
0.081324182450771332 0.17162153124809265 0.10360840708017349
0.10020991414785385 0.23218803107738495 0.15759769082069397
0.11579446494579315 0.29613310098648071 0.23052933812141418
0.12758046388626099 0.36158868670463562 0.32068321108818054
0.15208342671394348 0.43498873710632324 0.39879664778709412
0.22860953211784363 0.52307015657424927 0.38299933075904846
0.33056733012199402 0.6153489351272583 0.36760815978050232
0.51137685775756836 0.70578783750534058 0.43741670250892639
0.70696485042572021 0.79268699884414673 0.55683845281600952
0.85670804977416992 0.85872644186019897 0.67371582984924316
0.022320466116070747 0.036431197077035904 0.02200947143137455
0.043430253863334656 0.076639942824840546 0.04248332604765892
0.063032291829586029 0.12218322604894638 0.063866741955280304
0.082933671772480011 0.17626701295375824 0.10513085871934891
0.10398915410041809 0.23511359095573425 0.16426992416381836
0.11966124922037125 0.29887020587921143 0.2394406646490097
0.12928159534931183 0.3666522204875946 0.3377135694026947
0.16268426179885864 0.44338276982307434 0.39623957872390747
0.23943620920181274 0.53509920835494995 0.37629315257072449
0.35059246420860291 0.62570041418075562 0.37705773115158081
0.54475826025009155 0.71602171659469604 0.45453307032585144
0.72813332080841064 0.7999388575553894 0.56889981031417847
0.86475330591201782 0.86218702793121338 0.67716765403747559
0.025704940780997276 0.039551276713609695 0.025261374190449715
0.048274319618940353 0.080349639058113098 0.046292353421449661
0.068956874310970306 0.12667952477931976 0.070847466588020325
0.088606849312782288 0.18012520670890808 0.11315475404262543
0.10962193459272385 0.23780086636543274 0.16919891536235809
0.12450879812240601 0.30298599600791931 0.24745835363864899
0.13281099498271942 0.37505438923835754 0.3501790463924408
0.17338240146636963 0.45645716786384583 0.39404350519180298
0.24963848292827606 0.54777622222900391 0.37092310190200806
0.37116158008575439 0.63831233978271484 0.38639587163925171
0.56842613220214844 0.72942715883255005 0.47836354374885559
0.75087809562683105 0.81168538331985474 0.58960855007171631
0.8721049427986145 0.86572772264480591 0.70358371734619141
0.026443302631378174 0.039041198790073395 0.024883091449737549
0.050501219928264618 0.082903273403644562 0.047768432646989822
0.074361704289913177 0.13068835437297821 0.075299188494682312
0.093114115297794342 0.18564328551292419 0.12083607167005539
0.11206700652837753 0.24442142248153687 0.1754932701587677
0.12624876201152802 0.31146857142448425 0.254902184009552
0.13848014175891876 0.38559055328369141 0.35023599863052368
0.18294839560985565 0.46929532289505005 0.39063569903373718
0.26481163501739502 0.56105470657348633 0.37054675817489624
0.3884529173374176 0.65122419595718384 0.38601869344711304
0.58767884969711304 0.74238735437393188 0.48840638995170593
0.77331256866455078 0.823455810546875 0.60779941082000732
0.88046640157699585 0.87427252531051636 0.72164976596832275
0.029142925515770912 0.043316800147294998 0.026250129565596581
0.052754003554582596 0.087935023009777069 0.049100853502750397
0.076056413352489471 0.13710080087184906 0.078445523977279663
0.093528002500534058 0.19358307123184204 0.12205128371715546
0.111296646296978 0.25382417440414429 0.17585046589374542
0.12366856634616852 0.32064077258110046 0.26381966471672058
0.13791826367378235 0.39311343431472778 0.36051130294799805
0.19113297760486603 0.4793972373008728 0.39123004674911499
0.28424873948097229 0.57212960720062256 0.3742280900478363
0.41076132655143738 0.66171944141387939 0.39144802093505859
0.60242706537246704 0.74860674142837524 0.49582028388977051
0.78986972570419312 0.82975661754608154 0.61908543109893799
0.89099186658859253 0.88047170639038086 0.72334063053131104
0.031357754021883011 0.045827049762010574 0.026347709819674492
0.053977712988853455 0.093008168041706085 0.051432978361845016
0.076830022037029266 0.14283621311187744 0.081066176295280457
0.095255754888057709 0.19968748092651367 0.1238521933555603
0.11151905357837677 0.26345419883728027 0.18361490964889526
0.1225079819560051 0.33028164505958557 0.27941766381263733
0.1377539336681366 0.40181940793991089 0.37665832042694092
0.19921554625034332 0.48976585268974304 0.38779464364051819
0.29559919238090515 0.58301973342895508 0.37079551815986633
0.43353366851806641 0.67146700620651245 0.40227159857749939
0.6307370662689209 0.75785285234451294 0.5097542405128479
0.8047560453414917 0.83474338054656982 0.63015317916870117
0.89346456527709961 0.88402700424194336 0.73980265855789185
0.0337856225669384 0.050267927348613739 0.029165215790271759
0.05594431608915329 0.099806122481822968 0.056600905954837799
0.077900558710098267 0.14974625408649445 0.084537014365196228
0.097239896655082703 0.20749393105506897 0.12942945957183838
0.11353647708892822 0.27292266488075256 0.19541122019290924
0.12398825585842133 0.34141084551811218 0.29558062553405762
0.14186306297779083 0.41376486420631409 0.38671073317527771
0.20939505100250244 0.50043207406997681 0.38398778438568115
0.30151990056037903 0.59177702665328979 0.36462563276290894
0.44977477192878723 0.68040907382965088 0.40938428044319153
0.65156388282775879 0.76747637987136841 0.52319002151489258
0.82541936635971069 0.84550482034683228 0.64733606576919556
0.90553313493728638 0.89278298616409302 0.75970840454101562
0.037454165518283844 0.058065123856067657 0.035189297050237656
0.059820976108312607 0.10946299135684967 0.064022481441497803
0.081443414092063904 0.16233763098716736 0.095992036163806915
0.10055607557296753 0.21985213458538055 0.13908399641513824
0.11623545736074448 0.2815031111240387 0.20327579975128174
0.12529245018959045 0.35099542140960693 0.30779841542243958
0.14816427230834961 0.42456364631652832 0.3883821964263916
0.2184930145740509 0.51266574859619141 0.38275235891342163
0.30740904808044434 0.60121828317642212 0.36059784889221191
0.4795992374420166 0.69364351034164429 0.42371898889541626
0.68268436193466187 0.78204154968261719 0.54018789529800415
0.84141945838928223 0.85534423589706421 0.66098988056182861
0.91374719142913818 0.89929968118667603 0.76778483390808105
0.042116742581129074 0.066353127360343933 0.039766706526279449
0.062839046120643616 0.1189592257142067 0.069455660879611969
0.084038786590099335 0.17290391027927399 0.10651738941669464
0.10333280265331268 0.23078314960002899 0.15431968867778778
0.1207600012421608 0.2902582585811615 0.21549557149410248
0.1285378485918045 0.35843959450721741 0.31861609220504761
0.15400904417037964 0.43373873829841614 0.39502903819084167
0.22885344922542572 0.52437645196914673 0.38137561082839966
0.33206677436828613 0.61532896757125854 0.36997011303901672
0.51708757877349854 0.70900624990463257 0.44170814752578735
0.7087206244468689 0.79323810338973999 0.55387783050537109
0.85008597373962402 0.86006420850753784 0.66726386547088623
0.91405946016311646 0.90081536769866943 0.77162718772888184
0.047814581543207169 0.07339872419834137 0.042474605143070221
0.064557112753391266 0.12369392067193985 0.071620255708694458
0.085395634174346924 0.17802101373672485 0.11186467856168747
0.10500963777303696 0.23688553273677826 0.16406454145908356
0.1231883317232132 0.29734757542610168 0.22567330300807953
0.13075990974903107 0.36545690894126892 0.33101105690002441
0.1615598052740097 0.4438069760799408 0.39911812543869019
0.2410026341676712 0.53991079330444336 0.3769586980342865
0.35084971785545349 0.63050961494445801 0.37053677439689636
0.53235894441604614 0.71815496683120728 0.45236057043075562
0.71950119733810425 0.79893416166305542 0.56766766309738159
0.86527633666992188 0.86685526371002197 0.68160957098007202
0.92131137847900391 0.9070243239402771 0.7871059775352478
0.050927899777889252 0.078534744679927826 0.044036354869604111
0.0691961869597435 0.12614074349403381 0.072407789528369904
0.088820740580558777 0.18203257024288177 0.11611148715019226
0.10790950059890747 0.24537232518196106 0.17348895967006683
0.12143153697252274 0.31047692894935608 0.24730414152145386
0.13018086552619934 0.37758898735046387 0.34439438581466675
0.1700165867805481 0.45553296804428101 0.39050987362861633
0.25107333064079285 0.55047285556793213 0.37180569767951965
0.3705996572971344 0.64386683702468872 0.37055766582489014
0.5516391396522522 0.72651547193527222 0.46017858386039734
0.73513895273208618 0.80540239810943604 0.5774695873260498
0.87521308660507202 0.87223166227340698 0.69858181476593018
0.93029558658599854 0.91465961933135986 0.80769163370132446
0.053240172564983368 0.081550881266593933 0.045801710337400436
0.073920279741287231 0.12801903486251831 0.072558969259262085
0.093679256737232208 0.18849293887615204 0.11954014748334885
0.11158031225204468 0.25189045071601868 0.17672476172447205
0.12130714952945709 0.31917151808738708 0.26004338264465332
0.13165837526321411 0.38880124688148499 0.35344889760017395
0.17735998332500458 0.46722990274429321 0.38670822978019714
0.26297846436500549 0.55601423978805542 0.37773966789245605
0.40234732627868652 0.64942538738250732 0.39700952172279358
0.58118623495101929 0.73660182952880859 0.47513869404792786
0.76269090175628662 0.81708943843841553 0.59288239479064941
0.87875396013259888 0.87573295831680298 0.71164160966873169
0.9335399866104126 0.91798704862594604 0.81598442792892456
0.055467072874307632 0.084751293063163757 0.047215927392244339
0.074196726083755493 0.13132615387439728 0.07578277587890625
0.096154756844043732 0.19343182444572449 0.12229935824871063
0.11507212370634079 0.25596901774406433 0.1768830269575119
0.12451381236314774 0.32670313119888306 0.27176353335380554
0.1366288959980011 0.39813154935836792 0.36620411276817322
0.1861402839422226 0.47552567720413208 0.38907766342163086
0.27656370401382446 0.56377989053726196 0.37612971663475037
0.42585903406143188 0.66093087196350098 0.40318500995635986
0.61525774002075195 0.75016456842422485 0.49698296189308167
0.77821677923202515 0.82460421323776245 0.60970443487167358
0.88385623693466187 0.87906134128570557 0.73082453012466431
0.93690460920333862 0.91724085807800293 0.82196122407913208
0.023135300725698471 0.036588601768016815 0.022569229826331139
0.042968913912773132 0.066860005259513855 0.03909016028046608
0.063750892877578735 0.11709201335906982 0.067515276372432709
0.084380552172660828 0.17980808019638062 0.11039392650127411
0.10314405709505081 0.24001362919807434 0.16324783861637115
0.11845149844884872 0.30530506372451782 0.24044278264045715
0.13033443689346313 0.37003070116043091 0.32731202244758606
0.15948730707168579 0.44581827521324158 0.39838021993637085
0.23533639311790466 0.5324099063873291 0.37616714835166931
0.35080036520957947 0.62580782175064087 0.37558478116989136
0.53561264276504517 0.71739071607589722 0.45012646913528442
0.73401695489883423 0.80444324016571045 0.57059592008590698
0.8717949390411377 0.86404204368591309 0.69382297992706299
0.027284150943160057 0.045160464942455292 0.027862384915351868
0.046533264219760895 0.081828176975250244 0.045845255255699158
0.066151067614555359 0.12872284650802612 0.069049730896949768
0.085609555244445801 0.18439103662967682 0.1115795224905014
0.10650800913572311 0.2438327819108963 0.17066125571727753
0.12165458500385284 0.30744495987892151 0.24600663781166077
0.13199698925018311 0.37558180093765259 0.34509864449501038
0.17243461310863495 0.45550340414047241 0.3987148106098175
0.25159066915512085 0.54656898975372314 0.37459027767181396
0.35674595832824707 0.63433897495269775 0.36946028470993042
0.55401062965393066 0.72468715906143188 0.46108812093734741
0.74915105104446411 0.81118607521057129 0.5829927921295166
0.8757634162902832 0.86836951971054077 0.69685888290405273
0.031142007559537888 0.049078218638896942 0.030396614223718643
0.051251087337732315 0.087834380567073822 0.04981086403131485
0.071619950234889984 0.13335660099983215 0.074094124138355255
0.090612791478633881 0.18676179647445679 0.11664364486932755
0.111339271068573 0.24486036598682404 0.17329497635364532
0.12590588629245758 0.31139439344406128 0.25651088356971741
0.13496565818786621 0.38486781716346741 0.36327281594276428
0.18399672210216522 0.46785199642181396 0.39851221442222595
0.26570028066635132 0.55919402837753296 0.37220048904418945
0.38880318403244019 0.64886611700057983 0.38751932978630066
0.58423733711242676 0.73868346214294434 0.48455280065536499
0.76913690567016602 0.82193779945373535 0.60215646028518677
0.87766861915588379 0.87282025814056396 0.70327472686767578
0.033509451895952225 0.049234859645366669 0.029324265196919441
0.054210275411605835 0.089223839342594147 0.049582835286855698
0.07682444155216217 0.13607874512672424 0.077461361885070801
0.095002494752407074 0.1911567896604538 0.12250949442386627
0.11326081305742264 0.24985483288764954 0.17870095372200012
0.12730298936367035 0.31855326890945435 0.26829338073730469
0.14085038006305695 0.39599263668060303 0.3662470281124115
0.19548714160919189 0.48275527358055115 0.3916037380695343
0.27837243676185608 0.57420426607131958 0.36398366093635559
0.4122467041015625 0.66417860984802246 0.39275810122489929
0.61437028646469116 0.75305438041687012 0.50119298696517944
0.78607422113418579 0.83016479015350342 0.61843311786651611
0.88517957925796509 0.88005173206329346 0.72557926177978516
0.031422872096300125 0.047455761581659317 0.027088090777397156
0.054520983248949051 0.091140598058700562 0.046623978763818741
0.077708885073661804 0.14198453724384308 0.079484723508358002
0.096603319048881531 0.2000134140253067 0.12619468569755554
0.11231332272291183 0.26004424691200256 0.18452709913253784
