assets/lut/others k tone vintage kodachrome.cube
# Created by: G'MIC (https://gmic.eu)
TITLE "k_tone_vintage_kodachrome"
# LUT size
LUT_3D_SIZE 5
# Data domain
DOMAIN_MIN 0.0 0.0 0.0
DOMAIN_MAX 1.0 1.0 1.0
# LUT data points
0.021502954885363579 0.027457742020487785 0.023699920624494553
0.16363868117332458 0.041809637099504471 0.0079915216192603111
0.66793578863143921 0.026827674359083176 0
0.88309645652770996 0.034981939941644669 0
0.92478984594345093 0.05636228621006012 0
0.011116760782897472 0.11356686055660248 0.057075873017311096
0.13531015813350677 0.12687544524669647 0.015488673001527786
0.6408085823059082 0.17136450111865997 0
0.90666937828063965 0.18281681835651398 0
0.92856544256210327 0.21381327509880066 0
0.024593980982899666 0.3495485782623291 0.17791019380092621
0.022709820419549942 0.38567265868186951 0.07986614853143692
0.62486368417739868 0.51609623432159424 0
0.85965442657470703 0.54916363954544067 0.0021976097486913204
0.90914124250411987 0.54986530542373657 0.0029510497115552425
0.007250677328556776 0.53106677532196045 0.25816485285758972
0.068987376987934113 0.59213370084762573 0.043616935610771179
0.68725019693374634 0.73901563882827759 0.0031514037400484085
0.94396275281906128 0.78649711608886719 0.029403507709503174
0.99250620603561401 0.80623137950897217 0.0086792744696140289
0.023942446336150169 0.67563158273696899 0.34015998244285583
0.43584710359573364 0.76193726062774658 0.24418002367019653
0.84651005268096924 0.85571634769439697 0.29492703080177307
0.99114233255386353 0.90208101272583008 0.46927496790885925
0.99619042873382568 0.92723661661148071 0.63268107175827026
0.011664820834994316 0.061914749443531036 0.15589621663093567
0.17800304293632507 0.016967086121439934 0.14284268021583557
0.63010489940643311 6.4266430854331702e-05 0.079369626939296722
0.85440385341644287 0.00049148261314257979 0.047592926770448685
0.90208065509796143 0.0010550704319030046 0.040278058499097824
0.010465285740792751 0.12553869187831879 0.14174170792102814
0.10517933964729309 0.12949655950069427 0.11587868630886078
0.66518610715866089 0.096656069159507751 0.013327565044164658
0.99428677558898926 0.037725798785686493 0.0054902317933738232
0.99959367513656616 0.04506334662437439 0.0096507351845502853
0.0052217221818864346 0.38276827335357666 0.26590362191200256
0.015999842435121536 0.41152095794677734 0.17412914335727692
0.61297523975372314 0.49916034936904907 0.0084070097655057907
0.90136134624481201 0.53188174962997437 0.025642035529017448
0.95626151561737061 0.5563657283782959 0.10920993238687515
0.0010904648806899786 0.5982896089553833 0.40430155396461487
0.031209729611873627 0.65668851137161255 0.29187992215156555
0.68275481462478638 0.76657396554946899 0.11459585279226303
0.98053300380706787 0.8239784836769104 0.11208502203226089
1 0.85486865043640137 0.36454102396965027
0.0071402606554329395 0.76314312219619751 0.5988118052482605
0.47681108117103577 0.83376407623291016 0.59365969896316528
0.8411218523979187 0.90068048238754272 0.63599967956542969
0.97676968574523926 0.93405371904373169 0.70566815137863159
0.99389100074768066 0.95531797409057617 0.80599057674407959
0.0076014050282537937 0.22158272564411163 0.46921291947364807
0.17020711302757263 0.01940988190472126 0.48050302267074585
0.62439680099487305 0.003135740989819169 0.52613002061843872
0.75217115879058838 0.0001035802488331683 0.49943822622299194
0.76311028003692627 0.00012494255497585982 0.46162816882133484
0.011557933874428272 0.28589507937431335 0.48023590445518494
0.038913384079933167 0.21207349002361298 0.48389279842376709
0.57292681932449341 0.10159237682819366 0.5060495138168335
0.80978810787200928 0.046779409050941467 0.46574968099594116
0.86028164625167847 0.11189605295658112 0.45625719428062439
0.014748816378414631 0.49150434136390686 0.53994333744049072
0.011761819012463093 0.50754761695861816 0.55209183692932129
0.55596011877059937 0.51753538846969604 0.50156903266906738
0.92732197046279907 0.51269435882568359 0.44837924838066101
0.99139726161956787 0.53502291440963745 0.46913385391235352
0.0035966013092547655 0.71198862791061401 0.65558165311813354
0.043061379343271255 0.75578898191452026 0.65801393985748291
0.66038042306900024 0.82076621055603027 0.6280016303062439
0.93066960573196411 0.85891240835189819 0.64746057987213135
0.98789107799530029 0.90160286426544189 0.75177210569381714
0.043131031095981598 0.82696640491485596 0.80114245414733887
0.5875665545463562 0.89257538318634033 0.82466381788253784
0.85553359985351562 0.93849605321884155 0.8549848198890686
0.95031726360321045 0.9538719654083252 0.86161977052688599
0.98652416467666626 0.97002577781677246 0.91424965858459473
0.003542342921718955 0.28428822755813599 0.60346716642379761
0.13710451126098633 0.084802307188510895 0.62921273708343506
0.62988376617431641 0.00024660894996486604 0.70432323217391968
0.78146117925643921 0.0026952107436954975 0.71558529138565063
0.78875374794006348 4.0390910726273432e-05 0.69713288545608521
0.0040109222754836082 0.37504348158836365 0.66648918390274048
0.015805622562766075 0.29951518774032593 0.68944942951202393
0.53885805606842041 0.10053809732198715 0.76394575834274292
0.82216691970825195 0.043787550181150436 0.78057056665420532
0.86286354064941406 0.086112000048160553 0.77277791500091553
0.01773865707218647 0.55316686630249023 0.72921657562255859
0.005907110869884491 0.57344454526901245 0.77938574552536011
0.49367409944534302 0.55986136198043823 0.80925720930099487
0.84813886880874634 0.56189042329788208 0.80170524120330811
0.91771996021270752 0.61918902397155762 0.79790586233139038
0.0069440803490579128 0.75581663846969604 0.83603709936141968
0.11503176391124725 0.80554306507110596 0.85700631141662598
0.69927453994750977 0.86588501930236816 0.8661385178565979
0.91444367170333862 0.90343314409255981 0.88103955984115601
0.93923109769821167 0.88424849510192871 0.86125403642654419
0.13663665950298309 0.8633124828338623 0.90873438119888306
0.67028290033340454 0.92131030559539795 0.92501229047775269
0.8833014965057373 0.95395469665527344 0.94060307741165161
0.95632809400558472 0.9696534276008606 0.95303142070770264
0.97884160280227661 0.97037702798843384 0.95439821481704712
0 0.30561065673828125 0.60723865032196045
0.1163111999630928 0.10391701757907867 0.63998454809188843
0.61765122413635254 0.0040483660995960236 0.73043376207351685
0.7932971715927124 6.4625460254319478e-06 0.7530134916305542
0.81729334592819214 0.0015015247045084834 0.76605552434921265
0.0011496749939396977 0.40287277102470398 0.70700693130493164
0.0075718299485743046 0.33671155571937561 0.73226404190063477
0.52256625890731812 0.17014168202877045 0.82398557662963867
0.81769216060638428 0.11489967256784439 0.84949302673339844
0.87438869476318359 0.15179014205932617 0.85806846618652344
0.0015522825997322798 0.57104623317718506 0.78856760263442993
0.003959266934543848 0.58142799139022827 0.84830671548843384
0.4782261848449707 0.57508569955825806 0.9052886962890625
0.83732777833938599 0.59151691198348999 0.90468746423721313
0.90984594821929932 0.6255946159362793 0.90168684720993042
0.0039285696111619473 0.76476079225540161 0.88512676954269409
0.099492989480495453 0.82231712341308594 0.92919939756393433
0.69855564832687378 0.87736815214157104 0.93970578908920288
0.89930731058120728 0.90347200632095337 0.93850302696228027
0.92352962493896484 0.88692939281463623 0.91185778379440308
0.17775933444499969 0.88137024641036987 0.95031696557998657
0.7177388072013855 0.93412196636199951 0.95859020948410034
0.89455312490463257 0.95906025171279907 0.96549457311630249
0.96197450160980225 0.97136205434799194 0.97292429208755493
0.91100186109542847 0.9085078239440918 0.90883082151412964
