assets/lut/others warm.cube
# Created by: G'MIC (https://gmic.eu)
TITLE "warm"
# LUT size
LUT_3D_SIZE 5
# Data domain
DOMAIN_MIN 0.0 0.0 0.0
DOMAIN_MAX 1.0 1.0 1.0
# LUT data points
0.054775986820459366 0.02888203039765358 0.035486754029989243
0.31513935327529907 0.099794663488864899 0.11404852569103241
0.5739176869392395 0.20758511126041412 0.21757067739963531
0.78333908319473267 0.32943251729011536 0.31330174207687378
0.96896225214004517 0.48732250928878784 0.41741028428077698
0.18803152441978455 0.20950306951999664 0.12351792305707932
0.342254638671875 0.2171274870634079 0.12989978492259979
0.57031524181365967 0.33045929670333862 0.21762126684188843
0.78754580020904541 0.49348729848861694 0.3167223334312439
0.96507352590560913 0.65091031789779663 0.4209839403629303
0.32540962100028992 0.49542433023452759 0.21738971769809723
0.43382874131202698 0.46441477537155151 0.19802343845367432
0.57549589872360229 0.49331179261207581 0.21945935487747192
0.77785074710845947 0.64525556564331055 0.30654564499855042
0.96507352590560913 0.78464633226394653 0.41919165849685669
0.45220822095870972 0.78510499000549316 0.31199759244918823
0.56660234928131104 0.77656495571136475 0.30551058053970337
0.67035162448883057 0.76797765493392944 0.30210575461387634
0.78763335943222046 0.79495292901992798 0.31760245561599731
0.96015405654907227 0.88535332679748535 0.41441184282302856
0.57453089952468872 0.97115880250930786 0.41960784792900085
0.68104451894760132 0.96960902214050293 0.41878774762153625
0.78387159109115601 0.97046768665313721 0.41959384083747864
0.87136030197143555 0.96440601348876953 0.41563025116920471
0.9751591682434082 0.97819894552230835 0.4305260181427002
0.18364162743091583 0.10191729664802551 0.21683256328105927
0.32949703931808472 0.10993659496307373 0.21975822746753693
0.5711168646812439 0.20361971855163574 0.30953291058540344
0.78569281101226807 0.33228334784507751 0.42338535189628601
0.96507352590560913 0.49089360237121582 0.53772854804992676
0.19771319627761841 0.20999804139137268 0.2218955010175705
0.33574762940406799 0.21309757232666016 0.22369353473186493
0.56983518600463867 0.3265891969203949 0.30819159746170044
0.78830504417419434 0.49085208773612976 0.42346006631851196
0.96545463800430298 0.6477433443069458 0.53675729036331177
0.31578290462493896 0.48196759819984436 0.30848479270935059
0.43853649497032166 0.47363659739494324 0.30548039078712463
0.58023715019226074 0.50180149078369141 0.32229164242744446
0.78019696474075317 0.64665049314498901 0.41767877340316772
0.96510773897171021 0.78760385513305664 0.53920489549636841
0.44958382844924927 0.78553980588912964 0.42219027876853943
0.57285165786743164 0.78768962621688843 0.42353025078773499
0.67486041784286499 0.77547085285186768 0.41177800297737122
0.78566312789916992 0.78836071491241455 0.42230865359306335
0.96092456579208374 0.88118791580200195 0.53388422727584839
0.57390141487121582 0.97035109996795654 0.53795099258422852
0.68163210153579712 0.97126227617263794 0.54148286581039429
0.78227311372756958 0.97026103734970093 0.53768247365951538
0.86412566900253296 0.95788800716400146 0.52434670925140381
0.969646155834198 0.97166728973388672 0.54648232460021973
0.32686123251914978 0.20706829428672791 0.42322847247123718
0.44408303499221802 0.19863736629486084 0.41198340058326721
0.57658618688583374 0.20805305242538452 0.42244622111320496
0.77662926912307739 0.32451605796813965 0.53207612037658691
0.96507352590560913 0.49381864070892334 0.66633087396621704
0.31857529282569885 0.32454207539558411 0.41304615139961243
0.43712574243545532 0.31764453649520874 0.40861013531684875
0.57442688941955566 0.33518457412719727 0.42361080646514893
0.77464920282363892 0.48229703307151794 0.52956998348236084
0.96507352590560913 0.64773523807525635 0.66080033779144287
0.32817229628562927 0.49602442979812622 0.42330801486968994
0.46141135692596436 0.50255006551742554 0.42793059349060059
0.5793222188949585 0.49918445944786072 0.42401334643363953
0.76965558528900146 0.62986922264099121 0.52447932958602905
0.96645945310592651 0.78722172975540161 0.66732770204544067
0.44124096632003784 0.77411812543869019 0.5285918116569519
0.56491965055465698 0.77322208881378174 0.52702963352203369
0.67325419187545776 0.76901495456695557 0.52332282066345215
0.78414064645767212 0.7869563102722168 0.53884446620941162
0.95992523431777954 0.88444727659225464 0.65587431192398071
0.57344865798950195 0.97067183256149292 0.66164159774780273
0.68021947145462036 0.96965569257736206 0.66076207160949707
0.78435862064361572 0.97091448307037354 0.66358160972595215
0.87349897623062134 0.96775925159454346 0.65996068716049194
0.97767561674118042 0.97961997985839844 0.6803697943687439
0.45381906628608704 0.33769148588180542 0.66844171285629272
0.57633548974990845 0.34051460027694702 0.67199110984802246
0.67107301950454712 0.3189430832862854 0.65549397468566895
0.78253060579299927 0.33343398571014404 0.66706937551498413
0.96243953704833984 0.48477447032928467 0.80114597082138062
0.4563826322555542 0.49159732460975647 0.6687435507774353
0.5730133056640625 0.49091532826423645 0.67105799913406372
0.67341303825378418 0.47836872935295105 0.6597563624382019
0.79057228565216064 0.50989413261413574 0.68140208721160889
0.96446925401687622 0.64873623847961426 0.80471247434616089
0.4442521333694458 0.64354687929153442 0.65704202651977539
0.5652962327003479 0.64269000291824341 0.66359901428222656
0.67000728845596313 0.63250470161437988 0.65122580528259277
0.78339630365371704 0.65137416124343872 0.66452670097351074
0.96115195751190186 0.77994513511657715 0.79841363430023193
0.45376744866371155 0.78885412216186523 0.6695934534072876
0.58096343278884888 0.79425150156021118 0.67478275299072266
0.68181496858596802 0.78494375944137573 0.66328370571136475
0.78587019443511963 0.79325854778289795 0.66736668348312378
0.96320194005966187 0.88519471883773804 0.80207055807113647
0.57221436500549316 0.96823036670684814 0.804221510887146
0.67576593160629272 0.96434205770492554 0.79855984449386597
0.77172434329986572 0.96242868900299072 0.79555457830429077
0.86946624517440796 0.96249032020568848 0.79642575979232788
0.97861731052398682 0.97854006290435791 0.82207769155502319
0.57276719808578491 0.48561951518058777 0.94652736186981201
0.68138307332992554 0.48960044980049133 0.94832766056060791
0.78293770551681519 0.48783242702484131 0.94549018144607544
0.87257117033004761 0.48379960656166077 0.94244623184204102
0.9738582968711853 0.50525361299514771 0.96145325899124146
0.57531195878982544 0.65105801820755005 0.94815242290496826
0.68017971515655518 0.64842128753662109 0.94804853200912476
0.78115016222000122 0.64778238534927368 0.94732034206390381
0.87490743398666382 0.65207970142364502 0.94582456350326538
0.97274506092071533 0.66262555122375488 0.95821928977966309
0.57254904508590698 0.78308933973312378 0.9455830454826355
0.683127760887146 0.78828424215316772 0.94866913557052612
0.78183209896087646 0.78324830532073975 0.94571077823638916
0.8756752610206604 0.78324198722839355 0.94547092914581299
0.9718393087387085 0.79571527242660522 0.95736157894134521
0.57018911838531494 0.88483965396881104 0.94351571798324585
0.68048667907714844 0.88647782802581787 0.94292443990707397
0.77807855606079102 0.8844064474105835 0.94038271903991699
0.87288904190063477 0.88406306505203247 0.94209814071655273
0.97594267129898071 0.89994299411773682 0.9658501148223877
0.58105313777923584 0.97397792339324951 0.95534676313400269
0.69104528427124023 0.97775709629058838 0.960407555103302
0.78831607103347778 0.97535210847854614 0.95774251222610474
0.8869626522064209 0.97778379917144775 0.96164274215698242
0.98598551750183105 0.99124115705490112 0.98038804531097412
