assets/lut/others vibrant.cube
# Created by: G'MIC (https://gmic.eu)
TITLE "vibrant"
# LUT size
LUT_3D_SIZE 7
# Data domain
DOMAIN_MIN 0.0 0.0 0.0
DOMAIN_MAX 1.0 1.0 1.0
# LUT data points
0.0042969048954546452 0.0042482861317694187 0.001775150652974844
0.063774138689041138 0.00038637648685835302 0.0049452241510152817
0.34678569436073303 0.0041222665458917618 0.0072165247984230518
0.69272971153259277 0.00087922037346288562 0.004070925060659647
0.92358922958374023 0.0038235534448176622 0.003863226156681776
0.99607843160629272 0.0039215688593685627 0.0063420315273106098
0.99607843160629272 0.0038957183714956045 0.0088899945840239525
0.007696742657572031 0.053760543465614319 0.0026607888285070658
0.049808666110038757 0.055914022028446198 0.0074050305411219597
0.36012578010559082 0.048568978905677795 0.012656417675316334
0.70092481374740601 0.051263429224491119 0.009377872571349144
0.92468833923339844 0.04507020115852356 0.0039617801085114479
0.9994475245475769 0.05048229917883873 0.0063541484996676445
0.99898684024810791 0.057175207883119583 0.0078952265903353691
0.0030534332618117332 0.26482090353965759 0.0069172577932476997
0.061559099704027176 0.26516285538673401 0.010634912177920341
0.35143882036209106 0.26254373788833618 0.0046794665977358818
0.70029866695404053 0.25017914175987244 0.0044225207529962063
0.91361761093139648 0.25657173991203308 0.004679451696574688
0.99741417169570923 0.25210669636726379 0.0062939510680735111
0.99857211112976074 0.25637191534042358 0.0037689059972763062
0.00030813779449090362 0.57120978832244873 0.004774819128215313
0.050254493951797485 0.54989045858383179 0.0051164217293262482
0.34838670492172241 0.56342184543609619 0.008641216903924942
0.69744884967803955 0.5616297721862793 0.011527671478688717
0.91433829069137573 0.54828625917434692 0.0048940619453787804
0.98850381374359131 0.54642623662948608 0.0076464186422526836
0.99860858917236328 0.55826205015182495 0.0063145654276013374
0.0039581898599863052 0.82226705551147461 0.0045499014668166637
0.05252431333065033 0.8160976767539978 0.0052820690907537937
0.33854496479034424 0.8205873966217041 0.0039122337475419044
0.69993698596954346 0.81135207414627075 0.0063540590927004814
0.92513889074325562 0.81326580047607422 0.0036940630525350571
0.98815524578094482 0.80800879001617432 0.0053629558533430099
0.99890714883804321 0.79515194892883301 0.0085306651890277863
0.0028811285737901926 0.970711350440979 0.0046076606959104538
0.045469816774129868 0.96747726202011108 0.0051914439536631107
0.34752756357192993 0.96851766109466553 0.0038985905703157187
0.70519214868545532 0.96554720401763916 0.0055667501874268055
0.92282384634017944 0.96787071228027344 0.0036237379536032677
0.99453353881835938 0.96452099084854126 0.0054217916913330555
1 0.97022420167922974 0.011441623792052269
0.00037590475403703749 1 0.0027652066200971603
0.049224615097045898 0.99967795610427856 0.0024278678465634584
0.34413871169090271 0.99815917015075684 0.003717699320986867
0.69266128540039062 0.99778133630752563 0.003709007753059268
0.91959196329116821 0.99919503927230835 0.0022510304115712643
0.99097084999084473 0.99683552980422974 0.012789093889296055
0.998779296875 1 0.0069189630448818207
0.0042658187448978424 0.0050111659802496433 0.11465516686439514
0.05749264732003212 6.1633541008632164e-06 0.1188715472817421
0.35061514377593994 0.0034981223288923502 0.11939240992069244
0.6917959451675415 0.0031912859994918108 0.11865255236625671
0.9144357442855835 0.0034950855188071728 0.1178412064909935
0.99340128898620605 0.0039215688593685627 0.11553123593330383
0.99782520532608032 0.0016737993573769927 0.11918988823890686
0.0078431377187371254 0.056065771728754044 0.11636611074209213
0.043619535863399506 0.054074604064226151 0.12172394990921021
0.36374765634536743 0.048722840845584869 0.12056230753660202
0.70468121767044067 0.052805792540311813 0.12048102170228958
0.92295324802398682 0.049764100462198257 0.1217588409781456
0.99743556976318359 0.046214248985052109 0.12435328215360641
0.99995607137680054 0.057902690023183823 0.11809415370225906
0.0056928298436105251 0.26862251758575439 0.11885321885347366
0.045216161757707596 0.25478413701057434 0.12083259969949722
0.34773954749107361 0.26130411028862 0.11886204779148102
0.70754927396774292 0.25697174668312073 0.12104972451925278
0.92562437057495117 0.25437164306640625 0.1210908442735672
0.99380874633789062 0.25667253136634827 0.12315212935209274
0.99943870306015015 0.26291072368621826 0.11667582392692566
0.0038818956818431616 0.56743919849395752 0.12204398214817047
0.05554695799946785 0.54761159420013428 0.12058660387992859
0.3561280369758606 0.56046545505523682 0.12114249169826508
0.70145994424819946 0.55152899026870728 0.12260713428258896
0.91606396436691284 0.55052369832992554 0.12107955664396286
0.99143177270889282 0.55921787023544312 0.12069311738014221
0.99798154830932617 0.56538408994674683 0.11319995671510696
0.0045262356288731098 0.8184974193572998 0.12181372195482254
0.049781754612922668 0.81420081853866577 0.11863077431917191
0.35104891657829285 0.81909859180450439 0.11772332340478897
0.69888889789581299 0.81460767984390259 0.11728798598051071
0.91841661930084229 0.8135143518447876 0.1184060201048851
0.99019044637680054 0.8111426830291748 0.12202606350183487
0.99864983558654785 0.80302888154983521 0.12106011807918549
0.003934015054255724 0.9755856990814209 0.11915846914052963
0.046845320612192154 0.97301346063613892 0.12102323025465012
0.34947025775909424 0.96589106321334839 0.11816103756427765
0.69594728946685791 0.96545553207397461 0.11662580072879791
0.92244189977645874 0.96118438243865967 0.11707030981779099
0.99554294347763062 0.96573621034622192 0.11781720817089081
1 0.97245097160339355 0.12012417614459991
0.0032068737782537937 0.99700534343719482 0.11806721240282059
0.053727827966213226 1 0.11748050153255463
0.35138708353042603 0.99980765581130981 0.12247581034898758
0.68846756219863892 0.99909794330596924 0.12420449405908585
0.91404706239700317 0.99771726131439209 0.11995378136634827
0.99811124801635742 0.99791377782821655 0.12125267833471298
1 0.99996030330657959 0.11548852175474167
0.0032901091035455465 0.004140936303883791 0.28886544704437256
0.044426996260881424 0.0013611288741230965 0.29627764225006104
0.34477749466896057 0.002252975245937705 0.29662448167800903
0.69590228796005249 0.002766777528449893 0.29401153326034546
0.91603457927703857 0.0042083892039954662 0.29249614477157593
0.99089062213897705 0.0052426657639443874 0.28950241208076477
0.99924713373184204 0.0048120534047484398 0.28761130571365356
0.0074942796491086483 0.049796160310506821 0.29232969880104065
0.04899514839053154 0.054978389292955399 0.29299730062484741
0.35272809863090515 0.050715025514364243 0.29135072231292725
0.70514333248138428 0.052984874695539474 0.29358527064323425
0.92486327886581421 0.053151417523622513 0.29233574867248535
0.99543577432632446 0.049822356551885605 0.29252621531486511
1 0.05822441354393959 0.28742346167564392
0.0039215688593685627 0.26781472563743591 0.28901976346969604
0.051054950803518295 0.2565096914768219 0.2944883406162262
0.3551754355430603 0.24812124669551849 0.29957583546638489
0.70274746417999268 0.26124349236488342 0.29818269610404968
0.92313438653945923 0.2534281313419342 0.29943835735321045
0.99731594324111938 0.26006218791007996 0.2943558394908905
1 0.2672170102596283 0.29147207736968994
0.0050587523728609085 0.55578255653381348 0.29791322350502014
0.049312036484479904 0.55641186237335205 0.29353487491607666
0.35619214177131653 0.56114614009857178 0.29414930939674377
0.69018334150314331 0.5676720142364502 0.29792085289955139
0.9184989333152771 0.55523163080215454 0.30021816492080688
0.99596863985061646 0.55423665046691895 0.29292494058609009
0.99632114171981812 0.57013618946075439 0.28794938325881958
0.004132498987019062 0.82103234529495239 0.30412060022354126
0.058957912027835846 0.81681227684020996 0.29186135530471802
0.35956728458404541 0.81820970773696899 0.2943572998046875
0.68983405828475952 0.8193545937538147 0.29333263635635376
0.91748154163360596 0.80903136730194092 0.2946954071521759
0.99454987049102783 0.8097044825553894 0.29630690813064575
0.99817603826522827 0.81755995750427246 0.29984769225120544
0.0053363577462732792 0.97241151332855225 0.29502055048942566
0.05258401483297348 0.97192883491516113 0.29279378056526184
0.35586309432983398 0.96323049068450928 0.29349234700202942
0.69319617748260498 0.9694635272026062 0.29524505138397217
0.92215466499328613 0.9708600640296936 0.29163879156112671
0.99612683057785034 0.9666559100151062 0.29529806971549988
1 0.97761839628219604 0.29814872145652771
0.0039215688593685627 0.99607843160629272 0.29626286029815674
0.047099392861127853 0.99997377395629883 0.29366639256477356
0.34775230288505554 1 0.29845386743545532
0.69514918327331543 0.99987238645553589 0.29324612021446228
0.92009991407394409 0.99873697757720947 0.29262885451316833
0.99565023183822632 0.99795699119567871 0.29091402888298035
1 0.99998277425765991 0.29214388132095337
0.0077298632822930813 0.0039215688593685627 0.45267066359519958
0.042828429490327835 0.0011980693088844419 0.45130240917205811
0.34413138031959534 6.4625462982803583e-05 0.45174288749694824
0.69899529218673706 0.0023924135603010654 0.45951098203659058
0.92118781805038452 0.0050600389949977398 0.44922211766242981
0.99209284782409668 0.0049264496192336082 0.44738692045211792
0.9962114691734314 0.0066385604441165924 0.44817033410072327
0.0054167206399142742 0.051202677190303802 0.44859084486961365
0.0477447509765625 0.05062803253531456 0.44941321015357971
0.35526639223098755 0.048760075122117996 0.45109930634498596
0.70519149303436279 0.042826961725950241 0.44843024015426636
0.92580497264862061 0.053808219730854034 0.44751060009002686
0.99761182069778442 0.052504163235425949 0.45037806034088135
1 0.053476013243198395 0.44316455721855164
0.0038631514180451632 0.25483044981956482 0.45190569758415222
0.051657270640134811 0.25423312187194824 0.45211893320083618
0.36092686653137207 0.25752592086791992 0.44838720560073853
0.69611626863479614 0.26256409287452698 0.44787958264350891
0.92227596044540405 0.25404626131057739 0.44926908612251282
0.99669981002807617 0.26367282867431641 0.45131140947341919
0.99622708559036255 0.25974079966545105 0.44699659943580627
0.0039560357108712196 0.5457342267036438 0.4540143609046936
0.047457601875066757 0.55200541019439697 0.45129644870758057
0.36053591966629028 0.55124032497406006 0.44696435332298279
0.70033138990402222 0.5576741099357605 0.45352628827095032
0.92054897546768188 0.55549216270446777 0.45114985108375549
0.98990416526794434 0.55936074256896973 0.44816118478775024
0.99607843160629272 0.56629592180252075 0.44889846444129944
0.004629217553883791 0.81384849548339844 0.45412001013755798
0.04544442892074585 0.81495553255081177 0.44719401001930237
0.36157286167144775 0.81650245189666748 0.45071044564247131
0.69916164875030518 0.82059347629547119 0.44998586177825928
0.92048639059066772 0.8119128942489624 0.45032072067260742
0.9942442774772644 0.81460094451904297 0.45916131138801575
0.99608308076858521 0.81773370504379272 0.4586130678653717
0.0038909013383090496 0.95868772268295288 0.44954347610473633
0.047454908490180969 0.97595107555389404 0.44950121641159058
0.35660660266876221 0.96796375513076782 0.45107105374336243
0.7028430700302124 0.97157984972000122 0.45478704571723938
0.92068487405776978 0.96920347213745117 0.45222261548042297
0.99670815467834473 0.96875154972076416 0.45344123244285583
1 0.97770023345947266 0.44900575280189514
0.0013793047983199358 0.99730098247528076 0.44728401303291321
0.052245240658521652 1 0.45349404215812683
0.35943976044654846 0.99937969446182251 0.45173442363739014
0.70418316125869751 0.9997362494468689 0.45410087704658508
0.91702234745025635 0.9999769926071167 0.45268425345420837
0.99453151226043701 0.99822473526000977 0.45181065797805786
1 0.99881488084793091 0.45607426762580872
0.0038888968992978334 0.0011833041207864881 0.62554800510406494
0.046345174312591553 0.0001003489742288366 0.6235579252243042
0.35388064384460449 0.0010012158891186118 0.62490737438201904
0.70595276355743408 0.0026281168684363365 0.63468772172927856
0.91762793064117432 0.0039215688593685627 0.62672066688537598
0.988822340965271 0.0039215688593685627 0.62728726863861084
0.9967988133430481 0.0043497271835803986 0.63026028871536255
0.002912244526669383 0.059351559728384018 0.62835133075714111
0.045225720852613449 0.056038904935121536 0.62609726190567017
0.35517847537994385 0.052752342075109482 0.62636482715606689
0.70260041952133179 0.048282861709594727 0.62689816951751709
0.92004984617233276 0.05298098549246788 0.62696951627731323
0.99441075325012207 0.047988817095756531 0.62611269950866699
1 0.048842456191778183 0.62774676084518433
0.007697670254856348 0.24961218237876892 0.62892061471939087
0.048787374049425125 0.25660347938537598 0.62915152311325073
0.3575890064239502 0.25459539890289307 0.62910640239715576
0.69027113914489746 0.25223058462142944 0.62857478857040405
0.91884428262710571 0.25973629951477051 0.62556546926498413
0.99277877807617188 0.26971477270126343 0.62658888101577759
0.99978190660476685 0.25714945793151855 0.62391281127929688
0.0015493654645979404 0.5462113618850708 0.6305241584777832
0.048722211271524429 0.55233412981033325 0.6246037483215332
0.34965735673904419 0.56297695636749268 0.62507259845733643
0.70181530714035034 0.55531364679336548 0.62981498241424561
0.91999608278274536 0.56198018789291382 0.62524622678756714
0.99535775184631348 0.56928783655166626 0.62418562173843384
0.99870902299880981 0.54910707473754883 0.62264299392700195
0.0047550573945045471 0.80858504772186279 0.62726980447769165
0.048275396227836609 0.8145412802696228 0.62794095277786255
0.36348959803581238 0.81458002328872681 0.62874144315719604
0.70498901605606079 0.81847292184829712 0.62747710943222046
0.91711670160293579 0.8128894567489624 0.62228536605834961
0.99255657196044922 0.81525129079818726 0.63315075635910034
0.99993252754211426 0.81082999706268311 0.63500559329986572
0.0039230049587786198 0.96578973531723022 0.62932777404785156
0.0481235571205616 0.97199124097824097 0.62610322237014771
0.35012340545654297 0.96607685089111328 0.63072603940963745
0.70374715328216553 0.96291279792785645 0.62977826595306396
0.92305010557174683 0.96034198999404907 0.62578016519546509
0.99442481994628906 0.96240806579589844 0.63310015201568604
1 0.97168499231338501 0.63343381881713867
0.0072315889410674572 0.99814879894256592 0.62701308727264404
0.048991065472364426 0.99996232986450195 0.62542158365249634
0.35597965121269226 0.99608129262924194 0.63367927074432373
0.70542895793914795 0.99754369258880615 0.62859213352203369
0.91593456268310547 0.99999380111694336 0.62675082683563232
0.99604010581970215 1 0.63427639007568359
1 1 0.64509731531143188
0.0040055816061794758 0.0015423643635585904 0.83248329162597656
0.056628581136465073 0.0003787919704336673 0.83119440078735352
0.36523166298866272 0.0039060106500983238 0.83578383922576904
0.7062453031539917 0.0039215688593685627 0.83296877145767212
0.91219204664230347 0.0039215688593685627 0.82735246419906616
0.99572098255157471 0.0039215688593685627 0.82821279764175415
1 0.0033159742597490549 0.83466428518295288
0.0042926263995468616 0.058897610753774643 0.83494192361831665
0.049823205918073654 0.052195366472005844 0.83680027723312378
0.35462543368339539 0.053360387682914734 0.83358043432235718
0.69261473417282104 0.057106975466012955 0.82763445377349854
0.91285198926925659 0.05881950631737709 0.83339732885360718
0.99741768836975098 0.04664052277803421 0.83556902408599854
0.99975132942199707 0.052479658275842667 0.83050882816314697
0.0015802870038896799 0.24977588653564453 0.84004896879196167
0.049332324415445328 0.25350412726402283 0.83417552709579468
0.36188265681266785 0.2515442967414856 0.83147776126861572
0.69901210069656372 0.25541040301322937 0.83192044496536255
0.92171961069107056 0.25458458065986633 0.83414173126220703
0.99372869729995728 0.26107305288314819 0.83442908525466919
0.99608659744262695 0.25656086206436157 0.82674378156661987
0.0040849274955689907 0.541484534740448 0.83330768346786499
0.048166763037443161 0.55374419689178467 0.83191514015197754
0.34751200675964355 0.55766171216964722 0.83015304803848267
0.69633227586746216 0.55612027645111084 0.83628171682357788
0.92152756452560425 0.55349290370941162 0.84002453088760376
0.98886144161224365 0.56056338548660278 0.83481901884078979
0.99633407592773438 0.54843175411224365 0.83521878719329834
0.0040116850286722183 0.8055187463760376 0.82433438301086426
0.055239360779523849 0.81457281112670898 0.8284604549407959
0.34798741340637207 0.80700695514678955 0.83176940679550171
0.69280081987380981 0.81206607818603516 0.83262985944747925
0.92017382383346558 0.80708980560302734 0.82891577482223511
0.98934257030487061 0.80887329578399658 0.83978796005249023
0.99662429094314575 0.81563049554824829 0.83868646621704102
0.0049821743741631508 0.97471553087234497 0.832427978515625
0.049017440527677536 0.96561902761459351 0.83631628751754761
0.35256281495094299 0.96866315603256226 0.82707172632217407
0.69080460071563721 0.96972101926803589 0.83305197954177856
0.91486567258834839 0.96411097049713135 0.83006775379180908
0.99258184432983398 0.97232341766357422 0.83576834201812744
1 0.96434670686721802 0.83555412292480469
0.0066822427324950695 0.99641174077987671 0.8307310938835144
0.047737002372741699 0.99991518259048462 0.83667826652526855
0.35338032245635986 0.99607843160629272 0.83244615793228149
0.69568663835525513 0.99626964330673218 0.83295094966888428
0.90963637828826904 0.99894195795059204 0.83211904764175415
0.99477094411849976 0.99810391664505005 0.84219086170196533
1 0.99965459108352661 0.84917056560516357
0.0039215688593685627 0.0051312018185853958 0.98979133367538452
0.05004902184009552 0.00020769904949702322 0.99432694911956787
0.35607945919036865 0.003469803836196661 0.995258629322052
0.7055279016494751 0.0014126497553661466 0.99424952268600464
0.92049354314804077 0.00088050693739205599 0.99321305751800537
0.9986768364906311 4.9007641791831702e-05 0.98699897527694702
1 2.8004365958622657e-05 0.99319207668304443
0.0039215688593685627 0.051309220492839813 0.99260014295578003
0.048790831118822098 0.061848510056734085 0.99105525016784668
0.36260178685188293 0.048138082027435303 0.99399518966674805
0.70741552114486694 0.054681606590747833 0.99343192577362061
0.91973268985748291 0.0541241355240345 0.99014818668365479
0.99648851156234741 0.044051598757505417 0.99189931154251099
1 0.045743547379970551 0.99551951885223389
0.0039215688593685627 0.24687501788139343 0.98870748281478882
0.047534298151731491 0.25113159418106079 0.9900403618812561
0.3667137622833252 0.2530767023563385 0.99162065982818604
0.70856702327728271 0.25018668174743652 0.98374539613723755
0.92697858810424805 0.24834199249744415 0.98865717649459839
0.99599111080169678 0.25364518165588379 0.98932892084121704
0.99933940172195435 0.25159379839897156 0.99489980936050415
0.0039215688593685627 0.54882341623306274 0.98522448539733887
0.052904479205608368 0.55142712593078613 0.99313151836395264
0.35926249623298645 0.55026799440383911 0.99029451608657837
0.70273679494857788 0.56307148933410645 0.99141788482666016
0.92337518930435181 0.55473476648330688 0.988128662109375
0.99172794818878174 0.56378984451293945 0.98877459764480591
0.99688899517059326 0.5546526312828064 0.98861479759216309
0.0053482954390347004 0.81737792491912842 0.99133086204528809
0.051561661064624786 0.80973541736602783 0.98871135711669922
0.34992128610610962 0.80453073978424072 0.98424327373504639
0.70157694816589355 0.81336021423339844 0.99198615550994873
0.9216035008430481 0.80742931365966797 0.99321556091308594
0.99533897638320923 0.81183856725692749 0.99254554510116577
0.99984896183013916 0.81207263469696045 0.99246680736541748
0.0017685384955257177 0.97369134426116943 0.9919096827507019
0.0478045754134655 0.96729260683059692 0.97765463590621948
0.35000568628311157 0.96710026264190674 0.99113279581069946
0.69851374626159668 0.96647220849990845 0.99147498607635498
0.91550993919372559 0.96869915723800659 0.99210220575332642
0.99521738290786743 0.96542483568191528 0.99016368389129639
1 0.95938020944595337 0.98898071050643921
0 0.99534314870834351 0.98841249942779541
0.041965201497077942 0.99682247638702393 0.99336761236190796
0.3491671085357666 0.9976007342338562 0.99589937925338745
0.70086371898651123 0.99936544895172119 0.99385529756546021
0.90669918060302734 1 0.99110192060470581
0.99838769435882568 1 0.99308449029922485
1 1 0.99266999959945679
