assets/lut/others golden mono.cube
# Created by: G'MIC (https://gmic.eu)
TITLE "golden_mono"
# LUT size
LUT_3D_SIZE 7
# Data domain
DOMAIN_MIN 0.0 0.0 0.0
DOMAIN_MAX 1.0 1.0 1.0
# LUT data points
0.027832420542836189 0.019622743129730225 0.010231242515146732
0.042286727577447891 0.031040385365486145 0.013402437791228294
0.08011193573474884 0.063167333602905273 0.030844565480947495
0.14473249018192291 0.10918676108121872 0.056505929678678513
0.25229963660240173 0.18103370070457458 0.09717317670583725
0.35821855068206787 0.25183781981468201 0.14143839478492737
0.45011869072914124 0.31011962890625 0.1777031272649765
0.063956841826438904 0.045731279999017715 0.021173395216464996
0.10707343369722366 0.071958936750888824 0.035431012511253357
0.14184421300888062 0.099093280732631683 0.052534498274326324
0.21797604858875275 0.15465593338012695 0.083861343562602997
0.33164656162261963 0.229940265417099 0.12458105385303497
0.4227001965045929 0.29126298427581787 0.16247104108333588
0.53434187173843384 0.37223199009895325 0.2070707380771637
0.14987997710704803 0.1046820729970932 0.056678608059883118
0.21578899025917053 0.14758847653865814 0.085030578076839447
0.19265732169151306 0.1330578476190567 0.074484027922153473
0.22635740041732788 0.15711656212806702 0.087720729410648346
0.31980901956558228 0.22016581892967224 0.12314920127391815
0.42627042531967163 0.29556953907012939 0.16771617531776428
0.54192477464675903 0.3813692033290863 0.21418137848377228
0.26432415843009949 0.18317770957946777 0.10231583565473557
0.31433510780334473 0.21848508715629578 0.12342055141925812
0.32972556352615356 0.22887298464775085 0.12653480470180511
0.31238076090812683 0.21519209444522858 0.11722196638584137
0.32302588224411011 0.22897188365459442 0.12383779138326645
0.39639803767204285 0.28041046857833862 0.15787209570407867
0.51558732986450195 0.35889610648155212 0.20160990953445435
0.40563282370567322 0.28161376714706421 0.15632776916027069
0.45354956388473511 0.31618675589561462 0.17737732827663422
0.46891331672668457 0.32712680101394653 0.18379227817058563
0.46300280094146729 0.31951084733009338 0.17752714455127716
0.42747732996940613 0.30365276336669922 0.16601079702377319
0.418617844581604 0.29497858881950378 0.16736488044261932
0.49635094404220581 0.3469899594783783 0.19027768075466156
0.53318977355957031 0.37332338094711304 0.20552465319633484
0.57773137092590332 0.40266275405883789 0.22514638304710388
0.57842910289764404 0.41162911057472229 0.22905929386615753
0.57811653614044189 0.39840430021286011 0.2232099175453186
0.57942771911621094 0.39814466238021851 0.22104325890541077
0.56643879413604736 0.3908904492855072 0.21908873319625854
0.58179748058319092 0.40745612978935242 0.22427760064601898
0.6790277361869812 0.47824233770370483 0.26379856467247009
0.7440265417098999 0.51734453439712524 0.28548607230186462
0.735912024974823 0.51411670446395874 0.28325799107551575
0.72430163621902466 0.49827098846435547 0.284035325050354
0.73516058921813965 0.49899393320083618 0.28100830316543579
0.72681045532226562 0.50272774696350098 0.28169891238212585
0.71757328510284424 0.50620865821838379 0.2779916524887085
0.11686648428440094 0.084400340914726257 0.051250278949737549
0.15078610181808472 0.10406395047903061 0.060337681323289871
0.15415515005588531 0.10923066735267639 0.057930979877710342
0.18845756351947784 0.13504734635353088 0.070992924273014069
0.29576164484024048 0.20811495184898376 0.11399762332439423
0.40386950969696045 0.28361421823501587 0.1552630215883255
0.51858216524124146 0.35907953977584839 0.20134341716766357
0.13139118254184723 0.096358880400657654 0.053034450858831406
0.21276681125164032 0.14576578140258789 0.079532414674758911
0.27053427696228027 0.18495956063270569 0.10370521992444992
0.31609848141670227 0.21924354135990143 0.1217678114771843
0.43442100286483765 0.30278158187866211 0.16394031047821045
0.55530142784118652 0.38506132364273071 0.21227891743183136
0.66901630163192749 0.46946531534194946 0.26110091805458069
0.1773252934217453 0.12561109662055969 0.068600960075855255
0.2668919563293457 0.1858917623758316 0.10210207849740982
0.36217471957206726 0.24876454472541809 0.13905403017997742
0.41539952158927917 0.28627282381057739 0.16039302945137024
0.50319367647171021 0.34997710585594177 0.19524489343166351
0.64271903038024902 0.44911608099937439 0.25399428606033325
0.75375866889953613 0.52770495414733887 0.29859548807144165
0.2861284613609314 0.19815784692764282 0.11062102764844894
0.39792585372924805 0.27603369951248169 0.15555582940578461
0.50060290098190308 0.3462853729724884 0.19152835011482239
0.52388185262680054 0.3628031313419342 0.2011265754699707
0.53072768449783325 0.36869022250175476 0.21141529083251953
0.62626153230667114 0.43910622596740723 0.25029915571212769
0.77060180902481079 0.53465944528579712 0.2996487021446228
0.41937893629074097 0.29329532384872437 0.16326591372489929
0.54646927118301392 0.37991046905517578 0.21536262333393097
0.63524240255355835 0.44399195909500122 0.25145265460014343
0.68594861030578613 0.47381478548049927 0.26521503925323486
0.66852068901062012 0.45973801612854004 0.25951686501502991
0.64059615135192871 0.44322428107261658 0.24662591516971588
0.74059993028640747 0.51366734504699707 0.28558552265167236
0.5686829686164856 0.39632901549339294 0.22065837681293488
0.70627480745315552 0.48614415526390076 0.27599745988845825
0.78866171836853027 0.54523879289627075 0.31336376070976257
0.81939351558685303 0.56053870916366577 0.31311815977096558
0.84266501665115356 0.56644231081008911 0.31704121828079224
0.81582963466644287 0.54546535015106201 0.30623865127563477
0.81141060590744019 0.55621719360351562 0.31155702471733093
0.7368587851524353 0.50913399457931519 0.28510767221450806
0.84228980541229248 0.57477378845214844 0.32333424687385559
0.91343766450881958 0.6250801682472229 0.3512783944606781
0.93490564823150635 0.65582633018493652 0.36945033073425293
0.95245671272277832 0.65955448150634766 0.3657824695110321
0.95690220594406128 0.65634721517562866 0.36613887548446655
0.92814356088638306 0.65392976999282837 0.36323994398117065
0.25175783038139343 0.18285204470157623 0.1057189479470253
0.29940256476402283 0.21098800003528595 0.11960296332836151
0.31389117240905762 0.21773003041744232 0.12133295089006424
0.28766173124313354 0.20269206166267395 0.11146090924739838
0.31665337085723877 0.21917806565761566 0.12121888995170593
0.37338647246360779 0.25957900285720825 0.14412030577659607
0.47777190804481506 0.33372235298156738 0.18862709403038025
0.26273819804191589 0.19265802204608917 0.10496987402439117
0.35784026980400085 0.25536805391311646 0.13870075345039368
0.44917699694633484 0.31691879034042358 0.17665392160415649
0.42298346757888794 0.2981325089931488 0.16949976980686188
0.44237017631530762 0.30900266766548157 0.17324864864349365
0.50920289754867554 0.35463014245033264 0.19678416848182678
0.63961207866668701 0.44406849145889282 0.25061100721359253
0.26559090614318848 0.19001901149749756 0.10183914750814438
0.35487481951713562 0.25689908862113953 0.13894617557525635
0.49707275629043579 0.3544619083404541 0.19754993915557861
0.5619853138923645 0.39240613579750061 0.22156651318073273
0.5919259786605835 0.41066557168960571 0.23109114170074463
0.66553092002868652 0.46809551119804382 0.26187020540237427
0.80578994750976562 0.55372846126556396 0.31755369901657104
0.30675899982452393 0.21569341421127319 0.11884527653455734
0.38926109671592712 0.27280440926551819 0.15301206707954407
0.49406450986862183 0.35125619173049927 0.19637146592140198
0.61952728033065796 0.43282118439674377 0.24097318947315216
0.71327328681945801 0.49322289228439331 0.27887219190597534
0.81079006195068359 0.56223267316818237 0.31982973217964172
0.93252819776535034 0.64243209362030029 0.35970938205718994
0.38945403695106506 0.27773678302764893 0.15296991169452667
0.50036048889160156 0.3511347770690918 0.19656836986541748
0.61101019382476807 0.43177539110183716 0.24354597926139832
0.72228515148162842 0.50930130481719971 0.28488361835479736
0.85264688730239868 0.58812987804412842 0.3325498104095459
0.90618604421615601 0.61953151226043701 0.34745028614997864
0.96160072088241577 0.66582751274108887 0.3721013069152832
0.5397152304649353 0.37658721208572388 0.21035173535346985
0.6545332670211792 0.4549175500869751 0.2552238404750824
0.78595578670501709 0.53905963897705078 0.3050132691860199
0.89849555492401123 0.61436986923217773 0.34468647837638855
0.98760706186294556 0.68518376350402832 0.38684961199760437
0.9944833517074585 0.69788444042205811 0.39340797066688538
0.99228078126907349 0.70283359289169312 0.39463460445404053
0.70423424243927002 0.48992255330085754 0.27158591151237488
0.81473588943481445 0.55672067403793335 0.31098458170890808
0.93947684764862061 0.63519155979156494 0.35570424795150757
0.99851459264755249 0.72681111097335815 0.40881955623626709
0.99981814622879028 0.79045975208282471 0.44411939382553101
1 0.80972421169281006 0.45364722609519958
0.99997121095657349 0.80602991580963135 0.44876977801322937
0.45309412479400635 0.32391789555549622 0.18304824829101562
0.50033998489379883 0.35438886284828186 0.19775557518005371
0.50325894355773926 0.35567471385002136 0.19834627211093903
0.48685270547866821 0.34575819969177246 0.19271412491798401
0.48587030172348022 0.34432250261306763 0.19067965447902679
0.48811337351799011 0.34277898073196411 0.19065974652767181
0.52312153577804565 0.36720550060272217 0.20714272558689117
0.47945073246955872 0.34433168172836304 0.18912284076213837
0.58644545078277588 0.41445326805114746 0.22687430679798126
0.65629619359970093 0.46132200956344604 0.25621193647384644
0.65162509679794312 0.45892736315727234 0.25991955399513245
0.65166169404983521 0.45539802312850952 0.25685444474220276
0.61303836107254028 0.42861858010292053 0.23959803581237793
0.65155273675918579 0.45346996188163757 0.25021106004714966
0.47403910756111145 0.33750078082084656 0.18577887117862701
0.57457917928695679 0.40846088528633118 0.22621446847915649
0.72611743211746216 0.50964897871017456 0.2824828028678894
0.80522602796554565 0.55579465627670288 0.30762803554534912
0.79807037115097046 0.54637712240219116 0.30616748332977295
0.76126891374588013 0.52504587173461914 0.2898629903793335
0.790599524974823 0.54612481594085693 0.30597719550132751
0.46185031533241272 0.32655972242355347 0.18069113790988922
0.55499827861785889 0.38770955801010132 0.21737362444400787
0.69620901346206665 0.48385953903198242 0.27163839340209961
0.82815182209014893 0.56691431999206543 0.31353703141212463
0.91312110424041748 0.62766569852828979 0.35407721996307373
0.9312819242477417 0.63759762048721313 0.35795345902442932
0.94223654270172119 0.66397535800933838 0.37527614831924438
0.46944984793663025 0.32828745245933533 0.17952552437782288
0.57193708419799805 0.39895707368850708 0.21903231739997864
0.69276553392410278 0.47924041748046875 0.26982390880584717
0.81159853935241699 0.55863165855407715 0.30907171964645386
0.9519227147102356 0.66040915250778198 0.36970359086990356
0.99983876943588257 0.7351757287979126 0.41550484299659729
0.99936014413833618 0.78279596567153931 0.44152423739433289
0.53649580478668213 0.37521761655807495 0.20693813264369965
0.63055121898651123 0.44471710920333862 0.24567325413227081
0.76059210300445557 0.52218353748321533 0.29714751243591309
0.89011400938034058 0.60233801603317261 0.33683353662490845
0.97767156362533569 0.68953263759613037 0.38673308491706848
0.99705469608306885 0.75509071350097656 0.42638310790061951
0.99986124038696289 0.83590257167816162 0.46822768449783325
0.64426428079605103 0.45876625180244446 0.25235456228256226
0.76529604196548462 0.53447926044464111 0.29664033651351929
0.91356772184371948 0.62519079446792603 0.35023221373558044
0.99003332853317261 0.70339149236679077 0.39403849840164185
0.99402546882629395 0.78646045923233032 0.44240596890449524
0.98313295841217041 0.87451028823852539 0.48834982514381409
0.99454766511917114 0.92284524440765381 0.51193833351135254
0.67998743057250977 0.47541400790214539 0.26933780312538147
0.71606528759002686 0.49810212850570679 0.27916982769966125
0.72184771299362183 0.49906587600708008 0.27810800075531006
0.73421823978424072 0.49701625108718872 0.27616330981254578
0.73449987173080444 0.49928638339042664 0.27534881234169006
0.72747886180877686 0.50361049175262451 0.27732077240943909
0.72035759687423706 0.50446403026580811 0.28378665447235107
0.7290080189704895 0.50491315126419067 0.28277117013931274
0.84058660268783569 0.57587718963623047 0.31951707601547241
0.88951510190963745 0.61468923091888428 0.34213915467262268
0.87348765134811401 0.6017497181892395 0.34262406826019287
0.88901436328887939 0.60213267803192139 0.33886444568634033
0.86577123403549194 0.59515225887298584 0.33695468306541443
0.88271087408065796 0.60201364755630493 0.33758097887039185
0.71306836605072021 0.49160319566726685 0.27804732322692871
0.81656372547149658 0.56473666429519653 0.3177827000617981
0.9559175968170166 0.6634514331817627 0.36806952953338623
0.99000078439712524 0.69866365194320679 0.38738298416137695
0.98387104272842407 0.71158194541931152 0.39749038219451904
0.98418813943862915 0.7061951756477356 0.39207369089126587
0.98833739757537842 0.70822733640670776 0.39384362101554871
0.69836133718490601 0.48265206813812256 0.27315792441368103
0.81402212381362915 0.55383825302124023 0.3117871880531311
0.949135422706604 0.65278851985931396 0.36563277244567871
0.99793523550033569 0.72685724496841431 0.40725898742675781
1 0.79497909545898438 0.44911709427833557
1 0.82699024677276611 0.46044766902923584
1 0.8331376314163208 0.46263176202774048
0.70817655324935913 0.4723343551158905 0.26390695571899414
0.82520771026611328 0.55421972274780273 0.30890089273452759
0.93287092447280884 0.6427571177482605 0.36029860377311707
0.98772364854812622 0.71319633722305298 0.39884248375892639
0.99998563528060913 0.80240869522094727 0.45261016488075256
0.99329519271850586 0.87610697746276855 0.4900592565536499
0.99993771314620972 0.92094922065734863 0.51295942068099976
0.71082019805908203 0.47226411104202271 0.26459372043609619
0.81961959600448608 0.54984456300735474 0.31103676557540894
0.91127938032150269 0.62811589241027832 0.35672593116760254
0.9784080982208252 0.70774543285369873 0.3943423330783844
0.99823582172393799 0.78737735748291016 0.44040858745574951
0.98498964309692383 0.86991274356842041 0.48475551605224609
0.99268800020217896 0.95455050468444824 0.53249847888946533
0.71305650472640991 0.4991966187953949 0.27433127164840698
0.83273196220397949 0.57256150245666504 0.320903480052948
0.96213269233703613 0.66926902532577515 0.37728014588356018
0.99859213829040527 0.74618792533874512 0.41552123427391052
0.99634033441543579 0.8171917200088501 0.45699858665466309
0.98590326309204102 0.92255967855453491 0.51040124893188477
0.99160760641098022 0.99248838424682617 0.55599957704544067
0.8904116153717041 0.62121152877807617 0.34951448440551758
0.94850486516952515 0.64821785688400269 0.36572861671447754
0.93919867277145386 0.65495920181274414 0.36545801162719727
0.95817941427230835 0.64895617961883545 0.35609549283981323
0.95291781425476074 0.65081322193145752 0.36117929220199585
0.93930715322494507 0.6474531888961792 0.35639491677284241
0.9157785177230835 0.64599686861038208 0.36071506142616272
0.94862264394760132 0.65141230821609497 0.36288043856620789
0.99921464920043945 0.72469556331634521 0.40577250719070435
0.99964767694473267 0.76704829931259155 0.42739635705947876
0.99828767776489258 0.76251178979873657 0.42654475569725037
0.99997967481613159 0.76003170013427734 0.42324748635292053
1 0.7597804069519043 0.41810053586959839
0.99999219179153442 0.76048392057418823 0.42287591099739075
0.94974225759506226 0.64928287267684937 0.36570149660110474
0.99926126003265381 0.73193705081939697 0.41361472010612488
0.999969482421875 0.81690102815628052 0.45655086636543274
0.99889671802520752 0.85193109512329102 0.47641921043395996
1 0.86782383918762207 0.48102563619613647
1 0.87191498279571533 0.47764226794242859
1 0.86840212345123291 0.47899013757705688
0.9496457576751709 0.64801120758056641 0.36371064186096191
0.99760782718658447 0.72597378492355347 0.40778318047523499
1 0.81589055061340332 0.45693269371986389
0.99971705675125122 0.87575936317443848 0.49158504605293274
0.99244648218154907 0.93392020463943481 0.52010583877563477
0.99988365173339844 0.96144610643386841 0.53030109405517578
1 0.96276384592056274 0.53244918584823608
0.95527249574661255 0.64479851722717285 0.36048820614814758
0.99833625555038452 0.73060864210128784 0.40678989887237549
1 0.81713306903839111 0.45499637722969055
1 0.87313878536224365 0.48841333389282227
0.99252450466156006 0.93333512544631958 0.52490675449371338
0.98494768142700195 0.98654943704605103 0.55469083786010742
0.997314453125 0.99943530559539795 0.57164126634597778
0.95301312208175659 0.64286082983016968 0.36181899905204773
0.9971013069152832 0.72850185632705688 0.40943151712417603
1 0.80820173025131226 0.45221865177154541
1 0.87578678131103516 0.48557358980178833
0.99790424108505249 0.92864394187927246 0.51935678720474243
0.98961383104324341 0.97548013925552368 0.55449706315994263
0.99597299098968506 1 0.58903974294662476
0.94114416837692261 0.64696365594863892 0.35847687721252441
0.98393219709396362 0.71680378913879395 0.40103915333747864
1 0.80097126960754395 0.44926109910011292
1 0.87468856573104858 0.48534804582595825
0.99665176868438721 0.93258309364318848 0.51844638586044312
0.99913084506988525 0.99279433488845825 0.5597948431968689
0.99995511770248413 1 0.60188335180282593
0.97059911489486694 0.7722240686416626 0.42878782749176025
0.99982303380966187 0.79908186197280884 0.44967111945152283
0.99779582023620605 0.79984003305435181 0.44860416650772095
0.99748408794403076 0.79015249013900757 0.43999436497688293
0.99910151958465576 0.79735523462295532 0.44951340556144714
0.99980533123016357 0.80233412981033325 0.45334070920944214
0.99816423654556274 0.78863435983657837 0.44314095377922058
0.99691528081893921 0.80172932147979736 0.44567611813545227
0.99974578619003296 0.85933637619018555 0.48218241333961487
0.99985551834106445 0.89416587352752686 0.4972819983959198
0.99986034631729126 0.89875227212905884 0.49898514151573181
0.99993896484375 0.89523011445999146 0.49870628118515015
1 0.89890438318252563 0.49952813982963562
1 0.89042872190475464 0.49914714694023132
0.99874758720397949 0.79426991939544678 0.44718137383460999
0.99871224164962769 0.86617332696914673 0.48793110251426697
0.99655550718307495 0.94075137376785278 0.52215510606765747
0.99329012632369995 0.97433185577392578 0.54209709167480469
0.9986807107925415 0.97636532783508301 0.54385566711425781
0.99859631061553955 0.97734278440475464 0.5433618426322937
0.99996107816696167 0.96882832050323486 0.54580116271972656
0.99899458885192871 0.79319220781326294 0.44428515434265137
0.99428129196166992 0.86575603485107422 0.48674029111862183
0.9969336986541748 0.94741678237915039 0.52950429916381836
0.99405336380004883 0.99469649791717529 0.56254130601882935
0.98746329545974731 1 0.57924491167068481
0.98654061555862427 1 0.58549445867538452
0.98842930793762207 0.99998599290847778 0.58897799253463745
0.9999813437461853 0.79624438285827637 0.44442784786224365
0.99890780448913574 0.87220579385757446 0.4863494336605072
0.99973863363265991 0.94959622621536255 0.53021734952926636
0.99784982204437256 0.99512743949890137 0.5638355016708374
0.99103724956512451 0.99999713897705078 0.58962512016296387
0.99102860689163208 0.99888867139816284 0.61018019914627075
0.98726767301559448 1 0.62204974889755249
1 0.79522919654846191 0.44859889149665833
0.99943065643310547 0.87001597881317139 0.4875873327255249
1 0.94641590118408203 0.53065681457519531
0.99936521053314209 0.99353808164596558 0.56372416019439697
0.99557936191558838 0.99844104051589966 0.58729201555252075
0.99607843160629272 0.99210262298583984 0.61385166645050049
0.99710351228713989 0.99790573120117188 0.6384892463684082
1 0.79652076959609985 0.44641730189323425
0.99689269065856934 0.86484026908874512 0.48245725035667419
0.99985158443450928 0.93283712863922119 0.52487683296203613
0.99964076280593872 0.9781113862991333 0.55924397706985474
0.99591565132141113 0.99297559261322021 0.58478909730911255
0.99997663497924805 0.99972254037857056 0.61451172828674316
1 1 0.64981186389923096
