assets/lut/others faded vivid.cube
# Created by: G'MIC (https://gmic.eu)
TITLE "faded_vivid"
# LUT size
LUT_3D_SIZE 7
# Data domain
DOMAIN_MIN 0.0 0.0 0.0
DOMAIN_MAX 1.0 1.0 1.0
# LUT data points
0.069671303033828735 0.06051165983080864 0.15601706504821777
0.10345614701509476 0.057133842259645462 0.15549883246421814
0.2433968186378479 0.061490841209888458 0.15421934425830841
0.44388309121131897 0.059484638273715973 0.1560291200876236
0.63033276796340942 0.057518050074577332 0.15520741045475006
0.77764546871185303 0.062375657260417938 0.15916287899017334
0.89177942276000977 0.05760834738612175 0.15634669363498688
0.052050016820430756 0.22280500829219818 0.15497623383998871
0.10182496905326843 0.22856338322162628 0.15208722651004791
0.24502088129520416 0.2265060693025589 0.14955992996692657
0.4429803192615509 0.22524182498455048 0.15335144102573395
0.62779104709625244 0.22449025511741638 0.15243569016456604
0.7765471339225769 0.22552721202373505 0.15685805678367615
0.8890954852104187 0.22688601911067963 0.15318438410758972
0.054610952734947205 0.41316935420036316 0.15250076353549957
0.099061362445354462 0.42160871624946594 0.15265889465808868
0.24073563516139984 0.41665655374526978 0.15039403736591339
0.44305282831192017 0.4136747419834137 0.15133646130561829
0.63340944051742554 0.41074481606483459 0.15037381649017334
0.7742764949798584 0.41380059719085693 0.1502450704574585
0.88665080070495605 0.42099693417549133 0.15055836737155914
0.058202467858791351 0.56003767251968384 0.15245097875595093
0.10040827840566635 0.55966252088546753 0.15245097875595093
0.24064463376998901 0.56029826402664185 0.15342043340206146
0.44669118523597717 0.56040304899215698 0.15554161369800568
0.63550716638565063 0.5595250129699707 0.15283465385437012
0.77617168426513672 0.56083792448043823 0.15063352882862091
0.88911467790603638 0.56228148937225342 0.15450765192508698
0.063581518828868866 0.68253475427627563 0.1524704247713089
0.10159289836883545 0.68279027938842773 0.15368998050689697
0.23802907764911652 0.67940247058868408 0.15461897850036621
0.44917380809783936 0.67699205875396729 0.15526236593723297
0.6369892954826355 0.67855393886566162 0.1563725471496582
0.78028815984725952 0.68119978904724121 0.15608538687229156
0.89022922515869141 0.68246537446975708 0.1563725471496582
0.072332493960857391 0.79035788774490356 0.15625454485416412
0.10127973556518555 0.79186463356018066 0.15465956926345825
0.23982727527618408 0.78964650630950928 0.15404412150382996
0.44996523857116699 0.78878873586654663 0.15416507422924042
0.63397794961929321 0.79043275117874146 0.15604570508003235
0.77693736553192139 0.79004788398742676 0.15621687471866608
0.88819736242294312 0.7899022102355957 0.15250153839588165
0.062617279589176178 0.8908085823059082 0.15954171121120453
0.10179537534713745 0.89081358909606934 0.15766701102256775
0.23796017467975616 0.89175420999526978 0.15519988536834717
0.44458803534507751 0.89385503530502319 0.15820819139480591
0.62507784366607666 0.89351367950439453 0.15698269009590149
0.77225887775421143 0.89115744829177856 0.16175736486911774
0.89135521650314331 0.89061897993087769 0.15693087875843048
0.050717867910861969 0.057690653949975967 0.30689269304275513
0.10527279227972031 0.054905354976654053 0.3034827709197998
0.2458595335483551 0.058641679584980011 0.30339661240577698
0.44093933701515198 0.058455880731344223 0.30265131592750549
0.62823754549026489 0.059121794998645782 0.30205544829368591
0.77829384803771973 0.05877043679356575 0.30645439028739929
0.89049035310745239 0.060553666204214096 0.30662199854850769
0.047972541302442551 0.22747235000133514 0.30686274170875549
0.10047327727079391 0.22588188946247101 0.30172502994537354
0.24619503319263458 0.22122104465961456 0.30210557579994202
0.44029596447944641 0.21632438898086548 0.29973426461219788
0.62685191631317139 0.21749760210514069 0.29935944080352783
0.77878814935684204 0.22007763385772705 0.30294117331504822
0.89312130212783813 0.22617305815219879 0.30315276980400085
0.047433488070964813 0.41506412625312805 0.30677679181098938
0.098841935396194458 0.41746088862419128 0.30454421043395996
0.24142478406429291 0.41322246193885803 0.29539287090301514
0.4403407871723175 0.40909808874130249 0.29906237125396729
0.62857264280319214 0.40934258699417114 0.30047881603240967
0.77402085065841675 0.41225776076316833 0.29964625835418701
0.8902929425239563 0.41610023379325867 0.30201554298400879
0.052938841283321381 0.56263095140457153 0.3068510890007019
0.10417872667312622 0.56060457229614258 0.30729329586029053
0.24310831725597382 0.56041663885116577 0.30267682671546936
0.4447198212146759 0.56041663885116577 0.30578655004501343
0.63365799188613892 0.5599294900894165 0.3054797351360321
0.77517104148864746 0.56059771776199341 0.3001101016998291
0.89108926057815552 0.56221204996109009 0.3010917603969574
0.059257268905639648 0.68511343002319336 0.30504521727561951
0.097477510571479797 0.68297439813613892 0.30365768074989319
0.23775860667228699 0.67978900671005249 0.3029266893863678
0.44654330611228943 0.67855393886566162 0.30620428919792175
0.63837021589279175 0.68091660737991333 0.30759057402610779
0.78255254030227661 0.6824755072593689 0.30731651186943054
0.89227390289306641 0.68243968486785889 0.30518621206283569
0.067334160208702087 0.79249244928359985 0.30391299724578857
0.095340698957443237 0.79261296987533569 0.30205586552619934
0.23298543691635132 0.79073607921600342 0.30073821544647217
0.44559723138809204 0.78995257616043091 0.30294296145439148
0.63670068979263306 0.79166197776794434 0.30601096153259277
0.78079319000244141 0.79160445928573608 0.30686274170875549
0.88776451349258423 0.78928202390670776 0.30454269051551819
0.069218531250953674 0.8936227560043335 0.30381187796592712
0.10658718645572662 0.89188265800476074 0.30612203478813171
0.23415420949459076 0.89147847890853882 0.30421459674835205
0.44328701496124268 0.89408701658248901 0.30598551034927368
0.62990689277648926 0.89272379875183105 0.30689617991447449
0.77655303478240967 0.89132314920425415 0.30987927317619324
0.88809698820114136 0.89280408620834351 0.30424186587333679
0.050526980310678482 0.050101965665817261 0.44808235764503479
0.097049906849861145 0.054798141121864319 0.45038381218910217
0.24106840789318085 0.057150956243276596 0.44877451658248901
0.44179964065551758 0.057450253516435623 0.44627708196640015
0.62744474411010742 0.058551967144012451 0.44505712389945984
0.77952927350997925 0.055478114634752274 0.44959661364555359
0.8925936222076416 0.051820285618305206 0.44947868585586548
0.055701985955238342 0.22683487832546234 0.45330888032913208
0.10120996087789536 0.22062793374061584 0.44982120394706726
0.2406047135591507 0.22468642890453339 0.44592434167861938
0.43739676475524902 0.22025111317634583 0.44228759407997131
0.62374407052993774 0.22369305789470673 0.44472825527191162
0.77787250280380249 0.22413675487041473 0.4483625590801239
0.89323842525482178 0.22421188652515411 0.45236703753471375
0.05145714059472084 0.41159793734550476 0.45275190472602844
0.10215774178504944 0.41216167807579041 0.45175445079803467
0.24039667844772339 0.41967874765396118 0.44504198431968689
0.4362906813621521 0.41267406940460205 0.44540950655937195
0.62453269958496094 0.41318899393081665 0.44733527302742004
0.77812021970748901 0.41632014513015747 0.44871789216995239
0.89377927780151367 0.41173288226127625 0.44655504822731018
0.05154794454574585 0.56058746576309204 0.44978806376457214
0.10648001730442047 0.56055456399917603 0.45121023058891296
0.24606390297412872 0.56223422288894653 0.44782042503356934
0.44255748391151428 0.56122088432312012 0.451864093542099
0.63048803806304932 0.56041663885116577 0.44983640313148499
0.77893358469009399 0.56045424938201904 0.44884741306304932
0.89237332344055176 0.55998432636260986 0.44336032867431641
0.055518969893455505 0.6824755072593689 0.44601452350616455
0.10147992521524429 0.68149125576019287 0.45003068447113037
0.24352119863033295 0.67846179008483887 0.44717264175415039
0.44461947679519653 0.6781812310218811 0.4485534131526947
0.63079327344894409 0.68153315782546997 0.44796350598335266
0.77665466070175171 0.6824755072593689 0.44886258244514465
0.89045876264572144 0.68213146924972534 0.44546765089035034
0.062473118305206299 0.79085218906402588 0.44369998574256897
0.098512031137943268 0.79097503423690796 0.44808492064476013
0.23336489498615265 0.78824234008789062 0.44709262251853943
0.43706762790679932 0.78774356842041016 0.44468650221824646
0.62712061405181885 0.78989285230636597 0.44494348764419556
0.77526998519897461 0.79206764698028564 0.44649201631546021
0.88980638980865479 0.79027736186981201 0.44898921251296997
0.069973096251487732 0.89238870143890381 0.44389882683753967
0.11099787801504135 0.89375364780426025 0.45095255970954895
0.23270326852798462 0.8926805853843689 0.45105990767478943
0.43894103169441223 0.89289218187332153 0.45042192935943604
0.62567424774169922 0.89049917459487915 0.45145004987716675
0.77546554803848267 0.89225208759307861 0.45037484169006348
0.89174294471740723 0.89318007230758667 0.4500947892665863
0.052151773124933243 0.060152556747198105 0.54825705289840698
0.10244803130626678 0.059939906001091003 0.55257350206375122
0.24465857446193695 0.058875620365142822 0.54997217655181885
0.44418665766716003 0.057501982897520065 0.55098903179168701
0.62777590751647949 0.05950603261590004 0.55298197269439697
0.77990484237670898 0.053861774504184723 0.55219525098800659
0.89378654956817627 0.057151436805725098 0.5540434718132019
0.057806022465229034 0.22925013303756714 0.55293649435043335
0.10455109924077988 0.22485348582267761 0.55249357223510742
0.24200262129306793 0.2234514057636261 0.54905307292938232
0.4402478039264679 0.2162003219127655 0.54795533418655396
0.62763625383377075 0.21989770233631134 0.55132937431335449
0.78195863962173462 0.22048452496528625 0.55154639482498169
0.89518791437149048 0.22553391754627228 0.55369454622268677
0.053514756262302399 0.41289243102073669 0.55461376905441284
0.10165666788816452 0.4155755341053009 0.55295699834823608
0.23816081881523132 0.419607013463974 0.55057501792907715
0.43599092960357666 0.41092720627784729 0.54944157600402832
0.62522351741790771 0.40904304385185242 0.54901963472366333
0.7821815013885498 0.41245740652084351 0.54901963472366333
0.89509069919586182 0.41143712401390076 0.54999744892120361
0.051802989095449448 0.56132394075393677 0.55400151014328003
0.10976381599903107 0.56209611892700195 0.55643552541732788
0.24795661866664886 0.56507927179336548 0.5530010461807251
0.4406207799911499 0.56292092800140381 0.55294120311737061
0.62546241283416748 0.56061446666717529 0.55258619785308838
0.77379810810089111 0.56200152635574341 0.55238509178161621
0.88918071985244751 0.56127423048019409 0.55012428760528564
0.050802193582057953 0.68197256326675415 0.5516241192817688
0.10844330489635468 0.68123233318328857 0.55747455358505249
0.24954025447368622 0.68030935525894165 0.55432426929473877
0.44485938549041748 0.68027806282043457 0.55195742845535278
0.6270415186882019 0.68244069814682007 0.54904979467391968
0.76975154876708984 0.6824755072593689 0.55261731147766113
0.88836210966110229 0.68221414089202881 0.55190610885620117
0.050773769617080688 0.78964245319366455 0.54892772436141968
0.10193900018930435 0.79178845882415771 0.55628454685211182
0.23758147656917572 0.78921806812286377 0.55298709869384766
0.4389825165271759 0.78834235668182373 0.54908502101898193
0.62703090906143188 0.78988325595855713 0.54789453744888306
0.77134275436401367 0.79173141717910767 0.55224275588989258
0.89067012071609497 0.79080820083618164 0.55292952060699463
0.062756165862083435 0.8902776837348938 0.54958003759384155
0.10960708558559418 0.89513248205184937 0.55609709024429321
0.23334485292434692 0.89373934268951416 0.55542796850204468
0.44002506136894226 0.89277642965316772 0.55390304327011108
0.62798583507537842 0.89027988910675049 0.55287224054336548
0.77369099855422974 0.89167219400405884 0.55313581228256226
0.88957518339157104 0.89355617761611938 0.55439448356628418
0.055794376879930496 0.060830015689134598 0.61254137754440308
0.10528585314750671 0.058610446751117706 0.60964113473892212
0.23929035663604736 0.061406992375850677 0.60833239555358887
0.44386076927185059 0.060050006955862045 0.61430245637893677
0.63148009777069092 0.062727250158786774 0.6100044846534729
0.77838194370269775 0.054530724883079529 0.6107824444770813
0.89301520586013794 0.056518644094467163 0.61100143194198608
0.054345913231372833 0.22391834855079651 0.61093837022781372
0.10405635088682175 0.22450533509254456 0.61191797256469727
0.24442330002784729 0.23296733200550079 0.61361008882522583
0.44683113694190979 0.22079353034496307 0.60995692014694214
0.63412195444107056 0.22538609802722931 0.60977613925933838
0.78224116563796997 0.22502982616424561 0.61067056655883789
0.89343523979187012 0.22472004592418671 0.61230659484863281
0.053106211125850677 0.41620424389839172 0.61175364255905151
0.1042373925447464 0.41488313674926758 0.61419868469238281
0.24193759262561798 0.42048457264900208 0.61614608764648438
0.44185945391654968 0.41092020273208618 0.61025792360305786
0.63058096170425415 0.40886816382408142 0.60984808206558228
0.7806016206741333 0.4118340015411377 0.61190861463546753
0.89212942123413086 0.41191327571868896 0.61236125230789185
0.054784078150987625 0.56106781959533691 0.61618787050247192
0.11330682784318924 0.56010216474533081 0.61885941028594971
0.24948383867740631 0.56523710489273071 0.61670881509780884
0.44141200184822083 0.56386524438858032 0.6139143705368042
0.62654608488082886 0.5615505576133728 0.6153830885887146
0.77406919002532959 0.56360387802124023 0.6169123649597168
0.88870590925216675 0.56463158130645752 0.61522459983825684
0.052138850092887878 0.67859029769897461 0.61855602264404297
0.11085408180952072 0.68088603019714355 0.62232023477554321
0.24866731464862823 0.68254309892654419 0.61586117744445801
0.44300764799118042 0.68274325132369995 0.61298823356628418
0.62938153743743896 0.6824755072593689 0.61396497488021851
0.7760387659072876 0.68243765830993652 0.61635655164718628
0.89005982875823975 0.68156629800796509 0.61741387844085693
0.048158816993236542 0.78869611024856567 0.61350280046463013
0.10052825510501862 0.79014086723327637 0.61437422037124634
0.23463869094848633 0.78936612606048584 0.61258769035339355
0.43942445516586304 0.78872549533843994 0.61199545860290527
0.63249844312667847 0.79013478755950928 0.61058211326599121
0.77955132722854614 0.78971624374389648 0.61234116554260254
0.8929867148399353 0.7874913215637207 0.61457663774490356
0.06588435173034668 0.89221459627151489 0.61164790391921997
0.10943784564733505 0.89442926645278931 0.61270111799240112
0.23192453384399414 0.89273494482040405 0.61347717046737671
0.44164294004440308 0.89073348045349121 0.610595703125
0.63152605295181274 0.88970589637756348 0.61299902200698853
0.77759009599685669 0.89164906740188599 0.61534655094146729
0.89116752147674561 0.89270758628845215 0.61311501264572144
0.054012972861528397 0.053312968462705612 0.66668576002120972
0.099064469337463379 0.057485900819301605 0.66459697484970093
0.24176062643527985 0.05944804847240448 0.6633487343788147
0.44740381836891174 0.059812717139720917 0.66689562797546387
0.63218313455581665 0.05912221223115921 0.66222703456878662
0.77660983800888062 0.055059768259525299 0.66328567266464233
0.89172649383544922 0.056664995849132538 0.6657334566116333
0.044889997690916061 0.21714349091053009 0.65804708003997803
0.090158872306346893 0.22048003971576691 0.65849024057388306
0.23921516537666321 0.22368179261684418 0.66066455841064453
0.44839334487915039 0.21956531703472137 0.65878891944885254
0.63451981544494629 0.22459696233272552 0.65982139110565186
0.77804422378540039 0.22893834114074707 0.66495347023010254
0.89172685146331787 0.22268466651439667 0.66497629880905151
0.045898467302322388 0.41179156303405762 0.65563726425170898
0.094349116086959839 0.41480419039726257 0.66085183620452881
0.23850305378437042 0.41732802987098694 0.66316133737564087
0.44640940427780151 0.41005071997642517 0.65679550170898438
0.63335657119750977 0.40898483991622925 0.66098982095718384
0.77755248546600342 0.41469323635101318 0.6631283164024353
0.8905102014541626 0.41308832168579102 0.65944063663482666
0.053544182330369949 0.56027448177337646 0.66128718852996826
0.10557418316602707 0.56003069877624512 0.66647243499755859
0.24310886859893799 0.5643114447593689 0.66294991970062256
0.44234034419059753 0.56256967782974243 0.65962284803390503
0.62609577178955078 0.55977022647857666 0.6666635274887085
0.77399086952209473 0.56265264749526978 0.66571271419525146
0.8891594409942627 0.56517237424850464 0.65981096029281616
0.057443790137767792 0.67855954170227051 0.66629302501678467
0.10697966814041138 0.6804124116897583 0.6731564998626709
0.23882654309272766 0.68239426612854004 0.66148465871810913
0.43651902675628662 0.68250757455825806 0.65958178043365479
0.62609732151031494 0.68198591470718384 0.66410118341445923
0.77849721908569336 0.67964226007461548 0.66402935981750488
0.8910326361656189 0.67916345596313477 0.66514384746551514
0.053265143185853958 0.78808891773223877 0.66357290744781494
0.096524178981781006 0.78872549533843994 0.66068834066390991
0.22736550867557526 0.78872549533843994 0.65931308269500732
0.43448737263679504 0.78872549533843994 0.66236591339111328
0.62928247451782227 0.78879392147064209 0.66237539052963257
0.78084743022918701 0.787841796875 0.66155731678009033
0.89154404401779175 0.78610098361968994 0.665610671043396
0.058943234384059906 0.89114576578140259 0.66647046804428101
0.09764494001865387 0.89213621616363525 0.66221910715103149
0.2348434180021286 0.89287662506103516 0.66454046964645386
0.4414544403553009 0.89055019617080688 0.6620909571647644
0.6272200345993042 0.88970589637756348 0.66638612747192383
0.77746093273162842 0.89203900098800659 0.66587084531784058
0.89086997509002686 0.89389646053314209 0.66538321971893311
0.050027661025524139 0.060583047568798065 0.69889706373214722
0.098116613924503326 0.050527550280094147 0.69686794281005859
0.24190826714038849 0.057629693299531937 0.6999431848526001
0.44646731019020081 0.060437954962253571 0.69921916723251343
0.63019073009490967 0.051340710371732712 0.69687449932098389
0.77705478668212891 0.056009884923696518 0.69848477840423584
0.89460664987564087 0.064851336181163788 0.70258373022079468
0.037650536745786667 0.22494271397590637 0.69341468811035156
0.087619930505752563 0.22551392018795013 0.69050204753875732
0.23646916449069977 0.22250400483608246 0.69545525312423706
0.44111618399620056 0.22740930318832397 0.69745099544525146
0.62871909141540527 0.22500309348106384 0.69904464483261108
0.77569049596786499 0.23020023107528687 0.70445883274078369
0.89335173368453979 0.22697263956069946 0.70192188024520874
0.039859697222709656 0.40983113646507263 0.68969029188156128
0.091179832816123962 0.41954877972602844 0.69026356935501099
0.23672260344028473 0.41857239603996277 0.69187772274017334
0.44400134682655334 0.41329413652420044 0.69485276937484741
0.62955659627914429 0.41083380579948425 0.70075774192810059
0.77785021066665649 0.4141579270362854 0.69715988636016846
0.89346742630004883 0.41194504499435425 0.6919020414352417
0.051930282264947891 0.56192553043365479 0.69353216886520386
0.094721592962741852 0.56156843900680542 0.6950453519821167
0.23463544249534607 0.56200748682022095 0.6928781270980835
0.44147494435310364 0.56043988466262817 0.69427180290222168
0.62306195497512817 0.55857324600219727 0.70275187492370605
0.77265864610671997 0.56033360958099365 0.69962650537490845
0.89199173450469971 0.55977284908294678 0.69431710243225098
0.061685256659984589 0.68246614933013916 0.6978154182434082
0.10523313283920288 0.68238741159439087 0.69781827926635742
0.22701491415500641 0.6810302734375 0.69308680295944214
0.42767453193664551 0.68224751949310303 0.69428426027297974
0.61894863843917847 0.68045055866241455 0.70016515254974365
0.77248817682266235 0.67855393886566162 0.70128017663955688
0.89037209749221802 0.67792069911956787 0.70172786712646484
0.060490269213914871 0.78976953029632568 0.70144915580749512
0.10295023024082184 0.78934204578399658 0.69613373279571533
0.22345761954784393 0.78822064399719238 0.6943860650062561
0.42839360237121582 0.78938418626785278 0.69561702013015747
0.62338542938232422 0.78947228193283081 0.69854998588562012
0.77510398626327515 0.7881615161895752 0.70200783014297485
0.89100056886672974 0.78681463003158569 0.70575404167175293
0.053219545632600784 0.89001697301864624 0.71197199821472168
0.10206020623445511 0.8905024528503418 0.70647341012954712
0.24328808486461639 0.89217495918273926 0.70515567064285278
0.44032877683639526 0.89106249809265137 0.69852322340011597
0.62464314699172974 0.89091026782989502 0.70031499862670898
0.77483135461807251 0.89267158508300781 0.70458012819290161
0.89252030849456787 0.89357107877731323 0.70548409223556519
