assets/lut/others golden mono.cube
# Created by: G'MIC (https://gmic.eu)
TITLE "golden_mono"
# LUT size
LUT_3D_SIZE 13
# Data domain
DOMAIN_MIN 0.0 0.0 0.0
DOMAIN_MAX 1.0 1.0 1.0
# LUT data points
0.027832420542836189 0.019622743129730225 0.010231242515146732
0.033478323370218277 0.02353006973862648 0.010474111884832382
0.042286727577447891 0.031040385365486145 0.013402437791228294
0.058456931263208389 0.045072503387928009 0.020876431837677956
0.08011193573474884 0.063167333602905273 0.030844565480947495
0.10706999897956848 0.083420604467391968 0.042332340031862259
0.14473249018192291 0.10918676108121872 0.056505929678678513
0.19555549323558807 0.14265818893909454 0.075268104672431946
0.25229963660240173 0.18103370070457458 0.09717317670583725
0.30705457925796509 0.21751298010349274 0.1191534623503685
0.35821855068206787 0.25183781981468201 0.14143839478492737
0.40732139348983765 0.28390413522720337 0.16149652004241943
0.45011869072914124 0.31011962890625 0.1777031272649765
0.042883839458227158 0.030701849609613419 0.013517028652131557
0.056192062795162201 0.038541592657566071 0.01629740372300148
0.07291267067193985 0.050307344645261765 0.022249722853302956
0.095925211906433105 0.068450450897216797 0.033175509423017502
0.1233704537153244 0.090425826609134674 0.046718135476112366
0.15194939076900482 0.11187224835157394 0.059004735201597214
0.1903177946805954 0.13863857090473175 0.073409542441368103
0.2437661737203598 0.17430347204208374 0.092309631407260895
0.30186912417411804 0.21252767741680145 0.11303013563156128
0.35491999983787537 0.24742870032787323 0.13387313485145569
0.40348097681999207 0.28071272373199463 0.15473295748233795
0.4556879997253418 0.31669431924819946 0.17659643292427063
0.50576245784759521 0.34867924451828003 0.19544140994548798
0.063956841826438904 0.045731279999017715 0.021173395216464996
0.087280422449111938 0.059513632208108902 0.028052730485796928
0.10707343369722366 0.071958936750888824 0.035431012511253357
0.12238650023937225 0.083045706152915955 0.042710069566965103
0.14184421300888062 0.099093280732631683 0.052534498274326324
0.1722070723772049 0.12226220220327377 0.066161572933197021
0.21797604858875275 0.15465593338012695 0.083861343562602997
0.27616259455680847 0.19389066100120544 0.10486204922199249
0.33164656162261963 0.229940265417099 0.12458105385303497
0.37868908047676086 0.25993618369102478 0.14315164089202881
0.4227001965045929 0.29126298427581787 0.16247104108333588
0.47766298055648804 0.33246520161628723 0.18578274548053741
0.53434187173843384 0.37223199009895325 0.2070707380771637
0.10021521151065826 0.070792466402053833 0.035796325653791428
0.13481909036636353 0.092049285769462585 0.048508498817682266
0.15545986592769623 0.10499852150678635 0.057289525866508484
0.15467570722103119 0.10424448549747467 0.057756893336772919
0.15542064607143402 0.10642985999584198 0.058172337710857391
0.17691831290721893 0.12357159703969955 0.067512750625610352
0.22568009793758392 0.1577458381652832 0.087654814124107361
0.28482958674430847 0.19756512343883514 0.10970833152532578
0.33685258030891418 0.23170880973339081 0.12889732420444489
0.38282901048660278 0.26190951466560364 0.14713160693645477
0.42760226130485535 0.29526469111442566 0.16744215786457062
0.48341360688209534 0.33903133869171143 0.19111871719360352
0.54216164350509644 0.38190421462059021 0.21333611011505127
0.14987997710704803 0.1046820729970932 0.056678608059883118
0.19390664994716644 0.13309787213802338 0.074444666504859924
0.21578899025917053 0.14758847653865814 0.085030578076839447
0.20485593378543854 0.14048413932323456 0.081672400236129761
0.19265732169151306 0.1330578476190567 0.074484027922153473
0.19432888925075531 0.13566131889820099 0.073665067553520203
0.22635740041732788 0.15711656212806702 0.087720729410648346
0.27099329233169556 0.18693029880523682 0.1054157167673111
0.31980901956558228 0.22016581892967224 0.12314920127391815
0.37247943878173828 0.25623756647109985 0.14426490664482117
0.42627042531967163 0.29556953907012939 0.16771617531776428
0.48389115929603577 0.33927625417709351 0.19204524159431458
0.54192477464675903 0.3813692033290863 0.21418137848377228
0.20403121411800385 0.14162136614322662 0.078567534685134888
0.24378648400306702 0.16822151839733124 0.09539794921875
0.26384821534156799 0.18215824663639069 0.10498320311307907
0.26330140233039856 0.18204441666603088 0.10431765019893646
0.25583401322364807 0.17692533135414124 0.098632067441940308
0.24743090569972992 0.17147974669933319 0.09321516752243042
0.24847009778022766 0.17186078429222107 0.093817919492721558
0.26475870609283447 0.18309475481510162 0.10075066983699799
0.30462202429771423 0.21280787885189056 0.11684171110391617
0.35650566220283508 0.24944739043712616 0.13841424882411957
0.4136388897895813 0.28846481442451477 0.16273811459541321
0.47351300716400146 0.33104756474494934 0.18734075129032135
0.53308522701263428 0.3727245032787323 0.20987491309642792
0.26432415843009949 0.18317770957946777 0.10231583565473557
0.29721343517303467 0.20595245063304901 0.11636243015527725
0.31433510780334473 0.21848508715629578 0.12342055141925812
0.32451561093330383 0.22579903900623322 0.12683923542499542
0.32972556352615356 0.22887298464775085 0.12653480470180511
0.32332298159599304 0.22347475588321686 0.1220131516456604
0.31238076090812683 0.21519209444522858 0.11722196638584137
0.30897301435470581 0.21372984349727631 0.11669459939002991
0.32302588224411011 0.22897188365459442 0.12383779138326645
0.3514922559261322 0.25218960642814636 0.13811418414115906
0.39639803767204285 0.28041046857833862 0.15787209570407867
0.45371329784393311 0.31733152270317078 0.17968346178531647
0.51558732986450195 0.35889610648155212 0.20160990953445435
0.3341498076915741 0.23179669678211212 0.12913535535335541
0.36595004796981812 0.25363835692405701 0.14252755045890808
0.3817172646522522 0.26617717742919922 0.14982961118221283
0.39390835165977478 0.27593496441841125 0.15473730862140656
0.40328237414360046 0.2809082567691803 0.15611635148525238
0.40257397294044495 0.2784210741519928 0.15389393270015717
0.393198162317276 0.27085700631141663 0.14926430583000183
0.38123193383216858 0.26338571310043335 0.1450049877166748
0.37133088707923889 0.26172149181365967 0.14325520396232605
0.37016871571540833 0.26574036478996277 0.14700238406658173
0.39261797070503235 0.27876085042953491 0.15835998952388763
0.43862032890319824 0.30680325627326965 0.17384402453899384
0.49828809499740601 0.34705051779747009 0.19323404133319855
0.40563282370567322 0.28161376714706421 0.15632776916027069
0.43936026096343994 0.30436280369758606 0.17021043598651886
0.45354956388473511 0.31618675589561462 0.17737732827663422
0.46167460083961487 0.3235393762588501 0.18214072287082672
0.46891331672668457 0.32712680101394653 0.18379227817058563
0.47084745764732361 0.32505136728286743 0.18206252157688141
0.46300280094146729 0.31951084733009338 0.17752714455127716
0.44562071561813354 0.31282949447631836 0.17138552665710449
0.42747732996940613 0.30365276336669922 0.16601079702377319
0.41482585668563843 0.29504436254501343 0.1644347757101059
0.418617844581604 0.29497858881950378 0.16736488044261932
0.44636359810829163 0.31192925572395325 0.17417190968990326
0.49635094404220581 0.3469899594783783 0.19027768075466156
0.46894800662994385 0.32679969072341919 0.18036907911300659
0.5043036937713623 0.34996214509010315 0.19443346560001373
0.51700305938720703 0.36024922132492065 0.20157022774219513
0.51903557777404785 0.36477020382881165 0.20539487898349762
0.52389585971832275 0.36858317255973816 0.2070125937461853
0.52667325735092163 0.36502790451049805 0.20502902567386627
0.52309113740921021 0.35927411913871765 0.20135892927646637
0.51074135303497314 0.35595804452896118 0.19636513292789459
0.49709850549697876 0.35025385022163391 0.19195148348808289
0.48604172468185425 0.34080979228019714 0.18902772665023804
0.48057687282562256 0.33544731140136719 0.18731449544429779
0.4908750057220459 0.34286502003669739 0.1887376606464386
0.52417129278182983 0.36795055866241455 0.2003924697637558
0.53318977355957031 0.37332338094711304 0.20552465319633484
0.56877738237380981 0.39535671472549438 0.21935491263866425
0.57773137092590332 0.40266275405883789 0.22514638304710388
0.57745826244354248 0.40702417492866516 0.22819751501083374
0.57842910289764404 0.41162911057472229 0.22905929386615753
0.57583737373352051 0.40564748644828796 0.22555023431777954
0.57811653614044189 0.39840430021286011 0.2232099175453186
0.58111321926116943 0.39806452393531799 0.2220003753900528
0.57942771911621094 0.39814466238021851 0.22104325890541077
0.57382118701934814 0.39494580030441284 0.22058899700641632
0.56643879413604736 0.3908904492855072 0.21908873319625854
0.56586974859237671 0.39292404055595398 0.21871317923069
0.58179748058319092 0.40745612978935242 0.22427760064601898
0.60588693618774414 0.42508754134178162 0.23440313339233398
0.64356410503387451 0.44822365045547485 0.24897792935371399
0.65723401308059692 0.45789873600006104 0.25429928302764893
0.6569640040397644 0.46100801229476929 0.25494801998138428
0.65062242746353149 0.45950138568878174 0.25403866171836853
0.64133483171463013 0.45022523403167725 0.25137567520141602
0.64327996969223022 0.44336685538291931 0.24983485043048859
0.65478634834289551 0.4442380964756012 0.25008279085159302
0.66111272573471069 0.44756355881690979 0.25095948576927185
0.65950864553451538 0.44939881563186646 0.25252577662467957
0.65355223417282104 0.44828006625175476 0.25292503833770752
0.64894843101501465 0.44829443097114563 0.25185859203338623
0.6521562933921814 0.45592975616455078 0.25243571400642395
0.6790277361869812 0.47824233770370483 0.26379856467247009
0.72448629140853882 0.50460022687911987 0.28068757057189941
0.7440265417098999 0.51734453439712524 0.28548607230186462
0.74536246061325073 0.52009546756744385 0.28406995534896851
0.735912024974823 0.51411670446395874 0.28325799107551575
0.72574067115783691 0.50508874654769897 0.2846643328666687
0.72430163621902466 0.49827098846435547 0.284035325050354
0.73132109642028809 0.49665626883506775 0.28148108720779419
0.73516058921813965 0.49899393320083618 0.28100830316543579
0.73172503709793091 0.5023084282875061 0.28239902853965759
0.72681045532226562 0.50272774696350098 0.28169891238212585
0.72189038991928101 0.50199407339096069 0.27875843644142151
0.71757328510284424 0.50620865821838379 0.2779916524887085
0.07108674943447113 0.050666090101003647 0.030349476262927055
0.083612464368343353 0.058086350560188293 0.033492743968963623
0.095145523548126221 0.066240213811397552 0.036487385630607605
0.10396493971347809 0.074567772448062897 0.038940280675888062
0.1117357462644577 0.083224773406982422 0.042521249502897263
0.13149365782737732 0.098528780043125153 0.05041147768497467
0.16973981261253357 0.12488116323947906 0.064776115119457245
0.22428721189498901 0.16158591210842133 0.08583405613899231
0.286897212266922 0.20395119488239288 0.11021393537521362
0.34597101807594299 0.24431592226028442 0.13335858285427094
0.40286493301391602 0.28227037191390991 0.15488234162330627
0.45883816480636597 0.31893718242645264 0.1765301376581192
0.50708252191543579 0.34930667281150818 0.19665049016475677
0.08528609573841095 0.061203900724649429 0.033448625355958939
0.10928929597139359 0.0751165971159935 0.040202856063842773
0.13453026115894318 0.091124005615711212 0.048345062881708145
0.15236952900886536 0.10472807288169861 0.05560678243637085
0.16563311219215393 0.11713656038045883 0.062393292784690857
0.18655706942081451 0.13377587497234344 0.071304246783256531
0.22654801607131958 0.16233290731906891 0.086267687380313873
0.28587526082992554 0.20277884602546692 0.10754593461751938
0.35069063305854797 0.2458508312702179 0.1314128041267395
0.41136044263839722 0.28612688183784485 0.15462064743041992
0.47010061144828796 0.32608011364936829 0.17542293667793274
0.52969729900360107 0.36677426099777222 0.19819363951683044
0.58441942930221558 0.40264102816581726 0.22318746149539948
0.099891558289527893 0.0719328373670578 0.038217388093471527
0.13439135253429413 0.09234561026096344 0.04900066927075386
0.16702152788639069 0.11213793605566025 0.059982284903526306
0.18813885748386383 0.12704870104789734 0.068899177014827728
0.20400696992874146 0.13975541293621063 0.076671168208122253
0.22848360240459442 0.15882706642150879 0.087343059480190277
0.2766173779964447 0.19375653564929962 0.10515091568231583
0.34285277128219604 0.24054378271102905 0.12861984968185425
0.40564155578613281 0.28177052736282349 0.15206551551818848
0.46332067251205444 0.31905969977378845 0.1751408576965332
0.51893436908721924 0.35810917615890503 0.1973511129617691
0.5747673511505127 0.40036734938621521 0.22006379067897797
0.63077867031097412 0.4408838152885437 0.24441294372081757
0.12824036180973053 0.091730214655399323 0.049633819609880447
0.17415669560432434 0.1199488639831543 0.065915845334529877
0.20844282209873199 0.14131079614162445 0.078566595911979675
0.22445619106292725 0.15170764923095703 0.084387518465518951
0.23528213798999786 0.16001957654953003 0.088951990008354187
0.25659069418907166 0.17631196975708008 0.097695492208003998
0.30732378363609314 0.21311910450458527 0.11707733571529388
0.3755488395690918 0.26159754395484924 0.1421145498752594
0.43289774656295776 0.29974442720413208 0.16423258185386658
0.48804578185081482 0.33615034818649292 0.18785606324672699
0.54439300298690796 0.37708094716072083 0.21198940277099609
0.59890323877334595 0.42005947232246399 0.23522254824638367
0.65014743804931641 0.459686279296875 0.25659766793251038
0.17509739100933075 0.1227642297744751 0.068121202290058136
0.23243021965026855 0.15979160368442535 0.090538427233695984
0.27125123143196106 0.185137540102005 0.10576625168323517
0.28120821714401245 0.19136564433574677 0.10849887877702713
0.28444001078605652 0.19400757551193237 0.10806663334369659
0.2901155948638916 0.1995282918214798 0.10963054001331329
0.31952396035194397 0.22039221227169037 0.12232877314090729
0.36522433161735535 0.25210180878639221 0.14021708071231842
0.41965845227241516 0.29014185070991516 0.16211220622062683
0.48225343227386475 0.33407780528068542 0.18848335742950439
0.54747962951660156 0.38148325681686401 0.21622519195079803
0.60826981067657471 0.42681083083152771 0.24112133681774139
0.66096043586730957 0.46544739603996277 0.26180580258369446
0.22900347411632538 0.1584099680185318 0.088574007153511047
0.28270143270492554 0.19464810192584991 0.11071594804525375
0.32590433955192566 0.22376668453216553 0.12773256003856659
0.35250788927078247 0.24048061668872833 0.13601367175579071
0.36110436916351318 0.24632936716079712 0.13662490248680115
0.35309770703315735 0.24256545305252075 0.13293252885341644
0.34874483942985535 0.23958355188369751 0.13265237212181091
0.35704270005226135 0.24491919577121735 0.1379467248916626
0.39975208044052124 0.27734434604644775 0.15682600438594818
0.46209245920181274 0.32321843504905701 0.18355685472488403
0.53137600421905518 0.37209692597389221 0.21179524064064026
0.59910011291503906 0.41946709156036377 0.23799069225788116
0.65883225202560425 0.46047031879425049 0.25989308953285217
0.28856712579727173 0.1996309906244278 0.11208894103765488
0.33873829245567322 0.23362983763217926 0.13249982893466949
0.3851044774055481 0.26621901988983154 0.15123860538005829
0.42618280649185181 0.29345569014549255 0.1652798056602478
0.44386523962020874 0.30484065413475037 0.16916047036647797
0.43543294072151184 0.30033844709396362 0.1646866649389267
0.41964608430862427 0.28896510601043701 0.15918637812137604
0.40776371955871582 0.28068804740905762 0.15664450824260712
0.41693294048309326 0.29146137833595276 0.16402234137058258
0.44959637522697449 0.31807747483253479 0.18149225413799286
0.50600296258926392 0.35680696368217468 0.20392203330993652
0.57523852586746216 0.40255928039550781 0.22852155566215515
0.64218896627426147 0.44717389345169067 0.25146448612213135
0.35640579462051392 0.24710957705974579 0.1382991224527359
0.40764418244361877 0.28221389651298523 0.15919345617294312
0.4540657103061676 0.31569376587867737 0.17918030917644501
0.49409455060958862 0.34465590119361877 0.19494339823722839
0.51403844356536865 0.3574749231338501 0.19997212290763855
0.51629984378814697 0.35785201191902161 0.19798536598682404
0.50703781843185425 0.35000896453857422 0.19322739541530609
0.48861649632453918 0.33742877840995789 0.18660463392734528
0.46808016300201416 0.32737317681312561 0.18237230181694031
0.46353867650032043 0.32818683981895447 0.18713958561420441
0.49431058764457703 0.34896251559257507 0.19939690828323364
0.55287891626358032 0.3874204158782959 0.2188839465379715
0.61979728937149048 0.43217110633850098 0.24151979386806488
0.42715853452682495 0.29704099893569946 0.16527938842773438
0.48332464694976807 0.3344380259513855 0.18757237493991852
0.52765482664108276 0.36649730801582336 0.20698533952236176
0.55919551849365234 0.3904082179069519 0.22144682705402374
0.57770591974258423 0.40289327502250671 0.22803013026714325
0.58530700206756592 0.40562623739242554 0.22765599191188812
0.58313548564910889 0.40188553929328918 0.22381535172462463
0.56730192899703979 0.39219939708709717 0.21705171465873718
0.54080003499984741 0.37643283605575562 0.20894074440002441
0.5188097357749939 0.36288708448410034 0.20440176129341125
0.52214580774307251 0.36543980240821838 0.20678108930587769
0.55576002597808838 0.3896222710609436 0.2187577486038208
0.61042362451553345 0.4279477596282959 0.23778669536113739
0.49619823694229126 0.34567594528198242 0.19138999283313751
0.55861467123031616 0.38594523072242737 0.21507900953292847
0.60358995199203491 0.41755408048629761 0.23497143387794495
0.62644350528717041 0.43641650676727295 0.24867254495620728
0.63980197906494141 0.44677054882049561 0.25493606925010681
0.64504492282867432 0.44712632894515991 0.25266543030738831
0.64622682332992554 0.44389325380325317 0.24844558537006378
0.64080584049224854 0.4393869936466217 0.24421660602092743
0.62537544965744019 0.42919322848320007 0.23826205730438232
0.60519087314605713 0.41498222947120667 0.23201900720596313
0.5931355357170105 0.40815028548240662 0.22922082245349884
0.59990978240966797 0.41770434379577637 0.23403604328632355
0.63265514373779297 0.44407609105110168 0.24657760560512543
0.56836563348770142 0.39587029814720154 0.21941240131855011
0.63125705718994141 0.43562480807304382 0.24299387633800507
0.67452019453048706 0.46548360586166382 0.26212778687477112
0.69492095708847046 0.48358505964279175 0.27618524432182312
0.70404982566833496 0.49257481098175049 0.28155839443206787
0.69834738969802856 0.48612150549888611 0.27402487397193909
0.70035755634307861 0.48075467348098755 0.26864758133888245
0.71086400747299194 0.48178410530090332 0.26839494705200195
0.71151816844940186 0.47940787672996521 0.26702150702476501
0.70136314630508423 0.47186827659606934 0.2639930248260498
0.68774920701980591 0.46438711881637573 0.26105853915214539
0.68130302429199219 0.46572807431221008 0.26138773560523987
0.69234198331832886 0.47997450828552246 0.2676137387752533
0.64756101369857788 0.45009320974349976 0.25081789493560791
0.7063291072845459 0.48650544881820679 0.27311903238296509
0.74460655450820923 0.51330262422561646 0.28899654746055603
0.76553142070770264 0.5310935378074646 0.30008083581924438
0.7706565260887146 0.53703981637954712 0.30395561456680298
0.7574697732925415 0.52733361721038818 0.29663169384002686
0.75991362333297729 0.52195197343826294 0.2926640510559082
0.78028362989425659 0.5259283185005188 0.29378613829612732
0.79096084833145142 0.52776885032653809 0.29399988055229187
0.7885056734085083 0.52642142772674561 0.29441779851913452
0.78014695644378662 0.5220763087272644 0.29334202408790588
0.77105569839477539 0.52069240808486938 0.2921234667301178
0.76689672470092773 0.5274013876914978 0.293803870677948
0.72504138946533203 0.50371289253234863 0.28165587782859802
0.78326153755187988 0.53881663084030151 0.30314141511917114
0.81968569755554199 0.56391745805740356 0.31501147150993347
0.84018784761428833 0.58107525110244751 0.32229745388031006
0.84270918369293213 0.58397036790847778 0.32664993405342102
0.8362162709236145 0.57936197519302368 0.32865613698959351
0.83645665645599365 0.57593798637390137 0.32770895957946777
0.84895950555801392 0.57489830255508423 0.32307583093643188
0.8580930233001709 0.57548028230667114 0.32064914703369141
0.85644543170928955 0.57776963710784912 0.32212483882904053
0.85281068086624146 0.57670706510543823 0.32214856147766113
0.84477543830871582 0.57489055395126343 0.3200775682926178
0.8306158185005188 0.57842689752578735 0.31998386979103088
0.11686648428440094 0.084400340914726257 0.051250278949737549
0.13479945063591003 0.094800375401973724 0.056427270174026489
0.15078610181808472 0.10406395047903061 0.060337681323289871
0.15704360604286194 0.10875998437404633 0.060160484164953232
0.15415515005588531 0.10923066735267639 0.057930979877710342
0.16159993410110474 0.11639727652072906 0.060628779232501984
0.18845756351947784 0.13504734635353088 0.070992924273014069
0.23573191463947296 0.16721804440021515 0.08978009968996048
0.29576164484024048 0.20811495184898376 0.11399762332439423
0.35092723369598389 0.24662236869335175 0.13556674122810364
0.40386950969696045 0.28361421823501587 0.1552630215883255
0.46257239580154419 0.32307380437850952 0.17785988748073578
0.51858216524124146 0.35907953977584839 0.20134341716766357
0.12779635190963745 0.092762589454650879 0.053081899881362915
0.15845152735710144 0.11072284728288651 0.062194928526878357
0.19142255187034607 0.13042742013931274 0.072682417929172516
0.21104459464550018 0.14435482025146484 0.079345971345901489
0.21737374365329742 0.15060596168041229 0.082471750676631927
0.22349786758422852 0.15704493224620819 0.085570283234119415
0.24888560175895691 0.17618963122367859 0.095052875578403473
0.3008502721786499 0.21231706440448761 0.1138836145401001
0.36258286237716675 0.25356313586235046 0.13714490830898285
0.42329686880111694 0.29406765103340149 0.16002234816551208
0.48303517699241638 0.33594745397567749 0.18213245272636414
0.54489874839782715 0.37931737303733826 0.20629790425300598
0.6029478907585144 0.4189511239528656 0.23230175673961639
0.13139118254184723 0.096358880400657654 0.053034450858831406
0.16963990032672882 0.11905653774738312 0.064482025802135468
0.21276681125164032 0.14576578140258789 0.079532414674758911
0.24904228746891022 0.17001613974571228 0.093574777245521545
0.27053427696228027 0.18495956063270569 0.10370521992444992
0.28405642509460449 0.1946929544210434 0.11047692596912384
0.31609848141670227 0.21924354135990143 0.1217678114771843
0.37551617622375488 0.26314446330070496 0.1417756974697113
0.43442100286483765 0.30278158187866211 0.16394031047821045
0.49397549033164978 0.34161719679832458 0.18782319128513336
0.55530142784118652 0.38506132364273071 0.21227891743183136
0.61437642574310303 0.42924264073371887 0.23654519021511078
0.66901630163192749 0.46946531534194946 0.26110091805458069
0.14232622087001801 0.10404878854751587 0.056397844105958939
0.18171657621860504 0.12818118929862976 0.068915873765945435
0.22515657544136047 0.15608377754688263 0.084641553461551666
0.2766076922416687 0.19014033675193787 0.10495820641517639
0.31365680694580078 0.21427580714225769 0.12081983685493469
0.33773738145828247 0.22991226613521576 0.13169132173061371
0.37735101580619812 0.25930613279342651 0.14542423188686371
0.44073525071144104 0.30776852369308472 0.16695767641067505
0.49030777812004089 0.34161174297332764 0.18659709393978119
0.54646205902099609 0.37885004281997681 0.21088548004627228
0.61115837097167969 0.42510509490966797 0.23827308416366577
0.66843181848526001 0.46886563301086426 0.26253136992454529
0.71749460697174072 0.50567936897277832 0.28394705057144165
0.1773252934217453 0.12561109662055969 0.068600960075855255
0.22039785981178284 0.15405122935771942 0.08443615585565567
0.2668919563293457 0.1858917623758316 0.10210207849740982
0.32073667645454407 0.22182080149650574 0.12283404171466827
0.36217471957206726 0.24876454472541809 0.13905403017997742
0.38801440596580505 0.26645591855049133 0.14988270401954651
0.41539952158927917 0.28627282381057739 0.16039302945137024
