assets/lut/others orange tone.cube
# Created by: G'MIC (https://gmic.eu)
TITLE "orange_tone"
# LUT size
LUT_3D_SIZE 7
# Data domain
DOMAIN_MIN 0.0 0.0 0.0
DOMAIN_MAX 1.0 1.0 1.0
# LUT data points
0.09022955596446991 0.00085450714686885476 0.0013969122665002942
0.27019810676574707 0.026655713096261024 0.0076459101401269436
0.51771652698516846 0.12866216897964478 0.0039028991013765335
0.82170116901397705 0.32334572076797485 0.003907566424459219
0.9992835521697998 0.52203035354614258 0.0039215688593685627
1 0.65687429904937744 0
1 0.7718818187713623 0
0.11225364357233047 0.005277581512928009 0.0014538783580064774
0.28818437457084656 0.032162535935640335 0.007893701083958149
0.5154375433921814 0.11793280392885208 0.0033077613916248083
0.82886034250259399 0.32578092813491821 0.0040060454048216343
0.99993312358856201 0.53549391031265259 0.0039215688593685627
1 0.66305667161941528 0
1 0.77871489524841309 0
0.12748268246650696 0.0057252920232713223 0.0022591983433812857
0.30646836757659912 0.041163995862007141 0.0088234692811965942
0.53393173217773438 0.13020509481430054 0.010883241891860962
0.84407526254653931 0.33950471878051758 0.01214726734906435
0.99940180778503418 0.54300528764724731 0.0039215688593685627
0.99614369869232178 0.66319197416305542 0
0.99644923210144043 0.7856641411781311 0
0.14929939806461334 0.0076307407580316067 0.00075046316487714648
0.34148016571998596 0.053525302559137344 0.0028113571461290121
0.60355329513549805 0.17727687954902649 0.0012327007716521621
0.91597598791122437 0.39593672752380371 0.0058823530562222004
1 0.57819598913192749 0.0039215688593685627
1 0.68993675708770752 0
0.9953387975692749 0.80173265933990479 0
0.17185607552528381 0.0096673406660556793 0.0006956212455406785
0.37095090746879578 0.058818906545639038 0.0039215688593685627
0.64160060882568359 0.19694001972675323 0.00034408568171784282
0.93815648555755615 0.42127487063407898 0.0039215688593685627
1 0.59686940908432007 0.0039215688593685627
0.99791669845581055 0.70754164457321167 0.0033090179786086082
0.99360096454620361 0.81855499744415283 0.003781427163630724
0.18739746510982513 0.0092499526217579842 0
0.39696472883224487 0.06655411422252655 0.002395824296399951
0.64641481637954712 0.19691148400306702 0
0.95942234992980957 0.44304385781288147 0.0038562251720577478
1 0.6126633882522583 0.0039215688593685627
0.99296492338180542 0.71679884195327759 0.0039215688593685627
0.99201399087905884 0.82927465438842773 0.0039215688593685627
0.22255104780197144 0.019615966826677322 0
0.45085617899894714 0.091709822416305542 0
0.70607960224151611 0.23732833564281464 0
0.96148818731307983 0.45820373296737671 0.0019388984655961394
1 0.6081281304359436 0.00035873113665729761
0.99059557914733887 0.71856689453125 0
0.99271893501281738 0.83359569311141968 0
0.10272742062807083 0.0016915265005081892 0.00021742278477177024
0.27814638614654541 0.025531096383929253 0.00317994668148458
0.52202659845352173 0.12258713692426682 0.004292207770049572
0.82903248071670532 0.32360449433326721 0.0046089170500636101
0.9998164176940918 0.53152471780776978 0.0031045202631503344
1 0.66463577747344971 0
1 0.77766352891921997 0
0.12801717221736908 0.0095274234190583229 8.2576980275916867e-06
0.31402701139450073 0.042849075049161911 0.0068502537906169891
0.54437029361724854 0.13340441882610321 0.0078431377187371254
0.85486173629760742 0.34812906384468079 0.00508092250674963
1 0.5580449104309082 0.0017969617620110512
1 0.68197274208068848 0.00070191925624385476
1 0.78975486755371094 0.0017692864639684558
0.14839360117912292 0.012339319102466106 0.00032169118640013039
0.3399333655834198 0.055119831115007401 0.0065573747269809246
0.58639401197433472 0.16309720277786255 0.0079129384830594063
0.89744138717651367 0.38508322834968567 0.0064956964924931526
1 0.57908374071121216 0.0039215688593685627
1 0.69032317399978638 0.0024820365943014622
0.99440270662307739 0.79860925674438477 0.0020044064149260521
0.17313656210899353 0.013357379473745823 0.00081775139551609755
0.38076287508010864 0.069045767188072205 0.003953881561756134
0.65067118406295776 0.20249521732330322 0.0039215688593685627
0.95335167646408081 0.42889145016670227 0.0039592068642377853
1 0.60585594177246094 0.0039215688593685627
1 0.70896691083908081 0.00078753300476819277
0.99497687816619873 0.81148922443389893 0
0.19287741184234619 0.012804487720131874 0.0015727024292573333
0.41336825489997864 0.077325455844402313 0.0077345604076981544
0.67407047748565674 0.21438923478126526 0.0039582494646310806
0.9626956582069397 0.44566276669502258 0.0039671654812991619
1 0.61713624000549316 0.0039528044871985912
0.9971126914024353 0.72214806079864502 0.0010364457266405225
0.99413847923278809 0.82593631744384766 0.00027992398827336729
0.20651593804359436 0.019222589209675789 0.00026424633688293397
0.42477414011955261 0.082146860659122467 0.0037260167300701141
0.68126171827316284 0.21958772838115692 0
0.98265963792800903 0.47574573755264282 0.0072829602286219597
1 0.6312110424041748 0.005771248135715723
0.98504918813705444 0.73070549964904785 0.0039215688593685627
0.98787736892700195 0.84024995565414429 0.0039215688593685627
0.2504214346408844 0.034407403320074081 0
0.48092982172966003 0.11030442267656326 0
0.75806492567062378 0.27189096808433533 0.00039864334394223988
0.99449419975280762 0.49795997142791748 0.0039215688593685627
0.99952238798141479 0.62551063299179077 0.00087331136455759406
0.98162531852722168 0.73331540822982788 0
0.98592162132263184 0.84677600860595703 0.00010735006799222901
0.12462424486875534 0.0030388326849788427 0.00016685934679117054
0.30764231085777283 0.033706307411193848 0.0034096811432391405
0.55968588590621948 0.14578761160373688 0.0039215688593685627
0.85457873344421387 0.35205903649330139 0.0038989498279988766
0.99931007623672485 0.54818111658096313 1.8669577912078239e-05
0.99998325109481812 0.67650038003921509 0.00090345495846122503
0.99784559011459351 0.78601992130279541 0.0020584405865520239
0.14650948345661163 0.0082088848575949669 0.0011086707236245275
0.33339297771453857 0.047014631330966949 0.0039215688593685627
0.58770382404327393 0.16274771094322205 0.0039215688593685627
0.90105605125427246 0.3879583477973938 0.00094544654712080956
1 0.58511054515838623 0.0010114333126693964
1 0.70027488470077515 0.0045088524930179119
0.99991840124130249 0.8012346625328064 0.0048826327547430992
0.16621871292591095 0.010931276716291904 0
0.36022692918777466 0.060299098491668701 0.0039215688593685627
0.6236034631729126 0.18831479549407959 0.0035362991038709879
0.9281575083732605 0.41859668493270874 0.00028800216387026012
1 0.60078436136245728 0.0049282447434961796
0.99854928255081177 0.70698869228363037 0.0086564458906650543
0.99133455753326416 0.81192487478256226 0.0067835338413715363
0.18917152285575867 0.014610350131988525 0.00062785431509837508
0.3990885317325592 0.072800867259502411 0.0039215688593685627
0.66779720783233643 0.2120942622423172 0.0035928913857787848
0.95902365446090698 0.44470357894897461 0.0019286959432065487
1 0.6142885684967041 0.0060726390220224857
0.99634301662445068 0.71811592578887939 0.0073530757799744606
0.99483412504196167 0.82580119371414185 0.0036705315578728914
0.21853595972061157 0.019089598208665848 0.0039153452962636948
0.43365287780761719 0.085497833788394928 0.003971354104578495
0.68942272663116455 0.22564820945262909 0.0039215688593685627
0.96860373020172119 0.45897802710533142 0.002947579137980938
1 0.62298929691314697 0.0059720207937061787
0.99912971258163452 0.73247778415679932 0.0052867066115140915
0.99998849630355835 0.84029275178909302 0.0034750546328723431
0.24350923299789429 0.026353573426604271 0.0038956287316977978
0.45503050088882446 0.095957137644290924 4.3741860281443223e-05
0.72925341129302979 0.25303769111633301 0.0035494486801326275
0.99269562959671021 0.49722522497177124 0.003982963040471077
1 0.64802712202072144 0.004069608636200428
0.99872547388076782 0.75061088800430298 0.0042476728558540344
0.9977414608001709 0.85683137178421021 0.005074190441519022
0.27361354231834412 0.037058152258396149 0.00012835334928240627
0.49974370002746582 0.12120715528726578 3.1115963793126866e-05
0.7871214747428894 0.29751855134963989 0.0039560357108712196
0.99848634004592896 0.52145922183990479 0.0039215688593685627
1 0.66148799657821655 0.0027679442428052425
0.9976266622543335 0.76286429166793823 0
0.99060356616973877 0.86511719226837158 0.0015974007546901703
0.14433175325393677 0.0035295824054628611 0
0.34422966837882996 0.046922214329242706 0.0037838504649698734
0.61789679527282715 0.18031167984008789 0.0077925138175487518
0.90103596448898315 0.39034336805343628 0.0039215688593685627
1 0.57321906089782715 0.0039215688593685627
1 0.69583451747894287 0.0039495727978646755
0.99993681907653809 0.7997126579284668 0.0039215688593685627
0.16838805377483368 0.010719642974436283 2.4773093173280358e-05
0.37109905481338501 0.060562673956155777 0.0039215688593685627
0.64342916011810303 0.19337765872478485 0.0039215688593685627
0.94706398248672485 0.42592170834541321 0.00049389107152819633
1 0.60959571599960327 0.0039213891141116619
1 0.71830815076828003 0.0078413421288132668
1 0.81358170509338379 0.0078431377187371254
0.19050537049770355 0.011848689056932926 0.0011074290378019214
0.39096447825431824 0.066081009805202484 0.0039215688593685627
0.66156560182571411 0.20705969631671906 0.0020285812206566334
0.96663141250610352 0.45302024483680725 0
1 0.62629753351211548 0.0066213272511959076
0.99865877628326416 0.72430801391601562 0.011764706112444401
0.99054455757141113 0.82315623760223389 0.0088430214673280716
0.20806415379047394 0.014601464383304119 0.00043945311335846782
0.41482463479042053 0.075159259140491486 0.0039215688593685627
0.68121600151062012 0.21923121809959412 2.1541820842685411e-06
0.97835499048233032 0.47166916728019714 0
1 0.62833589315414429 0.0074041029438376427
0.98192876577377319 0.72764277458190918 0.011626807972788811
0.98882240056991577 0.8369336724281311 0.0073808706365525723
0.23547238111495972 0.023858522996306419 0.0037866330239921808
0.44957190752029419 0.094388134777545929 0.0038633458316326141
0.73194980621337891 0.25602856278419495 1.4361213516167481e-06
0.98158711194992065 0.4823269248008728 0
0.99986964464187622 0.62553459405899048 0.0062457965686917305
0.97969520092010498 0.73558402061462402 0.0078431377187371254
0.99565130472183228 0.85163432359695435 0.0056029525585472584
0.2645815908908844 0.029058285057544708 0.0069264727644622326
0.48492437601089478 0.10797715932130814 0.0035288941580802202
0.7799532413482666 0.28647544980049133 0.0047263349406421185
0.99882286787033081 0.52164280414581299 0.0028546650428324938
1 0.65791600942611694 0.0039215688593685627
0.99235957860946655 0.7591322660446167 0.0043687410652637482
0.99692344665527344 0.86557239294052124 0.0057722651399672031
0.29300239682197571 0.036042515188455582 0.0039215688593685627
0.52208417654037476 0.12391290068626404 0.0039790133014321327
0.8227962851524353 0.32100614905357361 0.0078431377187371254
1 0.54990667104721069 0.0066205789335072041
1 0.6847386360168457 0.0024923437740653753
0.99994713068008423 0.78136378526687622 0
0.99500066041946411 0.87521010637283325 0.0031790640205144882
0.16297490894794464 0.0062615186907351017 0
0.36688265204429626 0.061146095395088196 1.5557981896563433e-05
0.65721362829208374 0.20695938169956207 0.0023277881555259228
0.95049786567687988 0.42623355984687805 0.0039215688593685627
1 0.59576350450515747 0.0064787771552801132
1 0.70966333150863647 0.0075418958440423012
0.99996966123580933 0.81608188152313232 0.0034690259490162134
0.19187220931053162 0.0145605793222785 0.0032529344316571951
0.40510156750679016 0.074104547500610352 0.0036778170615434647
0.68554860353469849 0.21967886388301849 0.0037276025395840406
0.96953761577606201 0.44941931962966919 0.0039215688593685627
1 0.62586081027984619 0.0060495710931718349
1 0.732094407081604 0.0078431377187371254
1 0.82589089870452881 0.0074708377942442894
0.21823321282863617 0.021153468638658524 0.0030252344440668821
0.43703117966651917 0.08537793904542923 0.0039215688593685627
0.69439637660980225 0.22781144082546234 0.0039215688593685627
0.98272395133972168 0.47515144944190979 0.0039215688593685627
1 0.64538991451263428 0.0076118018478155136
0.99989134073257446 0.74190342426300049 0.0089883990585803986
0.9930427074432373 0.83247482776641846 0.0078431377187371254
0.23548091948032379 0.024192046374082565 0.00082941987784579396
0.45837336778640747 0.096104457974433899 0.0039215688593685627
0.72691696882247925 0.2516571581363678 0.0028895209543406963
0.98846298456192017 0.49289220571517944 0.0017972011119127274
0.9999924898147583 0.64646399021148682 0.0069587705656886101
0.982249915599823 0.74477612972259521 0.0077862008474767208
0.98791170120239258 0.84560674428939819 0.0049198674969375134
0.25948610901832581 0.031902194023132324 0.0028380600269883871
0.48620724678039551 0.11329007893800735 0.0054658479057252407
0.78164803981781006 0.29215008020401001 0.0010051054414361715
0.99680310487747192 0.51605242490768433 0
0.99996113777160645 0.65299093723297119 0.0031764460727572441
0.9780278205871582 0.75260436534881592 0.0035570182371884584
0.99446040391921997 0.85877418518066406 0.0014495400246232748
0.28822517395019531 0.035437341779470444 0.0044267843477427959
0.53026086091995239 0.13399654626846313 0.0039465213194489479
0.83432406187057495 0.32873770594596863 0.0039303051307797432
1 0.54981648921966553 0.0010693119838833809
1 0.67551249265670776 0
0.98493772745132446 0.76811039447784424 7.2404451202601194e-05
0.99463802576065063 0.86754786968231201 0.0023917702492326498
0.32637736201286316 0.044311761856079102 0.0039215688593685627
0.58290135860443115 0.16005422174930573 0.0044755972921848297
0.8777351975440979 0.3602810800075531 0.0077427285723388195
1 0.56709355115890503 0.003989245742559433
1 0.69704687595367432 7.7789904025848955e-05
0.9999769926071167 0.78791487216949463 0
0.99868053197860718 0.87568199634552002 0.0039215688593685627
0.18542997539043427 0.012589712627232075 9.5681585662532598e-05
0.39242285490036011 0.068778857588768005 0.0025390025693923235
0.67776775360107422 0.21693147718906403 0
0.95717042684555054 0.44134855270385742 0.0039215688593685627
1 0.60420745611190796 0.0076004327274858952
0.99335390329360962 0.71546489000320435 0.0056833755224943161
0.99424749612808228 0.82760393619537354 0.00048789230640977621
0.21098825335502625 0.018761130049824715 0.0027303807437419891
0.43524661660194397 0.08519522100687027 0.00076223636278882623
0.72105783224105835 0.24328851699829102 1.1967677892243955e-05
0.98545533418655396 0.47567096352577209 0.0039215688593685627
1 0.63526672124862671 0.0039215688593685627
0.99932658672332764 0.73873162269592285 0.0039185765199363232
0.99951183795928955 0.83844131231307983 0.0038610869087278843
0.23886477947235107 0.029655830934643745 0.0026428969576954842
0.47865715622901917 0.10636674612760544 0.0039215688593685627
0.75413364171981812 0.26859691739082336 0.0039215688593685627
0.99427342414855957 0.50249862670898438 0.0039215688593685627
1 0.66013598442077637 0.0039215688593685627
0.99995797872543335 0.75511878728866577 0.0039215688593685627
0.99437624216079712 0.84616506099700928 0.0039215688593685627
0.26239472627639771 0.031977739185094833 0.0037889368832111359
0.51203471422195435 0.12117479741573334 0.0078413421288132668
0.79734379053115845 0.29733851552009583 0.0039215688593685627
0.99942994117736816 0.5255424976348877 0.0025661841500550508
1 0.67175686359405518 0.0037080203182995319
0.99719643592834473 0.76497131586074829 0.0032029992435127497
0.99256706237792969 0.8576962947845459 0.0011939553078263998
0.28492242097854614 0.036033090204000473 0.0011329201515763998
0.52544641494750977 0.12945404648780823 0.0039215688593685627
0.82745695114135742 0.32144314050674438 0.003896436421200633
1 0.54328805208206177 7.3062670708168298e-05
1 0.67827624082565308 0
0.99153918027877808 0.77214181423187256 0
0.99657845497131348 0.86755365133285522 0
0.31130775809288025 0.037470679730176926 0.0014093137579038739
0.55981874465942383 0.14865188300609589 0.0023926529102027416
0.86423963308334351 0.354837566614151 0.0039215688593685627
1 0.56620734930038452 0.0026165232993662357
1 0.69272351264953613 0
0.99457830190658569 0.78302216529846191 0
0.99745291471481323 0.87465310096740723 0
0.35825163125991821 0.054670941084623337 0.0023651572410017252
0.62648022174835205 0.19002553820610046 0.0038434495218098164
0.91550219058990479 0.39301741123199463 0.0039215688593685627
1 0.5823972225189209 0.0039215688593685627
1 0.7060617208480835 0
0.9999845027923584 0.79663491249084473 0
0.99971705675125122 0.88321185111999512 0.0001516903139417991
0.21281334757804871 0.021190449595451355 0
0.43391063809394836 0.094233445823192596 0.00049980013864114881
0.71116721630096436 0.24949924647808075 0.0016516741598024964
0.96662342548370361 0.46619430184364319 0.0075349994003772736
1 0.61560499668121338 0.0062666651792824268
0.98631805181503296 0.72474855184555054 0.0038064394611865282
0.98912858963012695 0.83449673652648926 0
0.24402202665805817 0.026987636461853981 0
0.46797263622283936 0.10222738236188889 0
0.74481135606765747 0.26682034134864807 0
0.99684357643127441 0.50595253705978394 0.0043447604402899742
1 0.64391994476318359 0.0017785914242267609
0.98664367198944092 0.74242508411407471 0
0.99723422527313232 0.84643518924713135 0
0.26671668887138367 0.033012434840202332 0.0039215688593685627
0.50886052846908569 0.1245066300034523 0.0039060106500983238
0.78795850276947021 0.29919266700744629 0.0011323516955599189
0.99869441986083984 0.52541714906692505 0.002649898175150156
1 0.66938537359237671 0
0.99960815906524658 0.76373481750488281 0
0.99664902687072754 0.85848063230514526 0
0.29145503044128418 0.036934453994035721 0.0050763445906341076
0.5437617301940918 0.14111167192459106 0.0075224484317004681
0.83094841241836548 0.32762449979782104 0.003831332316622138
1 0.54900991916656494 6.4625460254319478e-06
1 0.68264520168304443 0
0.99963730573654175 0.77607649564743042 0
0.99576210975646973 0.86873036623001099 0
0.3130277693271637 0.040743615478277206 0.0021720137447118759
0.56521475315093994 0.15503756701946259 0.0039215688593685627
0.85549497604370117 0.3512304425239563 0.0039215688593685627
1 0.55582332611083984 0.0019919003825634718
0.99996346235275269 0.68265378475189209 0
0.98864960670471191 0.77982932329177856 0
0.99576985836029053 0.87488222122192383 0
0.33833077549934387 0.046922706067562103 0
0.59029603004455566 0.1740950345993042 0
0.86474239826202393 0.37360367178916931 0.0039215688593685627
0.99964219331741333 0.56498163938522339 0.0038468902930617332
0.99999219179153442 0.69248867034912109 0
0.98841971158981323 0.78909653425216675 0
0.99589717388153076 0.88169753551483154 0
0.37506905198097229 0.066957540810108185 0
0.63203853368759155 0.21006789803504944 0
0.88007235527038574 0.39978009462356567 0.003516088705509901
0.99861901998519897 0.57561957836151123 0.0027922536246478558
1 0.70289921760559082 0
0.99006932973861694 0.80036443471908569 0
0.99308550357818604 0.89041280746459961 0
