assets/lut/others golden.cube
# Created by: G'MIC (https://gmic.eu)
TITLE "golden"
# LUT size
LUT_3D_SIZE 5
# Data domain
DOMAIN_MIN 0.0 0.0 0.0
DOMAIN_MAX 1.0 1.0 1.0
# LUT data points
0.096108578145503998 0.00011435116175562143 0.051911912858486176
0.19938485324382782 0.0019774043466895819 0.056513931602239609
0.5212101936340332 0.0003664802061393857 0.061275139451026917
0.82361745834350586 0.0039145676419138908 0.055506464093923569
0.99023103713989258 0.0010026969248428941 0.050704985857009888
0.09809335321187973 0.05822131410241127 0.051420100033283234
0.283162921667099 0.093258999288082123 0.053035195916891098
0.60943359136581421 0.11667487770318985 0.053484674543142319
0.88809490203857422 0.15154044330120087 0.054625373333692551
0.99985289573669434 0.16977895796298981 0.064466215670108795
0.10088799893856049 0.39207613468170166 0.053715754300355911
0.35366162657737732 0.43986925482749939 0.061829376965761185
0.6764337420463562 0.46666333079338074 0.074340984225273132
0.93779110908508301 0.50319796800613403 0.078334107995033264
0.99863362312316895 0.55487996339797974 0.093253880739212036
0.099721185863018036 0.7635115385055542 0.063535638153553009
0.42128711938858032 0.80467206239700317 0.080339409410953522
0.75158458948135376 0.84122401475906372 0.1022961214184761
0.98139196634292603 0.8752821683883667 0.13613474369049072
1 0.8891373872756958 0.16339187324047089
0.11096952855587006 0.99920153617858887 0.095739640295505524
0.52477890253067017 1 0.12721750140190125
0.81822806596755981 1 0.15406697988510132
0.99548864364624023 0.99917763471603394 0.19065527617931366
1 0.99985980987548828 0.21778358519077301
0.090858161449432373 0 0.080153323709964752
0.20216734707355499 0 0.11216495186090469
0.51492786407470703 0.0023424036335200071 0.15771484375
0.82439106702804565 5.2956973377149552e-05 0.17910337448120117
0.99228602647781372 0.0043489793315529823 0.22699320316314697
0.091263711452484131 0.063914552330970764 0.14925552904605865
0.28054887056350708 0.10377435386180878 0.18215577304363251
0.61295616626739502 0.12523274123668671 0.21663549542427063
0.89636063575744629 0.16151320934295654 0.23822103440761566
0.99962455034255981 0.18044812977313995 0.27293235063552856
0.090025328099727631 0.40005511045455933 0.20683272182941437
0.36266425251960754 0.43949532508850098 0.23781180381774902
0.6922488808631897 0.48002350330352783 0.27984607219696045
0.94835489988327026 0.5198897123336792 0.29715126752853394
0.99851256608963013 0.53706496953964233 0.32773011922836304
0.094088688492774963 0.7740100622177124 0.25887593626976013
0.43665692210197449 0.80865204334259033 0.2958492636680603
0.7427554726600647 0.8324400782585144 0.33048191666603088
0.97595131397247314 0.86678141355514526 0.36107191443443298
1 0.88532894849777222 0.38845095038414001
0.12799791991710663 1 0.34194958209991455
0.52334082126617432 0.99990004301071167 0.36924418807029724
0.8331790566444397 0.99976938962936401 0.39774787425994873
0.98805767297744751 0.99860119819641113 0.43488433957099915
1 0.99635976552963257 0.42028754949569702
0.091746173799037933 0 0.31044125556945801
0.20523777604103088 0 0.34475001692771912
0.52323776483535767 3.4466913348296657e-05 0.36843672394752502
0.81982314586639404 0.0015096926363185048 0.39193969964981079
0.98393994569778442 0 0.43902760744094849
0.092443652451038361 0.068373329937458038 0.37768059968948364
0.28277522325515747 0.097165890038013458 0.40423008799552917
0.62017369270324707 0.13238570094108582 0.43883419036865234
0.90486007928848267 0.15403297543525696 0.47092926502227783
0.99763989448547363 0.19189095497131348 0.50129240751266479
0.09636562317609787 0.41021424531936646 0.43839427828788757
0.35953584313392639 0.44794094562530518 0.47281813621520996
0.69138342142105103 0.50384247303009033 0.49932491779327393
0.9514840841293335 0.51628035306930542 0.52482324838638306
1 0.58726781606674194 0.57377523183822632
0.096892639994621277 0.78116172552108765 0.49649587273597717
0.43085426092147827 0.81525087356567383 0.52284747362136841
0.76716619729995728 0.85707718133926392 0.56311416625976562
0.98952710628509521 0.86930876970291138 0.57751739025115967
1 0.90704309940338135 0.61218535900115967
0.14795461297035217 1 0.56804412603378296
0.5208016037940979 0.99211829900741577 0.59502714872360229
0.82782787084579468 0.99960875511169434 0.62982273101806641
0.99283087253570557 0.9976920485496521 0.65081119537353516
1 0.99692553281784058 0.70198911428451538
0.080292798578739166 0 0.54262977838516235
0.22475434839725494 0.00040358002297580242 0.57102864980697632
0.5162968635559082 0.00024889776250347495 0.60069149732589722
0.83737528324127197 0 0.63378703594207764
0.99372303485870361 0.0038953146431595087 0.67422717809677124
0.090118110179901123 0.073053695261478424 0.61550670862197876
0.29718765616416931 0.11429794877767563 0.64508342742919922
0.62266343832015991 0.13081440329551697 0.67412263154983521
0.90956312417984009 0.166815385222435 0.70029431581497192
0.99917423725128174 0.20632041990756989 0.73651492595672607
0.097886152565479279 0.41917034983634949 0.67248088121414185
0.3766537606716156 0.46216690540313721 0.70662051439285278
0.69130754470825195 0.4915975034236908 0.73435217142105103
0.96292793750762939 0.52442443370819092 0.75696742534637451
1 0.59835773706436157 0.79846221208572388
0.10426970571279526 0.78782063722610474 0.73345160484313965
0.46140450239181519 0.82778847217559814 0.76677578687667847
0.77311593294143677 0.85756802558898926 0.79394453763961792
0.98745250701904297 0.88023799657821655 0.81366121768951416
1 0.90744006633758545 0.84568852186203003
0.15827347338199615 1 0.80754488706588745
0.55054223537445068 0.99797552824020386 0.83279329538345337
0.85290282964706421 0.99807548522949219 0.86191117763519287
0.99324548244476318 0.99719774723052979 0.88613903522491455
0.99994868040084839 0.99732404947280884 0.92338937520980835
0.084400922060012817 0 0.77053219079971313
0.22954873740673065 0.00019369686197023839 0.80136615037918091
0.55187952518463135 0 0.82823461294174194
0.84566205739974976 0.00011919807002414018 0.85728687047958374
0.99879157543182373 0.0029558069072663784 0.88673079013824463
0.091384336352348328 0.079925239086151123 0.84244400262832642
0.30220657587051392 0.12089180946350098 0.87449741363525391
0.64841431379318237 0.14770345389842987 0.9017450213432312
0.92024064064025879 0.17946745455265045 0.92874586582183838
0.99993753433227539 0.19371730089187622 0.94147533178329468
0.098750770092010498 0.42745581269264221 0.90418928861618042
0.36418101191520691 0.47073033452033997 0.92373573780059814
0.69831877946853638 0.505057692527771 0.92083746194839478
0.96227723360061646 0.54699444770812988 0.94750720262527466
0.99994397163391113 0.58131766319274902 0.9452354907989502
0.10841897875070572 0.79908210039138794 0.94033277034759521
0.45705071091651917 0.82597112655639648 0.94510984420776367
0.78110909461975098 0.86297464370727539 0.94758409261703491
0.98545759916305542 0.88356244564056396 0.9471624493598938
1 0.92204242944717407 0.9529411792755127
0.15649442374706268 0.99875146150588989 0.95128154754638672
0.53781658411026001 0.99031180143356323 0.9476621150970459
0.83868980407714844 0.99667555093765259 0.94521892070770264
0.99929606914520264 0.99355459213256836 0.94949644804000854
1 0.98823529481887817 0.94497901201248169
