assets/lut/others vintage alt.cube
# Created by: G'MIC (https://gmic.eu)
TITLE "vintage_alt"
# LUT size
LUT_3D_SIZE 7
# Data domain
DOMAIN_MIN 0.0 0.0 0.0
DOMAIN_MAX 1.0 1.0 1.0
# LUT data points
0.14938725531101227 0.030882352963089943 0.14441066980361938
0.2867647111415863 0.030882352963089943 0.14265453815460205
0.42055207490921021 0.033921726047992706 0.14460813999176025
0.55628663301467896 0.034803923219442368 0.14378000795841217
0.69133144617080688 0.033603623509407043 0.14458337426185608
0.82884562015533447 0.030882352963089943 0.14473038911819458
0.96156209707260132 0.033979751169681549 0.14275044202804565
0.14790807664394379 0.18830396234989166 0.14260342717170715
0.28455883264541626 0.18530160188674927 0.1408088207244873
0.41941922903060913 0.18577420711517334 0.1408088207244873
0.55377566814422607 0.18921568989753723 0.1408088207244873
0.69054144620895386 0.18921568989753723 0.14129409193992615
0.8282962441444397 0.18749319016933441 0.14473038911819458
0.96003568172454834 0.18529412150382996 0.14285759627819061
0.14663095772266388 0.3436274528503418 0.14126785099506378
0.28455883264541626 0.34301930665969849 0.1408088207244873
0.41973039507865906 0.34218445420265198 0.1408088207244873
0.55487120151519775 0.3436274528503418 0.1408088207244873
0.69354128837585449 0.3436274528503418 0.14496336877346039
0.8335680365562439 0.34037870168685913 0.14944148063659668
0.96488821506500244 0.33970588445663452 0.14565660059452057
0.14651213586330414 0.49803921580314636 0.14201708137989044
0.28592380881309509 0.49797698855400085 0.14081098139286041
0.41973039507865906 0.49803453683853149 0.1408088207244873
0.55551725625991821 0.49803921580314636 0.14111283421516418
0.69550734758377075 0.49803921580314636 0.14781774580478668
0.83592700958251953 0.49411764740943909 0.15257352590560913
0.96746325492858887 0.49411764740943909 0.14976900815963745
0.1462196558713913 0.65251010656356812 0.14473038911819458
0.28455883264541626 0.65245097875595093 0.14452233910560608
0.41973039507865906 0.65245097875595093 0.1411239355802536
0.55566668510437012 0.65245097875595093 0.14421303570270538
0.6945919394493103 0.65187692642211914 0.14865195751190186
0.83292633295059204 0.64852941036224365 0.15257352590560913
0.96637135744094849 0.64853954315185547 0.15174506604671478
0.14620098471641541 0.807403564453125 0.14472572505474091
0.28550484776496887 0.80686277151107788 0.14546462893486023
0.42175775766372681 0.806782066822052 0.14571018517017365
0.5570671558380127 0.80416285991668701 0.14794030785560608
0.693703293800354 0.80294120311737061 0.14865195751190186
0.82914704084396362 0.80323952436447144 0.15052460134029388
0.96031087636947632 0.80690068006515503 0.14559555053710938
0.14877563714981079 0.95785021781921387 0.14508764445781708
0.28696191310882568 0.95735293626785278 0.14865195751190186
0.42357099056243896 0.95735293626785278 0.14865195751190186
0.5587955117225647 0.95735293626785278 0.14865195751190186
0.69235962629318237 0.95735293626785278 0.14865195751190186
0.82768166065216064 0.95735293626785278 0.14865195751190186
0.95972669124603271 0.96127450466156006 0.14390794932842255
0.14967405796051025 0.030882352963089943 0.26169958710670471
0.28521654009819031 0.030882352963089943 0.26086413860321045
0.41781231760978699 0.033708252012729645 0.26056194305419922
0.55528968572616577 0.033897086977958679 0.26041337847709656
0.6932215690612793 0.031231584027409554 0.26058006286621094
0.82916665077209473 0.030882352963089943 0.26053920388221741
0.96100163459777832 0.030882352963089943 0.25986245274543762
0.1513386070728302 0.18710288405418396 0.2644035816192627
0.28662604093551636 0.18865740299224854 0.26175448298454285
0.41811871528625488 0.18921568989753723 0.26029577851295471
0.55294120311737061 0.18921568989753723 0.25720173120498657
0.68944931030273438 0.18921568989753723 0.25855964422225952
0.82689082622528076 0.1868344247341156 0.26053920388221741
0.96013116836547852 0.18529412150382996 0.25976771116256714
0.14940591156482697 0.3436274528503418 0.26109734177589417
0.2867647111415863 0.3436274528503418 0.26053920388221741
0.41937741637229919 0.3436274528503418 0.25744855403900146
0.55240178108215332 0.3436274528503418 0.25661763548851013
0.68768352270126343 0.3436274528503418 0.257496178150177
0.82683670520782471 0.34362643957138062 0.26098042726516724
0.96253448724746704 0.34128943085670471 0.26067084074020386
0.14851775765419006 0.49803921580314636 0.26053920388221741
0.28670573234558105 0.49803921580314636 0.26037070155143738
0.41973039507865906 0.49803921580314636 0.25661763548851013
0.55294120311737061 0.49803921580314636 0.25661763548851013
0.68975222110748291 0.49803921580314636 0.26057204604148865
0.82934129238128662 0.49803921580314636 0.26464137434959412
0.96530711650848389 0.49803921580314636 0.2645706832408905
0.14733476936817169 0.65246927738189697 0.26053920388221741
0.28455883264541626 0.65245097875595093 0.26053920388221741
0.41973039507865906 0.65245097875595093 0.2572186291217804
0.55317819118499756 0.65245097875595093 0.25976106524467468
0.69105857610702515 0.65245097875595093 0.2629820704460144
0.83009403944015503 0.65206789970397949 0.26751253008842468
0.96590584516525269 0.65187102556228638 0.26809656620025635
0.14695514738559723 0.80782276391983032 0.25972592830657959
0.28549256920814514 0.80686277151107788 0.26053979992866516
0.41973426938056946 0.80671948194503784 0.26053920388221741
0.55487352609634399 0.80480456352233887 0.26119455695152283
0.69103586673736572 0.80306786298751831 0.26446077227592468
0.82927203178405762 0.80294120311737061 0.26746436953544617
0.96425652503967285 0.80398356914520264 0.26828840374946594
0.15001517534255981 0.95868706703186035 0.26217064261436462
0.28775328397750854 0.95735293626785278 0.26446077227592468
0.42040756344795227 0.95735293626785278 0.26420623064041138
0.55511784553527832 0.95735293626785278 0.26446077227592468
0.69042778015136719 0.95735293626785278 0.26446077227592468
0.82830405235290527 0.95735293626785278 0.26393142342567444
0.9668278694152832 0.95771545171737671 0.26636311411857605
0.15098251402378082 0.030882352963089943 0.3802696168422699
0.28680539131164551 0.030882352963089943 0.3802696168422699
0.41872811317443848 0.031316675245761871 0.3802696168422699
0.55614203214645386 0.030923999845981598 0.3792603611946106
0.69450724124908447 0.030882352963089943 0.37650713324546814
0.83082103729248047 0.030882352963089943 0.37634804844856262
0.96307981014251709 0.034727629274129868 0.37634804844856262
0.15241949260234833 0.18877594172954559 0.38102248311042786
0.28975322842597961 0.18556115031242371 0.3802696168422699
0.42098918557167053 0.18918505311012268 0.37993881106376648
0.55455738306045532 0.18921568989753723 0.37634804844856262
0.69106286764144897 0.18906404078006744 0.37566587328910828
0.82862836122512817 0.18631750345230103 0.37634804844856262
0.96396058797836304 0.18655839562416077 0.37634804844856262
0.14895917475223541 0.34367412328720093 0.37664768099784851
0.28863963484764099 0.3429417610168457 0.37866935133934021
0.42149928212165833 0.34352990984916687 0.37635305523872375
0.55308657884597778 0.3436274528503418 0.37248885631561279
0.68772101402282715 0.3436274528503418 0.37242648005485535
0.82563823461532593 0.3436274528503418 0.3750566840171814
0.96208631992340088 0.3436274528503418 0.37634804844856262
0.14931224286556244 0.49803921580314636 0.37634804844856262
0.28679853677749634 0.49803921580314636 0.37634804844856262
0.42008781433105469 0.49803921580314636 0.37285161018371582
0.55290752649307251 0.49803921580314636 0.37242648005485535
0.68786418437957764 0.49803921580314636 0.37248820066452026
0.82530999183654785 0.49803921580314636 0.37622767686843872
0.96161013841629028 0.49803921580314636 0.37635233998298645
0.14980588853359222 0.65245097875595093 0.37634804844856262
0.2867647111415863 0.65245097875595093 0.37634804844856262
0.41973039507865906 0.65245097875595093 0.37246319651603699
0.55294120311737061 0.65245097875595093 0.37253955006599426
0.68833386898040771 0.65245097875595093 0.37598082423210144
0.82597655057907104 0.65245097875595093 0.37744560837745667
0.96132522821426392 0.65245097875595093 0.3784274160861969
0.15066125988960266 0.80631893873214722 0.37646448612213135
0.28783723711967468 0.80451589822769165 0.37634804844856262
0.42092949151992798 0.8037915825843811 0.37634804844856262
0.55385780334472656 0.80516725778579712 0.37634804844856262
0.69006490707397461 0.80581915378570557 0.37756264209747314
0.82714104652404785 0.80557644367218018 0.3802696168422699
0.96153479814529419 0.80618363618850708 0.3802696168422699
0.15256689488887787 0.95735293626785278 0.3802696168422699
0.29080510139465332 0.95735293626785278 0.37848085165023804
0.42407748103141785 0.95735293626785278 0.37903207540512085
0.55571615695953369 0.95735293626785278 0.3802696168422699
0.69164282083511353 0.95735293626785278 0.3802696168422699
0.8291746973991394 0.95735293626785278 0.3802696168422699
0.96198749542236328 0.95735293626785278 0.37951621413230896
0.15038684010505676 0.030882352963089943 0.49331939220428467
0.28778338432312012 0.030882352963089943 0.49607843160629272
0.42059785127639771 0.030882352963089943 0.49607843160629272
0.55626606941223145 0.030882352963089943 0.49215686321258545
0.69494074583053589 0.030882352963089943 0.49215686321258545
0.83248031139373779 0.030882352963089943 0.49261465668678284
0.96272367238998413 0.034396599978208542 0.4952818751335144
0.1499420702457428 0.18921352922916412 0.49263101816177368
0.29233995079994202 0.18529412150382996 0.49620696902275085
0.42442035675048828 0.18529412150382996 0.49599501490592957
0.55686277151107788 0.18574167788028717 0.49215686321258545
0.69361722469329834 0.18608278036117554 0.49179437756538391
0.83144205808639526 0.18529412150382996 0.49291586875915527
0.96630692481994629 0.1852964460849762 0.49723377823829651
0.14700222015380859 0.34541639685630798 0.48970609903335571
0.29034477472305298 0.33973649144172668 0.49372950196266174
0.42406153678894043 0.33970588445663452 0.49219018220901489
0.55563592910766602 0.34264609217643738 0.4883827269077301
0.69067555665969849 0.3436274528503418 0.48823529481887817
0.82769894599914551 0.3436274528503418 0.4918210506439209
0.96341240406036377 0.34358856081962585 0.49469885230064392
0.14883363246917725 0.49791723489761353 0.49215686321258545
0.28733626008033752 0.49416267871856689 0.49215686321258545
0.42120298743247986 0.494140625 0.48828840255737305
0.55366635322570801 0.49803921580314636 0.48823529481887817
0.68815106153488159 0.49803921580314636 0.48823529481887817
0.82459819316864014 0.49803921580314636 0.48830318450927734
0.95906925201416016 0.49803921580314636 0.49209323525428772
0.15112604200839996 0.64852941036224365 0.4922846257686615
0.2867647111415863 0.64852941036224365 0.49213802814483643
0.41973039507865906 0.64862972497940063 0.48823529481887817
0.55294120311737061 0.65245097875595093 0.48823529481887817
0.68799018859863281 0.65245097875595093 0.48824140429496765
0.8230474591255188 0.65319979190826416 0.48886975646018982
0.95678138732910156 0.65245097875595093 0.48873615264892578
0.15270769596099854 0.80294120311737061 0.49607843160629272
0.28837770223617554 0.80294120311737061 0.49221283197402954
0.42078050971031189 0.80294120311737061 0.49091392755508423
0.55449950695037842 0.80508911609649658 0.49121227860450745
0.69022095203399658 0.80686277151107788 0.49218940734863281
0.82605153322219849 0.80686277151107788 0.49281653761863708
0.95879799127578735 0.80686277151107788 0.49217456579208374
0.15341150760650635 0.95735293626785278 0.49607843160629272
0.29064050316810608 0.95735293626785278 0.49594670534133911
0.42365819215774536 0.95735293626785278 0.49292698502540588
0.5572282075881958 0.95735293626785278 0.49560654163360596
0.6939007043838501 0.95735293626785278 0.49607843160629272
0.8308747410774231 0.95735293626785278 0.49607843160629272
0.96351754665374756 0.95735293626785278 0.49469417333602905
0.15023806691169739 0.030882352963089943 0.60813766717910767
0.28762158751487732 0.030882352963089943 0.61188727617263794
0.41990602016448975 0.030882352963089943 0.61188727617263794
0.55495411157608032 0.030882352963089943 0.60845249891281128
0.69353562593460083 0.030882352963089943 0.60796570777893066
0.83091425895690918 0.030882352963089943 0.60936999320983887
0.96119725704193115 0.034653667360544205 0.61355465650558472
0.15087983012199402 0.18687769770622253 0.60956019163131714
0.29070183634757996 0.18529412150382996 0.61188727617263794
0.4237266480922699 0.18529412150382996 0.61008679866790771
0.55686277151107788 0.18529412150382996 0.60796570777893066
0.69421207904815674 0.18542926013469696 0.60796570777893066
0.83167898654937744 0.18684305250644684 0.61102378368377686
0.96593272686004639 0.18733207881450653 0.61866003274917603
0.14897541701793671 0.3436274528503418 0.60796570777893066
0.28924661874771118 0.33970588445663452 0.60796570777893066
0.4237314760684967 0.33970588445663452 0.60781729221343994
0.55686277151107788 0.33970588445663452 0.60428416728973389
0.69253754615783691 0.34361308813095093 0.60458523035049438
0.8289375901222229 0.3436274528503418 0.60877889394760132
0.96310907602310181 0.3436274528503418 0.61437487602233887
0.14948827028274536 0.49624603986740112 0.60796570777893066
0.28680437803268433 0.49411764740943909 0.60762739181518555
0.42128199338912964 0.49411764740943909 0.60404413938522339
0.55490660667419434 0.49651715159416199 0.60404413938522339
0.69013720750808716 0.49803921580314636 0.60404413938522339
0.82512784004211426 0.49896228313446045 0.60547167062759399
0.95787054300308228 0.49803921580314636 0.60806941986083984
0.15180553495883942 0.64726728200912476 0.61112576723098755
0.2867647111415863 0.64852941036224365 0.60763239860534668
0.41914913058280945 0.64852941036224365 0.60404413938522339
0.55294120311737061 0.65244811773300171 0.60404413938522339
0.68850314617156982 0.65301430225372314 0.60404413938522339
0.82293856143951416 0.6563725471496582 0.60404413938522339
0.95415240526199341 0.65245097875595093 0.60186749696731567
0.15330882370471954 0.80294120311737061 0.61188727617263794
0.28788062930107117 0.80294120311737061 0.61044180393218994
0.41991907358169556 0.80294120311737061 0.60485339164733887
0.55478769540786743 0.80519825220108032 0.60429477691650391
0.69083791971206665 0.80686277151107788 0.60797333717346191
0.82566273212432861 0.80686277151107788 0.60809260606765747
0.95672577619552612 0.80686277151107788 0.6040956974029541
0.15330882370471954 0.96093833446502686 0.61188727617263794
0.28848040103912354 0.95735293626785278 0.61188727617263794
0.42351195216178894 0.95735293626785278 0.60796570777893066
0.55862587690353394 0.95735293626785278 0.60796570777893066
0.6955641508102417 0.95735293626785278 0.61188727617263794
0.83222657442092896 0.95735293626785278 0.61231321096420288
0.9650147557258606 0.95871299505233765 0.60845589637756348
0.15157429873943329 0.030882352963089943 0.72756212949752808
0.28819546103477478 0.030882352963089943 0.72769606113433838
0.42025893926620483 0.033769674599170685 0.72769606113433838
0.55424636602401733 0.034398544579744339 0.72770291566848755
0.69181376695632935 0.030882352963089943 0.72354644536972046
0.82876193523406982 0.033396746963262558 0.7246585488319397
0.96187382936477661 0.034803923219442368 0.73046988248825073
0.1536865234375 0.18529412150382996 0.72769606113433838
0.29068627953529358 0.18529412150382996 0.72769606113433838
0.42347481846809387 0.18529412150382996 0.72623789310455322
0.55811405181884766 0.18529412150382996 0.72716724872589111
0.69458919763565063 0.18529412150382996 0.7254219651222229
0.83088237047195435 0.18921568989753723 0.72801464796066284
0.96495312452316284 0.18921568989753723 0.73505014181137085
0.15148426592350006 0.34161752462387085 0.72714203596115112
0.28944069147109985 0.33970588445663452 0.7246929407119751
0.42365196347236633 0.33970588445663452 0.7237744927406311
0.55873894691467285 0.33970588445663452 0.72378730773925781
0.69426703453063965 0.34059399366378784 0.72433173656463623
0.82966655492782593 0.3436274528503418 0.72767388820648193
0.96313393115997314 0.3436274528503418 0.73156309127807617
0.15078356862068176 0.49449047446250916 0.72475063800811768
0.28683507442474365 0.49411764740943909 0.7237744927406311
0.42147138714790344 0.49411764740943909 0.72177112102508545
0.55666112899780273 0.49424982070922852 0.72258490324020386
0.69206321239471436 0.49803778529167175 0.72372841835021973
0.82642871141433716 0.49803921580314636 0.72377485036849976
0.95894932746887207 0.49803921580314636 0.72517424821853638
0.151738241314888 0.64684510231018066 0.72769606113433838
0.28661841154098511 0.64852941036224365 0.72384440898895264
0.41967204213142395 0.64852941036224365 0.72114217281341553
0.55490195751190186 0.65141314268112183 0.72234535217285156
0.69007354974746704 0.65245097875595093 0.7234489917755127
0.82399314641952515 0.6561359167098999 0.72176367044448853
0.95688092708587646 0.65245097875595093 0.71985292434692383
0.15326787531375885 0.80294120311737061 0.7298467755317688
0.2883458137512207 0.80331516265869141 0.72974252700805664
0.42087680101394653 0.80442172288894653 0.72518903017044067
0.5561598539352417 0.80477613210678101 0.72398817539215088
0.69139271974563599 0.80686277151107788 0.72453540563583374
0.82591849565505981 0.80686277151107788 0.72604930400848389
0.95972722768783569 0.80686277151107788 0.7236211895942688
0.15473197400569916 0.95755326747894287 0.73114657402038574
0.29068627953529358 0.95740789175033569 0.72954100370407104
0.42456075549125671 0.95737773180007935 0.72629302740097046
0.55957692861557007 0.95735293626785278 0.7241024374961853
0.69563311338424683 0.95735293626785278 0.72769606113433838
0.83192628622055054 0.95735293626785278 0.72769606113433838
0.9658241868019104 0.95970618724822998 0.72477394342422485
0.15045684576034546 0.030882352963089943 0.84195220470428467
0.28812393546104431 0.030882352963089943 0.8404841423034668
0.42227274179458618 0.030901022255420685 0.84235280752182007
0.55684131383895874 0.030926693230867386 0.8428613543510437
0.69081109762191772 0.030882352963089943 0.83819937705993652
0.82817381620407104 0.031678561121225357 0.83747619390487671
0.9643053412437439 0.033456210047006607 0.84047031402587891
0.15226659178733826 0.18529412150382996 0.84256267547607422
0.29068627953529358 0.18529412150382996 0.84348899126052856
0.42561885714530945 0.18403220176696777 0.84350490570068359
0.56073957681655884 0.18137937784194946 0.84686410427093506
0.69579106569290161 0.18513698875904083 0.84350490570068359
0.83088237047195435 0.18731357157230377 0.84364885091781616
0.96593135595321655 0.18921568989753723 0.84732872247695923
0.15262524783611298 0.33970588445663452 0.84350490570068359
0.29052373766899109 0.33970588445663452 0.84350490570068359
0.42461997270584106 0.33960446715354919 0.84310245513916016
0.56069642305374146 0.33820721507072449 0.84350490570068359
0.69583332538604736 0.33970588445663452 0.84350490570068359
0.83087950944900513 0.34192326664924622 0.84359502792358398
0.96431958675384521 0.3436274528503418 0.84549248218536377
0.15008559823036194 0.49482709169387817 0.84314262866973877
0.2864525318145752 0.49525821208953857 0.83962512016296387
0.42173904180526733 0.49411764740943909 0.84000754356384277
0.55856478214263916 0.49411764740943909 0.84350490570068359
0.69421887397766113 0.49556681513786316 0.84348660707473755
0.82865899801254272 0.49803921580314636 0.84040242433547974
0.96173036098480225 0.49803921580314636 0.83866500854492188
0.14776495099067688 0.65194135904312134 0.83958333730697632
0.28453704714775085 0.65245097875595093 0.83958333730697632
0.42002862691879272 0.64916086196899414 0.84193617105484009
0.55686277151107788 0.64852941036224365 0.84430181980133057
0.69168466329574585 0.65245097875595093 0.84187126159667969
0.82558053731918335 0.65245097875595093 0.83958333730697632
0.9608919620513916 0.65245097875595093 0.83580726385116577
0.14774863421916962 0.80692845582962036 0.84050530195236206
0.28636851906776428 0.80629485845565796 0.84157222509384155
0.42188090085983276 0.80365490913391113 0.84351098537445068
0.55789870023727417 0.80294120311737061 0.84663593769073486
0.69133847951889038 0.80686277151107788 0.84286278486251831
0.8262556791305542 0.80686277151107788 0.8410448431968689
0.96383249759674072 0.80686277151107788 0.84189611673355103
0.14960913360118866 0.95824873447418213 0.8426780104637146
0.28746524453163147 0.95735293626785278 0.84120637178421021
0.42321538925170898 0.95735293626785278 0.84225326776504517
0.55882352590560913 0.95735293626785278 0.84350490570068359
0.69391089677810669 0.95735293626785278 0.84350490570068359
0.82931876182556152 0.95735293626785278 0.84350490570068359
0.96384292840957642 0.95774048566818237 0.84350490570068359
