assets/lut/others color rich.cube
# Created by: G'MIC (https://gmic.eu)
TITLE "color_rich"
# LUT size
LUT_3D_SIZE 13
# Data domain
DOMAIN_MIN 0.0 0.0 0.0
DOMAIN_MAX 1.0 1.0 1.0
# LUT data points
0.024070918560028076 0.029417179524898529 0.072009727358818054
0.08858083188533783 0.030992036685347557 0.070959754288196564
0.15743167698383331 0.032034225761890411 0.069864906370639801
0.23139218986034393 0.03170815110206604 0.069114595651626587
0.31313243508338928 0.030224459245800972 0.069724857807159424
0.40435612201690674 0.02797972783446312 0.070922046899795532
0.50638782978057861 0.026757963001728058 0.071329273283481598
0.61663711071014404 0.026115536689758301 0.070689648389816284
0.72677195072174072 0.024674119427800179 0.069510288536548615
0.82574939727783203 0.022362085059285164 0.06791955977678299
0.89905977249145508 0.020109288394451141 0.066470727324485779
0.94129198789596558 0.019261961802840233 0.065905958414077759
0.97372716665267944 0.018892265856266022 0.065821580588817596
0.022240163758397102 0.10414334386587143 0.072282768785953522
0.085969783365726471 0.10409978032112122 0.070165582001209259
0.15512782335281372 0.10297347605228424 0.067893937230110168
0.22847878932952881 0.10115131735801697 0.067393720149993896
0.30757901072502136 0.098879270255565643 0.068649441003799438
0.39672714471817017 0.096946164965629578 0.069454953074455261
0.49699476361274719 0.094751246273517609 0.069752894341945648
0.60625237226486206 0.093400157988071442 0.068623773753643036
0.71899396181106567 0.09079461544752121 0.066972233355045319
0.82182049751281738 0.087754271924495697 0.065049923956394196
0.89918708801269531 0.085816070437431335 0.064328230917453766
0.94532233476638794 0.084966115653514862 0.063979744911193848
0.97830933332443237 0.084367714822292328 0.063498780131340027
0.020383348688483238 0.18048399686813354 0.070594966411590576
0.083584807813167572 0.17973098158836365 0.06737644225358963
0.1533472090959549 0.17746268212795258 0.064789563417434692
0.22652998566627502 0.17493544518947601 0.065229631960391998
0.30351364612579346 0.17194586992263794 0.067426972091197968
0.39029344916343689 0.17083700001239777 0.068012014031410217
0.48881217837333679 0.16960784792900085 0.067512571811676025
0.59709125757217407 0.16780517995357513 0.066372334957122803
0.71072053909301758 0.1653209775686264 0.063718147575855255
0.81464672088623047 0.16205351054668427 0.062783151865005493
0.89403218030929565 0.15994186699390411 0.062831968069076538
0.94482481479644775 0.1581556648015976 0.064424760639667511
0.97928899526596069 0.15783107280731201 0.064351744949817657
0.01862202025949955 0.25844553112983704 0.066285304725170135
0.080595172941684723 0.25751593708992004 0.063116945326328278
0.15019343793392181 0.25663211941719055 0.061401922255754471
0.22269012033939362 0.25440359115600586 0.062974490225315094
0.299468994140625 0.25169384479522705 0.065823167562484741
0.38538667559623718 0.2505607008934021 0.066236145794391632
0.48303899168968201 0.24933771789073944 0.064886800944805145
0.59087872505187988 0.24845370650291443 0.062680020928382874
0.70305216312408447 0.24554327130317688 0.060025099664926529
0.8085930347442627 0.24176003038883209 0.058699648827314377
0.89203405380249023 0.23881393671035767 0.061344776302576065
0.94617354869842529 0.23747380077838898 0.064580284059047699
0.9805978536605835 0.23649260401725769 0.066299021244049072
0.016221065074205399 0.34062054753303528 0.062005285173654556
0.075801163911819458 0.33995288610458374 0.059743814170360565
0.14355573058128357 0.33957254886627197 0.060114543884992599
0.21534101665019989 0.33848929405212402 0.06241900846362114
0.29231613874435425 0.33662319183349609 0.063976779580116272
0.37844246625900269 0.33453395962715149 0.063058264553546906
0.47518321871757507 0.33258336782455444 0.060449831187725067
0.58061224222183228 0.33047214150428772 0.057285789400339127
0.69045108556747437 0.32748889923095703 0.054052673280239105
0.79836028814315796 0.3233584463596344 0.053882822394371033
0.89014959335327148 0.31985777616500854 0.057886593043804169
0.94932246208190918 0.31817567348480225 0.06249014288187027
0.98311501741409302 0.31785562634468079 0.06518961489200592
0.014650621451437473 0.42727839946746826 0.060902941972017288
0.071878992021083832 0.42633110284805298 0.05919506773352623
0.1371513307094574 0.42544001340866089 0.060945920646190643
0.20772349834442139 0.425159752368927 0.062712244689464569
0.28401640057563782 0.42399278283119202 0.064021043479442596
0.36968603730201721 0.42085674405097961 0.061572175472974777
0.46537169814109802 0.41689139604568481 0.056337274610996246
0.56864398717880249 0.41360694169998169 0.051368474960327148
0.67589068412780762 0.41074866056442261 0.048462856560945511
0.78599333763122559 0.40732085704803467 0.049181364476680756
0.88368290662765503 0.40455231070518494 0.053620655089616776
0.94650954008102417 0.40338370203971863 0.058330446481704712
0.98077994585037231 0.40316066145896912 0.062119755893945694
0.014365042559802532 0.51508963108062744 0.062244430184364319
0.069124408066272736 0.5135301947593689 0.060055632144212723
0.13282550871372223 0.51207458972930908 0.061973512172698975
0.202835813164711 0.51176828145980835 0.063208639621734619
0.27810707688331604 0.51111316680908203 0.064402513206005096
0.36158165335655212 0.50821048021316528 0.061514507979154587
0.45608532428741455 0.50359445810317993 0.055793687701225281
0.55975031852722168 0.49986326694488525 0.051198758184909821
0.66917026042938232 0.4974941611289978 0.049778718501329422
0.78292739391326904 0.49390745162963867 0.050060182809829712
0.88276225328445435 0.49113079905509949 0.052266288548707962
0.94470399618148804 0.49087110161781311 0.055347338318824768
0.97680330276489258 0.49021241068840027 0.059582788497209549
0.013817506842315197 0.60161828994750977 0.061355020850896835
0.066286392509937286 0.59909093379974365 0.058934617787599564
0.12992911040782928 0.59717410802841187 0.059910628944635391
0.20157331228256226 0.596332848072052 0.062496785074472427
0.27591103315353394 0.59621894359588623 0.06386198103427887
0.35574784874916077 0.59524762630462646 0.062963686883449554
0.44779843091964722 0.59252011775970459 0.05985444039106369
0.55231088399887085 0.59007889032363892 0.05812487006187439
0.66513252258300781 0.58718657493591309 0.057244006544351578
0.78210866451263428 0.58251023292541504 0.055481299757957458
0.88533324003219604 0.57795840501785278 0.054461237043142319
0.94760328531265259 0.57702207565307617 0.055549487471580505
0.97753357887268066 0.57702207565307617 0.05843004584312439
0.013343766331672668 0.68483859300613403 0.056068778038024902
0.06335894763469696 0.68209123611450195 0.05501040443778038
0.12744362652301788 0.68063366413116455 0.05732433870434761
0.2008734792470932 0.68005025386810303 0.060652267187833786
0.27522587776184082 0.67990279197692871 0.062696807086467743
0.3530820906162262 0.67974531650543213 0.063742667436599731
0.44263777136802673 0.67870938777923584 0.063048012554645538
0.54409682750701904 0.67750006914138794 0.062708266079425812
0.65400844812393188 0.67505735158920288 0.062043298035860062
0.76933073997497559 0.67018574476242065 0.059714343398809433
0.87450593709945679 0.66578269004821777 0.057514999061822891
0.94330763816833496 0.66396808624267578 0.056244343519210815
0.97943729162216187 0.66329044103622437 0.057270199060440063
0.015634723007678986 0.7655632495880127 0.050901688635349274
0.066164292395114899 0.76381164789199829 0.051888156682252884
0.12830427289009094 0.76311779022216797 0.056069467216730118
0.19874565303325653 0.76243144273757935 0.059767972677946091
0.27249103784561157 0.7611309289932251 0.061540238559246063
0.35151207447052002 0.75982195138931274 0.061957594007253647
0.44009992480278015 0.75886374711990356 0.061409641057252884
0.53659301996231079 0.75824654102325439 0.060611814260482788
0.639842689037323 0.75704425573348999 0.059977512806653976
0.75194376707077026 0.75382691621780396 0.059290926903486252
0.86259853839874268 0.75064700841903687 0.058600421994924545
0.94062048196792603 0.74848628044128418 0.056910660117864609
0.98200744390487671 0.74702674150466919 0.055959977209568024
0.019352467730641365 0.84151113033294678 0.05007503554224968
0.071292564272880554 0.84103572368621826 0.050914302468299866
0.13066692650318146 0.84070289134979248 0.055258672684431076
0.19640544056892395 0.8392409086227417 0.057977654039859772
0.26766505837440491 0.83700114488601685 0.058913782238960266
0.34704330563545227 0.83508050441741943 0.059155963361263275
0.43533161282539368 0.83364468812942505 0.058039974421262741
0.52898848056793213 0.83327031135559082 0.056237809360027313
0.63022953271865845 0.83300304412841797 0.055242963135242462
0.74480330944061279 0.83110326528549194 0.055590100586414337
0.86157602071762085 0.82982200384140015 0.057266473770141602
0.94575661420822144 0.82743090391159058 0.055969119071960449
0.98690694570541382 0.82621777057647705 0.053622812032699585
0.021031323820352554 0.91066634654998779 0.053229823708534241
0.073002338409423828 0.91009390354156494 0.050649501383304596
0.12968656420707703 0.90901696681976318 0.050861943513154984
0.19203540682792664 0.90735185146331787 0.052732743322849274
0.26132285594940186 0.90541106462478638 0.055355310440063477
0.33979162573814392 0.90430903434753418 0.057451702654361725
0.42695426940917969 0.90399277210235596 0.056656137108802795
0.51991361379623413 0.90393972396850586 0.055029582232236862
0.62110280990600586 0.90305441617965698 0.054491560906171799
0.73729193210601807 0.90157443284988403 0.054316531866788864
0.85831642150878906 0.90041625499725342 0.054935935884714127
0.94771718978881836 0.90032953023910522 0.054824080318212509
0.99031811952590942 0.89938944578170776 0.051258251070976257
0.020576640963554382 0.97394150495529175 0.056856162846088409
0.072130702435970306 0.97284954786300659 0.050724014639854431
0.12711432576179504 0.97061026096343994 0.046808294951915741
0.18785850703716278 0.96894377470016479 0.047374125570058823
0.25581413507461548 0.96828663349151611 0.052603133022785187
0.33303192257881165 0.96800559759140015 0.057663727551698685
0.41986843943595886 0.96920496225357056 0.057806260883808136
0.51184338331222534 0.96973568201065063 0.057269152253866196
0.61007040739059448 0.96839779615402222 0.056509625166654587
0.72224664688110352 0.96705448627471924 0.054723374545574188
0.84672403335571289 0.96704858541488647 0.054886147379875183
0.94287222623825073 0.96713477373123169 0.055208392441272736
0.98774313926696777 0.96612560749053955 0.054229989647865295
0.024374883621931076 0.02971922978758812 0.14730392396450043
0.088337481021881104 0.030645512044429779 0.14709317684173584
0.15619409084320068 0.031235549598932266 0.14613044261932373
0.22960418462753296 0.030906558036804199 0.14517210423946381
0.31139814853668213 0.029652928933501244 0.14447198808193207
0.40348157286643982 0.027870267629623413 0.1436353474855423
0.50624406337738037 0.026389073580503464 0.1424030214548111
0.61607164144515991 0.024848952889442444 0.14085443317890167
0.72555619478225708 0.02346171997487545 0.13925424218177795
0.82468068599700928 0.02315865270793438 0.13759155571460724
0.90051382780075073 0.022986738011240959 0.1359114795923233
0.94783729314804077 0.022368501871824265 0.13477359712123871
0.98074436187744141 0.02214660681784153 0.13447743654251099
0.023215260356664658 0.10416918247938156 0.14673183858394623
0.08594086766242981 0.10402052849531174 0.14352689683437347
0.15325438976287842 0.10240195691585541 0.14099730551242828
0.22526587545871735 0.10090785473585129 0.13965106010437012
0.30411443114280701 0.098977409303188324 0.13919228315353394
0.39457786083221436 0.096388570964336395 0.13867419958114624
0.49631956219673157 0.093782566487789154 0.13732106983661652
0.60509449243545532 0.090952329337596893 0.13521167635917664
0.71537083387374878 0.087702564895153046 0.13326221704483032
0.81760722398757935 0.086400188505649567 0.13194656372070312
0.89777308702468872 0.086456984281539917 0.13088791072368622
0.94969534873962402 0.085720941424369812 0.12978057563304901
0.98547899723052979 0.084601670503616333 0.12866212427616119
0.021890439093112946 0.18174885213375092 0.14338649809360504
0.08296685665845871 0.1812063455581665 0.13935701549053192
0.14971254765987396 0.17811758816242218 0.13570071756839752
0.22021178901195526 0.17724400758743286 0.13422420620918274
0.29643505811691284 0.17559483647346497 0.13360904157161713
0.38592660427093506 0.17234086990356445 0.13283300399780273
0.48754960298538208 0.16899856925010681 0.13123099505901337
0.59704023599624634 0.16595114767551422 0.12860041856765747
0.70855468511581421 0.16311094164848328 0.12678147852420807
0.81192797422409058 0.16164621710777283 0.12633122503757477
0.89434409141540527 0.15871383249759674 0.12685467302799225
0.95004928112030029 0.15772551298141479 0.12662671506404877
0.98708736896514893 0.15518747270107269 0.1258341372013092
0.019437229260802269 0.26289713382720947 0.13695627450942993
0.078891649842262268 0.26105377078056335 0.13322627544403076
0.1450074315071106 0.25924217700958252 0.13082009553909302
0.21575790643692017 0.25695604085922241 0.13000491261482239
0.29226803779602051 0.25516620278358459 0.12950539588928223
0.38016131520271301 0.25220242142677307 0.12781587243080139
0.48055180907249451 0.24933598935604095 0.12479566782712936
0.59001851081848145 0.24723592400550842 0.12141335010528564
0.70157438516616821 0.24455036222934723 0.11968109756708145
0.8070145845413208 0.24105381965637207 0.12036806344985962
0.89282804727554321 0.23771470785140991 0.12219595909118652
0.95102500915527344 0.23509415984153748 0.12422364205121994
0.98645281791687012 0.23355147242546082 0.12540273368358612
0.01624743826687336 0.34653738141059875 0.12948021292686462
0.073373951017856598 0.34526908397674561 0.12712423503398895
0.13904950022697449 0.34296587109565735 0.12692923843860626
0.21000933647155762 0.3410487174987793 0.12729696929454803
0.2872600257396698 0.3385920524597168 0.12644486129283905
0.3742012083530426 0.33532899618148804 0.12346834689378738
0.47199699282646179 0.33201742172241211 0.1187296137213707
0.57812434434890747 0.32936084270477295 0.11442821472883224
0.68822693824768066 0.32634347677230835 0.1122584193944931
0.79654818773269653 0.3227333128452301 0.11334958672523499
0.88950049877166748 0.31867095828056335 0.11655011773109436
0.95093029737472534 0.31640827655792236 0.12008239328861237
0.9857143759727478 0.31487002968788147 0.12317801266908646
0.013984739780426025 0.43178045749664307 0.12570507824420929
0.069246776401996613 0.4308190643787384 0.1236070841550827
0.13328628242015839 0.42893791198730469 0.12434238940477371
0.20375490188598633 0.42734768986701965 0.12554898858070374
0.2807803750038147 0.425071120262146 0.12447042763233185
0.36664918065071106 0.42096987366676331 0.11995518952608109
0.46194106340408325 0.41621920466423035 0.11334551870822906
0.56508374214172363 0.41242173314094543 0.10788566619157791
0.67226320505142212 0.40968310832977295 0.10543134808540344
0.78309422731399536 0.40637069940567017 0.10701940208673477
0.8815731406211853 0.40351700782775879 0.11112413555383682
0.94556355476379395 0.4023430347442627 0.11444079875946045
0.9820106029510498 0.40066596865653992 0.1177748441696167
0.01252142246812582 0.5176047682762146 0.12405618280172348
0.065575048327445984 0.51650124788284302 0.12216101586818695
0.12891563773155212 0.51521944999694824 0.12222696840763092
0.19947394728660583 0.51401764154434204 0.12289264053106308
0.27555882930755615 0.51235288381576538 0.12214048951864243
0.3594822883605957 0.50833231210708618 0.11840207129716873
0.45307087898254395 0.50303494930267334 0.11165852099657059
0.55538612604141235 0.49896514415740967 0.10642962157726288
0.66441440582275391 0.49662977457046509 0.10527797043323517
0.77884042263031006 0.49315810203552246 0.10660711675882339
0.88019222021102905 0.49011236429214478 0.10909148305654526
0.94441521167755127 0.48971378803253174 0.10968134552240372
0.97954863309860229 0.48885032534599304 0.11096897721290588
0.011313688941299915 0.60305911302566528 0.1209009662270546
0.062142092734575272 0.60129660367965698 0.11839171499013901
0.12543916702270508 0.60016310214996338 0.11812763661146164
0.19716809689998627 0.599831223487854 0.11873845010995865
0.27305153012275696 0.5988236665725708 0.1192757710814476
0.35389816761016846 0.59607821702957153 0.11808715760707855
0.44473740458488464 0.59272259473800659 0.11499904841184616
0.54717129468917847 0.59025609493255615 0.11194481700658798
0.65993154048919678 0.58716285228729248 0.1109253391623497
0.77791833877563477 0.58184802532196045 0.11037389934062958
0.88246411085128784 0.57715517282485962 0.10999608039855957
0.94849967956542969 0.57598614692687988 0.10902701318264008
0.98122996091842651 0.57621115446090698 0.10715680569410324
0.011195164173841476 0.68633186817169189 0.11484052240848541
0.059620607644319534 0.68445456027984619 0.1122841015458107
0.12277456372976303 0.68348270654678345 0.11295092850923538
0.19568900763988495 0.68383228778839111 0.11361051350831985
0.27092203497886658 0.68332332372665405 0.11595005542039871
0.34976658225059509 0.68189257383346558 0.11755884438753128
0.43821439146995544 0.68036007881164551 0.11755830049514771
0.53834038972854614 0.6790536642074585 0.11637793481349945
0.64996892213821411 0.67606920003890991 0.1134197786450386
0.76814490556716919 0.67024749517440796 0.11183562874794006
0.87405550479888916 0.66498017311096191 0.10942058265209198
0.94436144828796387 0.66321969032287598 0.10806762427091599
0.98161494731903076 0.66298454999923706 0.1070941835641861
0.014923335053026676 0.76832401752471924 0.10826542973518372
0.06282341480255127 0.76625925302505493 0.10751564055681229
0.12296731770038605 0.76483678817749023 0.1094229444861412
0.1925494372844696 0.76489859819412231 0.11205514520406723
0.26626956462860107 0.76475358009338379 0.11376292258501053
0.34544184803962708 0.76357907056808472 0.11612781882286072
0.43306377530097961 0.76170569658279419 0.11607923358678818
0.53013843297958374 0.76101899147033691 0.11338279396295547
0.63750231266021729 0.7592272162437439 0.10905692726373672
0.75455170869827271 0.75430059432983398 0.1061960831284523
0.86492836475372314 0.74946409463882446 0.10517647117376328
0.941089928150177 0.74791079759597778 0.10378672182559967
0.98174244165420532 0.74764329195022583 0.10392624884843826
0.018817078322172165 0.84538936614990234 0.10658387094736099
0.067834101617336273 0.84366792440414429 0.10513091832399368
0.12440492212772369 0.84155547618865967 0.10674550384283066
0.18877281248569489 0.84104669094085693 0.10859962552785873
0.26000702381134033 0.84028774499893188 0.1105053499341011
0.33955162763595581 0.83928287029266357 0.11158890277147293
0.42738354206085205 0.83826416730880737 0.11042104661464691
0.52207273244857788 0.83763879537582397 0.10598496347665787
0.62649625539779663 0.83655506372451782 0.099886380136013031
0.74538218975067139 0.83216887712478638 0.098065271973609924
0.86333543062210083 0.82741868495941162 0.098320424556732178
0.94486778974533081 0.82634204626083374 0.097748294472694397
0.98371416330337524 0.82745248079299927 0.096992537379264832
0.02002297155559063 0.91530454158782959 0.10987767577171326
0.069243982434272766 0.91297566890716553 0.10466285794973373
0.1233249306678772 0.91013443470001221 0.10211196541786194
0.18456138670444489 0.90851360559463501 0.10281054675579071
0.25387710332870483 0.90783560276031494 0.10570324212312698
0.33335265517234802 0.90827971696853638 0.1075645312666893
0.42125678062438965 0.90914517641067505 0.10550735890865326
0.51508992910385132 0.90915882587432861 0.10088948160409927
0.61764174699783325 0.90712696313858032 0.096358746290206909
0.73650926351547241 0.90335375070571899 0.095457695424556732
0.85765260457992554 0.90012127161026001 0.096246428787708282
0.94446462392807007 0.9000169038772583 0.096069768071174622
0.98526853322982788 0.90179085731506348 0.094380110502243042
0.018387049436569214 0.97817331552505493 0.11303266882896423
0.067450538277626038 0.975288987159729 0.10442141443490982
0.1207318902015686 0.97101432085037231 0.097304418683052063
0.18128956854343414 0.96892881393432617 0.09711938351392746
0.25054135918617249 0.96875548362731934 0.1024300679564476
0.32925158739089966 0.96991109848022461 0.10607273131608963
0.4170779287815094 0.97377347946166992 0.1043248176574707
0.50911879539489746 0.97477620840072632 0.10077334940433502
0.60802388191223145 0.97223579883575439 0.098671048879623413
0.72297900915145874 0.96911543607711792 0.098026514053344727
0.84536033868789673 0.9678465723991394 0.099813796579837799
0.93752187490463257 0.96812057495117188 0.10123103857040405
0.98365974426269531 0.96831095218658447 0.10118456184864044
0.024683903902769089 0.028022032231092453 0.22450980544090271
0.088659562170505524 0.02807171456515789 0.22384725511074066
0.15650483965873718 0.027987461537122726 0.22353997826576233
0.23054021596908569 0.027286633849143982 0.22282546758651733
0.31318831443786621 0.02569134347140789 0.22180256247520447
0.40548291802406311 0.024760929867625237 0.21934004127979279
0.50655066967010498 0.024447616189718246 0.21646599471569061
0.61400759220123291 0.023403018712997437 0.21407780051231384
0.72035509347915649 0.021959731355309486 0.21252726018428802
0.81685644388198853 0.022244218736886978 0.21076950430870056
0.89295405149459839 0.023161765187978745 0.20873139798641205
0.94508379697799683 0.023161765187978745 0.207457035779953
0.98144292831420898 0.023590775206685066 0.20741166174411774
0.023768346756696701 0.10383965075016022 0.22261448204517365
0.08658415824174881 0.10132818669080734 0.21939751505851746
0.15377210080623627 0.099485911428928375 0.21637797355651855
0.22598639130592346 0.097123898565769196 0.21514999866485596
0.30756655335426331 0.093596301972866058 0.21440130472183228
0.39838728308677673 0.091216035187244415 0.21258968114852905
0.49773281812667847 0.09063294529914856 0.20946130156517029
0.60328638553619385 0.088162727653980255 0.20676364004611969
0.70874899625778198 0.084223441779613495 0.20492000877857208
0.80883157253265381 0.084253855049610138 0.20390453934669495
0.89073914289474487 0.086354441940784454 0.20290274918079376
0.94742178916931152 0.086385227739810944 0.20151740312576294
0.98559504747390747 0.086789228022098541 0.20033212006092072
0.023161765187978745 0.18163071572780609 0.21880994737148285
0.083539150655269623 0.17965400218963623 0.21453210711479187
0.14907220005989075 0.17724543809890747 0.21058818697929382
0.22024290263652802 0.1746537834405899 0.2081582248210907
0.2995084822177887 0.17155702412128448 0.20665310323238373
0.38935592770576477 0.1682610958814621 0.20433643460273743
0.48942902684211731 0.16597075760364532 0.20122842490673065
0.59640049934387207 0.16338826715946198 0.19857674837112427
0.70470821857452393 0.16117757558822632 0.19789963960647583
0.80674135684967041 0.16066093742847443 0.19831427931785583
0.89105963706970215 0.15939377248287201 0.19835464656352997
0.94959312677383423 0.15787412226200104 0.1972137987613678
0.98746329545974731 0.157148078083992 0.19554957747459412
0.021913880482316017 0.26254576444625854 0.21194867789745331
0.079756371676921844 0.26061594486236572 0.20835834741592407
0.14401973783969879 0.25880885124206543 0.20547173917293549
0.2148282527923584 0.25648319721221924 0.20291492342948914
0.29334035515785217 0.25353482365608215 0.20023950934410095
0.38202190399169922 0.24994756281375885 0.19686216115951538
0.48166927695274353 0.24694046378135681 0.19304908812046051
0.58970898389816284 0.24485126137733459 0.19040307402610779
0.70039993524551392 0.24351970851421356 0.1905568540096283
0.80544036626815796 0.24203717708587646 0.19266889989376068
0.89295238256454468 0.23865863680839539 0.19442608952522278
0.95224481821060181 0.23518314957618713 0.19387458264827728
0.98711323738098145 0.23438730835914612 0.19278740882873535
0.01921406202018261 0.34555420279502869 0.20331872999668121
0.075122848153114319 0.34435480833053589 0.20135554671287537
0.13889758288860321 0.34262999892234802 0.19994300603866577
0.20978797972202301 0.34063407778739929 0.19849516451358795
