assets/lut/others alien green.cube
# Created by: G'MIC (https://gmic.eu)
TITLE "alien_green"
# LUT size
LUT_3D_SIZE 7
# Data domain
DOMAIN_MIN 0.0 0.0 0.0
DOMAIN_MAX 1.0 1.0 1.0
# LUT data points
0.050635948777198792 0.039477717131376266 0.037540465593338013
0.10362660884857178 0.13234707713127136 0.016205731779336929
0.22816076874732971 0.24835392832756042 0.0080726174637675285
0.33887368440628052 0.35691067576408386 0.0074987374246120453
0.44939503073692322 0.47270309925079346 0.013103904202580452
0.56074672937393188 0.57706576585769653 0.056014865636825562
0.67500370740890503 0.69446647167205811 0.15578815340995789
0.18201605975627899 0.081443801522254944 0.05655314028263092
0.11214017868041992 0.13727088272571564 0.19698317348957062
0.080397360026836395 0.28969442844390869 0.19313852488994598
0.10704328119754791 0.40171468257904053 0.088314712047576904
0.1699712723493576 0.51034927368164062 0.070522844791412354
0.30796527862548828 0.61872667074203491 0.10177622735500336
0.46626177430152893 0.72462165355682373 0.19031937420368195
0.34126713871955872 0.077693060040473938 0.052896194159984589
0.32075351476669312 0.1058429479598999 0.31202110648155212
0.18892930448055267 0.20675115287303925 0.34523668885231018
0.14823465049266815 0.42560112476348877 0.40499657392501831
0.1392386257648468 0.55462402105331421 0.32894432544708252
0.16379733383655548 0.6623004674911499 0.2544751763343811
0.26103797554969788 0.7630387544631958 0.257955402135849
0.49381360411643982 0.088893190026283264 0.051416989415884018
0.49110826849937439 0.11347617208957672 0.35511910915374756
0.39032453298568726 0.18350560963153839 0.47411158680915833
0.25712129473686218 0.28226187825202942 0.50771468877792358
0.22245670855045319 0.50989115238189697 0.59460180997848511
0.2290710061788559 0.70443761348724365 0.60698145627975464
0.28054964542388916 0.80846655368804932 0.53831464052200317
0.65701436996459961 0.084254667162895203 0.049078099429607391
0.65283548831939697 0.1106497198343277 0.36821275949478149
0.6250116229057312 0.18066762387752533 0.6132233738899231
0.45329999923706055 0.24669346213340759 0.64307409524917603
0.34143480658531189 0.34404483437538147 0.67345660924911499
0.30620852112770081 0.57314789295196533 0.75502860546112061
0.33124205470085144 0.82126927375793457 0.83216482400894165
0.80806088447570801 0.08560054749250412 0.0633888840675354
0.8082273006439209 0.11894332617521286 0.38477429747581482
0.80066108703613281 0.17814552783966064 0.67159140110015869
0.70084488391876221 0.25252869725227356 0.79528474807739258
0.53004968166351318 0.31490844488143921 0.80199313163757324
0.41081517934799194 0.42680549621582031 0.82229113578796387
0.3966519832611084 0.6466975212097168 0.90115422010421753
0.95339065790176392 0.090797156095504761 0.062256038188934326
0.95096367597579956 0.11053688079118729 0.39323350787162781
0.95601481199264526 0.17482109367847443 0.69987601041793823
0.94140684604644775 0.24733297526836395 0.93608754873275757
0.75482779741287231 0.31771448254585266 0.95226985216140747
0.5815693736076355 0.38423541188240051 0.95583778619766235
0.4648345410823822 0.45728829503059387 0.96246927976608276
0.036037743091583252 0.07685379683971405 0.19154033064842224
0.19426298141479492 0.043171722441911697 0.12437038123607635
0.29790091514587402 0.088837854564189911 0.024748783558607101
0.40453621745109558 0.21061508357524872 0.01770935021340847
0.50804799795150757 0.31557148694992065 0.016954759135842323
0.62190002202987671 0.44905954599380493 0.057743385434150696
0.7284473180770874 0.58558827638626099 0.13727357983589172
0.05051567405462265 0.20692551136016846 0.14152377843856812
0.16316194832324982 0.19197586178779602 0.16731385886669159
0.24426396191120148 0.28104731440544128 0.072908304631710052
0.36514276266098022 0.39277878403663635 0.073375895619392395
0.49349892139434814 0.51096296310424805 0.13130910694599152
0.61739224195480347 0.63335788249969482 0.21259014308452606
0.73544216156005859 0.75091153383255005 0.30388686060905457
0.17020805180072784 0.33279064297676086 0.043448608368635178
0.33656755089759827 0.23019127547740936 0.20715039968490601
0.26205357909202576 0.29829886555671692 0.34891897439956665
0.19086107611656189 0.44266813993453979 0.29347169399261475
0.23857466876506805 0.5589907169342041 0.24418641626834869
0.36586666107177734 0.66383743286132812 0.25819301605224609
0.50759315490722656 0.76795244216918945 0.32691922783851624
0.44331744313240051 0.43920591473579407 0.042841445654630661
0.48842898011207581 0.23429562151432037 0.21634873747825623
0.46903014183044434 0.26168933510780334 0.45736563205718994
0.33483189344406128 0.35619440674781799 0.50718629360198975
0.29310494661331177 0.57467889785766602 0.5641632080078125
0.32481047511100769 0.69844222068786621 0.49689739942550659
0.36844742298126221 0.80712687969207764 0.44894468784332275
0.64965450763702393 0.5061347484588623 0.040841538459062576
0.64717257022857666 0.23981977999210358 0.21652786433696747
0.63747292757034302 0.26215288043022156 0.48550918698310852
0.56470322608947754 0.32835528254508972 0.64561706781387329
0.42611286044120789 0.43427649140357971 0.67385649681091309
0.3931138813495636 0.64782208204269409 0.73775380849838257
0.41469329595565796 0.84586519002914429 0.76841932535171509
0.80089771747589111 0.49487936496734619 0.044752683490514755
0.80396956205368042 0.24340976774692535 0.21818646788597107
0.80301356315612793 0.26467368006706238 0.53373068571090698
0.76532196998596191 0.32760319113731384 0.76056456565856934
0.61303794384002686 0.39699798822402954 0.79733705520629883
0.49300643801689148 0.50109493732452393 0.82010763883590698
0.48560220003128052 0.74472647905349731 0.90253078937530518
0.94726991653442383 0.48563551902770996 0.047310173511505127
0.94992762804031372 0.23838378489017487 0.21672916412353516
0.94156432151794434 0.26689225435256958 0.5239679217338562
0.94680619239807129 0.32548132538795471 0.83347558975219727
0.85097849369049072 0.39556193351745605 0.94912195205688477
0.66298902034759521 0.46806582808494568 0.94903010129928589
0.5493205189704895 0.5715906023979187 0.96753561496734619
0.023879585787653923 0.14596739411354065 0.34111109375953674
0.20621258020401001 0.050561897456645966 0.3431154191493988
0.35470119118690491 0.042117893695831299 0.21001817286014557
0.4425506591796875 0.056849192827939987 0.046906892210245132
0.55602598190307617 0.17087242007255554 0.034598857164382935
0.66921567916870117 0.29229277372360229 0.059464681893587112
0.7608952522277832 0.44535461068153381 0.12310308963060379
0.04616977646946907 0.26521307229995728 0.33539363741874695
0.18373064696788788 0.2357708215713501 0.33238530158996582
0.34553766250610352 0.18025775253772736 0.26954376697540283
0.44204515218734741 0.20736932754516602 0.13349050283432007
0.5586971640586853 0.3546636700630188 0.15848405659198761
0.67108100652694702 0.47627508640289307 0.20258180797100067
0.77061575651168823 0.6181340217590332 0.27303552627563477
0.041850939393043518 0.35388883948326111 0.30309006571769714
0.20661032199859619 0.35425278544425964 0.30807340145111084
0.34589484333992004 0.35075145959854126 0.32596081495285034
0.41565936803817749 0.43282288312911987 0.2981879711151123
0.53559494018554688 0.55350422859191895 0.3059268593788147
0.66100186109542847 0.67197316884994507 0.36175283789634705
0.7723919153213501 0.78489524126052856 0.43204078078269958
0.091221660375595093 0.49802574515342712 0.088770925998687744
0.34604528546333313 0.49229526519775391 0.19617681205272675
0.48319330811500549 0.37771964073181152 0.36366194486618042
0.42133542895317078 0.43117520213127136 0.4874400794506073
0.38949412107467651 0.59904927015304565 0.48635444045066833
0.45411267876625061 0.70436990261077881 0.44855993986129761
0.55499690771102905 0.80843198299407959 0.4663233757019043
0.3313593864440918 0.64773881435394287 0.044980891048908234
0.5863834023475647 0.61251091957092285 0.19144247472286224
0.65011072158813477 0.39272573590278625 0.35793948173522949
0.64013183116912842 0.41537767648696899 0.61545753479003906
0.49422535300254822 0.5089377760887146 0.65884512662887573
0.47895148396492004 0.71726220846176147 0.7252126932144165
0.51805830001831055 0.85640245676040649 0.66897708177566528
0.62549573183059692 0.79347950220108032 0.042968809604644775
0.79477232694625854 0.64720213413238525 0.19566065073013306
0.79924339056015015 0.39426302909851074 0.36866861581802368
0.79217720031738281 0.41435977816581726 0.67159658670425415
0.68886518478393555 0.48591965436935425 0.79495984315872192
0.57500863075256348 0.58064121007919312 0.82497012615203857
0.56071841716766357 0.81208837032318115 0.90427488088607788
0.91522139310836792 0.91333258152008057 0.044554423540830612
0.95056551694869995 0.63553941249847412 0.19298610091209412
0.95035862922668457 0.39028245210647583 0.36660972237586975
0.94709932804107666 0.41457131505012512 0.67850780487060547
0.93414771556854248 0.48546978831291199 0.92579382658004761
0.76172620058059692 0.54858064651489258 0.95365732908248901
0.63536268472671509 0.65538442134857178 0.96768593788146973
0.028177209198474884 0.2305125892162323 0.49197152256965637
0.12507042288780212 0.06183319166302681 0.49124938249588013
0.4077913761138916 0.045205313712358475 0.48490908741950989
0.50921350717544556 0.047756209969520569 0.2885918915271759
0.60434472560882568 0.048993472009897232 0.12100225687026978
0.70831048488616943 0.11226478964090347 0.047647438943386078
0.81288653612136841 0.27617692947387695 0.10049701482057571
0.037614963948726654 0.34213095903396606 0.49011647701263428
0.1820204108953476 0.31051790714263916 0.49697881937026978
0.34077027440071106 0.19745026528835297 0.49949729442596436
0.50884699821472168 0.18526417016983032 0.35714757442474365
0.59663373231887817 0.21051013469696045 0.19709895551204681
0.70984113216400146 0.3345227837562561 0.21386638283729553
0.81244385242462158 0.4746723473072052 0.25681480765342712
0.043260745704174042 0.42320790886878967 0.49025639891624451
0.18624973297119141 0.42068791389465332 0.49103459715843201
0.33861994743347168 0.39104253053665161 0.49792084097862244
0.49207198619842529 0.34921038150787354 0.43544489145278931
0.59707248210906982 0.40688866376876831 0.33661320805549622
0.70715850591659546 0.5357164740562439 0.35474821925163269
0.820159912109375 0.65985345840454102 0.416645348072052
0.04282735288143158 0.50838553905487061 0.44912856817245483
0.19465497136116028 0.50249671936035156 0.44047710299491882
0.34861308336257935 0.50611478090286255 0.47248756885528564
0.5010373592376709 0.48543462157249451 0.50662565231323242
0.55886352062225342 0.57907736301422119 0.47893714904785156
0.68992108106613159 0.70102208852767944 0.511260986328125
0.8038063645362854 0.81440627574920654 0.55705589056015015
0.048514809459447861 0.65326499938964844 0.18146234750747681
0.23112483322620392 0.6518930196762085 0.23628067970275879
0.49839127063751221 0.64095932245254517 0.35205918550491333
0.63788175582885742 0.53962665796279907 0.51596373319625854
0.58338326215744019 0.57900094985961914 0.64537423849105835
0.57684558629989624 0.73115819692611694 0.64913475513458252
0.62655609846115112 0.85504192113876343 0.63407224416732788
0.20078355073928833 0.80538314580917358 0.04564334824681282
0.5386345386505127 0.80357259511947632 0.20904320478439331
0.76384824514389038 0.75161677598953247 0.34470692276954651
0.79835575819015503 0.53918874263763428 0.52106344699859619
0.78180360794067383 0.56867426633834839 0.77728056907653809
0.66220629215240479 0.6573975682258606 0.81634831428527832
0.65316277742385864 0.8743969202041626 0.87935912609100342
0.51860076189041138 0.95804190635681152 0.042303241789340973
0.81626158952713013 0.9516797661781311 0.19043739140033722
0.9403998851776123 0.80257034301757812 0.33507212996482849
0.94194632768630981 0.53741401433944702 0.51344144344329834
0.94104474782943726 0.56412571668624878 0.82545357942581177
0.85584455728530884 0.63703924417495728 0.94979268312454224
0.70050114393234253 0.73119235038757324 0.95206093788146973
0.023438757285475731 0.30058601498603821 0.64927315711975098
0.070359654724597931 0.063459388911724091 0.64986550807952881
0.354310542345047 0.043709281831979752 0.64969676733016968
0.61962056159973145 0.042426824569702148 0.61364424228668213
0.67241936922073364 0.054505754262208939 0.38497117161750793
0.74998992681503296 0.063718236982822418 0.20239743590354919
0.85470736026763916 0.098647177219390869 0.10419189184904099
0.034662343561649323 0.41532644629478455 0.6437487006187439
0.1764678955078125 0.39118319749832153 0.65037453174591064
0.27728253602981567 0.2029053121805191 0.6528695821762085
0.55722814798355103 0.19801197946071625 0.65019816160202026
0.66100406646728516 0.19000273942947388 0.43414461612701416
0.75647807121276855 0.20858718454837799 0.28071463108062744
0.85738414525985718 0.30660033226013184 0.24605146050453186
0.043517962098121643 0.5046992301940918 0.65427714586257935
0.18200774490833282 0.49246105551719666 0.64810431003570557
0.3291068971157074 0.45244488120079041 0.64794009923934937
0.4982258677482605 0.34863218665122986 0.65131515264511108
0.66274005174636841 0.34712913632392883 0.51502567529678345
0.75303572416305542 0.38942381739616394 0.4024946391582489
0.85536152124404907 0.51730716228485107 0.40132889151573181
0.043907299637794495 0.57424873113632202 0.64490026235580444
0.19372366368770599 0.57513159513473511 0.6463579535484314
0.34483599662780762 0.57248663902282715 0.63971364498138428
0.48232647776603699 0.5276302695274353 0.64658635854721069
0.65966761112213135 0.49701011180877686 0.60442960262298584
0.7521672248840332 0.55846154689788818 0.51183044910430908
0.84929424524307251 0.69039517641067505 0.54070585966110229
0.048178039491176605 0.66300386190414429 0.62247741222381592
0.18861034512519836 0.66225409507751465 0.62192463874816895
0.34648621082305908 0.67045819759368896 0.61619973182678223
0.50688362121582031 0.65759998559951782 0.61874157190322876
0.64243161678314209 0.64589393138885498 0.66158968210220337
0.73071783781051636 0.73733812570571899 0.65436404943466187
0.84431242942810059 0.85862213373184204 0.68876844644546509
0.048175226897001266 0.80576461553573608 0.3206309974193573
0.20863895118236542 0.80924099683761597 0.33917886018753052
0.38107186555862427 0.80168825387954712 0.39501306414604187
0.63050568103790283 0.78797256946563721 0.50526875257492065
0.79464441537857056 0.68397295475006104 0.66947591304779053
0.75623303651809692 0.75703543424606323 0.82188642024993896
0.74993735551834106 0.89054250717163086 0.82572412490844727
0.095618061721324921 0.95508068799972534 0.090768150985240936
0.35102692246437073 0.94830793142318726 0.19842946529388428
0.63414198160171509 0.94985276460647583 0.3477495014667511
0.90977126359939575 0.90590769052505493 0.50033646821975708
0.94280773401260376 0.68409955501556396 0.67483115196228027
0.92846864461898804 0.72518521547317505 0.92255008220672607
0.80796164274215698 0.81128382682800293 0.96122932434082031
0.02030620165169239 0.37596204876899719 0.8007277250289917
0.039603542536497116 0.11809707432985306 0.80534273386001587
0.27491480112075806 0.046923588961362839 0.80255973339080811
0.5623745322227478 0.057192396372556686 0.8023563027381897
0.79575461149215698 0.052854020148515701 0.72283518314361572
0.81753236055374146 0.042688511312007904 0.4475645124912262
0.90272551774978638 0.061539266258478165 0.28489336371421814
0.037280362099409103 0.49364557862281799 0.79984450340270996
0.16812433302402496 0.46687597036361694 0.80237257480621338
0.24232994019985199 0.25598946213722229 0.80245369672775269
0.49332812428474426 0.19338782131671906 0.80680191516876221
0.76486003398895264 0.19032889604568481 0.7735181450843811
0.82259583473205566 0.19018180668354034 0.52122575044631958
0.89845520257949829 0.21266709268093109 0.3649330735206604
0.038495320826768875 0.5776178240776062 0.80122828483581543
0.1825975775718689 0.56298398971557617 0.80112606287002563
0.32044756412506104 0.52980417013168335 0.798206627368927
0.42558935284614563 0.36857354640960693 0.79924052953720093
0.72364312410354614 0.34217825531959534 0.79449689388275146
0.81587433815002441 0.34701776504516602 0.58168339729309082
0.90473192930221558 0.37115386128425598 0.44172132015228271
0.0446193628013134 0.65386223793029785 0.80265867710113525
0.19171711802482605 0.64992618560791016 0.79589378833770752
0.34240806102752686 0.64591830968856812 0.79330778121948242
0.48025414347648621 0.62342756986618042 0.80201303958892822
0.64451879262924194 0.49941498041152954 0.80116814374923706
0.82499188184738159 0.50475716590881348 0.69784069061279297
0.89790612459182739 0.53655564785003662 0.54435861110687256
0.040437016636133194 0.73735469579696655 0.80323672294616699
0.19124852120876312 0.7351641058921814 0.79355239868164062
0.3483985960483551 0.73621243238449097 0.79565596580505371
0.49597147107124329 0.73265355825424194 0.79437071084976196
0.64644753932952881 0.69425421953201294 0.79587751626968384
0.81263929605484009 0.66280710697174072 0.76743572950363159
0.89220035076141357 0.71020877361297607 0.66962110996246338
0.041808318346738815 0.82228285074234009 0.75750970840454102
0.18987959623336792 0.82172137498855591 0.74998664855957031
0.33849447965621948 0.82199865579605103 0.77901333570480347
0.49628618359565735 0.81770050525665283 0.7680509090423584
0.65593236684799194 0.81372201442718506 0.7626413106918335
0.81673127412796021 0.79956138134002686 0.81153792142868042
0.89735609292984009 0.88859176635742188 0.8357657790184021
0.04537365585565567 0.95461910963058472 0.49353110790252686
0.19004349410533905 0.94963169097900391 0.4800657331943512
0.3517986536026001 0.95462435483932495 0.53187400102615356
0.52660477161407471 0.95676064491271973 0.54110205173492432
0.79632329940795898 0.945240318775177 0.65583974123001099
0.94261544942855835 0.84141784906387329 0.82176989316940308
0.89777952432632446 0.90803700685501099 0.96379917860031128
0.024514112621545792 0.45935636758804321 0.95088255405426025
0.037243518978357315 0.18474337458610535 0.95101797580718994
0.18528367578983307 0.041922040283679962 0.94779866933822632
0.48399770259857178 0.047018762677907944 0.9467507004737854
0.81030803918838501 0.036687333136796951 0.94126009941101074
0.9571194052696228 0.042607851326465607 0.81441688537597656
0.9679635763168335 0.050856377929449081 0.5360710620880127
0.038577660918235779 0.56874984502792358 0.9477003812789917
0.16758260130882263 0.53615516424179077 0.95085418224334717
0.19962434470653534 0.28591829538345337 0.94699084758758545
0.40311947464942932 0.20228570699691772 0.95182853937149048
0.72577732801437378 0.1882108598947525 0.93966090679168701
0.95018982887268066 0.19846728444099426 0.88654178380966187
0.96098309755325317 0.19345690310001373 0.60103762149810791
0.039442788809537888 0.64501869678497314 0.94312834739685059
0.18464815616607666 0.64203321933746338 0.95100736618041992
0.31930568814277649 0.60522902011871338 0.95374059677124023
0.37643700838088989 0.37480270862579346 0.95473378896713257
0.65559476613998413 0.34285935759544373 0.95032238960266113
0.92534941434860229 0.35088807344436646 0.93220514059066772
0.96400874853134155 0.35370111465454102 0.66987639665603638
0.050441022962331772 0.73173975944519043 0.95461130142211914
0.19246168434619904 0.72324073314666748 0.94943749904632568
0.34960862994194031 0.71506476402282715 0.93595099449157715
0.47756087779998779 0.69753521680831909 0.95575177669525146
0.57375121116638184 0.50684243440628052 0.9518810510635376
0.87267535924911499 0.49583485722541809 0.93452608585357666
0.95651835203170776 0.5026700496673584 0.74310481548309326
0.052220407873392105 0.80963212251663208 0.95106476545333862
0.20281805098056793 0.80445939302444458 0.94060045480728149
0.35689172148704529 0.79594880342483521 0.93837577104568481
0.492624431848526 0.79860371351242065 0.94144803285598755
0.63516497611999512 0.76285839080810547 0.94756627082824707
0.80265951156616211 0.65145647525787354 0.94939321279525757
0.96024966239929199 0.65489697456359863 0.82244479656219482
0.045244283974170685 0.89046967029571533 0.94678235054016113
0.18622449040412903 0.87731641530990601 0.93331938982009888
0.34217941761016846 0.87458807229995728 0.94016802310943604
0.49135032296180725 0.88700997829437256 0.95107829570770264
0.64609283208847046 0.87584561109542847 0.93957042694091797
0.80572772026062012 0.86168134212493896 0.95307183265686035
0.96533894538879395 0.81026935577392578 0.9122474193572998
0.043001782149076462 0.96022897958755493 0.91700500249862671
0.1850675493478775 0.96164298057556152 0.90913772583007812
0.34246987104415894 0.96496570110321045 0.92333000898361206
0.48747280240058899 0.96178239583969116 0.8973463773727417
0.64968788623809814 0.96172559261322021 0.91722124814987183
0.80813491344451904 0.96172624826431274 0.92788606882095337
0.96271312236785889 0.96256113052368164 0.9579581618309021
