assets/lut/others cinematic 02.cube
# Created by: G'MIC (https://gmic.eu)
TITLE "cinematic_02"
# LUT size
LUT_3D_SIZE 5
# Data domain
DOMAIN_MIN 0.0 0.0 0.0
DOMAIN_MAX 1.0 1.0 1.0
# LUT data points
0.11225370317697525 0.1079602986574173 0.10229682177305222
0.16032376885414124 0.11178009957075119 0.10783227533102036
0.36948654055595398 0.11043885350227356 0.11585612595081329
0.69456255435943604 0.11776863783597946 0.12806186079978943
0.91409313678741455 0.20788928866386414 0.2231922447681427
0.11685062199831009 0.16531069576740265 0.10781580954790115
0.17990896105766296 0.17767953872680664 0.10921303182840347
0.40209627151489258 0.22958691418170929 0.11051896214485168
0.7059975266456604 0.28166574239730835 0.12648956477642059
0.90364545583724976 0.34433108568191528 0.23614604771137238
0.080528855323791504 0.42898353934288025 0.074624031782150269
0.22203077375888824 0.45114034414291382 0.078667566180229187
0.48571020364761353 0.49284827709197998 0.079421460628509521
0.73111903667449951 0.53800153732299805 0.12954819202423096
0.89777112007141113 0.57296133041381836 0.29677888751029968
0.089764602482318878 0.74051415920257568 0.078444309532642365
0.26257911324501038 0.73482614755630493 0.097783766686916351
0.51095247268676758 0.7453073263168335 0.1342119425535202
0.74524086713790894 0.76007145643234253 0.25620380043983459
0.90297263860702515 0.77600055932998657 0.46865382790565491
0.39160060882568359 0.93156760931015015 0.41118961572647095
0.46682044863700867 0.93377310037612915 0.42845386266708374
0.61611729860305786 0.93854737281799316 0.47792735695838928
0.78553968667984009 0.94449222087860107 0.56768488883972168
0.93665528297424316 0.96092289686203003 0.67562878131866455
0.11364437639713287 0.11000382900238037 0.15986050665378571
0.16813860833644867 0.11242110282182693 0.1687755286693573
0.386639803647995 0.10150720924139023 0.21445292234420776
0.70507663488388062 0.079848632216453552 0.26940780878067017
0.90092247724533081 0.25254377722740173 0.37841233611106873
0.11275384575128555 0.1769782155752182 0.17300119996070862
0.1851881742477417 0.1851469874382019 0.18390090763568878
0.41768127679824829 0.21407626569271088 0.21478180587291718
0.71041297912597656 0.25731536746025085 0.27034544944763184
0.89740574359893799 0.37476381659507751 0.39044898748397827
0.046289227902889252 0.44631054997444153 0.18926654756069183
0.18868066370487213 0.46131637692451477 0.19858390092849731
0.48708060383796692 0.49598675966262817 0.22356285154819489
0.72700130939483643 0.53702628612518311 0.29298633337020874
0.88945025205612183 0.58993339538574219 0.4428284764289856
0.11966362595558167 0.73750847578048706 0.25556096434593201
0.27021586894989014 0.73478639125823975 0.2651766836643219
0.52179592847824097 0.74305111169815063 0.3146854043006897
0.73875516653060913 0.75500661134719849 0.41062226891517639
0.89918214082717896 0.77972900867462158 0.5571025013923645
0.39672005176544189 0.93133580684661865 0.49452877044677734
0.48647993803024292 0.93356293439865112 0.51692956686019897
0.61812478303909302 0.93476253747940063 0.552878737449646
0.78219735622406006 0.94193273782730103 0.61488145589828491
0.93733882904052734 0.96368074417114258 0.70587426424026489
0.092736281454563141 0.10759644210338593 0.4324493408203125
0.19885626435279846 0.10435251146554947 0.44363507628440857
0.43373137712478638 0.087355822324752808 0.47911444306373596
0.72079241275787354 0.085509292781352997 0.56014823913574219
0.89248782396316528 0.31321832537651062 0.62266844511032104
0.048654474318027496 0.19849760830402374 0.45605641603469849
0.17752775549888611 0.19696179032325745 0.4661489725112915
0.45475593209266663 0.21111997961997986 0.49849900603294373
0.72395652532577515 0.2623494565486908 0.56025832891464233
0.88527506589889526 0.45386442542076111 0.63348531723022461
0.0040362640284001827 0.47813048958778381 0.49054867029190063
0.18305228650569916 0.48779737949371338 0.50238746404647827
0.49852278828620911 0.51429742574691772 0.52956002950668335
0.72459834814071655 0.55608314275741577 0.56996667385101318
0.87788963317871094 0.62254863977432251 0.64371216297149658
0.20357923209667206 0.73613482713699341 0.54257363080978394
0.34564042091369629 0.73710876703262329 0.56217062473297119
0.54631441831588745 0.74526607990264893 0.5779539942741394
0.73996919393539429 0.75755274295806885 0.62202602624893188
0.88911908864974976 0.79159706830978394 0.68833267688751221
0.45867085456848145 0.92471826076507568 0.65397202968597412
0.50261455774307251 0.93319201469421387 0.66271096467971802
0.61836105585098267 0.93641620874404907 0.67469304800033569
0.78645819425582886 0.94528865814208984 0.70593059062957764
0.93575692176818848 0.96082329750061035 0.7677537202835083
0.031195336952805519 0.091628402471542358 0.73872661590576172
0.20437517762184143 0.092275463044643402 0.76224499940872192
0.46441063284873962 0.093317292630672455 0.76665717363357544
0.70514261722564697 0.16111432015895844 0.77743232250213623
0.88965040445327759 0.35294920206069946 0.80250167846679688
0.0037560856435447931 0.21925422549247742 0.75586086511611938
0.17693455517292023 0.22535206377506256 0.76292818784713745
0.47025305032730103 0.25130388140678406 0.76506859064102173
0.70664602518081665 0.32789736986160278 0.77710443735122681
0.88816934823989868 0.48076274991035461 0.80626446008682251
0.088084384799003601 0.50488203763961792 0.76370358467102051
0.26050597429275513 0.51935935020446777 0.76661282777786255
0.52651149034500122 0.54703611135482788 0.76747608184814453
0.72246724367141724 0.58619570732116699 0.78182488679885864
0.88009828329086304 0.64544743299484253 0.8070032000541687
0.32461768388748169 0.74352043867111206 0.77061682939529419
0.42771786451339722 0.74706250429153442 0.77433145046234131
0.58729308843612671 0.75463634729385376 0.77727609872817993
0.74462765455245972 0.76776307821273804 0.79217678308486938
0.89328348636627197 0.79346150159835815 0.82010281085968018
0.49357306957244873 0.92983078956604004 0.81448507308959961
0.52743673324584961 0.93415379524230957 0.81258594989776611
0.62378263473510742 0.93993121385574341 0.81129467487335205
0.77255666255950928 0.95022046566009521 0.81981432437896729
0.93576514720916748 0.96167200803756714 0.858132004737854
0.036500625312328339 0.15075531601905823 0.96475052833557129
0.22112743556499481 0.17377477884292603 0.96873182058334351
0.47546607255935669 0.223258376121521 0.96403855085372925
0.71675127744674683 0.37551203370094299 0.96872246265411377
0.89182585477828979 0.53210443258285522 0.97298771142959595
0.10334688425064087 0.31060346961021423 0.96658939123153687
0.26750165224075317 0.32805997133255005 0.96272259950637817
0.51432925462722778 0.39047175645828247 0.96567851305007935
0.72587335109710693 0.49312523007392883 0.96808242797851562
0.89270317554473877 0.5937265157699585 0.97198712825775146
0.30501922965049744 0.57844144105911255 0.96985292434692383
0.41200682520866394 0.59305191040039062 0.96877557039260864
0.57613736391067505 0.61637896299362183 0.96952658891677856
0.73788911104202271 0.6539231538772583 0.96430164575576782
0.89204150438308716 0.69247835874557495 0.97067612409591675
0.43528887629508972 0.77971702814102173 0.9671209454536438
0.49688959121704102 0.78373074531555176 0.9675326943397522
0.61136066913604736 0.78550517559051514 0.96881246566772461
0.7542729377746582 0.79370534420013428 0.97634732723236084
0.91468816995620728 0.81431180238723755 0.98538994789123535
0.49719345569610596 0.95741862058639526 0.98426079750061035
0.53753995895385742 0.95839083194732666 0.98858720064163208
0.63336968421936035 0.9607243537902832 0.98584848642349243
0.77497941255569458 0.9613761305809021 0.9875253438949585
0.94188171625137329 0.97320955991744995 0.99129152297973633
