assets/lut/others super warm.cube
# Created by: G'MIC (https://gmic.eu)
TITLE "super_warm"
# LUT size
LUT_3D_SIZE 5
# Data domain
DOMAIN_MIN 0.0 0.0 0.0
DOMAIN_MAX 1.0 1.0 1.0
# LUT data points
0.02537117712199688 0.019362745806574821 0.035329975187778473
0.19445303082466125 0.015460563823580742 0.030889354646205902
0.44181913137435913 0.018865862861275673 0.02898751012980938
0.73518544435501099 0.01627502404153347 0.027792971581220627
0.96768546104431152 0.016732474789023399 0.024683529511094093
0.026645945385098457 0.12912742793560028 0.030601007863879204
0.23582606017589569 0.13025200366973877 0.027892004698514938
0.51263749599456787 0.1292070597410202 0.023200001567602158
0.78236782550811768 0.12947091460227966 0.023914381861686707
0.97432267665863037 0.13040454685688019 0.020638858899474144
0.030238162726163864 0.26260849833488464 0.027288878336548805
0.27332854270935059 0.2718845009803772 0.025253161787986755
0.5887865424156189 0.25404909253120422 0.021826082840561867
0.82002663612365723 0.27408301830291748 0.023184264078736305
0.97856098413467407 0.25971314311027527 0.018769986927509308
0.034691412001848221 0.58928447961807251 0.023237744346261024
0.32202690839767456 0.58693957328796387 0.020150009542703629
0.64907312393188477 0.58864063024520874 0.019619258120656013
0.85636371374130249 0.58765006065368652 0.022688457742333412
0.97671568393707275 0.62343209981918335 0.011077611707150936
0.04145335778594017 0.93979471921920776 0.020706925541162491
0.35457181930541992 0.93647867441177368 0.017323138192296028
0.70694035291671753 0.93892914056777954 0.014901314862072468
0.86520481109619141 0.93872910737991333 0.018132543191313744
0.97777009010314941 0.94521975517272949 0.015449913218617439
0.025754233822226524 0.018037009984254837 0.27597057819366455
0.23076997697353363 0.016591869294643402 0.24594630300998688
0.50914770364761353 0.018402623012661934 0.21806128323078156
0.77969908714294434 0.016253497451543808 0.18918082118034363
0.97189795970916748 0.015441176481544971 0.16323831677436829
0.029957789927721024 0.13453724980354309 0.24460603296756744
0.27263429760932922 0.13233906030654907 0.21546061336994171
0.57764136791229248 0.13431105017662048 0.18946248292922974
0.82233685255050659 0.12723156809806824 0.15989886224269867
0.97440004348754883 0.133334681391716 0.14099936187267303
0.032524168491363525 0.26060089468955994 0.22257146239280701
0.3110312819480896 0.26646167039871216 0.18712133169174194
0.65001040697097778 0.26309019327163696 0.16265179216861725
0.85201811790466309 0.27241870760917664 0.14107643067836761
0.97683680057525635 0.32838389277458191 0.13042598962783813
0.04159323126077652 0.59112966060638428 0.1884998083114624
0.36333894729614258 0.58744233846664429 0.15333831310272217
0.71653848886489868 0.59619325399398804 0.13163109123706818
0.86923062801361084 0.61592972278594971 0.12159253656864166
0.97671568393707275 0.66708314418792725 0.13537901639938354
0.046348001807928085 0.93897420167922974 0.15870609879493713
0.39294561743736267 0.93968504667282104 0.1349928081035614
0.73286694288253784 0.94110995531082153 0.13091059029102325
0.85738855600357056 0.95098048448562622 0.11955554783344269
0.97830939292907715 0.95605576038360596 0.12010440975427628
0.027895236387848854 0.015441176481544971 0.46736136078834534
0.27155324816703796 0.017614027485251427 0.41848060488700867
0.57166355848312378 0.017662063241004944 0.37208491563796997
0.82245737314224243 0.015441176481544971 0.31195488572120667
0.97796893119812012 0.018114799633622169 0.27239200472831726
0.032062262296676636 0.13110651075839996 0.41416847705841064
0.31413230299949646 0.12695106863975525 0.36544895172119141
0.64660871028900146 0.13723784685134888 0.31664416193962097
0.85375690460205078 0.13173045217990875 0.26580873131752014
0.9762529730796814 0.16916662454605103 0.24917739629745483
0.035403802990913391 0.26740950345993042 0.36520668864250183
0.34868732094764709 0.25941035151481628 0.31338635087013245
0.7264288067817688 0.26546719670295715 0.27303999662399292
0.86143046617507935 0.32575654983520508 0.26076802611351013
0.97671568393707275 0.39420726895332336 0.27083709836006165
0.044124003499746323 0.59071189165115356 0.31215378642082214
0.38555467128753662 0.58959817886352539 0.27279636263847351
0.73509609699249268 0.6222037672996521 0.26966392993927002
0.86047548055648804 0.66648203134536743 0.25985154509544373
0.98030632734298706 0.70692908763885498 0.27282512187957764
0.045676916837692261 0.93642628192901611 0.26267126202583313
0.39452829957008362 0.93896627426147461 0.26439496874809265
0.73554283380508423 0.94948118925094604 0.26268130540847778
0.86180490255355835 0.95515590906143188 0.26531809568405151
0.97674602270126343 0.9608684778213501 0.2581784725189209
0.031222669407725334 0.016973039135336876 0.67931109666824341
0.31182453036308289 0.015441176481544971 0.65107119083404541
0.65008372068405151 0.018056532368063927 0.61894994974136353
0.84891468286514282 0.017681315541267395 0.59788340330123901
0.98004484176635742 0.019295830279588699 0.58980852365493774
0.040963087230920792 0.12537938356399536 0.6489565372467041
0.35444203019142151 0.11232355237007141 0.61775690317153931
0.70921391248703003 0.13871225714683533 0.59372937679290771
0.86335831880569458 0.16505607962608337 0.59015375375747681
0.9767034649848938 0.20694759488105774 0.58888119459152222
0.04519406333565712 0.26111683249473572 0.62126827239990234
0.39216738939285278 0.24863266944885254 0.59534025192260742
0.74713891744613647 0.3202669620513916 0.59043502807617188
0.8726651668548584 0.39892897009849548 0.59169048070907593
0.98088264465332031 0.46848401427268982 0.59350287914276123
0.044759832322597504 0.59289145469665527 0.59239596128463745
0.39159718155860901 0.62480193376541138 0.58833879232406616
0.72970497608184814 0.66859263181686401 0.58704078197479248
0.85787808895111084 0.70994937419891357 0.58907479047775269
0.98115277290344238 0.75104987621307373 0.58987051248550415
0.046075724065303802 0.94249892234802246 0.58325117826461792
0.38862001895904541 0.95036721229553223 0.58537274599075317
0.72797352075576782 0.95239531993865967 0.59488356113433838
0.85949420928955078 0.96217358112335205 0.58664214611053467
0.97689539194107056 0.96919679641723633 0.59176516532897949
0.037920348346233368 0.019362745806574821 0.94622272253036499
0.34854307770729065 0.019362745806574821 0.93895828723907471
0.71753400564193726 0.018264949321746826 0.93646919727325439
0.86004126071929932 0.018576528877019882 0.93801665306091309
0.98063725233078003 0.024043334648013115 0.93313014507293701
0.042166616767644882 0.13016028702259064 0.94322121143341064
0.38273051381111145 0.13389156758785248 0.93838143348693848
0.73158347606658936 0.16627849638462067 0.93433845043182373
0.86087203025817871 0.20653201639652252 0.93394345045089722
0.97895383834838867 0.24805290997028351 0.93648403882980347
0.04836026206612587 0.25742357969284058 0.93753063678741455
0.39425861835479736 0.31780001521110535 0.93958699703216553
0.73655855655670166 0.39582955837249756 0.93841403722763062
0.86647242307662964 0.46710792183876038 0.93660265207290649
0.97511285543441772 0.54153072834014893 0.93327087163925171
0.04813506081700325 0.62310260534286499 0.94058823585510254
0.39128801226615906 0.66734522581100464 0.9427025318145752
0.73670226335525513 0.70888799428939819 0.93894010782241821
0.86007082462310791 0.75009983777999878 0.93785053491592407
0.97901958227157593 0.79038697481155396 0.93804287910461426
0.046309348195791245 0.95086550712585449 0.93229752779006958
0.38956144452095032 0.95612806081771851 0.94196778535842896
0.72564148902893066 0.96869146823883057 0.93818503618240356
0.86482840776443481 0.97105962038040161 0.93376082181930542
0.97671568393707275 0.96933424472808838 0.93364351987838745
