assets/lut/others light blown.cube
# Created by: G'MIC (https://gmic.eu)
TITLE "light_blown"
# LUT size
LUT_3D_SIZE 13
# Data domain
DOMAIN_MIN 0.0 0.0 0.0
DOMAIN_MAX 1.0 1.0 1.0
# LUT data points
0.019482690840959549 0.013766524381935596 0.0036229901015758514
0.082144089043140411 0.0073722838424146175 0.0034590477589517832
0.15216436982154846 0.0029840955976396799 0.0069962595589458942
0.22858723998069763 0.00065253762295469642 0.016809726133942604
0.31211581826210022 2.5850184101727791e-05 0.035395123064517975
0.40485993027687073 0.001148657756857574 0.061353407800197601
0.49951872229576111 0.0076325060799717903 0.090207554399967194
0.57492953538894653 0.0083416653797030449 0.11212082207202911
0.60446822643280029 0.001514928531832993 0.118247389793396
0.59858345985412598 0 0.11007941514253616
0.58499026298522949 0 0.095814317464828491
0.57439106702804565 0 0.085492871701717377
0.56687545776367188 0 0.082717970013618469
0.041321054100990295 0.095499627292156219 0.027120523154735565
0.096364803612232208 0.078211091458797455 0.023930223658680916
0.16129659116268158 0.061318758875131607 0.025698060169816017
0.23304109275341034 0.046930529177188873 0.033588245511054993
0.31138837337493896 0.037158980965614319 0.046703413128852844
0.39641204476356506 0.033693067729473114 0.064878694713115692
0.49064210057258606 0.036399394273757935 0.089620895683765411
0.57775962352752686 0.039842057973146439 0.11627928912639618
0.61579930782318115 0.033947259187698364 0.12843732535839081
0.60969054698944092 0.020676856860518456 0.12137018889188766
0.59791064262390137 0.010355272330343723 0.10396438091993332
0.58974391222000122 0.0046444311738014221 0.092551440000534058
0.58410549163818359 0.0018363354029133916 0.090163148939609528
0.078103460371494293 0.19661054015159607 0.066310226917266846
0.1238858550786972 0.17552712559700012 0.059471547603607178
0.18607296049594879 0.1569201797246933 0.061721920967102051
0.26020148396492004 0.14251406490802765 0.072562739253044128
0.34095844626426697 0.13278518617153168 0.088416337966918945
0.42720156908035278 0.12863188982009888 0.10837608575820923
0.52213931083679199 0.13146558403968811 0.13471424579620361
0.61314702033996582 0.13752590119838715 0.16461148858070374
0.66167068481445312 0.13181304931640625 0.1783769279718399
0.659839928150177 0.1088702604174614 0.16435369849205017
0.64626115560531616 0.086910814046859741 0.14304661750793457
0.63446187973022461 0.070558212697505951 0.12845546007156372
0.6251869797706604 0.058860793709754944 0.12389469891786575
0.12704119086265564 0.30515846610069275 0.11206462979316711
0.16408887505531311 0.28268882632255554 0.10454548895359039
0.22402156889438629 0.26604306697845459 0.11057042330503464
0.30163824558258057 0.25498437881469727 0.12675625085830688
0.38626834750175476 0.24968193471431732 0.14698070287704468
0.47303622961044312 0.2500288188457489 0.17011268436908722
0.56510895490646362 0.25517421960830688 0.19726480543613434
0.65588492155075073 0.25762102007865906 0.22461715340614319
0.71557992696762085 0.24782688915729523 0.23654673993587494
0.72981643676757812 0.22275291383266449 0.22475443780422211
0.72027122974395752 0.19717861711978912 0.20507332682609558
0.70459681749343872 0.17790320515632629 0.19057619571685791
0.68971800804138184 0.16395695507526398 0.18457184731960297
0.18790222704410553 0.42046001553535461 0.16934184730052948
0.2143193781375885 0.39807009696960449 0.16384212672710419
0.26798903942108154 0.38184553384780884 0.17162115871906281
0.34722492098808289 0.37271600961685181 0.18959489464759827
0.43281251192092896 0.36864954233169556 0.21047015488147736
0.51732391119003296 0.36952507495880127 0.23165601491928101
0.60454565286636353 0.37273693084716797 0.25561469793319702
0.6928374171257019 0.37002137303352356 0.27787336707115173
0.76376277208328247 0.35812845826148987 0.29045137763023376
0.79942655563354492 0.33780696988105774 0.28806105256080627
0.80228471755981445 0.31603586673736572 0.27587237954139709
0.78811246156692505 0.29805350303649902 0.26458153128623962
0.76866042613983154 0.28372162580490112 0.25913551449775696
0.25953876972198486 0.53981536626815796 0.23435866832733154
0.27264279127120972 0.51707619428634644 0.23022843897342682
0.3133222758769989 0.49892225861549377 0.23691719770431519
0.38793382048606873 0.48787373304367065 0.25242224335670471
0.47159817814826965 0.48130229115486145 0.26932954788208008
0.55559569597244263 0.47897878289222717 0.28689590096473694
0.64192032814025879 0.4782804548740387 0.30688399076461792
0.72977542877197266 0.47382143139839172 0.32674887776374817
0.80922675132751465 0.46375450491905212 0.34272029995918274
0.86350864171981812 0.44928103685379028 0.34966471791267395
0.88160866498947144 0.43286857008934021 0.3454454243183136
0.87330722808837891 0.41635298728942871 0.33685892820358276
0.85280156135559082 0.40014541149139404 0.3296809196472168
0.34167912602424622 0.66123497486114502 0.3011576235294342
0.34349647164344788 0.63711214065551758 0.29613438248634338
0.36739477515220642 0.61423289775848389 0.29805943369865417
0.42458921670913696 0.59804993867874146 0.30731236934661865
0.50291979312896729 0.58862489461898804 0.32095092535018921
0.58853793144226074 0.58473461866378784 0.3370322585105896
0.67695605754852295 0.58220034837722778 0.35511091351509094
0.76666003465652466 0.57677745819091797 0.37461841106414795
0.85178285837173462 0.56833159923553467 0.39344781637191772
0.91722065210342407 0.5582391619682312 0.4066498875617981
0.94888848066329956 0.54635155200958252 0.40831518173217773
0.94849938154220581 0.53049600124359131 0.39979875087738037
0.93029528856277466 0.51007413864135742 0.38899075984954834
0.43197876214981079 0.78290146589279175 0.36840802431106567
0.42536213994026184 0.75851768255233765 0.36173844337463379
0.43265798687934875 0.73187333345413208 0.35815751552581787
0.4700559675693512 0.7108529806137085 0.36114418506622314
0.53759557008743286 0.69942325353622437 0.37157329916954041
0.62124282121658325 0.69529813528060913 0.38676008582115173
0.71110904216766357 0.69119268655776978 0.40442439913749695
0.80276328325271606 0.68362736701965332 0.42338085174560547
0.88949751853942871 0.67443925142288208 0.4427979588508606
0.95830303430557251 0.66699439287185669 0.45777738094329834
0.99240624904632568 0.66070318222045898 0.46107107400894165
0.99549847841262817 0.64724850654602051 0.45172029733657837
0.98595303297042847 0.62395483255386353 0.44073724746704102
0.52316272258758545 0.89710283279418945 0.43431505560874939
0.51229798793792725 0.87484627962112427 0.42741182446479797
0.50774925947189331 0.84783583879470825 0.42047643661499023
0.52761322259902954 0.82734036445617676 0.41897875070571899
0.57924437522888184 0.81684046983718872 0.42544093728065491
0.65570962429046631 0.81250351667404175 0.43939274549484253
0.74509656429290771 0.80608284473419189 0.45618665218353271
0.83660876750946045 0.79509323835372925 0.47321763634681702
0.92034280300140381 0.78359401226043701 0.48979687690734863
0.98238664865493774 0.77889764308929443 0.50155574083328247
1 0.78066766262054443 0.5027165412902832
1 0.77365672588348389 0.49506619572639465
0.99996107816696167 0.75122237205505371 0.48775976896286011
0.60384666919708252 0.98262298107147217 0.49247291684150696
0.5924077033996582 0.96601021289825439 0.48728033900260925
0.5806269645690918 0.94287973642349243 0.47899851202964783
0.58623474836349487 0.92870956659317017 0.47440338134765625
0.62204205989837646 0.92441576719284058 0.47820067405700684
0.69035029411315918 0.92283999919891357 0.49196189641952515
0.77854961156845093 0.91644454002380371 0.50884014368057251
0.86857318878173828 0.90276283025741577 0.52341842651367188
0.9447861909866333 0.8895643949508667 0.53632551431655884
0.99246925115585327 0.88906741142272949 0.54448717832565308
1 0.90087896585464478 0.54532581567764282
1 0.89992803335189819 0.54228121042251587
1 0.88057929277420044 0.54078274965286255
0.65850287675857544 1 0.53367257118225098
0.65014022588729858 0.99922430515289307 0.53066730499267578
0.63599342107772827 0.99396753311157227 0.5240357518196106
0.63302719593048096 0.99154531955718994 0.51953816413879395
0.6572069525718689 0.9925229549407959 0.52262932062149048
0.71987897157669067 0.99353456497192383 0.5372006893157959
0.80909430980682373 0.99069541692733765 0.55605721473693848
0.9003409743309021 0.98081880807876587 0.57173240184783936
0.96778565645217896 0.9727063775062561 0.58633387088775635
0.99664700031280518 0.97794854640960693 0.59815847873687744
0.99932634830474854 0.98772221803665161 0.60771363973617554
0.99973082542419434 0.98757964372634888 0.6142469048500061
0.99818921089172363 0.97687458992004395 0.61785948276519775
0.68396288156509399 1 0.5577508807182312
0.67661941051483154 1 0.55483376979827881
0.66322505474090576 1 0.55085849761962891
0.65790122747421265 1 0.54896539449691772
0.67776256799697876 1 0.5535050630569458
0.73660117387771606 1 0.56922173500061035
0.82786732912063599 1 0.59149849414825439
0.92527896165847778 0.9999508261680603 0.61573398113250732
0.99002701044082642 0.99939751625061035 0.64274835586547852
0.99997580051422119 0.99989771842956543 0.67269182205200195
0.99900466203689575 0.99999362230300903 0.70100271701812744
0.99668502807617188 1 0.72115105390548706
0.99536740779876709 0.9999464750289917 0.73424088954925537
0.687247633934021 1 0.57303094863891602
0.67870253324508667 1 0.56857597827911377
0.66632628440856934 1 0.56531113386154175
0.66142421960830688 1 0.56516724824905396
0.67892658710479736 1 0.57178473472595215
0.73393607139587402 1 0.58970147371292114
0.82366818189620972 0.99997079372406006 0.61890780925750732
0.91954094171524048 0.99801939725875854 0.65538150072097778
0.98501050472259521 0.99284780025482178 0.69870591163635254
0.99968832731246948 0.99130946397781372 0.74747735261917114
0.99977535009384155 0.99463427066802979 0.79407292604446411
0.99752378463745117 0.99822211265563965 0.83111190795898438
0.99550431966781616 0.99624508619308472 0.85579031705856323
0.018701845780014992 0.025286640971899033 0.040042474865913391
0.083470962941646576 0.016918931156396866 0.040092453360557556
0.1568271666765213 0.010341030545532703 0.046362709254026413
0.23591972887516022 0.0062522590160369873 0.05945892259478569
0.32320475578308105 0.0073011661879718304 0.07937660813331604
0.42063286900520325 0.021848207339644432 0.10579825192689896
0.52104008197784424 0.040203467011451721 0.1348365992307663
0.59632211923599243 0.04161568358540535 0.15382526814937592
0.61658364534378052 0.023541828617453575 0.15045039355754852
0.60309147834777832 0.0053851557895541191 0.13460403680801392
0.5858343243598938 0.0001801883481675759 0.11627338081598282
0.57404094934463501 0 0.10456349700689316
0.56624937057495117 0 0.10036654025316238
0.04127940908074379 0.11328189074993134 0.069661550223827362
0.096227668225765228 0.095039859414100647 0.063886411488056183
0.162721186876297 0.076910071074962616 0.063385561108589172
0.23678202927112579 0.061666481196880341 0.070448018610477448
0.31626573204994202 0.051302172243595123 0.082499183714389801
0.39962965250015259 0.045635748654603958 0.095797881484031677
0.49116194248199463 0.046023320406675339 0.1133321151137352
0.5746120810508728 0.047875978052616119 0.13273926079273224
0.60775786638259888 0.039173740893602371 0.13882291316986084
0.59851181507110596 0.02354450523853302 0.12722453474998474
0.58619540929794312 0.010952863842248917 0.10746113210916519
0.57980906963348389 0.0043935738503932953 0.097979649901390076
0.57456839084625244 0.0011346106184646487 0.0952787846326828
0.079121612012386322 0.21475927531719208 0.10411487519741058
0.1229061484336853 0.19214001297950745 0.094124801456928253
0.18582729995250702 0.17116788029670715 0.093083322048187256
0.26214441657066345 0.15554884076118469 0.10187344998121262
0.34431743621826172 0.14516749978065491 0.1159408837556839
0.42813789844512939 0.13692936301231384 0.13070707023143768
0.51712626218795776 0.13191868364810944 0.14719553291797638
0.5996590256690979 0.12954361736774445 0.1650003045797348
0.64318585395812988 0.1205337792634964 0.17171439528465271
0.64203470945358276 0.10105830430984497 0.15812098979949951
0.62861090898513794 0.080872885882854462 0.13618932664394379
0.61883294582366943 0.064701691269874573 0.1240825280547142
0.61047035455703735 0.050924427807331085 0.11851878464221954
0.12924647331237793 0.31992331147193909 0.14267389476299286
0.16281875967979431 0.29484131932258606 0.12893493473529816
0.22211606800556183 0.27515804767608643 0.13116686046123505
0.30138218402862549 0.26242637634277344 0.14461816847324371
0.38700756430625916 0.25603386759757996 0.16342940926551819
0.47161573171615601 0.25251185894012451 0.18278779089450836
0.55803364515304565 0.25005125999450684 0.20202513039112091
0.64304512739181519 0.24660903215408325 0.21976137161254883
0.7001761794090271 0.23608614504337311 0.22715027630329132
0.71320825815200806 0.21442070603370667 0.21518787741661072
0.70250618457794189 0.19019223749637604 0.19530721008777618
0.68805593252182007 0.17031385004520416 0.18077585101127625
0.6753271222114563 0.15522915124893188 0.17384366691112518
0.19182419776916504 0.42891666293144226 0.19178830087184906
0.21374629437923431 0.4027438759803772 0.17905837297439575
0.26434901356697083 0.38181021809577942 0.1795024573802948
0.34128978848457336 0.36956033110618591 0.19277544319629669
0.42720618844032288 0.36494725942611694 0.21358898282051086
0.50998955965042114 0.36388304829597473 0.23384533822536469
0.59220445156097412 0.36253505945205688 0.25311776995658875
0.67698687314987183 0.35845360159873962 0.27084070444107056
0.74803650379180908 0.3494267463684082 0.28105026483535767
0.78327441215515137 0.33196374773979187 0.27744093537330627
0.78553217649459839 0.31030464172363281 0.2637539803981781
0.77305245399475098 0.29113069176673889 0.2516370415687561
0.75659489631652832 0.27550795674324036 0.24504458904266357
0.2645018994808197 0.54043817520141602 0.24848644435405731
0.27121025323867798 0.51289975643157959 0.2360413521528244
0.30536848306655884 0.48984417319297791 0.23383904993534088
0.37239295244216919 0.47560286521911621 0.24368010461330414
0.4559120237827301 0.46964728832244873 0.2613031268119812
0.54005873203277588 0.46771425008773804 0.27984619140625
0.6224636435508728 0.46541222929954529 0.29765200614929199
0.70667785406112671 0.46102038025856018 0.31481382250785828
0.78852742910385132 0.45463642477989197 0.33078223466873169
0.84843236207962036 0.44357192516326904 0.33880975842475891
0.87004083395004272 0.42801204323768616 0.33433645963668823
0.86269360780715942 0.41015297174453735 0.32361117005348206
0.84283286333084106 0.39255413413047791 0.31464850902557373
0.34559616446495056 0.65460771322250366 0.30798888206481934
0.33817899227142334 0.62552118301391602 0.29459443688392639
0.35084035992622375 0.59900683164596558 0.28827944397926331
0.40032312273979187 0.58108556270599365 0.29285505414009094
0.47887542843818665 0.57323837280273438 0.30674657225608826
0.56660687923431396 0.57044392824172974 0.3236045241355896
0.65361648797988892 0.56768941879272461 0.34080201387405396
0.74029326438903809 0.56251353025436401 0.35878863930702209
0.82914960384368896 0.55677372217178345 0.37934821844100952
0.90617042779922485 0.55011481046676636 0.39700815081596375
0.94309437274932861 0.53955990076065063 0.39908349514007568
0.94161868095397949 0.52382391691207886 0.38774570822715759
0.92137283086776733 0.5041043758392334 0.37480625510215759
0.4337456226348877 0.7718396782875061 0.36924880743026733
0.41625645756721497 0.74281597137451172 0.35510188341140747
0.4107058048248291 0.71346592903137207 0.34499695897102356
0.44026282429695129 0.69223439693450928 0.34429651498794556
0.50903081893920898 0.68291157484054565 0.35475543141365051
0.59599030017852783 0.67931288480758667 0.37074697017669678
0.68657654523849487 0.67499357461929321 0.38818061351776123
0.77737855911254883 0.66774266958236694 0.40696519613265991
0.86906081438064575 0.66074299812316895 0.42911764979362488
0.9483070969581604 0.65529316663742065 0.44865548610687256
0.98928260803222656 0.65083843469619751 0.45256122946739197
0.99203741550445557 0.6404004693031311 0.44078218936920166
0.97733080387115479 0.61994689702987671 0.42706596851348877
0.52163708209991455 0.88575667142868042 0.43084943294525146
0.50149673223495483 0.86033767461776733 0.41811522841453552
0.48611730337142944 0.83172100782394409 0.40628644824028015
0.49873143434524536 0.81066083908081055 0.40181070566177368
0.55040454864501953 0.80150902271270752 0.40863963961601257
0.63053929805755615 0.79771751165390015 0.42372801899909973
0.72112250328063965 0.79090344905853271 0.44087794423103333
0.81301325559616089 0.78087079524993896 0.45809146761894226
0.90147525072097778 0.77285325527191162 0.47733047604560852
0.97361445426940918 0.76892465353012085 0.49389755725860596
0.99981075525283813 0.77115780115127563 0.4962213933467865
1 0.76701098680496216 0.48613634705543518
0.99861085414886475 0.74685519933700562 0.47630244493484497
0.59964513778686523 0.9744715690612793 0.48598062992095947
0.58275216817855835 0.95705270767211914 0.47745540738105774
0.56379073858261108 0.93319827318191528 0.46688094735145569
0.56437253952026367 0.92063480615615845 0.46140244603157043
0.59884846210479736 0.91698211431503296 0.46550801396369934
0.66890650987625122 0.91463375091552734 0.47943922877311707
0.75791102647781372 0.90753012895584106 0.49650242924690247
0.84722965955734253 0.89712202548980713 0.51115095615386963
0.92641294002532959 0.89083373546600342 0.52562975883483887
0.98457419872283936 0.8898245096206665 0.53776538372039795
1 0.89610832929611206 0.54109621047973633
1 0.89401912689208984 0.53676491975784302
0.9997934103012085 0.87315475940704346 0.53415060043334961
0.65466821193695068 0.99993908405303955 0.52447021007537842
0.64279615879058838 0.99684745073318481 0.51968288421630859
0.62507337331771851 0.99081432819366455 0.5133405327796936
0.62065476179122925 0.99196982383728027 0.51146841049194336
0.64206349849700928 0.99321925640106201 0.51434016227722168
0.70284968614578247 0.99262863397598267 0.52735614776611328
0.79296451807022095 0.98929190635681152 0.5463910698890686
0.88366168737411499 0.98335045576095581 0.56286638975143433
0.95290595293045044 0.98149782419204712 0.57884401082992554
0.99369663000106812 0.98157936334609985 0.59518009424209595
1 0.98583269119262695 0.60743016004562378
0.99963825941085815 0.98462295532226562 0.61252045631408691
0.99642813205718994 0.96727728843688965 0.61822885274887085
0.68017572164535522 1 0.54572385549545288
0.66944968700408936 1 0.54053419828414917
0.65297514200210571 1 0.53713679313659668
0.64474231004714966 1 0.5371667742729187
0.6596992015838623 1 0.54125773906707764
0.71614199876785278 1 0.5553971529006958
0.81143289804458618 1 0.57973521947860718
0.91426986455917358 0.99999630451202393 0.60612553358078003
0.98485422134399414 0.99979019165039062 0.63604563474655151
0.99990522861480713 1 0.66973471641540527
1 1 0.70092672109603882
0.99853754043579102 1 0.72397392988204956
0.99367237091064453 0.99805212020874023 0.73754340410232544
0.68245643377304077 1 0.55876559019088745
0.6688610315322876 1 0.55082529783248901
0.65172034502029419 1 0.54605352878570557
0.64012974500656128 1 0.5450369119644165
0.64936238527297974 1 0.5491034984588623
0.70234668254852295 1 0.56625247001647949
0.80129283666610718 0.99960386753082275 0.59812420606613159
0.90831500291824341 0.99559932947158813 0.63918250799179077
0.98260653018951416 0.99072897434234619 0.68707752227783203
0.99988800287246704 0.99369323253631592 0.73977917432785034
1 0.99708503484725952 0.79151433706283569
0.99938738346099854 0.99788659811019897 0.83443880081176758
0.99478840827941895 0.99470353126525879 0.8578418493270874
0.026313662528991699 0.051457617431879044 0.094131842255592346
0.092528216540813446 0.041185773909091949 0.095446489751338959
0.17008678615093231 0.034299887716770172 0.10248221457004547
0.25482022762298584 0.032255224883556366 0.11874428391456604
0.34690213203430176 0.03784777969121933 0.14177198708057404
0.44870132207870483 0.057532023638486862 0.16939106583595276
0.54940617084503174 0.079331405460834503 0.19491550326347351
0.61862587928771973 0.082221537828445435 0.20745454728603363
0.63648569583892822 0.065263785421848297 0.20010921359062195
0.62396049499511719 0.043658535927534103 0.18246038258075714
0.60547548532485962 0.024146884679794312 0.16422127187252045
0.59124237298965454 0.0098182531073689461 0.15135689079761505
0.58076053857803345 0.0025835672859102488 0.14337216317653656
0.051594439893960953 0.14112600684165955 0.12322969734668732
0.10617482662200928 0.12258961796760559 0.11788294464349747
0.17493908107280731 0.10455883294343948 0.11757469922304153
0.25403967499732971 0.091683439910411835 0.12652575969696045
0.33998242020606995 0.085282027721405029 0.14257016777992249
0.43023934960365295 0.08466745913028717 0.15825095772743225
0.52093690633773804 0.085996963083744049 0.17076694965362549
0.59225177764892578 0.080793879926204681 0.1783309280872345
0.62190085649490356 0.068922482430934906 0.17697919905185699
0.61642807722091675 0.053155653178691864 0.16431204974651337
0.60213601589202881 0.036288287490606308 0.14820791780948639
0.59275442361831665 0.021902779117226601 0.13946349918842316
0.58402764797210693 0.010507336817681789 0.1313132643699646
0.092667587101459503 0.24328066408634186 0.15793567895889282
0.1355321854352951 0.22209249436855316 0.14916762709617615
0.19844268262386322 0.19961355626583099 0.14519353210926056
0.27788293361663818 0.18498712778091431 0.15229174494743347
0.36630350351333618 0.18056818842887878 0.16824328899383545
0.45293700695037842 0.17220978438854218 0.18106231093406677
0.53600519895553589 0.1584046483039856 0.18880090117454529
0.60920494794845581 0.14704468846321106 0.19566544890403748
0.65008664131164551 0.13534475862979889 0.19648803770542145
0.65104961395263672 0.11781438440084457 0.18442767858505249
0.63748067617416382 0.097828015685081482 0.16753596067428589
0.62600982189178467 0.079233713448047638 0.15598709881305695
0.61526733636856079 0.062601350247859955 0.14437608420848846
0.14662592113018036 0.34694981575012207 0.19427260756492615
0.17780454456806183 0.32439225912094116 0.18259190022945404
0.23446394503116608 0.30032309889793396 0.1771676242351532
0.31313800811767578 0.2853209376335144 0.18437816202640533
0.40155991911888123 0.27973511815071106 0.20119735598564148
0.48641952872276306 0.27261477708816528 0.21661198139190674
0.56808829307556152 0.26153779029846191 0.22841554880142212
0.64745241403579712 0.25299984216690063 0.23946395516395569
0.70334267616271973 0.24360978603363037 0.24372686445713043
0.71413147449493408 0.22409451007843018 0.2327471524477005
0.70200639963150024 0.1998944878578186 0.21380822360515594
0.68818765878677368 0.17729051411151886 0.19809885323047638
0.67635548114776611 0.15971831977367401 0.18669684231281281
0.21156807243824005 0.44764161109924316 0.2338583916425705
0.22964029014110565 0.42125806212425232 0.21830789744853973
0.27482312917709351 0.3971790075302124 0.21092700958251953
0.34748280048370361 0.38098242878913879 0.21787950396537781
0.43372556567192078 0.37486165761947632 0.23567375540733337
0.51552474498748779 0.37057104706764221 0.25293710827827454
0.59392088651657104 0.36407294869422913 0.2679503858089447
0.6743934154510498 0.3587377667427063 0.28209409117698669
0.74368798732757568 0.35312619805335999 0.29138040542602539
0.77646565437316895 0.33778861165046692 0.28722766041755676
0.77753186225891113 0.31523969769477844 0.27061790227890015
0.76799607276916504 0.29265761375427246 0.25589287281036377
0.75494003295898438 0.27393749356269836 0.24570238590240479
0.28396868705749512 0.54873543977737427 0.27841827273368835
0.28603354096412659 0.51881200075149536 0.26030275225639343
0.31264913082122803 0.49313756823539734 0.25060710310935974
0.3719647228717804 0.47684302926063538 0.25455087423324585
0.4531414806842804 0.47015145421028137 0.27002030611038208
0.53746575117111206 0.46726822853088379 0.28755688667297363
0.61682099103927612 0.46304059028625488 0.30298060178756714
0.69462066888809204 0.45828509330749512 0.31769785284996033
