assets/lut/others 60s faded.cube
# Created by: G'MIC (https://gmic.eu)
TITLE "60s_faded"
# LUT size
LUT_3D_SIZE 13
# Data domain
DOMAIN_MIN 0.0 0.0 0.0
DOMAIN_MAX 1.0 1.0 1.0
# LUT data points
0.49301111698150635 0.16871088743209839 0.15012037754058838
0.50786900520324707 0.17764972150325775 0.16508576273918152
0.51980072259902954 0.17964868247509003 0.15648069977760315
0.54844093322753906 0.18039451539516449 0.16458302736282349
0.58948689699172974 0.18399398028850555 0.16393646597862244
0.62622225284576416 0.19065724313259125 0.17234735190868378
0.66336792707443237 0.19853916764259338 0.17037828266620636
0.69802886247634888 0.19936029613018036 0.16747638583183289
0.73959040641784668 0.20242597162723541 0.18139423429965973
0.76545077562332153 0.20681367814540863 0.17779695987701416
0.77352613210678101 0.21165315806865692 0.17939208447933197
0.76790004968643188 0.21450217068195343 0.18380817770957947
0.76372289657592773 0.21551069617271423 0.18413680791854858
0.49210309982299805 0.23168638348579407 0.15690065920352936
0.50447851419448853 0.23827402293682098 0.16522841155529022
0.51848900318145752 0.23842070996761322 0.15904651582241058
0.55158752202987671 0.24155120551586151 0.16801883280277252
0.5904853343963623 0.24640940129756927 0.17149887979030609
0.62749117612838745 0.24861937761306763 0.17046910524368286
0.66836303472518921 0.25226584076881409 0.17255677282810211
0.70409739017486572 0.25620076060295105 0.17461887001991272
0.74185025691986084 0.26004734635353088 0.17694349586963654
0.76516520977020264 0.26556986570358276 0.18163880705833435
0.77527540922164917 0.26862964034080505 0.18400722742080688
0.77505546808242798 0.27181383967399597 0.18750648200511932
0.77082556486129761 0.27132469415664673 0.1883113831281662
0.48572981357574463 0.28854268789291382 0.15392148494720459
0.49080327153205872 0.29144287109375 0.15706515312194824
0.51365572214126587 0.2922416627407074 0.15794675052165985
0.55061638355255127 0.29542696475982666 0.16326367855072021
0.58905452489852905 0.30018386244773865 0.16694556176662445
0.62809771299362183 0.30381721258163452 0.16587227582931519
0.67041629552841187 0.30721834301948547 0.17283478379249573
0.70389354228973389 0.31151643395423889 0.17385661602020264
0.74111479520797729 0.31656980514526367 0.17728616297245026
0.76434427499771118 0.3221229612827301 0.1845441609621048
0.77596503496170044 0.3253079354763031 0.18855898082256317
0.77515363693237305 0.32701021432876587 0.1870276927947998
0.77381283044815063 0.33204668760299683 0.19409818947315216
0.46795877814292908 0.34142521023750305 0.15433089435100555
0.48349705338478088 0.34438541531562805 0.16144202649593353
0.5117376446723938 0.34558764100074768 0.16163501143455505
0.54687654972076416 0.34758087992668152 0.15986265242099762
0.58725816011428833 0.35120239853858948 0.16668404638767242
0.62788569927215576 0.35551440715789795 0.17003390192985535
0.6694299578666687 0.35814949870109558 0.17350101470947266
0.70463359355926514 0.36261361837387085 0.17570805549621582
0.73934054374694824 0.36703330278396606 0.17782855033874512
0.76437902450561523 0.37048017978668213 0.1833975613117218
0.77950698137283325 0.37365704774856567 0.18606333434581757
0.77944433689117432 0.37660080194473267 0.18704921007156372
0.77829784154891968 0.3884643018245697 0.20273053646087646
0.46532240509986877 0.39710566401481628 0.16350322961807251
0.49245324730873108 0.39705085754394531 0.16576188802719116
0.51698416471481323 0.3969065248966217 0.16569849848747253
0.54786986112594604 0.39912542700767517 0.16694505512714386
0.58760744333267212 0.40134871006011963 0.16906338930130005
0.62884080410003662 0.40361610054969788 0.17057652771472931
0.66963434219360352 0.40591922402381897 0.17084234952926636
0.70522463321685791 0.40956306457519531 0.1749575138092041
0.73750966787338257 0.41368392109870911 0.17736238241195679
0.76315027475357056 0.41690906882286072 0.1841404139995575
0.77902787923812866 0.4199182391166687 0.18649519979953766
0.78476691246032715 0.42379412055015564 0.18934014439582825
0.78547590970993042 0.43000596761703491 0.19867774844169617
0.45734941959381104 0.45018771290779114 0.17312541604042053
0.49060270190238953 0.44705677032470703 0.17057220637798309
0.51718598604202271 0.44443383812904358 0.16597078740596771
0.55144429206848145 0.4455418586730957 0.16908009350299835
0.59128427505493164 0.44597861170768738 0.16946271061897278
0.63035893440246582 0.44635647535324097 0.16782990097999573
0.6707528829574585 0.44841429591178894 0.16994377970695496
0.70483022928237915 0.45303907990455627 0.17511974275112152
0.73750650882720947 0.45557460188865662 0.1768047958612442
0.7657085657119751 0.46016496419906616 0.18557192385196686
0.77707195281982422 0.46333816647529602 0.18614266812801361
0.78636747598648071 0.46390339732170105 0.1834370344877243
0.7899702787399292 0.46666234731674194 0.18626445531845093
0.46681299805641174 0.49156901240348816 0.17329534888267517
0.49022731184959412 0.49130940437316895 0.17828369140625
0.51963108777999878 0.48932218551635742 0.17339888215065002
0.55244463682174683 0.48908606171607971 0.17079614102840424
0.59309655427932739 0.48970118165016174 0.17251631617546082
0.63294333219528198 0.4895479679107666 0.17303381860256195
0.67201834917068481 0.49020415544509888 0.17236579954624176
0.70471811294555664 0.49350431561470032 0.1765085756778717
0.74135172367095947 0.49634245038032532 0.1812632828950882
0.76891541481018066 0.49878606200218201 0.18539176881313324
0.77998977899551392 0.50102949142456055 0.1857338547706604
0.78935343027114868 0.50253570079803467 0.18613545596599579
0.7978966236114502 0.50657010078430176 0.19141463935375214
0.46044611930847168 0.52969413995742798 0.17842672765254974
0.48975911736488342 0.53052335977554321 0.17973604798316956
0.52335375547409058 0.53011476993560791 0.17789176106452942
0.55829775333404541 0.52922254800796509 0.17658543586730957
0.59643274545669556 0.53073298931121826 0.17701548337936401
0.63699305057525635 0.52902317047119141 0.17654398083686829
0.67625242471694946 0.52731770277023315 0.17699380218982697
0.70757061243057251 0.53250902891159058 0.17988494038581848
0.74174380302429199 0.53258317708969116 0.18213371932506561
0.76902872323989868 0.5343744158744812 0.18410483002662659
0.78292077779769897 0.53863352537155151 0.18581110239028931
0.7893364429473877 0.54153847694396973 0.18874889612197876
0.80352449417114258 0.54742521047592163 0.19658364355564117
0.46299755573272705 0.57315582036972046 0.18833358585834503
0.49516159296035767 0.56856769323348999 0.17742460966110229
0.52293229103088379 0.57176673412322998 0.17791347205638885
0.55956506729125977 0.56988012790679932 0.17760594189167023
0.59838426113128662 0.56967878341674805 0.17821185290813446
0.63659626245498657 0.56993496417999268 0.17539754509925842
0.67606884241104126 0.56808966398239136 0.17456831037998199
0.70637094974517822 0.57138776779174805 0.17724835872650146
0.74044263362884521 0.56849998235702515 0.1793719083070755
0.76767027378082275 0.57109493017196655 0.18298734724521637
0.78174787759780884 0.57801300287246704 0.1838969886302948
0.79097074270248413 0.58123964071273804 0.18633006513118744
0.81333762407302856 0.59167414903640747 0.20096813142299652
0.45709100365638733 0.61155754327774048 0.18855917453765869
0.49467825889587402 0.60824692249298096 0.18118242919445038
0.52562582492828369 0.60943162441253662 0.18085207045078278
0.56197053194046021 0.60787004232406616 0.17971359193325043
0.60245126485824585 0.60558879375457764 0.17939136922359467
0.63726675510406494 0.6078484058380127 0.17736296355724335
0.67533618211746216 0.6062120795249939 0.17909203469753265
0.70751255750656128 0.60679709911346436 0.17945845425128937
0.74197667837142944 0.60483479499816895 0.17806600034236908
0.76726722717285156 0.60638165473937988 0.1815902441740036
0.7852596640586853 0.60916346311569214 0.18371374905109406
0.7933349609375 0.61410343647003174 0.18932938575744629
0.81148171424865723 0.62562251091003418 0.20262594521045685
0.47100621461868286 0.63928067684173584 0.18361932039260864
0.50305134057998657 0.64108097553253174 0.18612638115882874
0.53233736753463745 0.64584189653396606 0.19035986065864563
0.56711411476135254 0.64320117235183716 0.18734470009803772
0.60580229759216309 0.63997972011566162 0.18374951183795929
0.64186775684356689 0.64050006866455078 0.18364605307579041
0.6771705150604248 0.6387220025062561 0.18283315002918243
0.70989972352981567 0.64009010791778564 0.1854981929063797
0.74376004934310913 0.64012181758880615 0.1822664737701416
0.7704346776008606 0.64082556962966919 0.18529133498668671
0.78776705265045166 0.64192533493041992 0.18810239434242249
0.798362135887146 0.64632242918014526 0.19622869789600372
0.81182461977005005 0.65262311697006226 0.20474450290203094
0.4698282778263092 0.67012083530426025 0.18270199000835419
0.49841022491455078 0.6757965087890625 0.18868090212345123
0.52986055612564087 0.67749667167663574 0.18665501475334167
0.56661701202392578 0.67487561702728271 0.19033625721931458
0.60527092218399048 0.6742519736289978 0.188441202044487
0.64358413219451904 0.67498648166656494 0.18734301626682281
0.67878443002700806 0.67105323076248169 0.19265729188919067
0.71061420440673828 0.67081516981124878 0.1939188539981842
0.74425345659255981 0.6750943660736084 0.1911347359418869
0.77307695150375366 0.67340010404586792 0.18901240825653076
0.79042387008666992 0.67128682136535645 0.18852145969867706
0.80309861898422241 0.6738661527633667 0.19812802970409393
0.81529641151428223 0.67499011754989624 0.19819752871990204
0.45657014846801758 0.68154364824295044 0.20090830326080322
0.50340861082077026 0.68966376781463623 0.21075828373432159
0.53506290912628174 0.69135832786560059 0.20067693293094635
0.57926744222640991 0.69684904813766479 0.21268495917320251
0.61924993991851807 0.69908475875854492 0.2140086442232132
0.65412861108779907 0.69083577394485474 0.20897036790847778
0.69636076688766479 0.69988292455673218 0.21619641780853271
0.7221415638923645 0.69570934772491455 0.20959457755088806
0.75303328037261963 0.69775718450546265 0.20670858025550842
0.78702586889266968 0.69631093740463257 0.21037454903125763
0.80398398637771606 0.68575745820999146 0.21578824520111084
0.81681603193283081 0.68108201026916504 0.2152719646692276
0.84990102052688599 0.69749218225479126 0.22477595508098602
0.46934396028518677 0.23793144524097443 0.21515356004238129
0.49095058441162109 0.23637405037879944 0.22210580110549927
0.51736187934875488 0.23979362845420837 0.22318620979785919
0.54749411344528198 0.24380315840244293 0.22687648236751556
0.58497345447540283 0.23566064238548279 0.22995366156101227
0.61737293004989624 0.23496520519256592 0.22742605209350586
0.65510803461074829 0.24205738306045532 0.22697244584560394
0.6994774341583252 0.24908125400543213 0.23704622685909271
0.73616862297058105 0.26329052448272705 0.23997783660888672
0.76466244459152222 0.26205989718437195 0.24520866572856903
0.78889310359954834 0.25928917527198792 0.2561524510383606
0.79755419492721558 0.26362636685371399 0.26333850622177124
0.80869722366333008 0.27544969320297241 0.27211123704910278
0.48193550109863281 0.28182494640350342 0.23066173493862152
0.49456566572189331 0.2863696813583374 0.23570874333381653
0.51924294233322144 0.28659433126449585 0.23551079630851746
0.55814677476882935 0.28948178887367249 0.24188406765460968
0.59672063589096069 0.29268258810043335 0.24583539366722107
0.63376027345657349 0.29446667432785034 0.24627380073070526
0.67382681369781494 0.2984001636505127 0.24911969900131226
0.71034103631973267 0.30312582850456238 0.25271269679069519
0.74390405416488647 0.31048816442489624 0.25630274415016174
0.7740972638130188 0.31704208254814148 0.26376929879188538
0.79528999328613281 0.31870609521865845 0.26942634582519531
0.80343425273895264 0.3216002881526947 0.27190107107162476
0.80817520618438721 0.32757073640823364 0.27917021512985229
0.47756162285804749 0.33476507663726807 0.23271118104457855
0.48627850413322449 0.34048366546630859 0.23954381048679352
0.51325154304504395 0.34126061201095581 0.23787246644496918
0.55588948726654053 0.34267878532409668 0.24106790125370026
0.59782391786575317 0.34577244520187378 0.2473522424697876
0.63824576139450073 0.34954911470413208 0.25038826465606689
0.67846572399139404 0.3535628616809845 0.25483211874961853
0.71063506603240967 0.35728698968887329 0.25362423062324524
0.74476873874664307 0.36279928684234619 0.25735899806022644
0.77519911527633667 0.3688197135925293 0.2646089494228363
0.79534971714019775 0.37377437949180603 0.26796194911003113
0.80743026733398438 0.37656855583190918 0.26931938529014587
0.81503218412399292 0.38051459193229675 0.27451422810554504
0.45231932401657104 0.38530141115188599 0.23507131636142731
0.47715628147125244 0.39020457863807678 0.24089628458023071
0.51314771175384521 0.39206016063690186 0.23784391582012177
0.55151611566543579 0.39427986741065979 0.23843783140182495
0.59367150068283081 0.39626321196556091 0.24506281316280365
0.63550233840942383 0.3997613787651062 0.24904501438140869
0.67658370733261108 0.40370160341262817 0.25336214900016785
0.71070432662963867 0.40696039795875549 0.25334927439689636
0.74557614326477051 0.41082710027694702 0.25625914335250854
0.77375400066375732 0.41512829065322876 0.26107022166252136
0.79545432329177856 0.42067351937294006 0.26556199789047241
0.8100849986076355 0.42314997315406799 0.2656036913394928
0.82091438770294189 0.42884814739227295 0.27200868725776672
0.46576333045959473 0.43675944209098816 0.23948037624359131
0.49799522757530212 0.44306659698486328 0.24659176170825958
0.51898252964019775 0.4431476891040802 0.2449609637260437
0.55099046230316162 0.44691729545593262 0.24616040289402008
0.59205132722854614 0.44672882556915283 0.24773499369621277
0.63467782735824585 0.44806954264640808 0.24956870079040527
0.67737990617752075 0.45264789462089539 0.25338241457939148
0.71213340759277344 0.45377317070960999 0.25523465871810913
0.74444288015365601 0.45588845014572144 0.25655949115753174
0.77079218626022339 0.46091249585151672 0.26080626249313354
0.79043734073638916 0.46455326676368713 0.26445466279983521
0.80512374639511108 0.46524283289909363 0.26328334212303162
0.8168296217918396 0.46744003891944885 0.26717042922973633
0.45409509539604187 0.48980021476745605 0.25134983658790588
0.49747738242149353 0.49106714129447937 0.25108811259269714
0.51906502246856689 0.49063435196876526 0.24938221275806427
0.55358099937438965 0.49127122759819031 0.25099706649780273
0.59383809566497803 0.48861861228942871 0.24947793781757355
0.63517516851425171 0.48852664232254028 0.24919793009757996
0.67658036947250366 0.49192318320274353 0.25194600224494934
0.71191370487213135 0.49456474184989929 0.25521689653396606
0.74425226449966431 0.49691373109817505 0.25766086578369141
0.77066028118133545 0.50192147493362427 0.26152074337005615
0.79052978754043579 0.50371855497360229 0.26292848587036133
0.80751591920852661 0.50280708074569702 0.26103630661964417
0.81992864608764648 0.50572603940963745 0.26383891701698303
0.47418847680091858 0.52631324529647827 0.25410395860671997
0.49550780653953552 0.53011822700500488 0.25381815433502197
0.5230785608291626 0.52930837869644165 0.25214564800262451
0.55971020460128784 0.52852773666381836 0.25331199169158936
0.59891831874847412 0.52832508087158203 0.25384813547134399
0.63821530342102051 0.52863156795501709 0.25188881158828735
0.67831766605377197 0.53093022108078003 0.25185665488243103
0.71293872594833374 0.53347474336624146 0.25514417886734009
0.74759852886199951 0.53752994537353516 0.26026049256324768
0.77345448732376099 0.53923994302749634 0.26297885179519653
0.79299134016036987 0.54018098115921021 0.26345056295394897
0.81450283527374268 0.54096204042434692 0.26278629899024963
0.83222609758377075 0.55339181423187256 0.27610000967979431
0.44956821203231812 0.55987715721130371 0.25215590000152588
0.49291601777076721 0.56791228055953979 0.25539791584014893
0.52683275938034058 0.56675779819488525 0.25330314040184021
0.56540721654891968 0.5670849084854126 0.25730797648429871
0.60410612821578979 0.56713956594467163 0.2589356005191803
0.6412816047668457 0.5666961669921875 0.25489389896392822
0.67902207374572754 0.56711864471435547 0.25318628549575806
0.71263903379440308 0.57001179456710815 0.25504797697067261
0.74625605344772339 0.57294893264770508 0.25932443141937256
0.77314877510070801 0.5766182541847229 0.26339057087898254
0.79458433389663696 0.57878297567367554 0.26484543085098267
0.81428444385528564 0.58298283815383911 0.26906949281692505
0.83661401271820068 0.59845656156539917 0.28595483303070068
0.47359961271286011 0.60163360834121704 0.25330409407615662
0.50063920021057129 0.60999834537506104 0.25899532437324524
0.52298134565353394 0.60800135135650635 0.25407955050468445
0.5646178126335144 0.60589843988418579 0.25710609555244446
0.60499840974807739 0.60532373189926147 0.25797808170318604
0.64148849248886108 0.60358923673629761 0.25468498468399048
0.67792361974716187 0.60333722829818726 0.25303348898887634
0.71072113513946533 0.60572141408920288 0.25360047817230225
0.74279433488845825 0.60707724094390869 0.25670596957206726
0.77154600620269775 0.61177802085876465 0.26224270462989807
0.79397457838058472 0.61549985408782959 0.26559016108512878
0.81289750337600708 0.61839687824249268 0.2683679461479187
0.83611017465591431 0.62969446182250977 0.28087785840034485
0.45929485559463501 0.6401638388633728 0.25727066397666931
0.5020100474357605 0.64420884847640991 0.26003250479698181
0.52747118473052979 0.64395791292190552 0.25649845600128174
0.56679165363311768 0.64301609992980957 0.2568475604057312
0.60667091608047485 0.64170408248901367 0.2575022280216217
0.64375704526901245 0.6415213942527771 0.25720900297164917
0.67871332168579102 0.64064234495162964 0.25582998991012573
0.71108633279800415 0.64105826616287231 0.25594666600227356
0.7431565523147583 0.64061492681503296 0.25589367747306824
0.77130866050720215 0.64177846908569336 0.25992089509963989
0.79595941305160522 0.64358723163604736 0.2634214460849762
0.81646251678466797 0.6459578275680542 0.26506119966506958
0.84030425548553467 0.65746510028839111 0.27694341540336609
0.47598344087600708 0.6719590425491333 0.2601839005947113
0.51123124361038208 0.6767849326133728 0.26360508799552917
0.53785407543182373 0.67888414859771729 0.26175212860107422
0.56956058740615845 0.67884916067123413 0.25991401076316833
0.60918217897415161 0.67773211002349854 0.26141315698623657
0.64771300554275513 0.67758464813232422 0.26241138577461243
0.68017446994781494 0.67716735601425171 0.26129621267318726
0.71119111776351929 0.67829769849777222 0.26133692264556885
0.74350655078887939 0.67513465881347656 0.26057294011116028
0.77244800329208374 0.67165637016296387 0.26099160313606262
0.79550772905349731 0.67245006561279297 0.26339229941368103
0.81593388319015503 0.67641276121139526 0.26676654815673828
0.83797627687454224 0.69258350133895874 0.28127682209014893
0.47409871220588684 0.7039492130279541 0.26403933763504028
0.50565481185913086 0.70885598659515381 0.26560243964195251
0.53820669651031494 0.71063137054443359 0.26422819495201111
0.57156616449356079 0.70640188455581665 0.26520094275474548
0.60979074239730835 0.7060198187828064 0.26600700616836548
0.64710491895675659 0.70962607860565186 0.26467698812484741
0.6843489408493042 0.70672523975372314 0.26977795362472534
0.71472179889678955 0.7098204493522644 0.26772615313529968
0.74669212102890015 0.70920825004577637 0.26491439342498779
0.77365660667419434 0.70439517498016357 0.26459676027297974
0.79543739557266235 0.70169144868850708 0.26619938015937805
0.81428384780883789 0.70400321483612061 0.27088510990142822
0.83188760280609131 0.7140929102897644 0.27941235899925232
0.4732515811920166 0.71487712860107422 0.28445082902908325
0.51518231630325317 0.72860360145568848 0.28951278328895569
0.54687768220901489 0.72234952449798584 0.28546202182769775
0.58303844928741455 0.72493904829025269 0.28399994969367981
0.63260364532470703 0.73847222328186035 0.2946203351020813
0.66283112764358521 0.73127275705337524 0.28592056035995483
0.70482486486434937 0.709189772605896 0.29717850685119629
0.73370033502578735 0.72837388515472412 0.29259848594665527
0.76835715770721436 0.72782647609710693 0.29164567589759827
0.78499048948287964 0.73234128952026367 0.27707651257514954
0.80149680376052856 0.72030967473983765 0.27843764424324036
0.8296998143196106 0.70060044527053833 0.29936495423316956
0.85541802644729614 0.72412961721420288 0.31165921688079834
0.40094390511512756 0.26883703470230103 0.26576641201972961
0.4761926531791687 0.28353205323219299 0.28879269957542419
0.50774151086807251 0.28070715069770813 0.29234710335731506
0.55084645748138428 0.27937459945678711 0.30032026767730713
0.57923072576522827 0.28362977504730225 0.28900372982025146
0.60914671421051025 0.28669977188110352 0.28010189533233643
0.66021299362182617 0.29344421625137329 0.29754039645195007
0.70428615808486938 0.29196351766586304 0.31187930703163147
0.73623698949813843 0.30403009057044983 0.31196650862693787
0.75669580698013306 0.30999088287353516 0.30144190788269043
0.79158085584640503 0.31290891766548157 0.31845319271087646
0.8036874532699585 0.31966471672058105 0.31387582421302795
0.83024489879608154 0.33084595203399658 0.32986301183700562
0.42876553535461426 0.31927964091300964 0.29343223571777344
0.48737218976020813 0.33024865388870239 0.30754512548446655
0.52340972423553467 0.32718825340270996 0.31133446097373962
0.56217962503433228 0.32722446322441101 0.31489577889442444
0.59894394874572754 0.3305794894695282 0.3154062032699585
0.63547027111053467 0.33603206276893616 0.31536757946014404
0.6797635555267334 0.34069237112998962 0.3245246410369873
0.71611779928207397 0.34543436765670776 0.32928088307380676
0.74981206655502319 0.3514653742313385 0.33241292834281921
0.77842777967453003 0.35661035776138306 0.33175671100616455
0.8066975474357605 0.35831040143966675 0.34124720096588135
0.82053416967391968 0.36418831348419189 0.34443855285644531
0.84393543004989624 0.3758111298084259 0.35764363408088684
0.42784020304679871 0.37022167444229126 0.30180174112319946
0.48043477535247803 0.38199639320373535 0.31149953603744507
0.52045047283172607 0.38430675864219666 0.31078404188156128
0.55843311548233032 0.38455042243003845 0.31229338049888611
0.60179620981216431 0.38633483648300171 0.31925204396247864
0.64454454183578491 0.39077392220497131 0.32563468813896179
0.68346095085144043 0.39589869976043701 0.32978099584579468
0.71506786346435547 0.40074604749679565 0.33111497759819031
0.74878138303756714 0.40562388300895691 0.33348831534385681
0.78185760974884033 0.40931984782218933 0.33582320809364319
0.80755501985549927 0.41461515426635742 0.34058958292007446
0.82700526714324951 0.41746851801872253 0.34369784593582153
0.85463470220565796 0.42227613925933838 0.34543418884277344
0.42196542024612427 0.42413556575775146 0.30878660082817078
0.46972966194152832 0.43148571252822876 0.31431952118873596
0.51484113931655884 0.43663832545280457 0.31159582734107971
0.55742138624191284 0.43906620144844055 0.3134620189666748
0.60143601894378662 0.43820673227310181 0.32025232911109924
0.64367473125457764 0.44093197584152222 0.32583087682723999
0.68134260177612305 0.44548824429512024 0.32783794403076172
0.71536898612976074 0.44991269707679749 0.32996740937232971
0.75210034847259521 0.45435425639152527 0.33457639813423157
0.78326278924942017 0.45846560597419739 0.33839008212089539
0.8056214451789856 0.46230217814445496 0.34062767028808594
0.82846522331237793 0.46516084671020508 0.34107616543769836
0.854472815990448 0.46646198630332947 0.33981356024742126
0.42717865109443665 0.46738266944885254 0.30639222264289856
0.47038674354553223 0.47945508360862732 0.31926774978637695
0.51338332891464233 0.48205867409706116 0.31910455226898193
0.55826485157012939 0.48481124639511108 0.31907054781913757
0.60167604684829712 0.4849713146686554 0.32194522023200989
0.64282506704330444 0.48718535900115967 0.32411438226699829
0.68188971281051636 0.49063178896903992 0.32512655854225159
0.71673321723937988 0.49299150705337524 0.32808962464332581
0.75221771001815796 0.49673324823379517 0.33369258046150208
