assets/lut/others smooth cromeish.cube
# Created by: G'MIC (https://gmic.eu)
TITLE "smooth_cromeish"
# LUT size
LUT_3D_SIZE 13
# Data domain
DOMAIN_MIN 0.0 0.0 0.0
DOMAIN_MAX 1.0 1.0 1.0
# LUT data points
0.081137143075466156 0.1535930335521698 0.13635240495204926
0.10332119464874268 0.13205164670944214 0.12366454303264618
0.17009748518466949 0.14281362295150757 0.13684797286987305
0.24983705580234528 0.1486717164516449 0.14181730151176453
0.34754332900047302 0.14481733739376068 0.14543120563030243
0.45155686140060425 0.14825797080993652 0.14447873830795288
0.55341637134552002 0.13088269531726837 0.12419020384550095
0.70396828651428223 0.14349646866321564 0.13659413158893585
0.78915917873382568 0.14658933877944946 0.13954946398735046
0.857735276222229 0.14955520629882812 0.14249926805496216
0.91193687915802002 0.14646178483963013 0.13593347370624542
0.94984269142150879 0.1322447806596756 0.120522141456604
0.97160422801971436 0.15492032468318939 0.14246763288974762
0.081695258617401123 0.18856053054332733 0.13449555635452271
0.10780687630176544 0.1714368611574173 0.12637424468994141
0.15180420875549316 0.15847116708755493 0.11965776234865189
0.2402881532907486 0.18461968004703522 0.13701876997947693
0.31352505087852478 0.15804547071456909 0.12226586788892746
0.44018298387527466 0.17060719430446625 0.13065943121910095
0.55490118265151978 0.16663633286952972 0.12292438745498657
0.66771626472473145 0.14943815767765045 0.10938714444637299
0.76737058162689209 0.15358015894889832 0.10954102128744125
0.85103243589401245 0.17295832931995392 0.12768697738647461
0.91768211126327515 0.18284499645233154 0.12783117592334747
0.95791721343994141 0.15992484986782074 0.11105192452669144
0.98797523975372314 0.15960234403610229 0.10883522778749466
0.096160575747489929 0.2798149585723877 0.15302455425262451
0.1263362318277359 0.26882129907608032 0.14583432674407959
0.18033002316951752 0.26731961965560913 0.14753171801567078
0.27415174245834351 0.2909456193447113 0.1652921736240387
0.35782468318939209 0.27229124307632446 0.1537272036075592
0.46750348806381226 0.27042558789253235 0.15125298500061035
0.58504372835159302 0.27636632323265076 0.15426863729953766
0.69547897577285767 0.26772749423980713 0.14821669459342957
0.79239028692245483 0.26337265968322754 0.1448545902967453
0.8589138388633728 0.26303485035896301 0.14548060297966003
0.91846799850463867 0.27171057462692261 0.14556001126766205
0.96088850498199463 0.24643915891647339 0.13028557598590851
0.98229742050170898 0.25191518664360046 0.13428913056850433
0.07226233184337616 0.28996774554252625 0.12480208277702332
0.11223491281270981 0.3032432496547699 0.13230171799659729
0.16250964999198914 0.30030140280723572 0.12916038930416107
0.23994952440261841 0.30587074160575867 0.13548780977725983
0.33493328094482422 0.29887849092483521 0.13239489495754242
0.44059181213378906 0.30012351274490356 0.13030561804771423
0.54996728897094727 0.29461836814880371 0.12996858358383179
0.68882656097412109 0.31371897459030151 0.13943567872047424
0.79029387235641479 0.31346717476844788 0.13820917904376984
0.86050868034362793 0.31579753756523132 0.13869680464267731
0.91281288862228394 0.30730748176574707 0.12795963883399963
0.96267896890640259 0.29958298802375793 0.12592276930809021
0.98896211385726929 0.28651279211044312 0.11163373291492462
0.087712995707988739 0.40857416391372681 0.14519155025482178
0.12965638935565948 0.42139250040054321 0.15210981667041779
0.18753549456596375 0.41988760232925415 0.15256671607494354
0.26638117432594299 0.41721862554550171 0.154732346534729
0.36585932970046997 0.41682794690132141 0.15550926327705383
0.4812549352645874 0.42492306232452393 0.1585308164358139
0.5621446967124939 0.38106906414031982 0.13771337270736694
0.69814443588256836 0.40479311347007751 0.1489403247833252
0.78787606954574585 0.39345055818557739 0.13728432357311249
0.86941593885421753 0.41185235977172852 0.15319429337978363
0.9178694486618042 0.4044492244720459 0.14399524033069611
0.96234345436096191 0.3843873143196106 0.12457740306854248
0.98338192701339722 0.39706403017044067 0.13235968351364136
0.090974695980548859 0.51442080736160278 0.15082423388957977
0.13137444853782654 0.51276648044586182 0.15521644055843353
0.18826378881931305 0.50911670923233032 0.15487410128116608
0.27380326390266418 0.51844960451126099 0.16145376861095428
0.37460088729858398 0.51527053117752075 0.16275487840175629
0.48693540692329407 0.51039797067642212 0.16382975876331329
0.57438617944717407 0.48358643054962158 0.14703866839408875
0.70221138000488281 0.48960679769515991 0.15439502894878387
0.79691267013549805 0.49868452548980713 0.15859095752239227
0.86721497774124146 0.50731778144836426 0.16087460517883301
0.91830646991729736 0.49241942167282104 0.1533343642950058
0.96161800622940063 0.50118148326873779 0.1510966420173645
0.97757095098495483 0.50431424379348755 0.14916752278804779
0.069183811545372009 0.53174853324890137 0.12286854535341263
0.10320857912302017 0.53652369976043701 0.12563517689704895
0.15580011904239655 0.53251248598098755 0.12581731379032135
0.23744218051433563 0.5364609956741333 0.1322886049747467
0.34220755100250244 0.53814572095870972 0.13945487141609192
0.4506218433380127 0.53335273265838623 0.13661858439445496
0.57620012760162354 0.55417925119400024 0.14809827506542206
0.69787144660949707 0.53838258981704712 0.14447242021560669
0.79125428199768066 0.5377543568611145 0.14132998883724213
0.8523210883140564 0.53183519840240479 0.1315280944108963
0.91233021020889282 0.52488511800765991 0.12985919415950775
0.96082907915115356 0.52975904941558838 0.12920768558979034
0.98612093925476074 0.54123139381408691 0.12126297503709793
0.10124583542346954 0.64787960052490234 0.15983846783638
0.13720366358757019 0.6420714259147644 0.15752588212490082
0.18905670940876007 0.64308398962020874 0.15272726118564606
0.27391147613525391 0.65277719497680664 0.16018857061862946
0.37011557817459106 0.64682471752166748 0.1605110764503479
0.47419589757919312 0.64248752593994141 0.15671077370643616
0.5857701301574707 0.64388060569763184 0.15822036564350128
0.71338808536529541 0.64223229885101318 0.16150254011154175
0.80126261711120605 0.64102840423583984 0.15730911493301392
0.85847711563110352 0.63781744241714478 0.1492963433265686
0.91599512100219727 0.64381116628646851 0.14680731296539307
0.96068167686462402 0.62018829584121704 0.13324812054634094
0.98528558015823364 0.62434428930282593 0.12548473477363586
0.07085157185792923 0.65749615430831909 0.12202662974596024
0.10297046601772308 0.65551191568374634 0.12344222515821457
0.17288768291473389 0.67630350589752197 0.13745288550853729
0.25301513075828552 0.68731975555419922 0.14387509226799011
0.33622479438781738 0.66638827323913574 0.13442018628120422
0.4589674174785614 0.67396003007888794 0.14195947349071503
0.56919938325881958 0.67496156692504883 0.14304110407829285
0.6881067156791687 0.66814470291137695 0.13596586883068085
0.78995615243911743 0.67068350315093994 0.14110785722732544
0.85539662837982178 0.67610818147659302 0.1376768946647644
0.90990579128265381 0.67614001035690308 0.13522198796272278
0.95864766836166382 0.66982781887054443 0.12510648369789124
0.98309558629989624 0.67992329597473145 0.12714597582817078
0.072913870215415955 0.74418717622756958 0.12859997153282166
0.095778308808803558 0.7263370156288147 0.11495492607355118
0.15595027804374695 0.73659765720367432 0.12445873022079468
0.22686378657817841 0.74450200796127319 0.1261717826128006
0.33046090602874756 0.74707245826721191 0.13039067387580872
0.44775688648223877 0.74776923656463623 0.13757762312889099
0.55018419027328491 0.74972838163375854 0.12801171839237213
0.68109524250030518 0.73927223682403564 0.12314595282077789
0.77585262060165405 0.72831517457962036 0.11725872009992599
0.84788519144058228 0.73821312189102173 0.12000901252031326
0.90810436010360718 0.74054163694381714 0.12076097726821899
0.96577161550521851 0.74328911304473877 0.10874873399734497
0.98040246963500977 0.73899918794631958 0.11774791777133942
0.081345275044441223 0.81400376558303833 0.139389768242836
0.11024488508701324 0.80171340703964233 0.12639474868774414
0.17336976528167725 0.8113173246383667 0.13874207437038422
0.25171226263046265 0.82200682163238525 0.14696969091892242
0.36293321847915649 0.82548290491104126 0.15459586679935455
0.47457879781723022 0.82575500011444092 0.15695962309837341
0.56150168180465698 0.8152008056640625 0.1409149169921875
0.69106370210647583 0.82565659284591675 0.14268077909946442
0.78489959239959717 0.81483042240142822 0.13208648562431335
0.85435938835144043 0.81862342357635498 0.13214163482189178
0.90167784690856934 0.81135332584381104 0.12036503851413727
0.95811659097671509 0.83244895935058594 0.14528912305831909
0.97471988201141357 0.82071870565414429 0.12953072786331177
0.062925435602664948 0.86871427297592163 0.11550849676132202
0.10069020837545395 0.87595176696777344 0.12102358788251877
0.15365688502788544 0.87537670135498047 0.12241314351558685
0.22579008340835571 0.87530660629272461 0.12114781141281128
0.35207435488700867 0.88460087776184082 0.1418004184961319
0.43590152263641357 0.87054026126861572 0.12705907225608826
0.54814743995666504 0.87418299913406372 0.12636898458003998
0.67911738157272339 0.88802081346511841 0.12479262799024582
0.77439427375793457 0.88166749477386475 0.11917179822921753
0.8451114296913147 0.881855309009552 0.12216334789991379
0.90604573488235474 0.88876694440841675 0.12257178872823715
0.95953476428985596 0.89153110980987549 0.12084624171257019
0.98627620935440063 0.89427739381790161 0.11425372958183289
0.085547171533107758 0.95701611042022705 0.13838149607181549
0.12788280844688416 0.96498817205429077 0.14480847120285034
0.18364216387271881 0.96804070472717285 0.14629989862442017
0.24501194059848785 0.96397531032562256 0.13540785014629364
0.34301823377609253 0.96738088130950928 0.1358485072851181
0.4458252489566803 0.96565723419189453 0.13997001945972443
0.54508525133132935 0.96035999059677124 0.12521202862262726
0.69792360067367554 0.96865469217300415 0.1395965963602066
0.78858417272567749 0.97022682428359985 0.13736750185489655
0.861136794090271 0.96844786405563354 0.14639385044574738
0.91065436601638794 0.97020101547241211 0.13101714849472046
0.95761168003082275 0.97228926420211792 0.13662455976009369
0.97666072845458984 0.97097218036651611 0.13966511189937592
0.074270941317081451 0.14440037310123444 0.15951621532440186
0.11408227682113647 0.15107761323451996 0.16760773956775665
0.17786023020744324 0.15961062908172607 0.17548041045665741
0.24511505663394928 0.15531106293201447 0.17277057468891144
0.36030256748199463 0.1607852578163147 0.18849433958530426
0.46824836730957031 0.16456215083599091 0.18945351243019104
0.57255655527114868 0.14785084128379822 0.17231129109859467
0.69194358587265015 0.14174802601337433 0.16919854283332825
0.783832848072052 0.14423303306102753 0.17374163866043091
0.85243833065032959 0.14553610980510712 0.17293660342693329
0.91004204750061035 0.15861395001411438 0.16497062146663666
0.95121568441390991 0.16240620613098145 0.1542111337184906
0.97295874357223511 0.17245727777481079 0.17500361800193787
0.077951125800609589 0.19604074954986572 0.1674862802028656
0.11640017479658127 0.19658763706684113 0.17019858956336975
0.16373997926712036 0.18554817140102386 0.16288967430591583
0.24604322016239166 0.19405002892017365 0.17018523812294006
0.33893010020256042 0.18639284372329712 0.16634345054626465
0.45195093750953674 0.18845555186271667 0.1694273054599762
0.57174265384674072 0.18942596018314362 0.16872678697109222
0.69394117593765259 0.19239795207977295 0.16747695207595825
0.77215176820755005 0.19201895594596863 0.16420112550258636
0.85455018281936646 0.19622975587844849 0.17035101354122162
0.91598397493362427 0.20946860313415527 0.17092113196849823
0.96269327402114868 0.19436532258987427 0.15216128528118134
0.98680377006530762 0.19183562695980072 0.15668125450611115
0.089497692883014679 0.28600430488586426 0.18343223631381989
0.13106374442577362 0.28542834520339966 0.18553467094898224
0.18765756487846375 0.28396934270858765 0.18718673288822174
0.2644227147102356 0.279052734375 0.18679293990135193
0.37302744388580322 0.28796929121017456 0.19072209298610687
0.47016480565071106 0.27973753213882446 0.18720100820064545
0.58381468057632446 0.29415121674537659 0.19412346184253693
0.68887269496917725 0.27905231714248657 0.18086181581020355
0.77942782640457153 0.27274811267852783 0.17354105412960052
0.8623586893081665 0.29052633047103882 0.18572700023651123
0.92206400632858276 0.29804345965385437 0.18715453147888184
0.96581274271011353 0.27639207243919373 0.16871722042560577
0.98164260387420654 0.28951457142829895 0.17984628677368164
0.082608990371227264 0.33112344145774841 0.17536495625972748
0.12326733767986298 0.33466726541519165 0.17607225477695465
0.17432084679603577 0.32714694738388062 0.17366684973239899
0.25441500544548035 0.33083716034889221 0.1778540313243866
0.35052299499511719 0.33359572291374207 0.17989550530910492
0.46109697222709656 0.33571335673332214 0.18069227039813995
0.5673525333404541 0.34039843082427979 0.18077687919139862
0.68838703632354736 0.34475904703140259 0.17622174322605133
0.78056365251541138 0.34356158971786499 0.16745568811893463
0.85797673463821411 0.34183377027511597 0.16413238644599915
0.91522407531738281 0.3359411358833313 0.15954765677452087
0.96808058023452759 0.32766830921173096 0.15270964801311493
0.98896276950836182 0.32377558946609497 0.1505071222782135
0.098342791199684143 0.4517478346824646 0.19783951342105865
0.13850173354148865 0.44589781761169434 0.19278827309608459
0.19731472432613373 0.44536203145980835 0.19291861355304718
0.26972413063049316 0.44599586725234985 0.19213350117206573
0.36949709057807922 0.44480022788047791 0.19262991845607758
0.4788919985294342 0.44428753852844238 0.19187191128730774
0.57612043619155884 0.4303431510925293 0.18815858662128448
0.70455527305603027 0.43590962886810303 0.19338348507881165
0.7909473180770874 0.43780207633972168 0.18163654208183289
0.86476796865463257 0.440866619348526 0.18302319943904877
0.91489261388778687 0.42100417613983154 0.16434170305728912
0.9641648530960083 0.41964495182037354 0.16125650703907013
0.98305422067642212 0.42262476682662964 0.16487571597099304
0.087054848670959473 0.5123026967048645 0.18051226437091827
0.12971785664558411 0.5186161994934082 0.18593008816242218
0.19656790792942047 0.52246809005737305 0.19374838471412659
0.27208599448204041 0.52489286661148071 0.19438846409320831
0.3704247772693634 0.52124720811843872 0.19355036318302155
0.48085808753967285 0.52133715152740479 0.19589863717556
0.58003205060958862 0.51242393255233765 0.18986518681049347
0.70437771081924438 0.50277417898178101 0.19221636652946472
0.78923839330673218 0.51183617115020752 0.19566988945007324
0.86010318994522095 0.51881611347198486 0.18948851525783539
0.91525328159332275 0.5112755298614502 0.17099551856517792
0.9615815281867981 0.50499814748764038 0.16478630900382996
0.98098123073577881 0.53020656108856201 0.18233068287372589
0.077779181301593781 0.57579696178436279 0.17150512337684631
0.11740119755268097 0.57881647348403931 0.17385374009609222
0.17564588785171509 0.5785369873046875 0.17699824273586273
0.2579103410243988 0.58305412530899048 0.18232722580432892
0.37272679805755615 0.58873641490936279 0.19541323184967041
0.46589800715446472 0.57709038257598877 0.18433509767055511
0.57671809196472168 0.576790452003479 0.18540067970752716
0.69824635982513428 0.57121223211288452 0.1855866014957428
0.78717291355133057 0.57300573587417603 0.18066589534282684
0.84969878196716309 0.58663040399551392 0.17326183617115021
0.90974736213684082 0.57980990409851074 0.16148428618907928
0.96129328012466431 0.56943690776824951 0.15235622227191925
0.98927384614944458 0.57418537139892578 0.1525823175907135
0.089314527809619904 0.65212512016296387 0.18613885343074799
0.13083365559577942 0.64913517236709595 0.189107745885849
0.18727856874465942 0.64534813165664673 0.18556645512580872
0.26746311783790588 0.64366000890731812 0.18794506788253784
0.38813537359237671 0.65631282329559326 0.2029687762260437
0.48174181580543518 0.64526629447937012 0.19280536472797394
0.57461923360824585 0.62846285104751587 0.1839301586151123
0.70926839113235474 0.65634334087371826 0.2049410492181778
0.7952495813369751 0.64636284112930298 0.19125592708587646
0.84979903697967529 0.63921141624450684 0.1683909147977829
0.90643477439880371 0.64232063293457031 0.15800020098686218
0.9578557014465332 0.63473743200302124 0.15298515558242798
0.98975080251693726 0.63058179616928101 0.14590109884738922
0.069184273481369019 0.68141931295394897 0.16075661778450012
0.10846021771430969 0.68198269605636597 0.16453884541988373
0.16432447731494904 0.68529897928237915 0.16586072742938995
0.2458304762840271 0.68670272827148438 0.17190507054328918
0.35830914974212646 0.6909065842628479 0.17914202809333801
0.46663567423820496 0.68917030096054077 0.18181751668453217
0.563923180103302 0.67664879560470581 0.17035086452960968
0.6934475302696228 0.68341004848480225 0.18051227927207947
0.78507804870605469 0.68296599388122559 0.17779244482517242
0.84874653816223145 0.69479328393936157 0.16258175671100616
0.90574121475219727 0.70302891731262207 0.15829195082187653
0.95757085084915161 0.69999343156814575 0.15362408757209778
0.98179835081100464 0.70563262701034546 0.16649916768074036
0.070247173309326172 0.75222915410995483 0.16292029619216919
0.10602931678295135 0.74857431650161743 0.159616619348526
0.1684398353099823 0.75807619094848633 0.16861651837825775
0.24290183186531067 0.75621289014816284 0.17208784818649292
0.34929797053337097 0.75099998712539673 0.17423951625823975
0.4531950056552887 0.74926221370697021 0.17688405513763428
0.5642399787902832 0.75330638885498047 0.17114165425300598
0.69540125131607056 0.75724220275878906 0.16809612512588501
0.78005343675613403 0.74698585271835327 0.17112034559249878
0.84364598989486694 0.76436823606491089 0.16041593253612518
0.90602105855941772 0.76755094528198242 0.16327664256095886
0.96125537157058716 0.76842695474624634 0.15907551348209381
0.98812669515609741 0.76717370748519897 0.1578623354434967
0.072005823254585266 0.81372153759002686 0.16788409650325775
0.11622227728366852 0.81919485330581665 0.17333114147186279
0.17928409576416016 0.8238411545753479 0.17863613367080688
0.26008990406990051 0.82423734664916992 0.18171538412570953
0.36003345251083374 0.82586801052093506 0.18658804893493652
0.45224630832672119 0.81623756885528564 0.17955696582794189
0.56425315141677856 0.82138371467590332 0.17437534034252167
0.68972045183181763 0.82501834630966187 0.17259775102138519
0.77764654159545898 0.81963849067687988 0.16821181774139404
0.84279906749725342 0.82870239019393921 0.16753654181957245
0.9052356481552124 0.83362007141113281 0.17531068623065948
0.95928335189819336 0.85092580318450928 0.1904638409614563
0.9792402982711792 0.84927457571029663 0.17958861589431763
0.067390382289886475 0.87900280952453613 0.16051690280437469
0.10262491554021835 0.87722563743591309 0.16008791327476501
0.1598665863275528 0.88049507141113281 0.16234125196933746
0.25362679362297058 0.8886837363243103 0.17670193314552307
0.36875641345977783 0.90027701854705811 0.1951843649148941
0.45344763994216919 0.884360671043396 0.18242982029914856
0.56117522716522217 0.88157814741134644 0.17330239713191986
0.68971121311187744 0.88871031999588013 0.17296956479549408
0.77828103303909302 0.89526009559631348 0.16268749535083771
0.84666872024536133 0.90193057060241699 0.16637754440307617
0.91015362739562988 0.90241199731826782 0.16784901916980743
0.96252268552780151 0.90379363298416138 0.15595544874668121
0.98791974782943726 0.9041016697883606 0.15819466114044189
0.10393711179494858 0.95031487941741943 0.18854315578937531
0.13163474202156067 0.95731300115585327 0.18310670554637909
0.19130922853946686 0.95944362878799438 0.19063839316368103
0.25871723890304565 0.95442360639572144 0.1845124214887619
0.34755846858024597 0.96083658933639526 0.18057452142238617
0.45196142792701721 0.95439893007278442 0.18346245586872101
0.55962282419204712 0.95450770854949951 0.17291131615638733
0.68360316753387451 0.95794045925140381 0.16834080219268799
0.78077018260955811 0.96599382162094116 0.16176797449588776
0.85417234897613525 0.97037619352340698 0.161854088306427
0.91457730531692505 0.96841216087341309 0.1620447039604187
0.96019512414932251 0.96597480773925781 0.15803660452365875
0.9820331335067749 0.97331959009170532 0.17482264339923859
0.076043613255023956 0.14588712155818939 0.21841156482696533
0.1170416921377182 0.14542444050312042 0.22761894762516022
0.17507719993591309 0.14520058035850525 0.23669314384460449
0.25468426942825317 0.15173417329788208 0.24275873601436615
0.37407982349395752 0.16192051768302917 0.25083646178245544
0.48700049519538879 0.16653171181678772 0.25290682911872864
0.60589599609375 0.16951434314250946 0.24981698393821716
0.72573322057723999 0.17319582402706146 0.25101485848426819
0.79805147647857666 0.17910270392894745 0.25866353511810303
0.85994338989257812 0.18480554223060608 0.2627168595790863
0.91445469856262207 0.18968155980110168 0.24738402664661407
0.95983558893203735 0.1888834536075592 0.22625918686389923
0.98350447416305542 0.18628813326358795 0.22874626517295837
0.07628815621137619 0.19276908040046692 0.22113880515098572
0.12047315388917923 0.1949780285358429 0.22857874631881714
0.17778095602989197 0.19581574201583862 0.23706844449043274
0.26802477240562439 0.2111644446849823 0.25053665041923523
0.36586472392082214 0.21022945642471313 0.24636204540729523
0.47099044919013977 0.20543497800827026 0.24438570439815521
0.58459150791168213 0.21221096813678741 0.2444101870059967
0.7059287428855896 0.22993761301040649 0.25035944581031799
0.79176861047744751 0.23088355362415314 0.25537073612213135
0.86035090684890747 0.23433949053287506 0.2615351676940918
0.91798073053359985 0.23133593797683716 0.25175553560256958
0.96792638301849365 0.2113039493560791 0.22410698235034943
0.99095803499221802 0.20509457588195801 0.21832355856895447
0.091225489974021912 0.28388914465904236 0.24152418971061707
0.13877415657043457 0.29114642739295959 0.24848911166191101
0.20258122682571411 0.29602494835853577 0.25767377018928528
0.28400027751922607 0.29728907346725464 0.25640204548835754
0.378652423620224 0.28523367643356323 0.24979592859745026
0.47379449009895325 0.27821516990661621 0.24930761754512787
0.58397406339645386 0.28667727112770081 0.2493656724691391
0.70066589117050171 0.29668620228767395 0.24836549162864685
0.78847247362136841 0.29281207919120789 0.24860014021396637
0.86086893081665039 0.29022306203842163 0.25051799416542053
0.92311269044876099 0.30128034949302673 0.25430762767791748
0.97107154130935669 0.2819368839263916 0.23037955164909363
0.98875069618225098 0.28552699089050293 0.22976134717464447
0.087615668773651123 0.34500581026077271 0.23798209428787231
0.13538150489330292 0.35835009813308716 0.24701005220413208
0.19263717532157898 0.35178342461585999 0.2471451461315155
0.27582487463951111 0.35511267185211182 0.24726136028766632
0.37906894087791443 0.35409343242645264 0.2526279091835022
0.47683873772621155 0.35501441359519958 0.25450584292411804
0.58155679702758789 0.36290848255157471 0.25544697046279907
0.69797760248184204 0.37155932188034058 0.25030034780502319
0.78886866569519043 0.37037891149520874 0.2442018985748291
0.86170506477355957 0.35954418778419495 0.23894992470741272
0.92093253135681152 0.35712608695030212 0.23954117298126221
0.97191530466079712 0.34724640846252441 0.22586449980735779
0.99391096830368042 0.33906438946723938 0.21216946840286255
0.098769992589950562 0.4501897394657135 0.25151136517524719
0.1430940181016922 0.45589673519134521 0.25671008229255676
0.20415076613426208 0.45397353172302246 0.26109686493873596
0.28489023447036743 0.45591181516647339 0.26048865914344788
0.38167309761047363 0.44207245111465454 0.26116526126861572
0.48152115941047668 0.4431607723236084 0.25979229807853699
0.58353716135025024 0.45039254426956177 0.26413071155548096
0.70233273506164551 0.46216738224029541 0.2660726010799408
0.79637771844863892 0.46436703205108643 0.25690522789955139
