assets/lut/others vibrant contrast.cube
# Created by: G'MIC (https://gmic.eu)
TITLE "vibrant_contrast"
# LUT size
LUT_3D_SIZE 13
# Data domain
DOMAIN_MIN 0.0 0.0 0.0
DOMAIN_MAX 1.0 1.0 1.0
# LUT data points
8.4013096056878567e-05 0 0.022499188780784607
0.017381107434630394 0 0.022633181884884834
0.060593921691179276 0 0.021421065554022789
0.11779610067605972 0 0.017417699098587036
0.18565760552883148 0 0.0097631867974996567
0.26257145404815674 0 0.0024413315113633871
0.34763181209564209 0 5.4931639169808477e-05
0.43854930996894836 0.00019019631145056337 0
0.53298687934875488 0.00036852966877631843 0
0.63719421625137329 0 0
0.75221800804138184 0 0
0.86625319719314575 0 0
0.96207219362258911 0 0
0.0014034644700586796 0.005798758938908577 0.026645556092262268
0.024644544348120689 0.0054037207737565041 0.028197403997182846
0.067745417356491089 0.005031331442296505 0.027636224403977394
0.12611877918243408 0.0050857844762504101 0.023155108094215393
0.19587568938732147 0.0039906520396471024 0.013907742686569691
0.27566862106323242 0.0013366849161684513 0.0042587877251207829
0.3648621141910553 1.2835334018745925e-05 0.00024432013742625713
0.46072310209274292 0 0
0.55879539251327515 0 0
0.66451883316040039 0 0
0.78421294689178467 0 0
0.90286117792129517 0 0
0.98773133754730225 0 0
0.0036683026701211929 0.036681097000837326 0.029483495280146599
0.029320361092686653 0.035912889987230301 0.032113347202539444
0.073356181383132935 0.036960408091545105 0.033136211335659027
0.13369080424308777 0.038376662880182266 0.029809450730681419
0.20594049990177155 0.036035455763339996 0.021070173010230064
0.28871354460716248 0.026786595582962036 0.010361929424107075
0.38054457306861877 0.013063213787972927 0.0026855168398469687
0.47743916511535645 0.0029309741221368313 0.00018705480033531785
0.57698297500610352 7.6593139965552837e-05 0
0.68584626913070679 0 0
0.81114327907562256 0 0
0.93471997976303101 0 0
0.99845153093338013 0 0
0.0062112249433994293 0.090405814349651337 0.029248794540762901
0.032060153782367706 0.092213228344917297 0.033881228417158127
0.078249961137771606 0.094888992607593536 0.036201193928718567
0.14175297319889069 0.097356252372264862 0.035542715340852737
0.21763776242733002 0.09526824951171875 0.029961634427309036
0.30397403240203857 0.083225980401039124 0.019831130281090736
0.39792367815971375 0.061214759945869446 0.0092536024749279022
0.49352982640266418 0.037373382598161697 0.002549399621784687
0.59223335981369019 0.015874495729804039 0.00013553394819609821
0.70163214206695557 0.0025172065943479538 0
0.83139091730117798 0 3.5005457448278321e-06
0.954750657081604 0 0.00070127600338310003
0.99999302625656128 0 0.00059217563830316067
0.0056236418895423412 0.16510288417339325 0.024371247738599777
0.031078413128852844 0.16784533858299255 0.030827362090349197
0.080470427870750427 0.17173206806182861 0.03560015931725502
0.14950871467590332 0.17554035782814026 0.037607572972774506
0.2309262752532959 0.17538939416408539 0.03572419285774231
0.32156729698181152 0.16545994579792023 0.028256988152861595
0.41683703660964966 0.14255447685718536 0.016610357910394669
0.51243048906326294 0.11273872852325439 0.0073096929118037224
0.61137670278549194 0.079725898802280426 0.0024950215592980385
0.72212892770767212 0.044859357178211212 0.0004665300075430423
0.85386395454406738 0.017020566388964653 0.0003554998547770083
0.9711717963218689 0.0043395846150815487 0.0012580571928992867
1 0.0047861137427389622 0.0004089804133400321
0.0029123043641448021 0.25520172715187073 0.016368042677640915
0.025384910404682159 0.25757622718811035 0.023851580917835236
0.077818848192691803 0.261331707239151 0.030119966715574265
0.15235821902751923 0.26639339327812195 0.034139342606067657
0.23929412662982941 0.27049565315246582 0.03564969077706337
0.33587628602981567 0.26814574003219604 0.032347001135349274
0.43492093682289124 0.25344190001487732 0.021861432120203972
0.53286749124526978 0.22288697957992554 0.011032029986381531
0.63557261228561401 0.18425637483596802 0.0058815153315663338
0.75058668851852417 0.13920120894908905 0.0027446371968835592
0.87900823354721069 0.092748425900936127 1.2566061741381418e-05
0.98428398370742798 0.058886971324682236 0
1 0.057725660502910614 0
0.0014496897347271442 0.3535422682762146 0.0087332483381032944
0.01894867792725563 0.35608714818954468 0.017271183431148529
0.068924665451049805 0.35960304737091064 0.023250116035342216
0.14422447979450226 0.36587727069854736 0.02630411833524704
0.23513203859329224 0.3742581307888031 0.028923602774739265
0.33990317583084106 0.38050621747970581 0.028870586305856705
0.44744232296943665 0.37723764777183533 0.022426260635256767
0.5512731671333313 0.35423675179481506 0.012465473264455795
0.65939188003540039 0.31542381644248962 0.0071693570353090763
0.77895694971084595 0.26395556330680847 0.0037591971922665834
0.90069890022277832 0.20762519538402557 0.00016584209515713155
0.98979479074478149 0.16907525062561035 0
1 0.16835002601146698 0
0.00018680049106478691 0.45673415064811707 0.0030170665122568607
0.0064024231396615505 0.4611051082611084 0.0109813017770648
0.045510444790124893 0.46572655439376831 0.017510013654828072
0.11989907920360565 0.47280400991439819 0.016761735081672668
0.21524198353290558 0.48270982503890991 0.016938123852014542
0.33068788051605225 0.49286374449729919 0.019207241013646126
0.45102488994598389 0.49612799286842346 0.020462185144424438
0.56690305471420288 0.48538890480995178 0.016498684883117676
0.68115949630737305 0.45685294270515442 0.010299817658960819
0.80748552083969116 0.4057280421257019 0.0050086826086044312
0.92664861679077148 0.34951302409172058 0.0004686692263931036
0.99590039253234863 0.31664130091667175 0
1 0.32052460312843323 0
0 0.56592839956283569 0.00022206026187632233
0.00019787058408837765 0.57371789216995239 0.0027108883950859308
0.023474091663956642 0.58159440755844116 0.005845432635396719
0.092579677700996399 0.58966213464736938 0.0047069774009287357
0.18862421810626984 0.59853106737136841 0.0054219113662838936
0.31038555502891541 0.60939627885818481 0.0092493696138262749
0.44455847144126892 0.61739981174468994 0.016523204743862152
0.57843536138534546 0.61621326208114624 0.020922088995575905
0.7018701434135437 0.60272562503814697 0.016352873295545578
0.83258664608001709 0.56182491779327393 0.0082283169031143188
0.95199054479598999 0.51087868213653564 0.001499864156357944
0.99966329336166382 0.49041694402694702 0
1 0.50270754098892212 0
0 0.68713229894638062 0
0 0.69874614477157593 0
0.0099709751084446907 0.71043473482131958 6.3009822042658925e-05
0.064856283366680145 0.71988999843597412 1.4540728443535045e-05
0.15478640794754028 0.72635215520858765 0.00028794232639484107
0.27534559369087219 0.73690026998519897 0.0022617264185100794
0.41438353061676025 0.75110054016113281 0.0083089787513017654
0.55839401483535767 0.76081383228302002 0.016185879707336426
0.6977996826171875 0.7604948878288269 0.017741259187459946
0.84327328205108643 0.73284751176834106 0.010603047907352448
0.96849173307418823 0.68728435039520264 0.0036924623418599367
1 0.68315094709396362 0.00080478144809603691
0.99999302625656128 0.70752710103988647 0.00071405147900804877
0 0.81866532564163208 0
0 0.83322876691818237 0
0.0013316734693944454 0.84761160612106323 0
0.032492171972990036 0.85869681835174561 0
0.11237677931785583 0.86270880699157715 0
0.23040880262851715 0.8684195876121521 3.5903034586226568e-05
0.3692014217376709 0.88329988718032837 0.00091272988356649876
0.51561599969863892 0.90004074573516846 0.0049602733924984932
0.6731610894203186 0.90740889310836792 0.011361350305378437
0.84524482488632202 0.89667201042175293 0.0110741863027215
0.97754240036010742 0.87994843721389771 0.0059568369761109352
1 0.88554400205612183 0.0060052908957004547
0.99977988004684448 0.9042125940322876 0.0082817822694778442
0 0.94281423091888428 0
0 0.95798265933990479 0
0 0.96950078010559082 0
0.011506757698953152 0.97700536251068115 6.7677217884920537e-05
0.080558538436889648 0.97689217329025269 0.00031621597008779645
0.19704203307628632 0.97435921430587769 2.5670668037491851e-05
0.33852791786193848 0.98008090257644653 0
0.48996707797050476 0.98852181434631348 0.00027769501321017742
0.65889966487884521 0.9925997257232666 0.0038952396716922522
0.84654021263122559 0.99349534511566162 0.0090705873444676399
0.98094719648361206 0.99609345197677612 0.012989073991775513
1 0.99675381183624268 0.013571406714618206
0.99985295534133911 0.99703657627105713 0.012356073595583439
0 0.9998786449432373 0
0 1 0.00010948929411824793
4.8618690925650299e-05 1 0.0021294986363500357
0.014783432707190514 1 0.0065497155301272869
0.082441680133342743 1 0.0085520278662443161
0.19494183361530304 1 0.0055386410094797611
0.33771061897277832 1 0.0014673121040686965
0.49675551056861877 1 0.00095163978403434157
0.67068558931350708 1 0.0031862445175647736
0.84336304664611816 1 0.010196431539952755
0.96661919355392456 1 0.018897412344813347
0.99962836503982544 1 0.020823055878281593
1 1 0.018671777099370956
0 0 0.078759901225566864
0.012627679854631424 0 0.078345276415348053
0.056293085217475891 0 0.077181108295917511
0.11595425754785538 0 0.073702961206436157
0.18642118573188782 0 0.063138030469417572
0.2655968964099884 0 0.044735942035913467
0.35253855586051941 4.5507094910135493e-05 0.02597491629421711
0.44493857026100159 0.0017310198163613677 0.014974840916693211
0.53843671083450317 0.0028756982646882534 0.0064973272383213043
0.63928413391113281 0.00033332974999211729 0.00037198534118942916
0.7555428147315979 0 0
0.87484502792358398 0 0
0.97265541553497314 0 0
0.00017897662473842502 0.003654285566881299 0.085226871073246002
0.018565922975540161 0.0059486390091478825 0.085770957171916962
0.063369631767272949 0.0078537585213780403 0.085614971816539764
0.12563490867614746 0.0074336184188723564 0.081897348165512085
0.19861507415771484 0.0059118084609508514 0.071166634559631348
0.28024554252624512 0.0024198794271796942 0.051602575927972794
0.37152379751205444 0.00013510012649931014 0.030521616339683533
0.46919089555740356 0 0.014962274581193924
0.56540238857269287 7.5845155151910149e-06 0.0049487096257507801
0.66671258211135864 0 0.00032647824264131486
0.78636497259140015 0.00021618114260490984 0
0.90999889373779297 0.00042655796278268099 0
0.992878258228302 0 0
0.0014010859886184335 0.034031961113214493 0.091370932757854462
0.023432906717061996 0.036976490169763565 0.09353947639465332
0.070220515131950378 0.04053027555346489 0.095136247575283051
0.13461311161518097 0.042835190892219543 0.092915914952754974
0.21007366478443146 0.042158178985118866 0.084752418100833893
0.29453402757644653 0.032960090786218643 0.067621402442455292
0.38741627335548401 0.017284078523516655 0.045778520405292511
0.48538932204246521 0.0054496764205396175 0.025944279506802559
0.58356392383575439 0.00040999767952598631 0.0090787699446082115
0.68900918960571289 0 0.00099378102459013462
0.81336021423339844 4.936667210131418e-06 0
0.93817442655563354 1.2177111784694716e-05 0
0.99913221597671509 0 0
0.0038254382088780403 0.090881571173667908 0.094932377338409424
0.029999691992998123 0.094839818775653839 0.099815741181373596
0.079295963048934937 0.099502727389335632 0.10291582345962524
0.14601950347423553 0.1042201891541481 0.10306816548109055
0.22370070219039917 0.10563511401414871 0.099189966917037964
0.31003937125205994 0.095209367573261261 0.086661666631698608
0.40315210819244385 0.071567803621292114 0.06558661162853241
0.49956372380256653 0.045535728335380554 0.042485225945711136
0.59850704669952393 0.021096084266901016 0.019192101433873177
0.70827358961105347 0.0045952294021844864 0.0044140685349702835
0.83776646852493286 0.00018228268891107291 0.00017975451191887259
0.95816648006439209 0 0
1 0 0
0.0051813311874866486 0.16916470229625702 0.092233426868915558
0.035078428685665131 0.17331266403198242 0.10047058761119843
0.088141679763793945 0.17825821042060852 0.1060958132147789
0.15834064781665802 0.18366201221942902 0.10798962414264679
0.2385936826467514 0.18681198358535767 0.10688099265098572
0.32686832547187805 0.17891809344291687 0.098489083349704742
0.42049986124038696 0.15623117983341217 0.080763570964336395
0.51619434356689453 0.12491525709629059 0.057979196310043335
0.61590361595153809 0.089945323765277863 0.034577805548906326
0.72789096832275391 0.05407855287194252 0.014040629379451275
0.85989785194396973 0.024534307420253754 0.001444394001737237
0.97465372085571289 0.0095474096015095711 0
1 0.0055578793399035931 0.00055016909027472138
0.0052510281093418598 0.2602667510509491 0.080971017479896545
0.033909067511558533 0.26403796672821045 0.093175344169139862
0.089190781116485596 0.26835572719573975 0.10118086636066437
0.16392801702022552 0.27423611283302307 0.10527370870113373
0.24927625060081482 0.28009116649627686 0.10710971057415009
0.34238842129707336 0.27891290187835693 0.10349948704242706
0.43928253650665283 0.26397228240966797 0.090002588927745819
0.53683263063430786 0.23546268045902252 0.068608768284320831
0.63916659355163574 0.19770418107509613 0.045962076634168625
0.75184768438339233 0.15629294514656067 0.022680483758449554
0.87898170948028564 0.11382582783699036 0.0043881735764443874
0.98581290245056152 0.075677879154682159 0.0011046315776184201
1 0.065027587115764618 0.0042090620845556259
0.0046349619515240192 0.35730069875717163 0.065153531730175018
0.026373604312539101 0.36152404546737671 0.080008760094642639
0.078208968043327332 0.3654484748840332 0.090024717152118683
0.15591166913509369 0.37148550152778625 0.095061644911766052
0.24875606596469879 0.38024574518203735 0.099017798900604248
0.35120987892150879 0.38652440905570984 0.10102226585149765
0.45581218600273132 0.38247615098953247 0.094947874546051025
0.55953466892242432 0.36271077394485474 0.076639167964458466
0.66789877414703369 0.32780510187149048 0.054665539413690567
0.78411853313446045 0.28357520699501038 0.02978910505771637
0.90443509817123413 0.23467628657817841 0.0079299630597233772
0.99293357133865356 0.19112943112850189 0.0025701336562633514
1 0.18120387196540833 0.0080023370683193207
0.0010917065665125847 0.4581713080406189 0.046937454491853714
0.011759485118091106 0.46504318714141846 0.062295172363519669
0.055903609842061996 0.46981841325759888 0.072975724935531616
0.13463287055492401 0.47566264867782593 0.077062644064426422
0.23466441035270691 0.48593029379844666 0.081217192113399506
0.35015541315078735 0.49722179770469666 0.088976994156837463
0.46714743971824646 0.50151950120925903 0.096824437379837036
0.58193302154541016 0.49203115701675415 0.09024520218372345
0.69830417633056641 0.46522778272628784 0.067838437855243683
0.82093799114227295 0.42092803120613098 0.039438299834728241
0.93578618764877319 0.37246596813201904 0.013184745796024799
0.99782651662826538 0.33919534087181091 0.0041927262209355831
1 0.33603143692016602 0.010262029245495796
0 0.56521940231323242 0.023868007585406303
0.0019018884049728513 0.57446980476379395 0.036908481270074844
0.034765385091304779 0.58250600099563599 0.045761752873659134
0.10870861262083054 0.59046262502670288 0.048810053616762161
0.21055331826210022 0.60069257020950317 0.054665658622980118
0.33389174938201904 0.61437886953353882 0.066971965134143829
0.46401554346084595 0.62541145086288452 0.085894294083118439
0.59541410207748413 0.6252371072769165 0.093432828783988953
0.72028851509094238 0.61088424921035767 0.07915777713060379
0.84861356019973755 0.57320839166641235 0.051589276641607285
0.95999866724014282 0.53139454126358032 0.021660180762410164
0.99993020296096802 0.51397418975830078 0.0096374060958623886
0.9999813437461853 0.51931798458099365 0.014671669341623783
0 0.68712937831878662 0.0054663713090121746
0.00012966978829354048 0.6977916955947876 0.010860368609428406
0.018903948366641998 0.70954602956771851 0.015616144053637981
0.079319164156913757 0.72126376628875732 0.018247237429022789
0.17414338886737823 0.72987717390060425 0.025191392749547958
0.29647007584571838 0.74438154697418213 0.039586488157510757
0.43282338976860046 0.76305776834487915 0.059218492358922958
0.57351994514465332 0.77414339780807495 0.075054645538330078
0.71304494142532349 0.77085131406784058 0.079303815960884094
0.85813742876052856 0.7399667501449585 0.063851282000541687
0.97429770231246948 0.70213556289672852 0.034928683191537857
1 0.7037506103515625 0.02549896202981472
0.99859160184860229 0.72137558460235596 0.030564133077859879
0 0.82545596361160278 0.00019993502064608037
0 0.83736670017242432 0.00087147130398079753
0.0063795801252126694 0.84997057914733887 0.0017418805509805679
0.046689592301845551 0.86235857009887695 0.0023114969953894615
0.13092629611492157 0.87091189622879028 0.0051880781538784504
0.25033506751060486 0.882060706615448 0.013282117433845997
0.38753876090049744 0.89915269613265991 0.026328098028898239
0.53116530179977417 0.91590136289596558 0.04326833039522171
0.68763285875320435 0.91849881410598755 0.06120879203081131
0.86046522855758667 0.89948523044586182 0.064346402883529663
0.98325049877166748 0.8829648494720459 0.048240393400192261
1 0.89757335186004639 0.049383845180273056
0.9971199631690979 0.91171669960021973 0.05876903235912323
0 0.95473092794418335 0
0 0.96529757976531982 0.00040346034802496433
0.0013755499385297298 0.97308868169784546 0.0006427989574149251
0.025062620639801025 0.97890853881835938 5.1206701755290851e-05
0.1008228063583374 0.98243659734725952 0.00075393379665911198
0.21929717063903809 0.98509198427200317 0.0040840599685907364
0.36029967665672302 0.98955988883972168 0.0094533581286668777
0.51135998964309692 0.99469077587127686 0.020214874297380447
0.68171429634094238 0.99441832304000854 0.03861338272690773
0.87014132738113403 0.9906461238861084 0.055815797299146652
0.99015563726425171 0.99527567625045776 0.064943574368953705
1 0.99800240993499756 0.070977181196212769
0.99853813648223877 0.99736011028289795 0.074392758309841156
0 1 0.0010295493993908167
2.3531445549451746e-05 1 0.0058490978553891182
0.0028177597559988499 1 0.010634403675794601
0.028398970142006874 1 0.011457810178399086
0.10092499852180481 1 0.014151180163025856
0.21751554310321808 1 0.017772180959582329
0.36248403787612915 1 0.020698696374893188
0.52461510896682739 1 0.026667606085538864
0.70289939641952515 1 0.038766451179981232
0.87629294395446777 1 0.058201897889375687
0.98648059368133545 1 0.075544305145740509
1 1 0.083514012396335602
0.99997431039810181 1 0.084515050053596497
0 0 0.14021727442741394
0.0074065416119992733 0 0.13975735008716583
0.04892648383975029 0.0014245874481275678 0.14214755594730377
0.11079668253660202 0.00060709036188200116 0.14379909634590149
0.1852332204580307 0 0.13659027218818665
0.26766219735145569 0 0.11835828423500061
0.35587245225906372 0 0.095399133861064911
0.44720372557640076 0.00077342614531517029 0.073119096457958221
0.54031944274902344 0.0024223776999861002 0.048630028963088989
0.64268195629119873 0.00048268635873682797 0.021186079829931259
0.76147288084030151 0.00032408471452072263 0.0047857994213700294
0.88341701030731201 0.00025078267208300531 0.00038245707401074469
0.98028618097305298 0 0
0 0.0011881360551342368 0.14935141801834106
0.012824099510908127 0.0051075504161417484 0.15009073913097382
0.056307520717382431 0.010041823610663414 0.1522500216960907
0.12057002633810043 0.011108114384114742 0.15275336802005768
0.19828067719936371 0.0086403191089630127 0.14510373771190643
0.28441324830055237 0.0042919083498418331 0.12746427953243256
0.37699976563453674 0.00082240387564525008 0.10454783588647842
0.47271907329559326 0 0.080744735896587372
0.56781810522079468 0 0.055425830185413361
0.67145591974258423 7.5845155151910149e-06 0.029465708881616592
0.79214036464691162 0.0029308991506695747 0.010143444873392582
0.91633981466293335 0.0022551591973751783 0.002668911824002862
0.99549359083175659 0 0.0010486228857189417
0.0005241543403826654 0.028182893991470337 0.15943390130996704
0.018527895212173462 0.035528834909200668 0.1613943874835968
0.064741991460323334 0.041837997734546661 0.16378763318061829
0.13187803328037262 0.045686386525630951 0.16426897048950195
0.2117304652929306 0.045758161693811417 0.15905815362930298
0.29977962374687195 0.038109708577394485 0.14436770975589752
0.39422309398651123 0.023788481950759888 0.12265992909669876
0.49202415347099304 0.010958936996757984 0.097465395927429199
0.59051573276519775 0.0033857456874102354 0.069102779030799866
0.69693452119827271 0.0002986085310112685 0.040724571794271469
0.81908518075942993 0.00021697400370612741 0.015848360955715179
0.94088339805603027 0.00034758623223751783 0.0035794575233012438
0.99963361024856567 0 0.002081762533634901
0.0023538777604699135 0.088542744517326355 0.16769582033157349
0.026880750432610512 0.095191583037376404 0.17202089726924896
0.077869907021522522 0.10158319026231766 0.17486551403999329
0.14784581959247589 0.10801295936107635 0.17622944712638855
0.22752711176872253 0.11077126860618591 0.17459197342395782
0.31489863991737366 0.10360942035913467 0.16475823521614075
0.408669114112854 0.083574257791042328 0.14462910592556
0.50642651319503784 0.059333562850952148 0.11754368990659714
0.60759085416793823 0.034568261355161667 0.085232049226760864
0.71734529733657837 0.013034640811383724 0.052997574210166931
0.84352594614028931 0.0022239536046981812 0.022531965747475624
0.95992177724838257 3.4063003113260493e-05 0.003621075302362442
1 4.0256276406580582e-05 0.0027774136979132891
0.0036961124278604984 0.17130750417709351 0.16988888382911682
0.035354733467102051 0.17686796188354492 0.17791187763214111
0.093436233699321747 0.18237659335136414 0.18221981823444366
0.16572451591491699 0.18924476206302643 0.18388757109642029
0.24478182196617126 0.19529902935028076 0.1849789172410965
0.33060908317565918 0.19098564982414246 0.18049372732639313
0.42383220791816711 0.17142005264759064 0.16405381262302399
0.52130806446075439 0.14215283095836639 0.13758708536624908
0.62444567680358887 0.10635977238416672 0.10340327769517899
0.73750382661819458 0.068191990256309509 0.066583998501300812
0.8670615553855896 0.034851614385843277 0.031419236212968826
0.97763478755950928 0.013503460213541985 0.0099201574921607971
1 0.012502049095928669 0.011539069935679436
0.0047177630476653576 0.26326406002044678 0.16144958138465881
0.037865567952394485 0.26856294274330139 0.174086794257164
0.099453344941139221 0.27345967292785645 0.18102894723415375
0.17596724629402161 0.28008297085762024 0.18440033495426178
0.25825014710426331 0.28855040669441223 0.18875499069690704
0.34671729803085327 0.28974860906600952 0.18925510346889496
0.44120362401008606 0.27637988328933716 0.17854586243629456
0.54120290279388428 0.25011840462684631 0.15427850186824799
0.64808619022369385 0.21286553144454956 0.11843082308769226
0.7648044228553772 0.17030130326747894 0.077680207788944244
0.8911130428314209 0.12690632045269012 0.042096409946680069
0.9876829981803894 0.089679867029190063 0.026038719341158867
1 0.081902101635932922 0.029834417626261711
0.0035305547062307596 0.35944971442222595 0.14554078876972198
0.030565628781914711 0.36502131819725037 0.16155333817005157
0.088605381548404694 0.3697231113910675 0.1715618222951889
0.16933202743530273 0.37646597623825073 0.17731648683547974
0.26096826791763306 0.3862856924533844 0.18394123017787933
0.35858261585235596 0.39312189817428589 0.19081500172615051
0.45960035920143127 0.38949325680732727 0.19006215035915375
0.56535476446151733 0.37131398916244507 0.17116361856460571
0.67901647090911865 0.33831760287284851 0.13373501598834991
0.79976952075958252 0.29643675684928894 0.089343234896659851
0.92030864953994751 0.25102567672729492 0.052318930625915527
0.99582397937774658 0.21276275813579559 0.038741841912269592
1 0.20444552600383759 0.047109954059123993
0.0008084465516731143 0.4602331817150116 0.12309902161359787
0.017251690849661827 0.46717795729637146 0.14018124341964722
0.067329853773117065 0.47221243381500244 0.15330436825752258
0.14953234791755676 0.47924080491065979 0.1601492315530777
0.25048241019248962 0.49094313383102417 0.16776178777217865
0.3603036105632782 0.50272756814956665 0.18115721642971039
0.47211328148841858 0.50787794589996338 0.19621044397354126
