assets/lut/others black and white.cube
# Created by: G'MIC (https://gmic.eu)
TITLE "black_and_white"
# LUT size
LUT_3D_SIZE 7
# Data domain
DOMAIN_MIN 0.0 0.0 0.0
DOMAIN_MAX 1.0 1.0 1.0
# LUT data points
0.025726048275828362 0.025726048275828362 0.025726048275828362
0.06129869818687439 0.06129869818687439 0.06129869818687439
0.095071367919445038 0.095071367919445038 0.095071367919445038
0.12962928414344788 0.12962928414344788 0.12962928414344788
0.16521620750427246 0.16521620750427246 0.16521620750427246
0.2005763053894043 0.2005763053894043 0.2005763053894043
0.23295703530311584 0.23295703530311584 0.23295703530311584
0.14117591083049774 0.14117591083049774 0.14117591083049774
0.17719380557537079 0.17719380557537079 0.17719380557537079
0.21154120564460754 0.21154120564460754 0.21154120564460754
0.24608005583286285 0.24608005583286285 0.24608005583286285
0.28068697452545166 0.28068697452545166 0.28068697452545166
0.31416833400726318 0.31416833400726318 0.31416833400726318
0.34454172849655151 0.34454172849655151 0.34454172849655151
0.25200194120407104 0.25200194120407104 0.25200194120407104
0.28838866949081421 0.28838866949081421 0.28838866949081421
0.32364484667778015 0.32364484667778015 0.32364484667778015
0.35819703340530396 0.35819703340530396 0.35819703340530396
0.39169755578041077 0.39169755578041077 0.39169755578041077
0.42344695329666138 0.42344695329666138 0.42344695329666138
0.45288708806037903 0.45288708806037903 0.45288708806037903
0.36254289746284485 0.36254289746284485 0.36254289746284485
0.39888635277748108 0.39888635277748108 0.39888635277748108
0.43380939960479736 0.43380939960479736 0.43380939960479736
0.4677160382270813 0.4677160382270813 0.4677160382270813
0.50055348873138428 0.50055348873138428 0.50055348873138428
0.53215688467025757 0.53215688467025757 0.53215688467025757
0.56192409992218018 0.56192409992218018 0.56192409992218018
0.47393348813056946 0.47393348813056946 0.47393348813056946
0.50950664281845093 0.50950664281845093 0.50950664281845093
0.54341620206832886 0.54341620206832886 0.54341620206832886
0.57633167505264282 0.57633167505264282 0.57633167505264282
0.60863357782363892 0.60863357782363892 0.60863357782363892
0.64017176628112793 0.64017176628112793 0.64017176628112793
0.67033088207244873 0.67033088207244873 0.67033088207244873
0.58480370044708252 0.58480370044708252 0.58480370044708252
0.61985629796981812 0.61985629796981812 0.61985629796981812
0.65237206220626831 0.65237206220626831 0.65237206220626831
0.68450242280960083 0.68450242280960083 0.68450242280960083
0.71638494729995728 0.71638494729995728 0.71638494729995728
0.74786853790283203 0.74786853790283203 0.74786853790283203
0.77816128730773926 0.77816128730773926 0.77816128730773926
0.69404846429824829 0.69404846429824829 0.69404846429824829
0.72880548238754272 0.72880548238754272 0.72880548238754272
0.76061379909515381 0.76061379909515381 0.76061379909515381
0.79228764772415161 0.79228764772415161 0.79228764772415161
0.824321448802948 0.824321448802948 0.824321448802948
0.85575401782989502 0.85575401782989502 0.85575401782989502
0.88549536466598511 0.88549536466598511 0.88549536466598511
0.044163886457681656 0.044163886457681656 0.044163886457681656
0.077030882239341736 0.077030882239341736 0.077030882239341736
0.109516441822052 0.109516441822052 0.109516441822052
0.14363671839237213 0.14363671839237213 0.14363671839237213
0.17884173989295959 0.17884173989295959 0.17884173989295959
0.21364401280879974 0.21364401280879974 0.21364401280879974
0.24537104368209839 0.24537104368209839 0.24537104368209839
0.15787787735462189 0.15787787735462189 0.15787787735462189
0.19187432527542114 0.19187432527542114 0.19187432527542114
0.22507926821708679 0.22507926821708679 0.22507926821708679
0.25919672846794128 0.25919672846794128 0.25919672846794128
0.29371181130409241 0.29371181130409241 0.29371181130409241
0.32743480801582336 0.32743480801582336 0.32743480801582336
0.35872361063957214 0.35872361063957214 0.35872361063957214
0.26716578006744385 0.26716578006744385 0.26716578006744385
0.30221584439277649 0.30221584439277649 0.30221584439277649
0.33667930960655212 0.33667930960655212 0.33667930960655212
0.37088951468467712 0.37088951468467712 0.37088951468467712
0.40460151433944702 0.40460151433944702 0.40460151433944702
0.437397301197052 0.437397301197052 0.437397301197052
0.4681098461151123 0.4681098461151123 0.4681098461151123
0.37695959210395813 0.37695959210395813 0.37695959210395813
0.4119584858417511 0.4119584858417511 0.4119584858417511
0.44648504257202148 0.44648504257202148 0.44648504257202148
0.48018372058868408 0.48018372058868408 0.48018372058868408
0.51342189311981201 0.51342189311981201 0.51342189311981201
0.54572802782058716 0.54572802782058716 0.54572802782058716
0.57669615745544434 0.57669615745544434 0.57669615745544434
0.48820981383323669 0.48820981383323669 0.48820981383323669
0.52257293462753296 0.52257293462753296 0.52257293462753296
0.55575686693191528 0.55575686693191528 0.55575686693191528
0.58850765228271484 0.58850765228271484 0.58850765228271484
0.62113243341445923 0.62113243341445923 0.62113243341445923
0.65335965156555176 0.65335965156555176 0.65335965156555176
0.68472445011138916 0.68472445011138916 0.68472445011138916
0.59870725870132446 0.59870725870132446 0.59870725870132446
0.63251006603240967 0.63251006603240967 0.63251006603240967
0.66450411081314087 0.66450411081314087 0.66450411081314087
0.69644933938980103 0.69644933938980103 0.69644933938980103
0.72861433029174805 0.72861433029174805 0.72861433029174805
0.76091557741165161 0.76091557741165161 0.76091557741165161
0.79245257377624512 0.79245257377624512 0.79245257377624512
0.70748311281204224 0.70748311281204224 0.70748311281204224
0.74122476577758789 0.74122476577758789 0.74122476577758789
0.77254915237426758 0.77254915237426758 0.77254915237426758
0.80443435907363892 0.80443435907363892 0.80443435907363892
0.83701163530349731 0.83701163530349731 0.83701163530349731
0.8691527247428894 0.8691527247428894 0.8691527247428894
0.90000218152999878 0.90000218152999878 0.90000218152999878
0.055134687572717667 0.055134687572717667 0.055134687572717667
0.087662547826766968 0.087662547826766968 0.087662547826766968
0.12047643959522247 0.12047643959522247 0.12047643959522247
0.15435950458049774 0.15435950458049774 0.15435950458049774
0.1888287365436554 0.1888287365436554 0.1888287365436554
0.22289015352725983 0.22289015352725983 0.22289015352725983
0.25461107492446899 0.25461107492446899 0.25461107492446899
0.17110395431518555 0.17110395431518555 0.17110395431518555
0.20388153195381165 0.20388153195381165 0.20388153195381165
0.23650458455085754 0.23650458455085754 0.23650458455085754
0.27013909816741943 0.27013909816741943 0.27013909816741943
0.30430838465690613 0.30430838465690613 0.30430838465690613
0.33817416429519653 0.33817416429519653 0.33817416429519653
0.37011730670928955 0.37011730670928955 0.37011730670928955
0.28187146782875061 0.28187146782875061 0.28187146782875061
0.31552433967590332 0.31552433967590332 0.31552433967590332
0.34884548187255859 0.34884548187255859 0.34884548187255859
0.38240623474121094 0.38240623474121094 0.38240623474121094
0.41614887118339539 0.41614887118339539 0.41614887118339539
0.4495147168636322 0.4495147168636322 0.4495147168636322
0.481302410364151 0.481302410364151 0.481302410364151
0.39169999957084656 0.39169999957084656 0.39169999957084656
0.4254920482635498 0.4254920482635498 0.4254920482635498
0.45879516005516052 0.45879516005516052 0.45879516005516052
0.49208763241767883 0.49208763241767883 0.49208763241767883
0.52544832229614258 0.52544832229614258 0.52544832229614258
0.55844873189926147 0.55844873189926147 0.55844873189926147
0.59024214744567871 0.59024214744567871 0.59024214744567871
0.50160199403762817 0.50160199403762817 0.50160199403762817
0.53509145975112915 0.53509145975112915 0.53509145975112915
0.56778472661972046 0.56778472661972046 0.56778472661972046
0.60040783882141113 0.60040783882141113 0.60040783882141113
0.63321954011917114 0.63321954011917114 0.63321954011917114
0.66603666543960571 0.66603666543960571 0.66603666543960571
0.69808709621429443 0.69808709621429443 0.69808709621429443
0.61073940992355347 0.61073940992355347 0.61073940992355347
0.64393627643585205 0.64393627643585205 0.64393627643585205
0.67611277103424072 0.67611277103424072 0.67611277103424072
0.70822811126708984 0.70822811126708984 0.70822811126708984
0.74063551425933838 0.74063551425933838 0.74063551425933838
0.77330666780471802 0.77330666780471802 0.77330666780471802
0.80544710159301758 0.80544710159301758 0.80544710159301758
0.71862757205963135 0.71862757205963135 0.71862757205963135
0.75207847356796265 0.75207847356796265 0.75207847356796265
0.78426933288574219 0.78426933288574219 0.78426933288574219
0.81634688377380371 0.81634688377380371 0.81634688377380371
0.84894227981567383 0.84894227981567383 0.84894227981567383
0.88140720129013062 0.88140720129013062 0.88140720129013062
0.91288775205612183 0.91288775205612183 0.91288775205612183
0.067553743720054626 0.067553743720054626 0.067553743720054626
0.099498599767684937 0.099498599767684937 0.099498599767684937
0.13140681385993958 0.13140681385993958 0.13140681385993958
0.16444037854671478 0.16444037854671478 0.16444037854671478
0.19823642075061798 0.19823642075061798 0.19823642075061798
0.23150591552257538 0.23150591552257538 0.23150591552257538
0.26335734128952026 0.26335734128952026 0.26335734128952026
0.18410450220108032 0.18410450220108032 0.18410450220108032
0.216469407081604 0.216469407081604 0.216469407081604
0.24835467338562012 0.24835467338562012 0.24835467338562012
0.28110703825950623 0.28110703825950623 0.28110703825950623
0.31484416127204895 0.31484416127204895 0.31484416127204895
0.34855526685714722 0.34855526685714722 0.34855526685714722
0.38049355149269104 0.38049355149269104 0.38049355149269104
0.29644027352333069 0.29644027352333069 0.29644027352333069
0.32930251955986023 0.32930251955986023 0.32930251955986023
0.36154064536094666 0.36154064536094666 0.36154064536094666
0.39439007639884949 0.39439007639884949 0.39439007639884949
0.42785173654556274 0.42785173654556274 0.42785173654556274
0.46131381392478943 0.46131381392478943 0.46131381392478943
0.49323943257331848 0.49323943257331848 0.49323943257331848
0.40625530481338501 0.40625530481338501 0.40625530481338501
0.43929311633110046 0.43929311633110046 0.43929311633110046
0.47181335091590881 0.47181335091590881 0.47181335091590881
0.50454705953598022 0.50454705953598022 0.50454705953598022
0.53784739971160889 0.53784739971160889 0.53784739971160889
0.57105427980422974 0.57105427980422974 0.57105427980422974
0.60291790962219238 0.60291790962219238 0.60291790962219238
0.51490563154220581 0.51490563154220581 0.51490563154220581
0.54775339365005493 0.54775339365005493 0.54775339365005493
0.58009940385818481 0.58009940385818481 0.58009940385818481
0.61275291442871094 0.61275291442871094 0.61275291442871094
0.64578139781951904 0.64578139781951904 0.64578139781951904
0.67881685495376587 0.67881685495376587 0.67881685495376587
0.71079981327056885 0.71079981327056885 0.71079981327056885
0.62239193916320801 0.62239193916320801 0.62239193916320801
0.65500140190124512 0.65500140190124512 0.65500140190124512
0.68759810924530029 0.68759810924530029 0.68759810924530029
0.72019469738006592 0.72019469738006592 0.72019469738006592
0.75295639038085938 0.75295639038085938 0.75295639038085938
0.78576755523681641 0.78576755523681641 0.78576755523681641
0.81771206855773926 0.81771206855773926 0.81771206855773926
0.72900325059890747 0.72900325059890747 0.72900325059890747
0.76156377792358398 0.76156377792358398 0.76156377792358398
0.79519855976104736 0.79519855976104736 0.79519855976104736
0.82779288291931152 0.82779288291931152 0.82779288291931152
0.86040312051773071 0.86040312051773071 0.86040312051773071
0.89298862218856812 0.89298862218856812 0.89298862218856812
0.92445522546768188 0.92445522546768188 0.92445522546768188
0.077873170375823975 0.077873170375823975 0.077873170375823975
0.11170726269483566 0.11170726269483566 0.11170726269483566
0.14301590621471405 0.14301590621471405 0.14301590621471405
0.17478042840957642 0.17478042840957642 0.17478042840957642
0.2081405371427536 0.2081405371427536 0.2081405371427536
0.24177414178848267 0.24177414178848267 0.24177414178848267
0.27277839183807373 0.27277839183807373 0.27277839183807373
0.19644898176193237 0.19644898176193237 0.19644898176193237
0.22970631718635559 0.22970631718635559 0.22970631718635559
0.26089087128639221 0.26089087128639221 0.26089087128639221
0.29277056455612183 0.29277056455612183 0.29277056455612183
0.32606500387191772 0.32606500387191772 0.32606500387191772
0.35962298512458801 0.35962298512458801 0.35962298512458801
0.39084136486053467 0.39084136486053467 0.39084136486053467
0.31014841794967651 0.31014841794967651 0.31014841794967651
0.34310793876647949 0.34310793876647949 0.34310793876647949
0.374847412109375 0.374847412109375 0.374847412109375
0.4070097804069519 0.4070097804069519 0.4070097804069519
0.4400978684425354 0.4400978684425354 0.4400978684425354
0.4731907844543457 0.4731907844543457 0.4731907844543457
0.50455218553543091 0.50455218553543091 0.50455218553543091
0.42010870575904846 0.42010870575904846 0.42010870575904846
0.45321446657180786 0.45321446657180786 0.45321446657180786
0.48512837290763855 0.48512837290763855 0.48512837290763855
0.51771491765975952 0.51771491765975952 0.51771491765975952
0.5505983829498291 0.5505983829498291 0.5505983829498291
0.58342784643173218 0.58342784643173218 0.58342784643173218
0.61492669582366943 0.61492669582366943 0.61492669582366943
0.52800244092941284 0.52800244092941284 0.52800244092941284
0.56085777282714844 0.56085777282714844 0.56085777282714844
0.59301304817199707 0.59301304817199707 0.59301304817199707
0.62559694051742554 0.62559694051742554 0.62559694051742554
0.65866410732269287 0.65866410732269287 0.65866410732269287
0.69150650501251221 0.69150650501251221 0.69150650501251221
0.72304016351699829 0.72304016351699829 0.72304016351699829
0.63446801900863647 0.63446801900863647 0.63446801900863647
0.66662007570266724 0.66662007570266724 0.66662007570266724
0.69908446073532104 0.69908446073532104 0.69908446073532104
0.73209846019744873 0.73209846019744873 0.73209846019744873
0.76531130075454712 0.76531130075454712 0.76531130075454712
0.79813295602798462 0.79813295602798462 0.79813295602798462
0.82955366373062134 0.82955366373062134 0.82955366373062134
0.74006193876266479 0.74006193876266479 0.74006193876266479
0.77147418260574341 0.77147418260574341 0.77147418260574341
0.80489790439605713 0.80489790439605713 0.80489790439605713
0.83850616216659546 0.83850616216659546 0.83850616216659546
0.87170004844665527 0.87170004844665527 0.87170004844665527
0.90424424409866333 0.90424424409866333 0.90424424409866333
0.93480527400970459 0.93480527400970459 0.93480527400970459
0.08896714448928833 0.08896714448928833 0.08896714448928833
0.1236983984708786 0.1236983984708786 0.1236983984708786
0.15388676524162292 0.15388676524162292 0.15388676524162292
0.18484011292457581 0.18484011292457581 0.18484011292457581
0.21839806437492371 0.21839806437492371 0.21839806437492371
0.25190696120262146 0.25190696120262146 0.25190696120262146
0.28113377094268799 0.28113377094268799 0.28113377094268799
0.20829728245735168 0.20829728245735168 0.20829728245735168
0.24242408573627472 0.24242408573627472 0.24242408573627472
0.27322670817375183 0.27322670817375183 0.27322670817375183
0.30435886979103088 0.30435886979103088 0.30435886979103088
0.33750149607658386 0.33750149607658386 0.33750149607658386
0.37018889188766479 0.37018889188766479 0.37018889188766479
0.40016850829124451 0.40016850829124451 0.40016850829124451
0.3224886953830719 0.3224886953830719 0.3224886953830719
0.35626640915870667 0.35626640915870667 0.35626640915870667
0.38784575462341309 0.38784575462341309 0.38784575462341309
0.41950005292892456 0.41950005292892456 0.41950005292892456
0.45197370648384094 0.45197370648384094 0.45197370648384094
0.48433253169059753 0.48433253169059753 0.48433253169059753
0.51452898979187012 0.51452898979187012 0.51452898979187012
0.43241944909095764 0.43241944909095764 0.43241944909095764
0.46625244617462158 0.46625244617462158 0.46625244617462158
0.49846431612968445 0.49846431612968445 0.49846431612968445
0.53060728311538696 0.53060728311538696 0.53060728311538696
0.56300914287567139 0.56300914287567139 0.56300914287567139
0.59525376558303833 0.59525376558303833 0.59525376558303833
0.62570667266845703 0.62570667266845703 0.62570667266845703
0.5401008129119873 0.5401008129119873 0.5401008129119873
0.57362657785415649 0.57362657785415649 0.57362657785415649
0.60593265295028687 0.60593265295028687 0.60593265295028687
0.63835251331329346 0.63835251331329346 0.63835251331329346
0.67116904258728027 0.67116904258728027 0.67116904258728027
0.70359557867050171 0.70359557867050171 0.70359557867050171
0.73442238569259644 0.73442238569259644 0.73442238569259644
0.64630341529846191 0.64630341529846191 0.64630341529846191
0.67914891242980957 0.67914891242980957 0.67914891242980957
0.71138787269592285 0.71138787269592285 0.71138787269592285
0.74431568384170532 0.74431568384170532 0.74431568384170532
0.77754348516464233 0.77754348516464233 0.77754348516464233
0.81039595603942871 0.81039595603942871 0.81039595603942871
0.84149044752120972 0.84149044752120972 0.84149044752120972
0.75171732902526855 0.75171732902526855 0.75171732902526855
0.78405243158340454 0.78405243158340454 0.78405243158340454
0.81646418571472168 0.81646418571472168 0.81646418571472168
0.84967106580734253 0.84967106580734253 0.84967106580734253
0.8832629919052124 0.8832629919052124 0.8832629919052124
0.91611701250076294 0.91611701250076294 0.91611701250076294
0.946979820728302 0.946979820728302 0.946979820728302
0.099051535129547119 0.099051535129547119 0.099051535129547119
0.13382452726364136 0.13382452726364136 0.13382452726364136
0.16350600123405457 0.16350600123405457 0.16350600123405457
0.19412922859191895 0.19412922859191895 0.19412922859191895
0.22645486891269684 0.22645486891269684 0.22645486891269684
0.25801301002502441 0.25801301002502441 0.25801301002502441
0.28533804416656494 0.28533804416656494 0.28533804416656494
0.21793167293071747 0.21793167293071747 0.21793167293071747
0.25291162729263306 0.25291162729263306 0.25291162729263306
0.28376907110214233 0.28376907110214233 0.28376907110214233
0.31461349129676819 0.31461349129676819 0.31461349129676819
0.3465748131275177 0.3465748131275177 0.3465748131275177
0.37787291407585144 0.37787291407585144 0.37787291407585144
0.40607383847236633 0.40607383847236633 0.40607383847236633
0.33187004923820496 0.33187004923820496 0.33187004923820496
0.36690214276313782 0.36690214276313782 0.36690214276313782
0.398885577917099 0.398885577917099 0.398885577917099
0.43033865094184875 0.43033865094184875 0.43033865094184875
0.46202236413955688 0.46202236413955688 0.46202236413955688
0.49313050508499146 0.49313050508499146 0.49313050508499146
0.52177459001541138 0.52177459001541138 0.52177459001541138
0.44205945730209351 0.44205945730209351 0.44205945730209351
0.47710564732551575 0.47710564732551575 0.47710564732551575
0.50980967283248901 0.50980967283248901 0.50980967283248901
0.54167252779006958 0.54167252779006958 0.54167252779006958
0.57366520166397095 0.57366520166397095 0.57366520166397095
0.60484820604324341 0.60484820604324341 0.60484820604324341
0.63401156663894653 0.63401156663894653 0.63401156663894653
0.54977917671203613 0.54977917671203613 0.54977917671203613
0.58461862802505493 0.58461862802505493 0.58461862802505493
0.61743468046188354 0.61743468046188354 0.61743468046188354
0.64985990524291992 0.64985990524291992 0.64985990524291992
0.68222910165786743 0.68222910165786743 0.68222910165786743
0.71398329734802246 0.71398329734802246 0.71398329734802246
0.74364179372787476 0.74364179372787476 0.74364179372787476
0.65583980083465576 0.65583980083465576 0.65583980083465576
0.69022053480148315 0.69022053480148315 0.69022053480148315
0.72299647331237793 0.72299647331237793 0.72299647331237793
0.75586307048797607 0.75586307048797607 0.75586307048797607
0.78879439830780029 0.78879439830780029 0.78879439830780029
0.82111936807632446 0.82111936807632446 0.82111936807632446
0.85131347179412842 0.85131347179412842 0.85131347179412842
0.76071316003799438 0.76071316003799438 0.76071316003799438
0.79501998424530029 0.79501998424530029 0.79501998424530029
0.82777345180511475 0.82777345180511475 0.82777345180511475
0.86088383197784424 0.86088383197784424 0.86088383197784424
0.89425826072692871 0.89425826072692871 0.89425826072692871
0.92679321765899658 0.92679321765899658 0.92679321765899658
0.95744031667709351 0.95744031667709351 0.95744031667709351
