assets/lut/others smooth cromeish.cube
# Created by: G'MIC (https://gmic.eu)
TITLE "smooth_cromeish"
# LUT size
LUT_3D_SIZE 5
# Data domain
DOMAIN_MIN 0.0 0.0 0.0
DOMAIN_MAX 1.0 1.0 1.0
# LUT data points
0.081137143075466156 0.1535930335521698 0.13635240495204926
0.24983705580234528 0.1486717164516449 0.14181730151176453
0.55341637134552002 0.13088269531726837 0.12419020384550095
0.857735276222229 0.14955520629882812 0.14249926805496216
0.97160422801971436 0.15492032468318939 0.14246763288974762
0.07226233184337616 0.28996774554252625 0.12480208277702332
0.23994952440261841 0.30587074160575867 0.13548780977725983
0.54996728897094727 0.29461836814880371 0.12996858358383179
0.86050868034362793 0.31579753756523132 0.13869680464267731
0.98896211385726929 0.28651279211044312 0.11163373291492462
0.069183811545372009 0.53174853324890137 0.12286854535341263
0.23744218051433563 0.5364609956741333 0.1322886049747467
0.57620012760162354 0.55417925119400024 0.14809827506542206
0.8523210883140564 0.53183519840240479 0.1315280944108963
0.98612093925476074 0.54123139381408691 0.12126297503709793
0.072913870215415955 0.74418717622756958 0.12859997153282166
0.22686378657817841 0.74450200796127319 0.1261717826128006
0.55018419027328491 0.74972838163375854 0.12801171839237213
0.84788519144058228 0.73821312189102173 0.12000901252031326
0.98040246963500977 0.73899918794631958 0.11774791777133942
0.085547171533107758 0.95701611042022705 0.13838149607181549
0.24501194059848785 0.96397531032562256 0.13540785014629364
0.54508525133132935 0.96035999059677124 0.12521202862262726
0.861136794090271 0.96844786405563354 0.14639385044574738
0.97666072845458984 0.97097218036651611 0.13966511189937592
0.084901385009288788 0.15649907290935516 0.29991233348846436
0.28546333312988281 0.17305512726306915 0.34700095653533936
0.61351054906845093 0.19831803441047668 0.34398588538169861
0.86932998895645142 0.2125220000743866 0.35959234833717346
0.97546958923339844 0.19159311056137085 0.32804778218269348
0.092589542269706726 0.3474133312702179 0.31679698824882507
0.29902911186218262 0.36493948101997375 0.33794763684272766
0.60376477241516113 0.39574319124221802 0.35244843363761902
0.86815863847732544 0.38965192437171936 0.34880092740058899
0.9917026162147522 0.37633711099624634 0.33588722348213196
0.099325902760028839 0.59882843494415283 0.32974326610565186
0.29991030693054199 0.59548002481460571 0.34552478790283203
0.60316526889801025 0.61953055858612061 0.35044154524803162
0.87093985080718994 0.63297957181930542 0.34923210740089417
0.99156367778778076 0.62311249971389771 0.33373311161994934
0.091278582811355591 0.762565016746521 0.3487125039100647
0.29166379570960999 0.79127198457717896 0.35128471255302429
0.59681141376495361 0.7907450795173645 0.35217303037643433
0.86294162273406982 0.79560631513595581 0.35015013813972473
0.97895270586013794 0.78559201955795288 0.33522367477416992
0.11342629790306091 0.9628455638885498 0.3644709587097168
0.29727470874786377 0.95631563663482666 0.35977396368980408
0.59817618131637573 0.95574170351028442 0.35824960470199585
0.86353951692581177 0.96569669246673584 0.34694886207580566
0.98177385330200195 0.96921640634536743 0.32461291551589966
0.12219662964344025 0.2174350768327713 0.6254878044128418
0.30772462487220764 0.20400640368461609 0.62383061647415161
0.6186823844909668 0.21662363409996033 0.61719340085983276
0.87293308973312378 0.20921964943408966 0.61788725852966309
0.97835922241210938 0.19878289103507996 0.62592607736587524
0.12230640649795532 0.3815842866897583 0.62966334819793701
0.31735643744468689 0.40478602051734924 0.61340165138244629
0.61844795942306519 0.39077487587928772 0.61680978536605835
0.87399792671203613 0.41178002953529358 0.63578766584396362
0.97974133491516113 0.41207849979400635 0.63469862937927246
0.11838872730731964 0.62170320749282837 0.62276417016983032
0.3159450888633728 0.62866407632827759 0.63531148433685303
0.62439298629760742 0.64326679706573486 0.62451028823852539
0.87750208377838135 0.63044697046279907 0.63780277967453003
0.98567432165145874 0.64165782928466797 0.63184398412704468
0.11736761033535004 0.77753996849060059 0.63586145639419556
0.30365517735481262 0.7978055477142334 0.63723838329315186
0.62104254961013794 0.78829461336135864 0.64075851440429688
0.86945271492004395 0.80770862102508545 0.63484585285186768
0.97257918119430542 0.80418545007705688 0.63033443689346313
0.12311579287052155 0.9639582633972168 0.62869459390640259
0.31074509024620056 0.95054346323013306 0.63804095983505249
0.60610014200210571 0.95953714847564697 0.63826775550842285
0.87156391143798828 0.93810737133026123 0.63206720352172852
0.98334157466888428 0.97244977951049805 0.62053042650222778
0.099559292197227478 0.16577239334583282 0.85807633399963379
0.2797301709651947 0.1850750595331192 0.84804445505142212
0.60067069530487061 0.21331524848937988 0.85559350252151489
0.86816263198852539 0.20223519206047058 0.8675466775894165
0.97575283050537109 0.19990424811840057 0.86613613367080688
0.10131246596574783 0.36639440059661865 0.8563116192817688
0.2827046811580658 0.36820989847183228 0.8524431586265564
0.6026909351348877 0.38381922245025635 0.85399645566940308
0.87276291847229004 0.40507045388221741 0.86703795194625854
0.98918181657791138 0.38111314177513123 0.862934410572052
0.10087750107049942 0.59304779767990112 0.86210256814956665
0.29783445596694946 0.62184619903564453 0.85856395959854126
0.61118489503860474 0.6131400465965271 0.85487812757492065
0.86621683835983276 0.61575639247894287 0.85471934080123901
0.98521143198013306 0.61259037256240845 0.85414820909500122
0.091643542051315308 0.7448844313621521 0.85365289449691772
0.28382393717765808 0.77473890781402588 0.85643994808197021
0.61246389150619507 0.79605484008789062 0.85944837331771851
0.86413592100143433 0.78934311866760254 0.85795021057128906
0.97585725784301758 0.80016613006591797 0.85852134227752686
0.1141727939248085 0.95698797702789307 0.86162590980529785
0.29974520206451416 0.96028375625610352 0.86919707059860229
0.60145598649978638 0.95245456695556641 0.86244642734527588
0.86126971244812012 0.96596044301986694 0.86108756065368652
0.98258262872695923 0.97237581014633179 0.84957700967788696
0.079139873385429382 0.15355430543422699 0.99596214294433594
0.23728075623512268 0.14352263510227203 0.9910893440246582
0.5599285364151001 0.14826321601867676 0.99548614025115967
0.84662705659866333 0.13282965123653412 0.99451833963394165
0.9711989164352417 0.18608884513378143 0.99154853820800781
0.066139891743659973 0.30185958743095398 0.99628591537475586
0.2340300977230072 0.3270605206489563 0.99736624956130981
0.56481826305389404 0.33912339806556702 0.99617981910705566
0.84996932744979858 0.33872419595718384 0.99487298727035522
0.97957503795623779 0.34257045388221741 0.99652355909347534
0.063375256955623627 0.54075527191162109 0.99648559093475342
0.22931049764156342 0.56458079814910889 0.99719715118408203
0.54507344961166382 0.576119065284729 0.99689072370529175
0.85802382230758667 0.58540773391723633 0.99432659149169922
0.98320525884628296 0.58245474100112915 0.99456334114074707
0.070316538214683533 0.77281945943832397 0.99702882766723633
0.24176456034183502 0.78611385822296143 0.99482077360153198
0.54755622148513794 0.7761833667755127 0.99621462821960449
0.84657120704650879 0.78004390001296997 0.98908090591430664
0.97357481718063354 0.78614771366119385 0.99433606863021851
0.060430236160755157 0.96246862411499023 0.99345946311950684
0.25860875844955444 0.96634525060653687 0.99347525835037231
0.5598454475402832 0.9669196605682373 0.99248743057250977
0.83800810575485229 0.97771608829498291 0.99377715587615967
0.98351836204528809 0.96072685718536377 0.99104779958724976
