assets/lut/others nostalgic.cube
# Created by: G'MIC (https://gmic.eu)
TITLE "nostalgic"
# LUT size
LUT_3D_SIZE 13
# Data domain
DOMAIN_MIN 0.0 0.0 0.0
DOMAIN_MAX 1.0 1.0 1.0
# LUT data points
0.1592702716588974 0.026398992165923119 0.14039114117622375
0.20248298346996307 0.030249951407313347 0.14347453415393829
0.25076696276664734 0.029231306165456772 0.14207917451858521
0.30731451511383057 0.02702648751437664 0.13977192342281342
0.37889081239700317 0.028939146548509598 0.14043527841567993
0.4600415825843811 0.025814790278673172 0.13981141149997711
0.57952731847763062 0.028178824111819267 0.14150352776050568
0.70552891492843628 0.029078075662255287 0.14216610789299011
0.82291775941848755 0.026142479851841927 0.14131917059421539
0.9113842248916626 0.026104362681508064 0.1411169171333313
0.96426832675933838 0.026071270927786827 0.14138743281364441
0.99643808603286743 0.023430543020367622 0.14106382429599762
1 0.028409875929355621 0.14285941421985626
0.16154134273529053 0.080150783061981201 0.14056402444839478
0.20467743277549744 0.08449292927980423 0.1433364599943161
0.25135347247123718 0.08771805465221405 0.14301908016204834
0.30767589807510376 0.089949183166027069 0.14282596111297607
0.38367632031440735 0.087148852646350861 0.14348134398460388
0.46558910608291626 0.079788416624069214 0.14206497371196747
0.57046949863433838 0.075227312743663788 0.14132636785507202
0.69947195053100586 0.075892381370067596 0.14262989163398743
0.82150495052337646 0.078942470252513885 0.14308089017868042
0.91220057010650635 0.081156022846698761 0.14316023886203766
0.96825355291366577 0.080863505601882935 0.14279688894748688
0.99411004781723022 0.077799178659915924 0.14370268583297729
0.99922525882720947 0.075185693800449371 0.14372946321964264
0.16207221150398254 0.14447599649429321 0.13925015926361084
0.20549076795578003 0.14899569749832153 0.14227734506130219
0.2518896758556366 0.15254378318786621 0.14213888347148895
0.30754187703132629 0.15518791973590851 0.14276549220085144
0.38575762510299683 0.15128077566623688 0.14349646866321564
0.46673443913459778 0.14321459829807281 0.1429295688867569
0.56215381622314453 0.13434591889381409 0.1413581371307373
0.69500970840454102 0.13716264069080353 0.14281395077705383
0.82086879014968872 0.13971088826656342 0.14269062876701355
0.9135289192199707 0.14278741180896759 0.14245940744876862
0.97371578216552734 0.14106841385364532 0.14182139933109283
0.99501270055770874 0.14056290686130524 0.14280609786510468
0.9986223578453064 0.13908863067626953 0.14328806102275848
0.1664549857378006 0.23281723260879517 0.1432071328163147
0.20486369729042053 0.23405162990093231 0.14216241240501404
0.25177374482154846 0.23285582661628723 0.14244265854358673
0.30804517865180969 0.23367749154567719 0.14130377769470215
0.38420918583869934 0.23507103323936462 0.14268851280212402
0.46713548898696899 0.22924317419528961 0.14266656339168549
0.56444710493087769 0.22067739069461823 0.14164850115776062
0.69627600908279419 0.22229854762554169 0.14296141266822815
0.82108259201049805 0.22332371771335602 0.14283756911754608
0.91327172517776489 0.22481332719326019 0.1433776319026947
0.97547441720962524 0.22372965514659882 0.14256861805915833
0.99477428197860718 0.23292838037014008 0.14256393909454346
0.99854826927185059 0.24290920794010162 0.14304156601428986
0.17060106992721558 0.3402552604675293 0.14811500906944275
0.20407328009605408 0.3317299485206604 0.14209310710430145
0.25285285711288452 0.3355553150177002 0.14317883551120758
0.31073945760726929 0.33846783638000488 0.1435295045375824
0.37536287307739258 0.33132538199424744 0.14121212065219879
0.46354994177818298 0.33031800389289856 0.14355671405792236
0.56670749187469482 0.32831498980522156 0.14498205482959747
0.69787710905075073 0.33002448081970215 0.14667423069477081
0.81769222021102905 0.33355456590652466 0.14808505773544312
0.90640997886657715 0.33188709616661072 0.14881119132041931
0.9741518497467041 0.3341062068939209 0.144176185131073
0.99330943822860718 0.34641182422637939 0.14342337846755981
0.99827522039413452 0.35514736175537109 0.14337922632694244
0.16654340922832489 0.46889972686767578 0.14909426867961884
0.20525737106800079 0.45658442378044128 0.14811918139457703
0.25370776653289795 0.45288869738578796 0.14806713163852692
0.31148040294647217 0.45294198393821716 0.14762623608112335
0.37815079092979431 0.44730198383331299 0.14483177661895752
0.46379831433296204 0.44892656803131104 0.14746415615081787
0.56395584344863892 0.45214563608169556 0.1518806517124176
0.69336879253387451 0.4481889009475708 0.15236097574234009
0.81036674976348877 0.44838759303092957 0.15039935708045959
0.90327608585357666 0.4503481388092041 0.14911170303821564
0.97416448593139648 0.45726072788238525 0.14322949945926666
0.99534356594085693 0.46493491530418396 0.14271615445613861
0.99960446357727051 0.4705863893032074 0.14366635680198669
0.16298715770244598 0.5806577205657959 0.14791300892829895
0.20758259296417236 0.57703018188476562 0.15224646031856537
0.25609579682350159 0.57361435890197754 0.15237970650196075
0.31156206130981445 0.57554560899734497 0.15049920976161957
0.38424351811408997 0.57182019948959351 0.14837953448295593
0.46786379814147949 0.57071727514266968 0.14662423729896545
0.55944275856018066 0.57440811395645142 0.14492884278297424
0.68707782030105591 0.5676918625831604 0.14916825294494629
0.80933326482772827 0.56759285926818848 0.14818534255027771
0.90948778390884399 0.57538044452667236 0.14817076921463013
0.97455888986587524 0.57715171575546265 0.14534738659858704
0.99570935964584351 0.58051133155822754 0.14356498420238495
0.99971508979797363 0.57856446504592896 0.14203095436096191
0.15940172970294952 0.67082232236862183 0.14364039897918701
0.2063911110162735 0.6744842529296875 0.14915139973163605
0.25831699371337891 0.67930740118026733 0.1513437032699585
0.31155145168304443 0.68818646669387817 0.15017819404602051
0.38297879695892334 0.68438011407852173 0.14772626757621765
0.46673998236656189 0.67444914579391479 0.14762207865715027
0.56518125534057617 0.67945188283920288 0.15243688225746155
0.69923853874206543 0.68348395824432373 0.14921833574771881
0.8178936243057251 0.6828727126121521 0.14792296290397644
0.91665887832641602 0.6917804479598999 0.14972522854804993
0.97706186771392822 0.68458807468414307 0.14716264605522156
0.99553728103637695 0.68347948789596558 0.14518305659294128
0.9988294243812561 0.67940777540206909 0.14261522889137268
0.15898711979389191 0.75721174478530884 0.14375326037406921
0.20550496876239777 0.75801968574523926 0.14882579445838928
0.2568412721157074 0.75935548543930054 0.1500956267118454
0.31118875741958618 0.76204264163970947 0.14782483875751495
0.38081711530685425 0.76130253076553345 0.14434099197387695
0.46171280741691589 0.75692039728164673 0.14371547102928162
0.56629246473312378 0.75792783498764038 0.15262514352798462
0.68617522716522217 0.75996500253677368 0.15649819374084473
0.81126290559768677 0.76360785961151123 0.15391704440116882
0.91190743446350098 0.77171617746353149 0.15214081108570099
0.97597533464431763 0.77408379316329956 0.1497434675693512
0.99286419153213501 0.76870435476303101 0.14763794839382172
0.99849849939346313 0.76313704252243042 0.14469523727893829
0.16040678322315216 0.81879138946533203 0.14728313684463501
0.20451630651950836 0.82184863090515137 0.15075218677520752
0.25521096587181091 0.82484090328216553 0.14996902644634247
0.3091646134853363 0.82898205518722534 0.14510470628738403
0.38181427121162415 0.82988327741622925 0.14283275604248047
0.46929726004600525 0.82521963119506836 0.14419162273406982
0.57462000846862793 0.82310110330581665 0.15129439532756805
0.69122081995010376 0.82525014877319336 0.15521939098834991
0.81262850761413574 0.83010494709014893 0.15277257561683655
0.91126525402069092 0.8371964693069458 0.15199129283428192
0.97609591484069824 0.84059172868728638 0.15144504606723785
0.99335557222366333 0.83723056316375732 0.14784024655818939
0.99918419122695923 0.83563172817230225 0.14277401566505432
0.16276964545249939 0.86693209409713745 0.15108934044837952
0.20496322214603424 0.87013411521911621 0.15391978621482849
0.25525003671646118 0.87480455636978149 0.15190044045448303
0.31075009703636169 0.87995487451553345 0.14714661240577698
0.38778278231620789 0.88343268632888794 0.14521917700767517
0.47733515501022339 0.88098686933517456 0.14706623554229736
0.5791391134262085 0.87878823280334473 0.15027761459350586
0.70367169380187988 0.88314563035964966 0.15064692497253418
0.82510966062545776 0.8885309100151062 0.14582543075084686
0.91668170690536499 0.88931536674499512 0.14616231620311737
0.97620916366577148 0.88673073053359985 0.15513046085834503
0.99442332983016968 0.88424229621887207 0.15121670067310333
0.99585568904876709 0.88314735889434814 0.14449301362037659
0.16234277188777924 0.91337120532989502 0.15039448440074921
0.20461173355579376 0.9143754243850708 0.15297704935073853
0.25677388906478882 0.91535580158233643 0.15207266807556152
0.31427353620529175 0.91838270425796509 0.14947214722633362
0.38913005590438843 0.92212706804275513 0.14727804064750671
0.47598189115524292 0.92487847805023193 0.14744363725185394
0.57377618551254272 0.9281499981880188 0.14632238447666168
0.70429009199142456 0.92879587411880493 0.14817875623703003
0.82727479934692383 0.92946231365203857 0.14710308611392975
0.91798180341720581 0.9274744987487793 0.14726406335830688
0.97425496578216553 0.92415976524353027 0.15219409763813019
0.98969477415084839 0.92005032300949097 0.15231141448020935
0.99053281545639038 0.91660189628601074 0.14885251224040985
0.15940172970294952 0.95404452085494995 0.14584572613239288
0.20655350387096405 0.9502720832824707 0.15068270266056061
0.25947624444961548 0.9496685266494751 0.15125484764575958
0.31598249077796936 0.95329105854034424 0.14779092371463776
0.38826733827590942 0.9566609263420105 0.14435255527496338
0.48202502727508545 0.95607393980026245 0.14640805125236511
0.59098827838897705 0.96017390489578247 0.14755381643772125
0.71184271574020386 0.96123087406158447 0.14953675866127014
0.83230853080749512 0.96145182847976685 0.15053179860115051
0.92294937372207642 0.95948445796966553 0.14878949522972107
0.97321659326553345 0.95641744136810303 0.14437003433704376
0.98496741056442261 0.95197135210037231 0.1463375985622406
0.98603832721710205 0.94785594940185547 0.14871424436569214
0.16351157426834106 0.031131504103541374 0.1745523065328598
0.20382873713970184 0.02947000227868557 0.17107845842838287
0.25079730153083801 0.026042444631457329 0.16873286664485931
0.31133753061294556 0.030846673995256424 0.16951939463615417
0.380909264087677 0.027843356132507324 0.1692112535238266
0.47009590268135071 0.025504991412162781 0.16893002390861511
0.58274859189987183 0.02922821044921875 0.17141622304916382
0.70442122220993042 0.029416656121611595 0.17279328405857086
0.82186651229858398 0.028656529262661934 0.17291249334812164
0.91175228357315063 0.028934672474861145 0.17317134141921997
0.9670945405960083 0.028642617166042328 0.17321684956550598
0.99273121356964111 0.027685262262821198 0.17359355092048645
0.99943524599075317 0.027642672881484032 0.17350193858146667
0.16114227473735809 0.07639148086309433 0.16990227997303009
0.20385907590389252 0.082086540758609772 0.16998669505119324
0.2513064444065094 0.088385939598083496 0.17163011431694031
0.31040462851524353 0.090801447629928589 0.17401616275310516
0.38348811864852905 0.088843129575252533 0.17369860410690308
0.47091019153594971 0.082554206252098083 0.17297784984111786
0.57835191488265991 0.079561062157154083 0.17357563972473145
0.70380723476409912 0.077854111790657043 0.1738143116235733
0.82637816667556763 0.078475609421730042 0.17403270304203033
0.91512417793273926 0.080075852572917938 0.17419002950191498
0.96486502885818481 0.07865491509437561 0.17415721714496613
0.99194616079330444 0.075637519359588623 0.17424480617046356
0.99813389778137207 0.074236266314983368 0.17443856596946716
0.15935257077217102 0.13688625395298004 0.16859810054302216
0.20495703816413879 0.14713126420974731 0.1719033420085907
0.25257295370101929 0.15419790148735046 0.17482368648052216
0.30958878993988037 0.15589746832847595 0.17687311768531799
0.38568690419197083 0.1544572114944458 0.17572839558124542
0.47130492329597473 0.14763139188289642 0.175490602850914
0.57502752542495728 0.14202652871608734 0.17549480497837067
0.70212441682815552 0.14041100442409515 0.17489783465862274
0.82585090398788452 0.1412104070186615 0.17421096563339233
0.91670185327529907 0.14370404183864594 0.17416837811470032
0.96702766418457031 0.14205288887023926 0.17392309010028839
0.99258434772491455 0.13938428461551666 0.17402492463588715
0.99767899513244629 0.13968800008296967 0.17435352504253387
0.15990051627159119 0.22264409065246582 0.16907697916030884
0.20457907021045685 0.231731116771698 0.17343974113464355
0.2526431679725647 0.23553207516670227 0.1761181652545929
0.31025564670562744 0.23950493335723877 0.17560955882072449
0.38563865423202515 0.24068310856819153 0.17453464865684509
0.47370502352714539 0.23480147123336792 0.17548391222953796
0.57820820808410645 0.23215529322624207 0.17567172646522522
0.70306754112243652 0.22907420992851257 0.17512558400630951
0.82389062643051147 0.23290437459945679 0.17513158917427063
0.91497302055358887 0.23566392064094543 0.1753583699464798
0.97140580415725708 0.22914239764213562 0.17424392700195312
0.99267697334289551 0.23061126470565796 0.17380538582801819
0.99767214059829712 0.23879715800285339 0.17405372858047485
0.16119135916233063 0.33719322085380554 0.17235349118709564
0.20447024703025818 0.34341773390769958 0.17651306092739105
0.25368866324424744 0.34755384922027588 0.17797210812568665
0.31310254335403442 0.3416743278503418 0.17382083833217621
0.38521721959114075 0.33762350678443909 0.17244157195091248
0.4780978262424469 0.34607526659965515 0.1758173406124115
0.58238554000854492 0.34856873750686646 0.17840129137039185
0.7083815336227417 0.34520676732063293 0.17704758048057556
0.82654643058776855 0.34768244624137878 0.17807917296886444
0.91418617963790894 0.34382662177085876 0.17766880989074707
0.97224032878875732 0.33177927136421204 0.17506547272205353
0.98972523212432861 0.34310835599899292 0.1747240424156189
0.99775403738021851 0.36159682273864746 0.17425243556499481
0.16438265144824982 0.4801604151725769 0.17798438668251038
0.205396369099617 0.47669523954391479 0.18107938766479492
0.25356912612915039 0.4751705527305603 0.18160396814346313
0.31375080347061157 0.46717002987861633 0.17799553275108337
0.38678085803985596 0.46007433533668518 0.17507870495319366
0.47431579232215881 0.46468278765678406 0.17667800188064575
0.57456803321838379 0.47085362672805786 0.17757026851177216
0.70992577075958252 0.47381913661956787 0.17807799577713013
0.824016273021698 0.47168067097663879 0.18007050454616547
0.91417711973190308 0.47033253312110901 0.17937825620174408
0.97405314445495605 0.47041872143745422 0.17581707239151001
0.99191904067993164 0.47297847270965576 0.17524844408035278
0.99873435497283936 0.48077896237373352 0.17413917183876038
0.1629626601934433 0.59404581785202026 0.1790829598903656
0.2058195024728775 0.59022748470306396 0.18262799084186554
0.25461491942405701 0.59138530492782593 0.18359865248203278
0.31228217482566833 0.59102749824523926 0.17949758470058441
0.3894307017326355 0.58626866340637207 0.17655546963214874
0.47959151864051819 0.58895909786224365 0.17775684595108032
0.57454448938369751 0.58811283111572266 0.1770666092634201
0.69872516393661499 0.58907121419906616 0.17653526365756989
0.82111608982086182 0.59073168039321899 0.17746908962726593
0.91882550716400146 0.5935138463973999 0.17621678113937378
0.97611421346664429 0.59229344129562378 0.17346057295799255
0.99471414089202881 0.58849871158599854 0.17224912345409393
0.99922406673431396 0.59182024002075195 0.17438213527202606
0.1613357812166214 0.68599057197570801 0.17962197959423065
0.20572179555892944 0.68377566337585449 0.18148159980773926
0.25604477524757385 0.68683749437332153 0.18062892556190491
0.31119227409362793 0.69227129220962524 0.17660434544086456
0.38556802272796631 0.68926161527633667 0.17495432496070862
0.47366386651992798 0.68531864881515503 0.17663122713565826
0.57185184955596924 0.68823850154876709 0.17655719816684723
0.70744353532791138 0.69552409648895264 0.17541918158531189
0.82602119445800781 0.6963316798210144 0.17432673275470734
0.92017936706542969 0.69778406620025635 0.17301131784915924
0.97644126415252686 0.69047737121582031 0.17251947522163391
0.99487745761871338 0.68903553485870361 0.17268143594264984
0.99887889623641968 0.69875979423522949 0.17560234665870667
0.16145648062229156 0.77111321687698364 0.1820341944694519
0.20515178143978119 0.7653193473815918 0.18333810567855835
0.25469264388084412 0.76268815994262695 0.18243958055973053
0.31158572435379028 0.76373887062072754 0.17779088020324707
0.38412836194038391 0.7629619836807251 0.17520369589328766
0.47246655821800232 0.76093882322311401 0.1768181174993515
0.57654726505279541 0.76402467489242554 0.17822058498859406
0.6938549280166626 0.76782822608947754 0.17640833556652069
0.82089006900787354 0.77024728059768677 0.17716386914253235
0.91968393325805664 0.77680784463882446 0.17841486632823944
0.97401493787765503 0.77599990367889404 0.17884804308414459
0.9931144118309021 0.77031910419464111 0.17694120109081268
0.99843937158584595 0.77436071634292603 0.17717769742012024
0.16452591121196747 0.82692742347717285 0.18387036025524139
0.20556455850601196 0.82730603218078613 0.18588297069072723
0.25394609570503235 0.82789254188537598 0.18518869578838348
0.31233891844749451 0.82928478717803955 0.18027740716934204
0.38723519444465637 0.83081448078155518 0.17650990188121796
0.47924253344535828 0.83103090524673462 0.17730656266212463
0.58313679695129395 0.82948511838912964 0.17840225994586945
0.69824165105819702 0.82998132705688477 0.17827866971492767
0.82463717460632324 0.83745521306991577 0.17948219180107117
0.92142051458358765 0.84209281206130981 0.18045598268508911
0.97369688749313354 0.83772939443588257 0.18046806752681732
0.99371761083602905 0.8343428373336792 0.17793229222297668
0.99772638082504272 0.83450764417648315 0.17632414400577545
0.16457855701446533 0.87398803234100342 0.18604180216789246
0.20493920147418976 0.87600696086883545 0.18859666585922241
0.25397446751594543 0.87884736061096191 0.18845477700233459
0.31347337365150452 0.88143026828765869 0.1837114542722702
0.39312323927879333 0.88529157638549805 0.17961986362934113
0.48788124322891235 0.88866394758224487 0.17883066833019257
0.5887952446937561 0.88838720321655273 0.17979106307029724
0.71439898014068604 0.88998764753341675 0.17988654971122742
0.83335453271865845 0.89312529563903809 0.17843133211135864
0.92169106006622314 0.89151757955551147 0.17931216955184937
0.97746992111206055 0.88792973756790161 0.17779485881328583
0.99377560615539551 0.88511639833450317 0.17755620181560516
0.99570250511169434 0.88395386934280396 0.17702208459377289
0.16331028938293457 0.91917258501052856 0.18523664772510529
0.2037050873041153 0.91920620203018188 0.18770064413547516
0.25604033470153809 0.91910266876220703 0.18817339837551117
0.3153834342956543 0.92136943340301514 0.18611831963062286
0.39064425230026245 0.92518943548202515 0.18259944021701813
0.47751757502555847 0.92862236499786377 0.18075434863567352
0.57567334175109863 0.93154275417327881 0.17947156727313995
0.71243369579315186 0.9321092963218689 0.18008406460285187
0.83660829067230225 0.93330436944961548 0.18024535477161407
0.92408376932144165 0.93085533380508423 0.18059788644313812
0.97234636545181274 0.92567986249923706 0.1788274347782135
0.99023145437240601 0.92254805564880371 0.17834693193435669
0.99193620681762695 0.92039084434509277 0.1782827228307724
0.16193865239620209 0.95366281270980835 0.18312178552150726
0.20661942660808563 0.94988858699798584 0.18701277673244476
0.25968548655509949 0.95002686977386475 0.18964084982872009
0.31715536117553711 0.95314627885818481 0.18913222849369049
0.38947618007659912 0.95566171407699585 0.18237428367137909
0.48164373636245728 0.95626217126846313 0.1785188764333725
0.58961743116378784 0.96030986309051514 0.17570628225803375
0.71740520000457764 0.96146142482757568 0.17882946133613586
0.83626031875610352 0.96056407690048218 0.18183243274688721
0.91944652795791626 0.95524394512176514 0.18149249255657196
0.96722143888473511 0.95264548063278198 0.17840167880058289
0.98657333850860596 0.95154798030853271 0.17704173922538757
0.9901658296585083 0.95057505369186401 0.17798148095607758
0.16676144301891327 0.030444486066699028 0.21504756808280945
0.20302809774875641 0.031631022691726685 0.21475765109062195
0.25337028503417969 0.030664840713143349 0.21767005324363708
0.31789350509643555 0.03294849768280983 0.21745690703392029
0.39047655463218689 0.0321945920586586 0.21517005562782288
0.4757709801197052 0.02860705740749836 0.21139460802078247
0.57890862226486206 0.026841422542929649 0.20707927644252777
0.69647008180618286 0.026246493682265282 0.207088902592659
0.81782454252243042 0.025741292163729668 0.20639142394065857
0.91404205560684204 0.026968158781528473 0.20672859251499176
0.96908366680145264 0.024798315018415451 0.2069639265537262
0.98989272117614746 0.026667382568120956 0.21031220257282257
0.99819201231002808 0.024474289268255234 0.20702771842479706
0.16485588252544403 0.077765263617038727 0.21209129691123962
0.2065625935792923 0.084020696580410004 0.21326853334903717
0.25524818897247314 0.087725453078746796 0.21496239304542542
0.31382057070732117 0.087542004883289337 0.21568319201469421
0.3892781138420105 0.085815146565437317 0.2164544016122818
0.47829371690750122 0.082425616681575775 0.21558599174022675
0.58130395412445068 0.082149922847747803 0.2119995504617691
0.70321130752563477 0.080450840294361115 0.2130766361951828
0.82668662071228027 0.075617335736751556 0.21188028156757355
0.91552674770355225 0.074296407401561737 0.21208299696445465
0.96470582485198975 0.076298177242279053 0.21338063478469849
0.99129188060760498 0.073809482157230377 0.20948249101638794
0.99771744012832642 0.074670620262622833 0.20967596769332886
0.1635938435792923 0.14195717871189117 0.21139006316661835
0.20727121829986572 0.15100890398025513 0.21357366442680359
0.2559514045715332 0.15603688359260559 0.21536117792129517
0.31134381890296936 0.15365256369113922 0.21726073324680328
0.3849671483039856 0.15196463465690613 0.21579945087432861
0.47184500098228455 0.14720059931278229 0.21156054735183716
0.57863456010818481 0.14676286280155182 0.21006029844284058
0.70211422443389893 0.14496110379695892 0.21234047412872314
0.82601499557495117 0.1416194885969162 0.21263636648654938
0.91707038879394531 0.1417875736951828 0.2132420539855957
0.96403807401657104 0.14081290364265442 0.21149022877216339
0.99230128526687622 0.13577497005462646 0.2070733904838562
0.99801462888717651 0.13895590603351593 0.20813107490539551
0.16311725974082947 0.22532051801681519 0.21119336783885956
0.20592130720615387 0.23218995332717896 0.21374398469924927
0.25380375981330872 0.23530010879039764 0.2154657244682312
0.31249582767486572 0.24003317952156067 0.21566574275493622
0.38359352946281433 0.23771281540393829 0.21546901762485504
0.47153756022453308 0.2337891161441803 0.21152104437351227
0.58144521713256836 0.24059398472309113 0.21294422447681427
0.70079851150512695 0.23541080951690674 0.21187767386436462
0.81779175996780396 0.2333746999502182 0.21081240475177765
0.91051959991455078 0.23504699766635895 0.21077820658683777
0.9730452299118042 0.22671912610530853 0.20793545246124268
0.99463957548141479 0.22826458513736725 0.20910888910293579
0.99816006422042847 0.23035921156406403 0.20723231136798859
0.16212241351604462 0.34320864081382751 0.2134014368057251
0.20473070442676544 0.34596660733222961 0.21601457893848419
0.25346285104751587 0.34967374801635742 0.21745938062667847
0.31352177262306213 0.34708067774772644 0.21568803489208221
0.38499566912651062 0.34332719445228577 0.21491673588752747
0.47853851318359375 0.35266834497451782 0.21646133065223694
0.58664214611053467 0.36338436603546143 0.21687138080596924
0.70595067739486694 0.34525492787361145 0.21121206879615784
