assets/lut/others pink fade.cube
# Created by: G'MIC (https://gmic.eu)
TITLE "pink_fade"
# LUT size
LUT_3D_SIZE 13
# Data domain
DOMAIN_MIN 0.0 0.0 0.0
DOMAIN_MAX 1.0 1.0 1.0
# LUT data points
0.19192266464233398 0.13771657645702362 0.18041233718395233
0.22448603808879852 0.14039701223373413 0.18585893511772156
0.27845177054405212 0.14594271779060364 0.20193752646446228
0.34552127122879028 0.15489552915096283 0.21375727653503418
0.41376805305480957 0.16475693881511688 0.22533264756202698
0.49506101012229919 0.18582583963871002 0.25277915596961975
0.58076339960098267 0.21481969952583313 0.28622749447822571
0.66289031505584717 0.24900476634502411 0.32245853543281555
0.74416649341583252 0.28939279913902283 0.36417806148529053
0.81475800275802612 0.33038881421089172 0.40850624442100525
0.88199764490127563 0.37409606575965881 0.45342472195625305
0.94233638048171997 0.41156712174415588 0.4961417019367218
0.97714614868164062 0.43289667367935181 0.52180606126785278
0.1937829852104187 0.15371423959732056 0.17628911137580872
0.22694683074951172 0.15387046337127686 0.18063557147979736
0.28221282362937927 0.15862227976322174 0.19442245364189148
0.34587162733078003 0.16673405468463898 0.21086405217647552
0.41347038745880127 0.17552755773067474 0.22983445227146149
0.49394252896308899 0.19659480452537537 0.25334611535072327
0.57678526639938354 0.22318084537982941 0.28241270780563354
0.66249626874923706 0.25929027795791626 0.32253029942512512
0.74433302879333496 0.29783755540847778 0.36408063769340515
0.81494623422622681 0.33655211329460144 0.40785181522369385
0.883270263671875 0.37680047750473022 0.45168569684028625
0.94558537006378174 0.41476038098335266 0.49582183361053467
0.98134315013885498 0.43662217259407043 0.52205872535705566
0.20008563995361328 0.19201429188251495 0.17647793889045715
0.23660294711589813 0.190860316157341 0.1845734715461731
0.28348088264465332 0.18134528398513794 0.18799535930156708
0.34265920519828796 0.18116892874240875 0.19817763566970825
0.4141964316368103 0.19332733750343323 0.22057993710041046
0.49178636074066162 0.21252945065498352 0.24282340705394745
0.57585012912750244 0.24085529148578644 0.27470734715461731
0.66533619165420532 0.27605333924293518 0.31722801923751831
0.74868404865264893 0.31206616759300232 0.36232712864875793
0.8156893253326416 0.34828686714172363 0.40530157089233398
0.88415348529815674 0.38664999604225159 0.44859716296195984
0.94873243570327759 0.4235808253288269 0.49489843845367432
0.98460984230041504 0.44435772299766541 0.52150613069534302
0.21027010679244995 0.24387173354625702 0.17935435473918915
0.24797485768795013 0.24192479252815247 0.18960529565811157
0.2956596314907074 0.23044972121715546 0.18763110041618347
0.35027974843978882 0.21802432835102081 0.189353346824646
0.41990888118743896 0.22533160448074341 0.20937769114971161
0.4917202889919281 0.23629960417747498 0.23233745992183685
0.57787501811981201 0.26382353901863098 0.26461887359619141
0.66449838876724243 0.29523569345474243 0.30361440777778625
0.74256885051727295 0.32763096690177917 0.35010573267936707
0.81464546918869019 0.3634854257106781 0.39621198177337646
0.88538110256195068 0.4020744264125824 0.44175726175308228
0.94562405347824097 0.43447840213775635 0.48648053407669067
0.9802977442741394 0.45445904135704041 0.51398998498916626
0.23067304491996765 0.31685155630111694 0.18708384037017822
0.26366481184959412 0.31235092878341675 0.18939979374408722
0.31342828273773193 0.30074313282966614 0.18872234225273132
0.3692132830619812 0.28425315022468567 0.18898212909698486
0.42885226011276245 0.27129235863685608 0.20323894917964935
0.49229446053504944 0.26136451959609985 0.2249511331319809
0.57887887954711914 0.28812596201896667 0.25749313831329346
0.66596782207489014 0.31684151291847229 0.29455798864364624
0.73954474925994873 0.346681147813797 0.33710697293281555
0.81279987096786499 0.38116419315338135 0.38147935271263123
0.88478547334671021 0.4190317690372467 0.42797091603279114
0.94111597537994385 0.44818943738937378 0.47195544838905334
0.97695845365524292 0.46794861555099487 0.50037354230880737
0.25191673636436462 0.3927764892578125 0.19498850405216217
0.28146883845329285 0.39015617966651917 0.19142556190490723
0.3346593976020813 0.38708686828613281 0.19167311489582062
0.40227979421615601 0.38078922033309937 0.19618108868598938
0.46248432993888855 0.36347240209579468 0.20640246570110321
0.50810509920120239 0.32650858163833618 0.22049640119075775
0.57903623580932617 0.32280337810516357 0.24749548733234406
0.66951507329940796 0.33991143107414246 0.28501653671264648
0.74382895231246948 0.36807152628898621 0.32407540082931519
0.81456589698791504 0.40121552348136902 0.36447304487228394
0.88229870796203613 0.43505910038948059 0.41437628865242004
0.94366824626922607 0.46626371145248413 0.46291744709014893
0.97905337810516357 0.48635104298591614 0.48965102434158325
0.28008273243904114 0.48223733901977539 0.21379205584526062
0.31155350804328918 0.48077782988548279 0.211655393242836
0.36055898666381836 0.48275631666183472 0.21003222465515137
0.43656834959983826 0.48400723934173584 0.20864132046699524
0.50421738624572754 0.46930566430091858 0.21079303324222565
0.54217058420181274 0.41941642761230469 0.22144991159439087
0.58944272994995117 0.3786710798740387 0.23962365090847015
0.67504298686981201 0.38146665692329407 0.27720725536346436
0.74701088666915894 0.39007693529129028 0.31683823466300964
0.81531333923339844 0.42018210887908936 0.35554710030555725
0.88120639324188232 0.45325538516044617 0.40336698293685913
0.94714003801345825 0.48622167110443115 0.45447716116905212
0.98422807455062866 0.50440973043441772 0.48274257779121399
0.31380775570869446 0.58311480283737183 0.24266962707042694
0.34553506970405579 0.57449579238891602 0.23727765679359436
0.38547492027282715 0.574493408203125 0.23195451498031616
0.46165329217910767 0.57865214347839355 0.2273176908493042
0.54395127296447754 0.57522952556610107 0.22360043227672577
0.58970880508422852 0.53029710054397583 0.22976584732532501
0.63458973169326782 0.47867694497108459 0.24583713710308075
0.69569933414459229 0.45213544368743896 0.2755095362663269
0.75377875566482544 0.43268916010856628 0.31119623780250549
0.81701111793518066 0.44766029715538025 0.35095754265785217
0.88345921039581299 0.47696730494499207 0.3975273072719574
0.94851207733154297 0.50355613231658936 0.44374436140060425
0.98355072736740112 0.5167270302772522 0.46982294321060181
0.34946414828300476 0.66018503904342651 0.26951462030410767
0.38277265429496765 0.6520959734916687 0.26366972923278809
0.42262840270996094 0.64813739061355591 0.25768360495567322
0.48659852147102356 0.65271890163421631 0.25283047556877136
0.5752556324005127 0.66193562746047974 0.24702286720275879
0.64231139421463013 0.63431704044342041 0.24030111730098724
0.69114553928375244 0.58146917819976807 0.2556702196598053
0.73643940687179565 0.53342783451080322 0.28110888600349426
0.77595698833465576 0.49645894765853882 0.30805826187133789
0.82359015941619873 0.48660582304000854 0.34312474727630615
0.88668763637542725 0.50264620780944824 0.38784286379814148
0.94944936037063599 0.51879167556762695 0.43108531832695007
0.98369795083999634 0.52780365943908691 0.45610806345939636
0.38309788703918457 0.72067397832870483 0.30041611194610596
0.42065069079399109 0.72041761875152588 0.29102155566215515
0.45972955226898193 0.71825134754180908 0.28400698304176331
0.50661122798919678 0.71938276290893555 0.27675947546958923
0.5928148627281189 0.72293591499328613 0.26566633582115173
0.68467271327972412 0.71767711639404297 0.25365790724754333
0.74979174137115479 0.67772167921066284 0.27015608549118042
0.79763835668563843 0.62595456838607788 0.29745945334434509
0.82605868577957153 0.5785752534866333 0.31984856724739075
0.84209728240966797 0.53877997398376465 0.34037062525749207
0.88843363523483276 0.53476011753082275 0.37493470311164856
0.9501502513885498 0.54211241006851196 0.41931906342506409
0.98452532291412354 0.54470258951187134 0.44507682323455811
0.41912183165550232 0.78166884183883667 0.3316403329372406
0.45845529437065125 0.7844538688659668 0.31964978575706482
0.49229833483695984 0.78280872106552124 0.30855271220207214
0.53043431043624878 0.78221112489700317 0.3005186915397644
0.61061012744903564 0.78268605470657349 0.29070484638214111
0.71432536840438843 0.78301948308944702 0.27933570742607117
0.80191695690155029 0.77002972364425659 0.28186959028244019
0.85482466220855713 0.72045648097991943 0.31053489446640015
0.88171017169952393 0.67005026340484619 0.33294224739074707
0.88532733917236328 0.61991804838180542 0.34625458717346191
0.90005242824554443 0.58101218938827515 0.36576047539710999
0.94959121942520142 0.57258492708206177 0.41069027781486511
0.9820554256439209 0.56922286748886108 0.43793594837188721
0.46185237169265747 0.8424343466758728 0.35621097683906555
0.49433249235153198 0.83698821067810059 0.34601724147796631
0.52360993623733521 0.82860708236694336 0.33151891827583313
0.56439000368118286 0.83332788944244385 0.32476603984832764
0.6312832236289978 0.84147006273269653 0.31652951240539551
0.73044335842132568 0.84193515777587891 0.3072364330291748
0.83400440216064453 0.83993327617645264 0.30699905753135681
0.9159960150718689 0.81966626644134521 0.32668080925941467
0.94447338581085205 0.77015841007232666 0.34916913509368896
0.9356570839881897 0.71061939001083374 0.35709103941917419
0.93892586231231689 0.65983504056930542 0.3718603253364563
0.96394318342208862 0.62782740592956543 0.40331560373306274
0.98174810409545898 0.59875905513763428 0.42725446820259094
0.48202478885650635 0.87140679359436035 0.3673950731754303
0.51591980457305908 0.86789578199386597 0.36055782437324524
0.55171781778335571 0.86584722995758057 0.35111731290817261
0.59317529201507568 0.87042862176895142 0.34222882986068726
0.64609110355377197 0.87548428773880005 0.33181914687156677
0.73721003532409668 0.87452661991119385 0.3278656005859375
0.84520560503005981 0.87648701667785645 0.32842063903808594
0.94405275583267212 0.8773919939994812 0.33439439535140991
0.97595375776290894 0.84256047010421753 0.35401484370231628
0.97258675098419189 0.79021143913269043 0.36256116628646851
0.97586053609848022 0.73783862590789795 0.37648069858551025
0.98375481367111206 0.68603920936584473 0.39922374486923218
0.98759102821350098 0.63092076778411865 0.41954290866851807
0.19109012186527252 0.13431401550769806 0.20954789221286774
0.21725985407829285 0.1354413777589798 0.21584692597389221
0.26473930478096008 0.14006836712360382 0.22825710475444794
0.33787351846694946 0.15169373154640198 0.24688829481601715
0.41365325450897217 0.16501036286354065 0.2644016444683075
0.4918425977230072 0.18255074322223663 0.2835509181022644
0.57803106307983398 0.21341869235038757 0.3160577118396759
0.66189289093017578 0.24797934293746948 0.35252463817596436
0.74219560623168945 0.28463032841682434 0.39620953798294067
0.81477290391921997 0.32279595732688904 0.44098654389381409
0.88281810283660889 0.36466646194458008 0.48361685872077942
0.94114243984222412 0.3985573947429657 0.52350336313247681
0.97466146945953369 0.41889402270317078 0.54932945966720581
0.19712211191654205 0.15830640494823456 0.20806317031383514
0.22276683151721954 0.15412868559360504 0.21077609062194824
0.27340236306190491 0.15797732770442963 0.22487102448940277
0.33884692192077637 0.16429395973682404 0.24233618378639221
0.41194367408752441 0.17394392192363739 0.25936278700828552
0.4927164614200592 0.19570893049240112 0.28056633472442627
0.57804620265960693 0.22304762899875641 0.31176033616065979
0.66320443153381348 0.25547492504119873 0.3496517539024353
0.7408447265625 0.29162389039993286 0.39285469055175781
0.81413286924362183 0.32889452576637268 0.43862530589103699
0.88314950466156006 0.36778894066810608 0.48273822665214539
0.93940800428390503 0.40089711546897888 0.5221179723739624
0.97646617889404297 0.42229443788528442 0.55053311586380005
0.20044998824596405 0.19383302330970764 0.20530010759830475
0.22948858141899109 0.18777523934841156 0.20684501528739929
0.27867570519447327 0.18358279764652252 0.21467174589633942
0.34217789769172668 0.18816250562667847 0.22941736876964569
0.41349896788597107 0.19617363810539246 0.24720834195613861
0.49149051308631897 0.21281062066555023 0.26916670799255371
0.5749666690826416 0.23876963555812836 0.30125516653060913
0.66292315721511841 0.27096289396286011 0.34237185120582581
0.74291598796844482 0.30471673607826233 0.3903011679649353
0.81441205739974976 0.34158924221992493 0.43412116169929504
0.88267457485198975 0.37840354442596436 0.47816294431686401
0.94514042139053345 0.41147401928901672 0.52431219816207886
0.98137331008911133 0.43160316348075867 0.55189657211303711
0.20136043429374695 0.24083147943019867 0.20194923877716064
0.24051901698112488 0.23954352736473083 0.20449155569076538
0.29196709394454956 0.23104849457740784 0.20903438329696655
0.34758639335632324 0.21862226724624634 0.21527077257633209
0.41552776098251343 0.22336159646511078 0.23277924954891205
0.49076622724533081 0.23860716819763184 0.25708660483360291
0.57654613256454468 0.26152181625366211 0.2884405255317688
0.66552352905273438 0.2912193238735199 0.32627102732658386
0.74351811408996582 0.32359790802001953 0.37393283843994141
0.8136754035949707 0.35876315832138062 0.41984555125236511
0.88215762376785278 0.39322000741958618 0.46897348761558533
0.94760537147521973 0.42559808492660522 0.5191541314125061
0.9837270975112915 0.44501140713691711 0.54716795682907104
0.21972563862800598 0.30709761381149292 0.20721727609634399
0.25636777281761169 0.30617493391036987 0.20550881326198578
0.30817583203315735 0.29876115918159485 0.20737414062023163
0.36586758494377136 0.28562378883361816 0.21184732019901276
0.42648741602897644 0.27247524261474609 0.2234499603509903
0.49184620380401611 0.26800516247749329 0.24472855031490326
0.57874917984008789 0.28793597221374512 0.2769024670124054
0.66885364055633545 0.314737468957901 0.31314799189567566
0.74379509687423706 0.3446347713470459 0.35536673665046692
0.81399589776992798 0.3781181275844574 0.40134218335151672
0.88126546144485474 0.41106358170509338 0.45216721296310425
0.94514697790145874 0.44223082065582275 0.50214415788650513
0.98089873790740967 0.46132716536521912 0.52969187498092651
0.2464042454957962 0.38601663708686829 0.21747392416000366
0.27650514245033264 0.38581877946853638 0.21442751586437225
0.32878291606903076 0.38523188233375549 0.21218249201774597
0.39843565225601196 0.38259634375572205 0.21700933575630188
0.46139106154441833 0.36619934439659119 0.22554376721382141
0.50930505990982056 0.3297431468963623 0.23845124244689941
0.57974326610565186 0.32424506545066833 0.26609897613525391
0.66937953233718872 0.34427809715270996 0.30324411392211914
0.74582129716873169 0.36855792999267578 0.34243789315223694
0.81500232219696045 0.39772391319274902 0.38489061594009399
0.88047552108764648 0.42999029159545898 0.43440288305282593
0.94519722461700439 0.46182334423065186 0.48451706767082214
0.98128139972686768 0.48081964254379272 0.51187825202941895
0.27521604299545288 0.47784709930419922 0.23657421767711639
0.30538833141326904 0.47767862677574158 0.23361398279666901
0.35666987299919128 0.48027819395065308 0.22984747588634491
0.43155235052108765 0.48423284292221069 0.22925159335136414
0.50212103128433228 0.46653053164482117 0.2304871678352356
0.54699552059173584 0.42231366038322449 0.24014875292778015
0.59229332208633423 0.3812568187713623 0.25911277532577515
0.66914939880371094 0.37976834177970886 0.29271981120109558
0.7464911937713623 0.39040368795394897 0.33188822865486145
0.81481826305389404 0.41706901788711548 0.3748534619808197
0.88141775131225586 0.45053622126579285 0.42113244533538818
0.94670426845550537 0.48378068208694458 0.46676996350288391
0.98314803838729858 0.50140529870986938 0.49377483129501343
0.30783900618553162 0.57306039333343506 0.26062691211700439
0.34091189503669739 0.57161325216293335 0.25659951567649841
0.38964226841926575 0.57633870840072632 0.25305187702178955
0.4572485089302063 0.58539754152297974 0.25003838539123535
0.54030889272689819 0.57490640878677368 0.2445281594991684
0.59134680032730103 0.52870291471481323 0.24502600729465485
0.63323265314102173 0.47474488615989685 0.26283109188079834
0.68507653474807739 0.44049638509750366 0.28850653767585754
0.75141793489456177 0.43220847845077515 0.3238186240196228
0.81671202182769775 0.4459320604801178 0.36554712057113647
0.88302052021026611 0.47844401001930237 0.41068044304847717
0.94679522514343262 0.50469356775283813 0.45316267013549805
0.98133057355880737 0.51439434289932251 0.47832491993904114
0.34585186839103699 0.65528059005737305 0.28527042269706726
0.38155338168144226 0.6536639928817749 0.28063508868217468
0.42730975151062012 0.65597277879714966 0.27687892317771912
0.48584988713264465 0.66129666566848755 0.27199652791023254
0.57273441553115845 0.66375112533569336 0.26353856921195984
0.6384546160697937 0.62925803661346436 0.25633642077445984
0.68936413526535034 0.57750433683395386 0.27194470167160034
0.7344927191734314 0.53180372714996338 0.29695218801498413
0.77165478467941284 0.49569481611251831 0.3218899667263031
0.82344698905944824 0.48899543285369873 0.35643789172172546
0.88600397109985352 0.50784707069396973 0.39902198314666748
0.94645589590072632 0.52048718929290771 0.44142001867294312
0.98009216785430908 0.52586603164672852 0.46613201498985291
0.37990495562553406 0.72097760438919067 0.31267789006233215
0.41742736101150513 0.72244298458099365 0.30683425068855286
0.45956170558929443 0.72218257188796997 0.30074900388717651
0.51364552974700928 0.72216141223907471 0.29341632127761841
0.59087586402893066 0.72339069843292236 0.28462314605712891
0.67582738399505615 0.70782876014709473 0.27496355772018433
0.74834156036376953 0.67449688911437988 0.28301313519477844
0.79601633548736572 0.62460029125213623 0.30988410115242004
0.81904906034469604 0.57659745216369629 0.33028975129127502
0.83639562129974365 0.53497940301895142 0.34895011782646179
0.88757240772247314 0.53360956907272339 0.38718125224113464
0.94819086790084839 0.54170465469360352 0.43120589852333069
0.98001664876937866 0.54438889026641846 0.45467111468315125
0.41843286156654358 0.78439295291900635 0.34042146801948547
0.45410808920860291 0.78432607650756836 0.33347630500793457
0.48838615417480469 0.78333050012588501 0.3251708447933197
0.54055643081665039 0.78258919715881348 0.31682980060577393
0.61255550384521484 0.78417879343032837 0.30758535861968994
0.70886290073394775 0.78091776371002197 0.2965356707572937
0.80028361082077026 0.76601213216781616 0.29650697112083435
0.85360288619995117 0.71924155950546265 0.32331794500350952
0.8758123517036438 0.66860133409500122 0.34391102194786072
0.88181805610656738 0.61729735136032104 0.35758769512176514
0.90722018480300903 0.58478367328643799 0.38413503766059875
0.95683670043945312 0.57374083995819092 0.42524081468582153
0.98031949996948242 0.56807619333267212 0.44555020332336426
0.47400128841400146 0.84365284442901611 0.36553165316581726
0.49472615122795105 0.84316623210906982 0.36031931638717651
0.52190065383911133 0.83598512411117554 0.34972941875457764
0.56954777240753174 0.83917427062988281 0.34318700432777405
0.63611197471618652 0.8394051194190979 0.33054804801940918
0.72920817136764526 0.84103918075561523 0.3170546293258667
0.83545148372650146 0.84146678447723389 0.31683844327926636
0.91396981477737427 0.82014721632003784 0.33753392100334167
0.93459618091583252 0.76553332805633545 0.35821965336799622
0.9341733455657959 0.71134781837463379 0.36939039826393127
0.94568783044815063 0.66238868236541748 0.38833677768707275
0.97104465961456299 0.62840104103088379 0.41797840595245361
0.98172736167907715 0.59883999824523926 0.43614599108695984
0.49342605471611023 0.86354988813400269 0.37336906790733337
0.5154343843460083 0.86672687530517578 0.37002283334732056
0.54965347051620483 0.87058711051940918 0.36493739485740662
0.59247398376464844 0.8712581992149353 0.35706058144569397
0.65649020671844482 0.87057667970657349 0.34301799535751343
0.74071156978607178 0.87428832054138184 0.33073627948760986
0.8481748104095459 0.87743288278579712 0.33175563812255859
0.94140559434890747 0.87720853090286255 0.34418982267379761
0.97157472372055054 0.85247862339019775 0.36070412397384644
0.9721909761428833 0.79350179433822632 0.37412756681442261
0.97554761171340942 0.73531180620193481 0.39049983024597168
0.98221522569656372 0.6840747594833374 0.41073614358901978
0.98605567216873169 0.63363492488861084 0.42804619669914246
0.19857035577297211 0.14200988411903381 0.25767451524734497
0.21804969012737274 0.14063854515552521 0.26046422123908997
0.24912519752979279 0.14082080125808716 0.26573696732521057
0.31728103756904602 0.14753872156143188 0.28379619121551514
0.39644420146942139 0.15733161568641663 0.30768835544586182
0.4854227602481842 0.1780480295419693 0.33544638752937317
0.5778498649597168 0.21058361232280731 0.36377924680709839
0.66299670934677124 0.24642461538314819 0.39089637994766235
0.74163007736206055 0.27917134761810303 0.43140155076980591
0.81515824794769287 0.31423452496528625 0.47593998908996582
0.88341134786605835 0.35341095924377441 0.51670849323272705
0.94427365064620972 0.38690575957298279 0.55582791566848755
0.97722321748733521 0.40550121665000916 0.57996189594268799
0.19719149172306061 0.16457422077655792 0.24917668104171753
0.22083261609077454 0.16053076088428497 0.25275012850761414
0.25246402621269226 0.15797547996044159 0.25983041524887085
0.32137325406074524 0.16148313879966736 0.28023916482925415
0.406513512134552 0.16945607960224152 0.31049081683158875
0.49085858464241028 0.19029588997364044 0.33200135827064514
0.5780150294303894 0.21878324449062347 0.35553640127182007
0.66654592752456665 0.25141063332557678 0.38585847616195679
0.74084067344665527 0.28549715876579285 0.42893892526626587
0.81407195329666138 0.32119244337081909 0.47429433465003967
0.883137047290802 0.35729590058326721 0.51386493444442749
0.9351915717124939 0.38669037818908691 0.55073893070220947
0.97500646114349365 0.40845954418182373 0.58176666498184204
0.195895716547966 0.19483514130115509 0.240618035197258
0.22289015352725983 0.19063940644264221 0.2410329133272171
0.26431381702423096 0.19052353501319885 0.25064241886138916
0.32974126935005188 0.19301822781562805 0.27029365301132202
0.41144227981567383 0.1984950453042984 0.29653516411781311
0.4876868724822998 0.21211846172809601 0.3114282488822937
0.57452839612960815 0.23371915519237518 0.34026944637298584
0.66518110036849976 0.26496115326881409 0.37800770998001099
0.74304330348968506 0.29802614450454712 0.42525407671928406
0.81586182117462158 0.33411121368408203 0.47003522515296936
0.88317716121673584 0.36984097957611084 0.50989049673080444
0.94116497039794922 0.39974740147590637 0.55245667695999146
0.97834926843643188 0.41938173770904541 0.58194714784622192
0.19637361168861389 0.23929533362388611 0.23028025031089783
0.23088423907756805 0.23857498168945312 0.22980284690856934
0.27847138047218323 0.23626530170440674 0.23929198086261749
0.34042510390281677 0.23019886016845703 0.25459378957748413
0.41553696990013123 0.23511302471160889 0.27513331174850464
0.48901623487472534 0.24602401256561279 0.29291093349456787
0.57389909029006958 0.25949010252952576 0.32203072309494019
0.66644394397735596 0.28555309772491455 0.36248645186424255
0.74609684944152832 0.31698575615882874 0.41131177544593811
0.81611424684524536 0.35092651844024658 0.45700260996818542
0.88275146484375 0.38532441854476929 0.50003379583358765
0.94589471817016602 0.4163554310798645 0.54795122146606445
0.98194193840026855 0.43404361605644226 0.57765489816665649
0.21151407063007355 0.3033602237701416 0.23085762560367584
0.24535955488681793 0.30404964089393616 0.22820739448070526
0.29364582896232605 0.30095699429512024 0.23285464942455292
0.36339330673217773 0.29358509182929993 0.24555505812168121
0.42767637968063354 0.28319796919822693 0.25846004486083984
0.49228328466415405 0.27800598740577698 0.27546206116676331
0.57593780755996704 0.289284348487854 0.30379331111907959
0.66896575689315796 0.31208732724189758 0.33801478147506714
0.74735832214355469 0.33972695469856262 0.38582110404968262
