assets/lut/others solarized color 2.cube
# Created by: G'MIC (https://gmic.eu)
TITLE "solarized_color_2"
# LUT size
LUT_3D_SIZE 5
# Data domain
DOMAIN_MIN 0.0 0.0 0.0
DOMAIN_MAX 1.0 1.0 1.0
# LUT data points
0.039688725024461746 0.038673970848321915 0.04496929794549942
0.26435068249702454 0.041547589004039764 0.041753999888896942
0.74141949415206909 0.038601506501436234 0.044207718223333359
0.57695657014846802 0.037413623183965683 0.03888663649559021
0.97586774826049805 0.036396685987710953 0.037562530487775803
0.039701558649539948 0.26087173819541931 0.037426743656396866
0.27745455503463745 0.27173161506652832 0.051069792360067368
0.73900383710861206 0.26816082000732422 0.042316600680351257
0.58124625682830811 0.27087706327438354 0.047124270349740982
0.98403573036193848 0.24936157464981079 0.042641807347536087
0.035428185015916824 0.50052225589752197 0.035677410662174225
0.24777409434318542 0.49506291747093201 0.037233032286167145
0.73235338926315308 0.49585247039794922 0.041427027434110641
0.58099484443664551 0.49159699678421021 0.042101543396711349
0.9721609354019165 0.48537281155586243 0.047376774251461029
0.041436918079853058 0.72711634635925293 0.039098896086215973
0.24957063794136047 0.72866529226303101 0.037682641297578812
0.72744947671890259 0.73324167728424072 0.044634051620960236
0.58477526903152466 0.72719180583953857 0.048608444631099701
0.97568166255950928 0.72049307823181152 0.043274194002151489
0.047114294022321701 0.96138006448745728 0.046557556837797165
0.24106559157371521 0.95638972520828247 0.040925882756710052
0.73414599895477295 0.95809423923492432 0.046157985925674438
0.58281993865966797 0.95327848196029663 0.043389175087213516
0.97640281915664673 0.94809615612030029 0.04391174390912056
0.038232270628213882 0.045794002711772919 0.26817509531974792
0.25699383020401001 0.040889397263526917 0.26554757356643677
0.73919278383255005 0.042175009846687317 0.26372417807579041
0.58216780424118042 0.046266369521617889 0.2628788948059082
0.97413212060928345 0.039449341595172882 0.26911351084709167
0.043683923780918121 0.27376571297645569 0.25476735830307007
0.26381263136863708 0.26924780011177063 0.25594145059585571
0.7341342568397522 0.27409771084785461 0.26996567845344543
0.57385683059692383 0.26489365100860596 0.25703626871109009
0.97139102220535278 0.26208168268203735 0.26465573906898499
0.042424760758876801 0.50250047445297241 0.26467430591583252
0.26551952958106995 0.49497246742248535 0.26085850596427917
0.73271852731704712 0.48986300826072693 0.27106782793998718
0.57900708913803101 0.49436753988265991 0.26383176445960999
0.96892732381820679 0.49309507012367249 0.26710250973701477
0.04636237770318985 0.73142099380493164 0.25975689291954041
0.25018420815467834 0.7232244610786438 0.2591853141784668
0.73042875528335571 0.72617256641387939 0.25839981436729431
0.56419795751571655 0.73002707958221436 0.26169881224632263
0.97113370895385742 0.7239605188369751 0.25774180889129639
0.047416806221008301 0.95559012889862061 0.26414009928703308
0.26275378465652466 0.94785654544830322 0.25376042723655701
0.73739153146743774 0.94899266958236694 0.26730743050575256
0.56995075941085815 0.95240122079849243 0.26223796606063843
0.97726285457611084 0.95682269334793091 0.26710698008537292
0.037797082215547562 0.043648798018693924 0.50393390655517578
0.26405641436576843 0.048562683165073395 0.49735161662101746
0.72940540313720703 0.047012478113174438 0.50055509805679321
0.58486855030059814 0.047551382333040237 0.497001051902771
0.97939079999923706 0.039565622806549072 0.49686604738235474
0.036114051938056946 0.2782265841960907 0.48803529143333435
0.25685581564903259 0.26515850424766541 0.49537461996078491
0.7210429310798645 0.2652772068977356 0.4999401867389679
0.58551597595214844 0.26757657527923584 0.49644735455513
0.96584427356719971 0.27013209462165833 0.50299113988876343
0.037172012031078339 0.49317267537117004 0.4980684220790863
0.26619434356689453 0.49505481123924255 0.4945673942565918
0.73344600200653076 0.49641862511634827 0.4949643611907959
0.58161336183547974 0.49265918135643005 0.49424001574516296
0.96836632490158081 0.49087396264076233 0.50162506103515625
0.039396725594997406 0.72234028577804565 0.49424836039543152
0.2684599757194519 0.7235139012336731 0.48795551061630249
0.7358696460723877 0.7257312536239624 0.49944818019866943
0.58580034971237183 0.72634780406951904 0.49190828204154968
0.97862404584884644 0.727619469165802 0.49630546569824219
0.048451069742441177 0.9461287260055542 0.49703729152679443
0.25611385703086853 0.9599793553352356 0.4966091513633728
0.73422050476074219 0.95314466953277588 0.49445393681526184
0.5875861644744873 0.95231002569198608 0.48990890383720398
0.97326105833053589 0.95086836814880371 0.49896374344825745
0.040974829345941544 0.036491379141807556 0.72908699512481689
0.25513771176338196 0.042304199188947678 0.72434467077255249
0.74177157878875732 0.040930010378360748 0.72944068908691406
0.57462513446807861 0.043071236461400986 0.72831392288208008
0.97312361001968384 0.052426654845476151 0.72485160827636719
0.035141363739967346 0.25890821218490601 0.72953164577484131
0.25719630718231201 0.26649796962738037 0.72806590795516968
0.73473221063613892 0.27053329348564148 0.73282647132873535
0.57045990228652954 0.26356834173202515 0.7322583794593811
0.97429007291793823 0.27261194586753845 0.72815358638763428
0.037703029811382294 0.50072890520095825 0.72621214389801025
0.25224509835243225 0.49286091327667236 0.72456854581832886
0.73572272062301636 0.49903494119644165 0.73028081655502319
0.57436501979827881 0.49256297945976257 0.72331792116165161
0.97577536106109619 0.48920992016792297 0.72957688570022583
0.035759691148996353 0.73945325613021851 0.73063045740127563
0.26238176226615906 0.72506523132324219 0.72572195529937744
0.7271847128868103 0.72304648160934448 0.72600322961807251
0.57906079292297363 0.72681581974029541 0.72833806276321411
0.97631531953811646 0.71980351209640503 0.72733932733535767
0.035662215203046799 0.95336318016052246 0.72699570655822754
0.26141077280044556 0.95236861705780029 0.72446739673614502
0.72862929105758667 0.94754219055175781 0.73495900630950928
0.58303815126419067 0.95287907123565674 0.73144042491912842
0.97823411226272583 0.95567911863327026 0.72609704732894897
0.045225180685520172 0.039012745022773743 0.95586246252059937
0.26579439640045166 0.04629223421216011 0.95777755975723267
0.73581051826477051 0.046933267265558243 0.95751774311065674
0.5784907341003418 0.043796058744192123 0.95353180170059204
0.98235207796096802 0.037260524928569794 0.95537924766540527
0.034316673874855042 0.26646044850349426 0.95113050937652588
0.2637513279914856 0.26350882649421692 0.95599794387817383
0.7363818883895874 0.25552842020988464 0.95626211166381836
0.57336807250976562 0.26262524724006653 0.9504198431968689
0.97681993246078491 0.26527631282806396 0.94960159063339233
0.041238792240619659 0.49910306930541992 0.95613944530487061
0.27026310563087463 0.49818062782287598 0.9531523585319519
0.73257291316986084 0.49392563104629517 0.95538330078125
0.5694882869720459 0.50103074312210083 0.9532017707824707
0.9780963659286499 0.49405696988105774 0.95966565608978271
0.033711183816194534 0.73070818185806274 0.9538731575012207
0.25877660512924194 0.72854650020599365 0.95247447490692139
0.73544830083847046 0.72360110282897949 0.94992709159851074
0.5733877420425415 0.72779703140258789 0.95106679201126099
0.97837561368942261 0.73355299234390259 0.95607155561447144
0.042141813784837723 0.95410788059234619 0.95107781887054443
0.25729453563690186 0.95553743839263916 0.95133763551712036
0.74713051319122314 0.95348089933395386 0.95646995306015015
0.57338529825210571 0.95612233877182007 0.94745618104934692
0.97231179475784302 0.95284664630889893 0.95451706647872925
