assets/lut/others rotate vibrant.cube
# Created by: G'MIC (https://gmic.eu)
TITLE "rotate_vibrant"
# LUT size
LUT_3D_SIZE 7
# Data domain
DOMAIN_MIN 0.0 0.0 0.0
DOMAIN_MAX 1.0 1.0 1.0
# LUT data points
0.029937729239463806 0.039736445993185043 0.035994064062833786
0.014068768359720707 0.11677805334329605 0.16610674560070038
0.00050892547005787492 0.23448625206947327 0.29400932788848877
0.0016499238554388285 0.34229245781898499 0.42084798216819763
0.00094028544845059514 0.49645155668258667 0.55948036909103394
0 0.6263694167137146 0.68498224020004272
0.014554984867572784 0.74219310283660889 0.80753463506698608
0.022987350821495056 0.061987843364477158 0.099947251379489899
0.156694695353508 0.1357942521572113 0.048029415309429169
0.25145098567008972 0.025423221290111542 0.26257318258285522
0.15821380913257599 0.019625525921583176 0.44163161516189575
0.061511483043432236 0.068642333149909973 0.57986688613891602
0.01658712700009346 0.17101012170314789 0.71023619174957275
0.026708684861660004 0.31843170523643494 0.83281528949737549
0.0076191024854779243 0.15483841300010681 0.18582908809185028
0.043020017445087433 0.26505744457244873 0.046138238161802292
0.32300582528114319 0.28992897272109985 0.043762102723121643
0.46107223629951477 0.037892449647188187 0.18308059871196747
0.53421491384506226 0.022109372541308403 0.53590667247772217
0.45972609519958496 0.020030122250318527 0.73170185089111328
0.28163829445838928 0.044347472488880157 0.85588157176971436
0.0061976863071322441 0.22874270379543304 0.25084033608436584
0.011841688305139542 0.33174535632133484 0.12187156081199646
0.1580871194601059 0.41598808765411377 0.02566223219037056
0.47446563839912415 0.43915316462516785 0.04742412269115448
0.62436026334762573 0.084270969033241272 0.10282302647829056
0.74291998147964478 0.028006056323647499 0.48687553405761719
0.81746625900268555 0.028693689033389091 0.84837031364440918
0.0041150711476802826 0.31460806727409363 0.32890617847442627
0.0068315542303025723 0.41524603962898254 0.20603597164154053
0.054291099309921265 0.49633419513702393 0.046172376722097397
0.2997623085975647 0.56685709953308105 0.032377775758504868
0.61685246229171753 0.57239425182342529 0.044426668435335159
0.77508425712585449 0.20575131475925446 0.053586803376674652
0.90724897384643555 0.038095735013484955 0.3224504292011261
0.0041219075210392475 0.38437560200691223 0.40562617778778076
0.0081034945324063301 0.47992134094238281 0.31094694137573242
0.032782118767499924 0.56657570600509644 0.16322964429855347
0.1317678689956665 0.64498811960220337 0.022202091291546822
0.45264557003974915 0.71485775709152222 0.034484848380088806
0.77480512857437134 0.72916758060455322 0.039201490581035614
0.9283866286277771 0.32356053590774536 0.044605538249015808
0.0063598784618079662 0.45880722999572754 0.47742614150047302
0.017887040972709656 0.56559240818023682 0.38714492321014404
0.025436775758862495 0.63421130180358887 0.23675590753555298
0.044896382838487625 0.71410322189331055 0.05326080322265625
0.29161688685417175 0.79667055606842041 0.039471421390771866
0.60378873348236084 0.87293189764022827 0.035248775035142899
0.93576610088348389 0.89969712495803833 0.037630792707204819
0.049928657710552216 0.17932303249835968 0.14798764884471893
0.019241198897361755 0.14838963747024536 0.15284958481788635
0.0052785389125347137 0.25731161236763 0.27952754497528076
0.0019965677056461573 0.37600970268249512 0.38782179355621338
0.0035436891485005617 0.51526558399200439 0.52174103260040283
0.0074376272968947887 0.63355916738510132 0.63884168863296509
0.031603958457708359 0.74899840354919434 0.7565385103225708
0.15594644844532013 0.13568918406963348 0.086242273449897766
0.12431381642818451 0.1621660590171814 0.19231955707073212
0.045120958238840103 0.22256134450435638 0.30927425622940063
0.013411607593297958 0.37160083651542664 0.43923503160476685
0.015469704754650593 0.50328129529953003 0.57573527097702026
0.051969088613986969 0.62388783693313599 0.70196497440338135
0.13740777969360352 0.76298373937606812 0.82925260066986084
0.22126056253910065 0.044586524367332458 0.21753498911857605
0.055333573371171951 0.19957470893859863 0.21784795820713043
0.30867922306060791 0.26755306124687195 0.17997916042804718
0.35849642753601074 0.10122444480657578 0.38001924753189087
0.23934300243854523 0.10698999464511871 0.58075034618377686
0.18318922817707062 0.15200541913509369 0.72903060913085938
0.17181318998336792 0.30587702989578247 0.8502010703086853
0.14094337821006775 0.05009886622428894 0.33827051520347595
0.028443131595849991 0.2890172004699707 0.31056949496269226
0.13798795640468597 0.41263613104820251 0.13231518864631653
0.45696669816970825 0.41813996434211731 0.1781378835439682
0.60863298177719116 0.14300140738487244 0.31076067686080933
0.67893266677856445 0.12915495038032532 0.70089411735534668
0.582405686378479 0.16915857791900635 0.87453806400299072
0.070961862802505493 0.10083429515361786 0.41851866245269775
0.012726383283734322 0.35380509495735168 0.37107104063034058
0.07458968460559845 0.48761570453643799 0.22161082923412323
0.26522406935691833 0.56262326240539551 0.13381296396255493
0.6109999418258667 0.59409350156784058 0.17779681086540222
0.77000331878662109 0.21752968430519104 0.23581638932228088
0.89851862192153931 0.1848578155040741 0.60383778810501099
0.031534634530544281 0.12814027070999146 0.48970678448677063
0.025199141353368759 0.411386638879776 0.4389897882938385
0.080557815730571747 0.56542325019836426 0.32312768697738647
0.13642300665378571 0.64415252208709717 0.13880036771297455
0.451719731092453 0.71072399616241455 0.16156433522701263
0.77732664346694946 0.73221993446350098 0.1844402402639389
0.92836511135101318 0.35630854964256287 0.18852801620960236
0.02801157720386982 0.19701404869556427 0.55553817749023438
0.055361922830343246 0.50601434707641602 0.52470672130584717
0.11061633378267288 0.63531243801116943 0.42589399218559265
0.13770924508571625 0.7149849534034729 0.24852417409420013
0.29391926527023315 0.79518383741378784 0.15951363742351532
0.63885301351547241 0.86854034662246704 0.17152933776378632
0.94036507606506348 0.9074474573135376 0.18551884591579437
0.10365832597017288 0.34207773208618164 0.333974689245224
0.057314809411764145 0.29021242260932922 0.28766420483589172
0.010663021355867386 0.24625465273857117 0.24664968252182007
0.0033726261463016272 0.35218015313148499 0.3469068706035614
0.0089304903522133827 0.49326002597808838 0.49104794859886169
0.020339008420705795 0.63368505239486694 0.63805758953094482
0.02350413054227829 0.74477267265319824 0.74415546655654907
0.12113100290298462 0.33912429213523865 0.12240489572286606
0.18355061113834381 0.33109712600708008 0.31416290998458862
0.037718337029218674 0.29152855277061462 0.29530024528503418
0.020944572985172272 0.39819180965423584 0.40680387616157532
0.017278933897614479 0.53499466180801392 0.53977316617965698
0.078198373317718506 0.66706472635269165 0.67712682485580444
0.14979457855224609 0.79366070032119751 0.80306369066238403
0.31740051507949829 0.27829810976982117 0.10526573657989502
0.3254968523979187 0.2851259708404541 0.23239070177078247
0.31054285168647766 0.32861298322677612 0.33549749851226807
0.21000775694847107 0.36926108598709106 0.46155571937561035
0.19008736312389374 0.49289324879646301 0.5967947244644165
0.23205727338790894 0.64411139488220215 0.72620803117752075
0.28728193044662476 0.77399057149887085 0.85406208038330078
0.40378507971763611 0.09614090621471405 0.21551142632961273
0.3665320873260498 0.13067424297332764 0.36228978633880615
0.25183966755867004 0.35568064451217651 0.38498073816299438
0.45088121294975281 0.43224805593490601 0.34480553865432739
0.54947030544281006 0.28449434041976929 0.56530606746673584
0.43320760130882263 0.30886766314506531 0.74750721454620361
0.3774745762348175 0.40262362360954285 0.87735480070114136
0.43944826722145081 0.0658082515001297 0.45290324091911316
0.22674046456813812 0.10517159104347229 0.48696252703666687
0.21387237310409546 0.42972254753112793 0.46522355079650879
0.30284291505813599 0.56215822696685791 0.30369812250137329
0.61874747276306152 0.5786014199256897 0.334075927734375
0.77457588911056519 0.32856619358062744 0.47634848952293396
0.85911011695861816 0.33150717616081238 0.83583205938339233
0.36905139684677124 0.064312607049942017 0.5714835524559021
0.14171366393566132 0.16060896217823029 0.56357383728027344
0.20786914229393005 0.50890684127807617 0.53294217586517334
0.28272309899330139 0.63895934820175171 0.39824482798576355
0.46574017405509949 0.71461671590805054 0.31029698252677917
0.77711784839630127 0.74418538808822632 0.34647706151008606
0.92882347106933594 0.40374726057052612 0.41605818271636963
0.26631829142570496 0.070716798305511475 0.64476579427719116
0.14871695637702942 0.26502272486686707 0.63206702470779419
0.21914812922477722 0.56854045391082764 0.59583693742752075
0.29131254553794861 0.70613318681716919 0.49634835124015808
0.36694508790969849 0.79345518350601196 0.35564449429512024
0.64037996530532837 0.86815053224563599 0.32752615213394165
0.93327558040618896 0.8898804783821106 0.3412635326385498
0.11254563927650452 0.48831209540367126 0.4347350001335144
0.088865749537944794 0.43512913584709167 0.43377396464347839
0.039639148861169815 0.3699231743812561 0.37163609266281128
0.0071249720640480518 0.32834267616271973 0.32380008697509766
0.0057001300156116486 0.45197319984436035 0.44869726896286011
0.015410180203616619 0.58455079793930054 0.58597457408905029
0.028831258416175842 0.70155036449432373 0.70388144254684448
0.13746488094329834 0.49786669015884399 0.2583739161491394
0.22666129469871521 0.48191800713539124 0.45060646533966064
0.12181311100721359 0.43184691667556763 0.42864769697189331
0.035975556820631027 0.41315844655036926 0.41456010937690735
0.030043821781873703 0.50242596864700317 0.5041927695274353
0.077460542321205139 0.6309320330619812 0.63434934616088867
0.13437338173389435 0.74734961986541748 0.7538447380065918
0.25059753656387329 0.48294791579246521 0.14876186847686768
0.28737825155258179 0.48572027683258057 0.29992467164993286
0.32199674844741821 0.48262518644332886 0.44349744915962219
0.21769073605537415 0.44327041506767273 0.44678708910942078
0.20850455760955811 0.54660189151763916 0.56184995174407959
0.24534165859222412 0.66495609283447266 0.69723039865493774
0.30239978432655334 0.81115555763244629 0.82187801599502563
0.46976357698440552 0.45421686768531799 0.14339418709278107
0.46303597092628479 0.42372027039527893 0.24566829204559326
0.47067698836326599 0.43755292892456055 0.38385313749313354
0.44565817713737488 0.48691755533218384 0.50385934114456177
0.4216352105140686 0.5699189305305481 0.6202501654624939
0.41780427098274231 0.68901413679122925 0.75085669755935669
0.45744505524635315 0.80180376768112183 0.87789297103881836
0.56777817010879517 0.1614125669002533 0.17366035282611847
0.55896604061126709 0.2028958648443222 0.3337700366973877
0.50532388687133789 0.32024064660072327 0.52677106857299805
0.44446626305580139 0.529765784740448 0.54313665628433228
0.61816608905792236 0.60475724935531616 0.51102888584136963
0.73056447505950928 0.47104513645172119 0.71291887760162354
0.66466134786605835 0.49606075882911682 0.89918035268783569
0.62219822406768799 0.098610237240791321 0.45298969745635986
0.58311694860458374 0.16953423619270325 0.60715866088867188
0.42962658405303955 0.31393519043922424 0.64318323135375977
0.40833586454391479 0.60132455825805664 0.6124722957611084
0.49406656622886658 0.71695399284362793 0.48326563835144043
0.77431905269622803 0.73431128263473511 0.4908408522605896
0.92195117473602295 0.51748514175415039 0.63872611522674561
0.6778939962387085 0.089474953711032867 0.68026232719421387
0.48895007371902466 0.17386378347873688 0.7080085277557373
0.36713376641273499 0.36354866623878479 0.71911770105361938
0.40625572204589844 0.65012127161026001 0.67488092184066772
0.46571150422096252 0.78554528951644897 0.56004363298416138
0.62749236822128296 0.8707464337348938 0.47836178541183472
0.93678539991378784 0.90190845727920532 0.4980626106262207
0.14448529481887817 0.64246606826782227 0.61055940389633179
0.13463115692138672 0.59835010766983032 0.59704893827438354
0.086067810654640198 0.53550511598587036 0.53618967533111572
0.045842204242944717 0.46974265575408936 0.46848002076148987
0.007343935314565897 0.42053326964378357 0.42255029082298279
0.0083692660555243492 0.53694713115692139 0.53669744729995728
0.024030124768614769 0.65976852178573608 0.66001421213150024
0.17538782954216003 0.64746195077896118 0.42731395363807678
0.25196933746337891 0.63901805877685547 0.60494762659072876
0.18002030253410339 0.58504122495651245 0.58523643016815186
0.10480337589979172 0.52618926763534546 0.52962100505828857
0.029554644599556923 0.46261200308799744 0.46405014395713806
0.056487198919057846 0.58252602815628052 0.58427339792251587
0.10409417003393173 0.71376806497573853 0.71386927366256714
0.18706038594245911 0.65372246503829956 0.19151924550533295
0.28194186091423035 0.6484607458114624 0.40302053093910217
0.37584379315376282 0.64853084087371826 0.61611306667327881
0.29821538925170898 0.59880059957504272 0.59836035966873169
0.19741091132164001 0.5489993691444397 0.55437654256820679
0.22987523674964905 0.65427935123443604 0.66312617063522339
0.2890663743019104 0.78471660614013672 0.78344565629959106
0.4042201042175293 0.64823013544082642 0.17000760138034821
0.40599292516708374 0.64325088262557983 0.28798589110374451
0.44618776440620422 0.64423644542694092 0.44112175703048706
0.49104273319244385 0.64656263589859009 0.61266535520553589
0.39751994609832764 0.59548825025558472 0.59630554914474487
0.41411951184272766 0.70228475332260132 0.71610528230667114
0.46388137340545654 0.83945190906524658 0.84430480003356934
0.6235586404800415 0.60095423460006714 0.16370727121829987
0.62867075204849243 0.5894935131072998 0.27377688884735107
0.63363009691238403 0.60486376285552979 0.4016299843788147
0.63571858406066895 0.60947126150131226 0.5438573956489563
0.63299566507339478 0.64226323366165161 0.63956987857818604
0.61191779375076294 0.72998130321502686 0.77092760801315308
0.6209830641746521 0.83942973613739014 0.89950311183929443
0.72221308946609497 0.26637059450149536 0.16342110931873322
0.72135663032531738 0.28094658255577087 0.28960117697715759
0.71799302101135254 0.38189667463302612 0.49392345547676086
0.6853603720664978 0.50166100263595581 0.66915434598922729
0.61109381914138794 0.66498112678527832 0.68902081251144409
0.78370946645736694 0.75768733024597168 0.66357612609863281
0.87986278533935547 0.65317732095718384 0.87478852272033691
0.79404735565185547 0.13135911524295807 0.35564109683036804
0.79228800535202026 0.23074200749397278 0.56774806976318359
0.74970394372940063 0.36749160289764404 0.75602865219116211
0.60278600454330444 0.50507718324661255 0.79271286725997925
0.59553277492523193 0.72832614183425903 0.76338487863540649
0.67273283004760742 0.86856383085250854 0.6599918007850647
0.94194269180297852 0.89660125970840454 0.65713620185852051
0.18167625367641449 0.79275929927825928 0.76314383745193481
0.15360827744007111 0.74795949459075928 0.741954505443573
0.11665770411491394 0.69285863637924194 0.69107139110565186
0.081575818359851837 0.62092477083206177 0.62171393632888794
0.037927918136119843 0.55859875679016113 0.56069958209991455
0.0093881646171212196 0.52110046148300171 0.51942998170852661
0.023340128362178802 0.62296348810195923 0.62355875968933105
0.19542282819747925 0.80376565456390381 0.5473029613494873
0.28910151124000549 0.79642403125762939 0.76508718729019165
0.23224176466464996 0.74270975589752197 0.74346983432769775
0.1764538437128067 0.68287545442581177 0.68586283922195435
0.097280792891979218 0.61325466632843018 0.61389988660812378
0.030740281566977501 0.55811828374862671 0.55545032024383545
0.074411593377590179 0.65077775716781616 0.65358924865722656
0.19696807861328125 0.80735832452774048 0.30701535940170288
0.31606391072273254 0.81339782476425171 0.57220447063446045
0.40229275822639465 0.80356854200363159 0.76341992616653442
0.35227406024932861 0.74931395053863525 0.74956643581390381
0.2638745903968811 0.68381226062774658 0.68561702966690063
0.18553715944290161 0.61240881681442261 0.61162954568862915
0.26818457245826721 0.74159449338912964 0.74156373739242554
0.31752216815948486 0.80590415000915527 0.21311277151107788
0.36167147755622864 0.79638713598251343 0.35143700242042542
0.442679762840271 0.79552823305130005 0.54945451021194458
0.5247795581817627 0.80028438568115234 0.76814156770706177
0.45562982559204102 0.74422109127044678 0.74056816101074219
0.3892175555229187 0.68824231624603271 0.68747293949127197
0.44114288687705994 0.80178213119506836 0.8044058084487915
0.55505937337875366 0.79522955417633057 0.21884869039058685
0.5533440113067627 0.795246422290802 0.3219294548034668
0.56462973356246948 0.79393452405929565 0.44591549038887024
0.59159135818481445 0.8053276538848877 0.60839289426803589
0.65640604496002197 0.80293399095535278 0.77453994750976562
0.59675544500350952 0.75001657009124756 0.74900519847869873
0.60530811548233032 0.83420735597610474 0.8356248140335083
0.77870500087738037 0.72958910465240479 0.19530901312828064
0.77808010578155518 0.75943470001220703 0.30817204713821411
0.77096986770629883 0.73439377546310425 0.43646001815795898
0.77425432205200195 0.7536853551864624 0.55792194604873657
0.77705693244934082 0.765056312084198 0.69526249170303345
0.78320521116256714 0.80104470252990723 0.79896599054336548
0.79218995571136475 0.88299655914306641 0.92215371131896973
0.87419849634170532 0.42028295993804932 0.18151319026947021
0.87254446744918823 0.4126603901386261 0.29039797186851501
0.87287032604217529 0.4824715256690979 0.46213385462760925
0.8688281774520874 0.56117230653762817 0.66356825828552246
0.83214807510375977 0.67580652236938477 0.83381903171539307
0.79892373085021973 0.85032778978347778 0.85190033912658691
0.94251817464828491 0.91808891296386719 0.81610846519470215
0.21562068164348602 0.94762986898422241 0.92127507925033569
0.19186477363109589 0.8945692777633667 0.88745349645614624
0.14652484655380249 0.82016760110855103 0.81605112552642822
0.10224872827529907 0.7559809684753418 0.75791901350021362
0.065945401787757874 0.70976334810256958 0.7154424786567688
0.041703976690769196 0.65709555149078369 0.65474444627761841
0.011299537494778633 0.59823662042617798 0.59592270851135254
0.22345355153083801 0.93082207441329956 0.69091576337814331
0.31954652070999146 0.94602906703948975 0.91229623556137085
0.29763743281364441 0.89790910482406616 0.89439421892166138
0.23092883825302124 0.83256399631500244 0.83702611923217773
0.18697430193424225 0.76619553565979004 0.77260476350784302
0.12994174659252167 0.7053343653678894 0.71080905199050903
0.060386013239622116 0.63627064228057861 0.63462942838668823
0.22741836309432983 0.93929845094680786 0.45463120937347412
0.34135442972183228 0.95283269882202148 0.70135176181793213
0.43896585702896118 0.94133961200714111 0.91407442092895508
0.41374313831329346 0.8854488730430603 0.88735318183898926
0.36138814687728882 0.82922440767288208 0.83373302221298218
0.30612212419509888 0.77359658479690552 0.77453899383544922
0.21658487617969513 0.68102848529815674 0.68159669637680054
0.25582048296928406 0.9450727105140686 0.25109055638313293
0.36448347568511963 0.92947888374328613 0.47922924160957336
0.47188454866409302 0.95401096343994141 0.71143501996994019
0.56814533472061157 0.94499129056930542 0.91164320707321167
0.52492409944534302 0.88343155384063721 0.88282614946365356
0.47238516807556152 0.82734465599060059 0.8280072808265686
0.40770673751831055 0.74972504377365112 0.74764019250869751
0.4816032350063324 0.93431305885314941 0.23691536486148834
0.46607169508934021 0.94209331274032593 0.3500467836856842
0.49233776330947876 0.94840151071548462 0.49170729517936707
0.59330081939697266 0.93281179666519165 0.68873536586761475
0.68352276086807251 0.94400221109390259 0.90925192832946777
0.64071917533874512 0.8708488941192627 0.86718308925628662
0.59393143653869629 0.81675368547439575 0.81469607353210449
0.71943491697311401 0.94667768478393555 0.2236897349357605
0.71660721302032471 0.93880707025527954 0.34798085689544678
0.70274651050567627 0.94813376665115356 0.47211167216300964
0.71143454313278198 0.94911020994186401 0.5900644063949585
0.74680477380752563 0.94674414396286011 0.74773544073104858
0.79676705598831177 0.93480616807937622 0.89074951410293579
0.7825014591217041 0.90183812379837036 0.90063834190368652
0.94115108251571655 0.90135866403579712 0.21915386617183685
0.94670194387435913 0.91269123554229736 0.34482577443122864
0.93908804655075073 0.90928548574447632 0.45560511946678162
0.92768752574920654 0.89096564054489136 0.5878480076789856
0.93606859445571899 0.90957653522491455 0.71068179607391357
0.93785387277603149 0.9152570366859436 0.85035854578018188
0.96352869272232056 0.94841605424880981 0.95297008752822876
