assets/lut/others warm yellow.cube
# Created by: G'MIC (https://gmic.eu)
TITLE "warm_yellow"
# LUT size
LUT_3D_SIZE 13
# Data domain
DOMAIN_MIN 0.0 0.0 0.0
DOMAIN_MAX 1.0 1.0 1.0
# LUT data points
0.088170640170574188 0.024975450709462166 0.01190662756562233
0.19742044806480408 0.020171431824564934 0.010532887652516365
0.31524580717086792 0.011115564033389091 0.0061738109216094017
0.42127540707588196 0.01033319253474474 0.0063355537131428719
0.52947193384170532 0.0068926792591810226 0.0040755928494036198
0.61878353357315063 0.0043727802112698555 0.0010741888545453548
0.68894112110137939 0.0072085661813616753 0.0035964068956673145
0.75718849897384644 0.0071785422042012215 0.0039215688593685627
0.82057595252990723 0.004983849823474884 0.0037214541807770729
0.87195247411727905 0.0097991498187184334 0.0050323484465479851
0.9137611985206604 0.015595454722642899 0.010331411845982075
0.9477730393409729 0.014868029393255711 0.010228130966424942
0.98059368133544922 0.0090432111173868179 0.0071548759005963802
0.11597409844398499 0.069519698619842529 0.015542468056082726
0.20688794553279877 0.066641971468925476 0.013755139894783497
0.31948500871658325 0.060540053993463516 0.010329317301511765
0.42715638875961304 0.048582624644041061 0.00527191162109375
0.53108042478561401 0.043954648077487946 0.0025413811672478914
0.62175697088241577 0.039563767611980438 0.00054653390543535352
0.69600498676300049 0.031157609075307846 0.003610020037740469
0.76288557052612305 0.029083596542477608 0.0035309137310832739
0.82454478740692139 0.028583856299519539 0.0015595080330967903
0.87250500917434692 0.04250609502196312 0.0022039525210857391
0.91321343183517456 0.049964681267738342 0.0045828279107809067
0.94781094789505005 0.04641907662153244 0.0048798057250678539
0.98010575771331787 0.035448141396045685 0.001910729450173676
0.179718017578125 0.12967070937156677 0.031137144193053246
0.22420118749141693 0.13000267744064331 0.018205201253294945
0.32521489262580872 0.12584342062473297 0.013796099461615086
0.43315356969833374 0.11530447751283646 0.0061767878942191601
0.5329364538192749 0.11217223852872849 0.0027959337458014488
0.6246989369392395 0.10971440374851227 0.0016502978978678584
0.70118945837020874 0.10348021239042282 0.00092502665938809514
0.76805591583251953 0.10087180137634277 0.00042160632438026369
0.82335454225540161 0.097890459001064301 1.8669577912078239e-05
0.87157994508743286 0.10468470305204391 0.00041369270184077322
0.91168057918548584 0.10486599802970886 0.001454461831599474
0.9496079683303833 0.10297699272632599 0.0020378411281853914
0.97804892063140869 0.097174674272537231 0.00034269446041435003
0.22811855375766754 0.21533569693565369 0.045552738010883331
0.2550874650478363 0.2154289186000824 0.027028551325201988
0.33205321431159973 0.21756944060325623 0.016514990478754044
0.43697431683540344 0.21804450452327728 0.011747278273105621
0.53447669744491577 0.21194528043270111 0.0051702014170587063
0.62554734945297241 0.19965803623199463 0.0011671925894916058
0.70505273342132568 0.19042089581489563 0.00017359116463921964
0.77069473266601562 0.18178945779800415 0
0.82319831848144531 0.17848590016365051 0
0.87159675359725952 0.18380919098854065 1.6156365063579869e-06
0.9112744927406311 0.1787746399641037 6.4804975409060717e-05
0.94942444562911987 0.17583343386650085 1.9926183085772209e-05
0.97883796691894531 0.172157883644104 0
0.28399986028671265 0.32292979955673218 0.066049687564373016
0.30397289991378784 0.32347986102104187 0.043564110994338989
0.35017508268356323 0.32487624883651733 0.023136138916015625
0.44109392166137695 0.32684195041656494 0.015843275934457779
0.534373939037323 0.32484567165374756 0.0049912096001207829
0.62182462215423584 0.31353938579559326 0.00029762118356302381
0.70323324203491211 0.29718533158302307 0
0.7688937783241272 0.29060733318328857 8.6526306404266506e-05
0.8256104588508606 0.28590202331542969 3.0158547815517522e-05
0.87264531850814819 0.28303450345993042 0
0.9112744927406311 0.27853843569755554 0
0.94792360067367554 0.27918031811714172 0
0.9801909327507019 0.27486720681190491 0
0.34350681304931641 0.44823285937309265 0.089741863310337067
0.36079850792884827 0.44836592674255371 0.066046468913555145
0.38548010587692261 0.44681459665298462 0.037112530320882797
0.45001444220542908 0.44730797410011292 0.022615006193518639
0.53608584403991699 0.44826292991638184 0.011142012663185596
0.62284034490585327 0.43699458241462708 0.0029151467606425285
0.70433664321899414 0.42554616928100586 0.0002525778254494071
0.76622176170349121 0.42209106683731079 0.00016551298904232681
0.82410955429077148 0.41510644555091858 0.00019154268375132233
0.87256532907485962 0.40268063545227051 0
0.91141200065612793 0.39934152364730835 0
0.94874614477157593 0.40306439995765686 0
0.97641962766647339 0.39420166611671448 0
0.40643787384033203 0.56944286823272705 0.11968014389276505
0.41388663649559021 0.57164978981018066 0.091713160276412964
0.42457669973373413 0.57439416646957397 0.055746626108884811
0.46971717476844788 0.57291638851165771 0.032619372010231018
0.54320114850997925 0.57115703821182251 0.020828919485211372
0.62304455041885376 0.56380778551101685 0.0077262730337679386
0.70352107286453247 0.55927926301956177 0.0026036130730062723
0.76880621910095215 0.55944019556045532 0.00017167633632197976
0.82537531852722168 0.54672747850418091 0.00019369686197023839
0.87188196182250977 0.5337904691696167 0
0.91431695222854614 0.53430187702178955 0
0.95072650909423828 0.5351073145866394 0
0.97911137342453003 0.53023242950439453 0
0.46585339307785034 0.68683016300201416 0.15093575417995453
0.46167460083961487 0.68800044059753418 0.11524961888790131
0.46957379579544067 0.6882864236831665 0.077619053423404694
0.49730399250984192 0.68756556510925293 0.045883089303970337
0.55121368169784546 0.68836361169815063 0.02413564920425415
0.62092715501785278 0.68771427869796753 0.0099782608449459076
0.70085573196411133 0.687613844871521 0.0043571623973548412
0.76948642730712891 0.68455499410629272 0.00097177544375881553
0.82593512535095215 0.67312008142471313 0.00019348743080627173
0.87350928783416748 0.66411483287811279 0
0.91498476266860962 0.66303187608718872 0
0.95118290185928345 0.65648388862609863 0
0.97970134019851685 0.65714806318283081 0
0.50931334495544434 0.79088896512985229 0.17921043932437897
0.51182675361633301 0.79369783401489258 0.1453917920589447
0.51422035694122314 0.79599833488464355 0.099705733358860016
0.53457647562026978 0.79048645496368408 0.063881024718284607
0.57030594348907471 0.78820860385894775 0.034507453441619873
0.62935823202133179 0.7911953330039978 0.020831583067774773
0.70102465152740479 0.79167425632476807 0.01234874315559864
0.76686924695968628 0.78628337383270264 0.0051175584085285664
0.82406407594680786 0.77839869260787964 0.0015760534442961216
0.87286877632141113 0.77071171998977661 0
0.91360008716583252 0.76549655199050903 0
0.95075249671936035 0.75980466604232788 0
0.97699636220932007 0.75970238447189331 0
0.56941682100296021 0.86561822891235352 0.23211030662059784
0.55659633874893188 0.86775785684585571 0.18109847605228424
0.55265533924102783 0.86860209703445435 0.12455761432647705
0.56951618194580078 0.86372798681259155 0.083594299852848053
0.601723313331604 0.86302536725997925 0.056723397225141525
0.64955013990402222 0.86526036262512207 0.037785235792398453
0.70299029350280762 0.86450254917144775 0.022730883210897446
0.76368886232376099 0.86153310537338257 0.012277102097868919
0.82347828149795532 0.85953962802886963 0.0028753692749887705
0.87125289440155029 0.85395532846450806 0.00016165341367013752
0.91321390867233276 0.84668612480163574 5.385455096984515e-06
0.95102083683013916 0.84359496831893921 0
0.97968840599060059 0.84961378574371338 0
0.59955298900604248 0.91556078195571899 0.27095150947570801
0.59982645511627197 0.91779547929763794 0.21948571503162384
0.59504884481430054 0.91899281740188599 0.15686184167861938
0.60270780324935913 0.91721957921981812 0.1049288883805275
0.62687408924102783 0.91658979654312134 0.070771127939224243
0.66276717185974121 0.91667455434799194 0.04120573028922081
0.71202266216278076 0.91447526216506958 0.029686318710446358
0.7670559287071228 0.9134526252746582 0.019240241497755051
0.8192908763885498 0.91113132238388062 0.0086848242208361626
0.86649209260940552 0.91053712368011475 0.0056614894419908524
0.91089308261871338 0.91188448667526245 0.0030179042369127274
0.95080536603927612 0.91265964508056641 0
0.98060888051986694 0.91197854280471802 0
0.6536065936088562 0.95654070377349854 0.34357661008834839
0.64295083284378052 0.95613789558410645 0.27211698889732361
0.63298726081848145 0.95648330450057983 0.19781647622585297
0.63968968391418457 0.95591217279434204 0.13911725580692291
0.65500575304031372 0.95599204301834106 0.092801623046398163
0.68253511190414429 0.95470422506332397 0.058743733912706375
0.72322678565979004 0.95409637689590454 0.038204193115234375
0.76921004056930542 0.95176231861114502 0.021371578797698021
0.8181384801864624 0.94823437929153442 0.014417221769690514
0.86349111795425415 0.94779425859451294 0.011903829872608185
0.90774518251419067 0.94864821434020996 0.0052373101934790611
0.94743871688842773 0.9488484263420105 0.00011337878822814673
0.9801667332649231 0.94943886995315552 0
0.69507485628128052 0.98241686820983887 0.40394529700279236
0.68033099174499512 0.98375928401947021 0.32377830147743225
0.66899400949478149 0.98013025522232056 0.24292618036270142
0.67223078012466431 0.98107635974884033 0.17241598665714264
0.6872248649597168 0.98340773582458496 0.11603499948978424
0.71089357137680054 0.98104405403137207 0.081209145486354828
0.73933595418930054 0.98023396730422974 0.050648108124732971
0.77369982004165649 0.98124343156814575 0.019614679738879204
0.81762480735778809 0.97920733690261841 0.012389329262077808
0.86135667562484741 0.97784769535064697 0.0097091374918818474
0.90389353036880493 0.97757405042648315 0.0037268246524035931
0.94289112091064453 0.97631663084030151 5.3480558563023806e-05
0.97923660278320312 0.97624266147613525 0
0.11164051294326782 0.034452535212039948 0.039279263466596603
0.20067037642002106 0.028740648180246353 0.03898271918296814
0.31640699505805969 0.020886648446321487 0.037361368536949158
0.42462348937988281 0.016362972557544708 0.033042203634977341
0.53005462884902954 0.0096942232921719551 0.027559168636798859
0.62110477685928345 0.0045278361067175865 0.020456934347748756
0.69507420063018799 0.0079946331679821014 0.014034690335392952
0.76160526275634766 0.007030741311609745 0.012444499880075455
0.82472872734069824 0.0039222869090735912 0.015367619693279266
0.87253201007843018 0.0048020756803452969 0.024105072021484375
0.91345459222793579 0.0095794973894953728 0.031433522701263428
0.94939529895782471 0.0095442682504653931 0.032037578523159027
0.97763419151306152 0.0075298682786524296 0.029397748410701752
0.11502744257450104 0.073354355990886688 0.040302708745002747
0.20773988962173462 0.07133851945400238 0.040436360985040665
0.31740885972976685 0.063683092594146729 0.037173926830291748
0.42734774947166443 0.049828071147203445 0.030070152133703232
0.53058230876922607 0.040967725217342377 0.023675477132201195
0.62300765514373779 0.030294036492705345 0.015090374276041985
0.70344793796539307 0.018032807856798172 0.0070135230198502541
0.76730650663375854 0.016749976202845573 0.006638889666646719
0.82785135507583618 0.01468206662684679 0.0066897221840918064
0.87252271175384521 0.019161224365234375 0.011908841319382191
0.91129040718078613 0.025519456714391708 0.01642424613237381
0.94842535257339478 0.024011274799704552 0.014523554593324661
0.98076248168945312 0.015443390235304832 0.010966955684125423
0.1591426283121109 0.13273774087429047 0.050442282110452652
0.22767244279384613 0.13327786326408386 0.044887062162160873
0.32203453779220581 0.12850314378738403 0.039024055004119873
0.42986074090003967 0.11378707736730576 0.029234359040856361
0.53375709056854248 0.098364017903804779 0.017428409308195114
0.62414360046386719 0.087801747024059296 0.0098434295505285263
0.70320796966552734 0.077520884573459625 0.0051452037878334522
0.76853281259536743 0.069019734859466553 0.0044144126586616039
0.82617801427841187 0.064192540943622589 0.0038462171796709299
0.87230771780014038 0.065086707472801208 0.005527496337890625
0.9112744927406311 0.063006535172462463 0.0058202557265758514
0.94894027709960938 0.058624926954507828 0.0041572120971977711
0.98069959878921509 0.053781174123287201 0.002273499732837081
0.20655037462711334 0.21545733511447906 0.063360489904880524
0.26953920722007751 0.21811570227146149 0.059478070586919785
0.34067219495773315 0.21859592199325562 0.048344630748033524
0.4328095018863678 0.21255631744861603 0.034291781485080719
0.53444361686706543 0.19452710449695587 0.016397872939705849
0.62439382076263428 0.1723296195268631 0.0079795839264988899
0.70404958724975586 0.15602777898311615 0.0046283346600830555
0.76882100105285645 0.14190202951431274 0.003205467713996768
0.82743000984191895 0.12897542119026184 0.00045922971912659705
0.87255090475082397 0.12741947174072266 0.0012554841814562678
0.91144347190856934 0.12417900562286377 0.0021811542101204395
0.94811534881591797 0.12074776738882065 0.00064691284205764532
0.98064309358596802 0.11313041299581528 7.7984383096918464e-05
0.27121195197105408 0.32653826475143433 0.087819330394268036
0.33150923252105713 0.32602900266647339 0.084497995674610138
0.37709575891494751 0.32414913177490234 0.063618920743465424
0.43983602523803711 0.32332104444503784 0.039018802344799042
0.53473085165023804 0.31633689999580383 0.016101447865366936
0.62283951044082642 0.29547712206840515 0.0077798282727599144
0.7056649923324585 0.26335078477859497 0.0035211450885981321
0.76824355125427246 0.24552036821842194 0.0033788045402616262
0.82787233591079712 0.2273600697517395 0.00097862689290195704
0.87269735336303711 0.21933571994304657 0
0.91189908981323242 0.21638073027133942 0
0.94763040542602539 0.21123287081718445 0
0.98003941774368286 0.2026953250169754 0
0.33436331152915955 0.44965815544128418 0.11330541223287582
0.39652284979820251 0.4462202787399292 0.11284677684307098
0.42412897944450378 0.44380426406860352 0.087504006922245026
0.45952281355857849 0.44850558042526245 0.056005902588367462
0.53594458103179932 0.4461025595664978 0.030829247087240219
0.62572562694549561 0.43680435419082642 0.012717811390757561
0.70475190877914429 0.41287797689437866 0.0058655533939599991
0.76738840341567993 0.38714006543159485 0.0044751185923814774
0.82732313871383667 0.35875347256660461 0.0024112327955663204
0.87266474962234497 0.34270060062408447 0.00077933515422046185
0.91300094127655029 0.33812454342842102 0.00018771302711684257
0.94874566793441772 0.33046963810920715 0
0.9799538254737854 0.31667038798332214 0
0.39254286885261536 0.57293415069580078 0.14243407547473907
0.44791632890701294 0.5699535608291626 0.14461459219455719
0.46915492415428162 0.56998956203460693 0.11691614985466003
0.49258637428283691 0.57499450445175171 0.077315323054790497
0.5482172966003418 0.57544445991516113 0.047477409243583679
0.62742763757705688 0.56536352634429932 0.027027849107980728
0.70448416471481323 0.56363224983215332 0.0099906027317047119
0.76945149898529053 0.54782384634017944 0.0034259872045367956
0.82538563013076782 0.51342278718948364 0.0047761206515133381
0.87264662981033325 0.48869767785072327 0.0033650416880846024
0.91476523876190186 0.47752302885055542 0.0017148186452686787
0.94986003637313843 0.46318411827087402 1.0860667316592298e-05
0.97790038585662842 0.45185229182243347 0
0.44606980681419373 0.68991565704345703 0.17647683620452881
0.50142252445220947 0.68883126974105835 0.18079856038093567
0.52118301391601562 0.68963044881820679 0.14968593418598175
0.53150302171707153 0.69245713949203491 0.10223553329706192
0.56335699558258057 0.69393616914749146 0.063374310731887817
0.62535238265991211 0.68856483697891235 0.035111892968416214
0.70077800750732422 0.69157737493515015 0.016179237514734268
0.76864171028137207 0.68598431348800659 0.0057380674406886101
0.82462263107299805 0.66134428977966309 0.005534482654184103
0.87304723262786865 0.63824373483657837 0.0037217084318399429
0.91454684734344482 0.62759929895401001 0.0033564099576324224
0.9497649073600769 0.60489767789840698 0.0010713464580476284
0.97506695985794067 0.59138393402099609 7.7939497714396566e-05
0.50275897979736328 0.79397916793823242 0.22204586863517761
0.5535128116607666 0.79230833053588867 0.22403839230537415
0.56092458963394165 0.79401689767837524 0.18163321912288666
0.56713944673538208 0.79229933023452759 0.12947385013103485
0.5955008864402771 0.79042059183120728 0.089919611811637878
0.63874721527099609 0.79075437784194946 0.051277849823236465
0.69932109117507935 0.79056161642074585 0.025320239365100861
0.76289230585098267 0.78583782911300659 0.013327819295227528
0.82157820463180542 0.77794218063354492 0.0066244537010788918
0.87146270275115967 0.76366841793060303 0.0026761223562061787
0.91129159927368164 0.751426100730896 0.002657273318618536
0.9494280219078064 0.74222868680953979 0.00231908168643713
0.97121995687484741 0.73435240983963013 0.0020452612079679966
0.56033265590667725 0.86863827705383301 0.27587950229644775
0.59817558526992798 0.86662107706069946 0.27562218904495239
0.60345673561096191 0.86478686332702637 0.22501252591609955
0.60393220186233521 0.86219394207000732 0.15842616558074951
0.62248855829238892 0.86281049251556396 0.10976333916187286
0.6600525975227356 0.86554360389709473 0.072314046323299408
0.70433968305587769 0.86703979969024658 0.038041118532419205
0.75799590349197388 0.86330717802047729 0.018866520375013351
0.81320858001708984 0.85901033878326416 0.0046158283948898315
0.86678016185760498 0.85284572839736938 0.0010176115902140737
0.91149359941482544 0.8443724513053894 0.00066668941872194409
0.94921845197677612 0.83362698554992676 0.0022329292260110378
0.97238707542419434 0.8334161639213562 0.0027904885355383158
0.59427511692047119 0.91793161630630493 0.32392364740371704
0.64219945669174194 0.91768169403076172 0.33137992024421692
0.64565551280975342 0.91731202602386475 0.27502045035362244
0.63863682746887207 0.91667360067367554 0.19275997579097748
0.6535760760307312 0.91587680578231812 0.14216861128807068
0.68057107925415039 0.91580688953399658 0.097340017557144165
0.71758425235748291 0.91495132446289062 0.055375762283802032
0.76273888349533081 0.91598343849182129 0.028015900403261185
0.81025999784469604 0.91595381498336792 0.011132004670798779
0.86214905977249146 0.91359108686447144 0.0066573051735758781
0.91026383638381958 0.91265243291854858 0.0040895049460232258
0.94932568073272705 0.90709877014160156 0.00205381796695292
0.97546136379241943 0.90033084154129028 0.0015656864270567894
0.63957887887954712 0.95473712682723999 0.38959392905235291
0.67875093221664429 0.95334464311599731 0.39231178164482117
0.68026679754257202 0.95483458042144775 0.33425953984260559
0.67716878652572632 0.95493370294570923 0.24481880664825439
0.68765568733215332 0.95625865459442139 0.17853808403015137
0.70465391874313354 0.95530420541763306 0.12009347975254059
0.7335084080696106 0.95472836494445801 0.071548089385032654
0.77075779438018799 0.95379245281219482 0.039707034826278687
0.81653141975402832 0.95257216691970825 0.026247689500451088
0.86252784729003906 0.95094704627990723 0.017228204756975174
0.90685462951660156 0.94988977909088135 0.006542594637721777
0.9462011456489563 0.94789022207260132 0.0017135171219706535
0.97926795482635498 0.94574844837188721 9.8733340564649552e-05
0.68152517080307007 0.98311150074005127 0.45657366514205933
0.71606576442718506 0.98324167728424072 0.45977038145065308
0.71655929088592529 0.98360520601272583 0.38836866617202759
0.71137768030166626 0.98343914747238159 0.28736326098442078
0.71461451053619385 0.98145753145217896 0.21151712536811829
0.72679507732391357 0.9797368049621582 0.1440197229385376
0.74697619676589966 0.97770357131958008 0.088503725826740265
0.7800673246383667 0.97668933868408203 0.056792225688695908
0.8196338415145874 0.9779399037361145 0.031814888119697571
0.86098098754882812 0.97959959506988525 0.016868770122528076
0.90197277069091797 0.98060476779937744 0.0037180432118475437
0.94190579652786255 0.97449028491973877 0.00052482757018879056
0.97775745391845703 0.96638381481170654 0
0.14365541934967041 0.047162912786006927 0.080934233963489532
0.21787735819816589 0.03622862696647644 0.080900721251964569
0.32218697667121887 0.028893444687128067 0.078330099582672119
0.42966705560684204 0.021583393216133118 0.073647230863571167
0.53017741441726685 0.012345661409199238 0.068463928997516632
0.62405198812484741 0.0051158084534108639 0.058682579547166824
0.69831866025924683 0.0049761156551539898 0.05177924782037735
0.76167339086532593 0.0049928403459489346 0.050528910011053085
0.82359552383422852 0.0039215688593685627 0.056094855070114136
0.8716200590133667 0.0046348869800567627 0.063436515629291534
0.91204619407653809 0.005968011450022459 0.064421683549880981
0.95075196027755737 0.003330170875415206 0.063001267611980438
0.97502022981643677 0.0027263567317277193 0.064019039273262024
0.13973574340343475 0.084678962826728821 0.080186031758785248
0.22254249453544617 0.080903641879558563 0.083426244556903839
0.32407337427139282 0.073037438094615936 0.079964250326156616
0.43023774027824402 0.056423112750053406 0.072557352483272552
0.52940124273300171 0.046246442943811417 0.06488451361656189
0.62336462736129761 0.033724062144756317 0.053910333663225174
0.70300650596618652 0.019275350496172905 0.044797591865062714
0.76531082391738892 0.012863487936556339 0.037840764969587326
0.82256060838699341 0.0075986823067069054 0.033328577876091003
0.86912041902542114 0.014502087607979774 0.040208164602518082
0.9112744927406311 0.015100306831300259 0.041131831705570221
0.94922930002212524 0.007281837984919548 0.03601696714758873
0.97888952493667603 0.0030459982808679342 0.034535996615886688
0.13787083327770233 0.13452750444412231 0.079953841865062714
0.23131431639194489 0.13690431416034698 0.083159476518630981
0.32640084624290466 0.13301791250705719 0.080176167190074921
0.43111276626586914 0.11632802337408066 0.071311846375465393
0.53323221206665039 0.098543755710124969 0.059514559805393219
0.62265974283218384 0.08514876663684845 0.048710454255342484
0.70300173759460449 0.068053901195526123 0.037515077739953995
0.7662164568901062 0.055597372353076935 0.029460936784744263
0.82386434078216553 0.043943829834461212 0.022501477971673012
0.86911875009536743 0.03981265053153038 0.019918225705623627
0.91105532646179199 0.033221285790205002 0.018237333744764328
0.9490852952003479 0.018628932535648346 0.010993239469826221
0.98066931962966919 0.015207342803478241 0.0081839766353368759
0.17891937494277954 0.21462550759315491 0.089824482798576355
0.26780736446380615 0.21771207451820374 0.095440462231636047
0.35430619120597839 0.2169715017080307 0.091594666242599487
0.43590855598449707 0.20825293660163879 0.075118154287338257
0.53360205888748169 0.19233284890651703 0.056974973529577255
0.62310206890106201 0.16598784923553467 0.043967332690954208
0.70411837100982666 0.14193281531333923 0.034647878259420395
0.76777368783950806 0.12326039373874664 0.027162184938788414
0.82802242040634155 0.10131996124982834 0.019127834588289261
0.87200462818145752 0.08959612250328064 0.012451246380805969
0.91221445798873901 0.080014213919639587 0.0090051833540201187
0.94856274127960205 0.071796104311943054 0.0057036308571696281
0.97892957925796509 0.064439304172992706 0.0029305850621312857
0.23856861889362335 0.3260912299156189 0.11180318146944046
0.32453092932701111 0.32363995909690857 0.118346206843853
0.40658816695213318 0.32218900322914124 0.11793452501296997
0.45474833250045776 0.32095041871070862 0.088628433644771576
0.53622704744338989 0.31455716490745544 0.056802172213792801
0.62273174524307251 0.2912447452545166 0.042548220604658127
0.7021520733833313 0.25474649667739868 0.035217702388763428
0.76599538326263428 0.22294999659061432 0.025117596611380577
0.82932919263839722 0.19321852922439575 0.016726071015000343
0.87491583824157715 0.17370843887329102 0.011016471311450005
