assets/lut/others faded vivid.cube
# Created by: G'MIC (https://gmic.eu)
TITLE "faded_vivid"
# LUT size
LUT_3D_SIZE 13
# Data domain
DOMAIN_MIN 0.0 0.0 0.0
DOMAIN_MAX 1.0 1.0 1.0
# LUT data points
0.069671303033828735 0.06051165983080864 0.15601706504821777
0.085297591984272003 0.058349519968032837 0.15513843297958374
0.10345614701509476 0.057133842259645462 0.15549883246421814
0.1576194167137146 0.059847678989171982 0.15403357148170471
0.2433968186378479 0.061490841209888458 0.15421934425830841
0.34232696890830994 0.061467308551073074 0.15621289610862732
0.44388309121131897 0.059484638273715973 0.1560291200876236
0.54117262363433838 0.055212538689374924 0.15313234925270081
0.63033276796340942 0.057518050074577332 0.15520741045475006
0.70931404829025269 0.063842996954917908 0.15986162424087524
0.77764546871185303 0.062375657260417938 0.15916287899017334
0.83682841062545776 0.059033263474702835 0.15680018067359924
0.89177942276000977 0.05760834738612175 0.15634669363498688
0.058679454028606415 0.1325034499168396 0.15570007264614105
0.07548089325428009 0.12891910970211029 0.15391659736633301
0.10302445292472839 0.12721560895442963 0.1524062305688858
0.16053487360477448 0.13280998170375824 0.15139350295066833
0.24485421180725098 0.13472183048725128 0.15174312889575958
0.3427065908908844 0.13454407453536987 0.1540408581495285
0.44410300254821777 0.13452714681625366 0.15459544956684113
0.53992682695388794 0.1323893666267395 0.15218622982501984
0.62895435094833374 0.13418525457382202 0.15289108455181122
0.70922905206680298 0.13702166080474854 0.15739463269710541
0.7781827449798584 0.13567198812961578 0.1578071266412735
0.83772802352905273 0.13241671025753021 0.15570865571498871
0.8910481333732605 0.13157114386558533 0.15531754493713379
0.052050016820430756 0.22280500829219818 0.15497623383998871
0.069293424487113953 0.22628334164619446 0.15390831232070923
0.10182496905326843 0.22856338322162628 0.15208722651004791
0.16113775968551636 0.22927546501159668 0.15049555897712708
0.24502088129520416 0.2265060693025589 0.14955992996692657
0.34195688366889954 0.2248266190290451 0.15217132866382599
0.4429803192615509 0.22524182498455048 0.15335144102573395
0.53861624002456665 0.22363662719726562 0.15183450281620026
0.62779104709625244 0.22449025511741638 0.15243569016456604
0.70845216512680054 0.22571501135826111 0.15699227154254913
0.7765471339225769 0.22552721202373505 0.15685805678367615
0.8353162407875061 0.22503869235515594 0.15429435670375824
0.8890954852104187 0.22688601911067963 0.15318438410758972
0.051659483462572098 0.32204565405845642 0.15355792641639709
0.067223928868770599 0.32999160885810852 0.15401960909366608
0.099617883563041687 0.33532950282096863 0.15318380296230316
0.15854264795780182 0.33171814680099487 0.15063206851482391
0.24187006056308746 0.32613381743431091 0.15003407001495361
0.33982551097869873 0.32286673784255981 0.15063595771789551
0.44125670194625854 0.32208347320556641 0.15123552083969116
0.53920179605484009 0.32132172584533691 0.15091601014137268
0.63004350662231445 0.32016864418983459 0.15173670649528503
0.70936840772628784 0.32016387581825256 0.15420694649219513
0.77464473247528076 0.3229219913482666 0.15378688275814056
0.83211290836334229 0.32670161128044128 0.15175311267375946
0.88747882843017578 0.33170327544212341 0.1504829078912735
0.054610952734947205 0.41316935420036316 0.15250076353549957
0.068006955087184906 0.41894093155860901 0.15294922888278961
0.099061362445354462 0.42160871624946594 0.15265889465808868
0.15715968608856201 0.41997033357620239 0.15115582942962646
0.24073563516139984 0.41665655374526978 0.15039403736591339
0.33940201997756958 0.41418996453285217 0.15083840489387512
0.44305282831192017 0.4136747419834137 0.15133646130561829
0.54186195135116577 0.41321924328804016 0.15068593621253967
0.63340944051742554 0.41074481606483459 0.15037381649017334
0.71242266893386841 0.40976670384407043 0.15056361258029938
0.7742764949798584 0.41380059719085693 0.1502450704574585
0.83001959323883057 0.41860440373420715 0.15013577044010162
0.88665080070495605 0.42099693417549133 0.15055836737155914
0.056589793413877487 0.49109005928039551 0.15245097875595093
0.069057464599609375 0.49308747053146362 0.15245097875595093
0.098514020442962646 0.49275511503219604 0.15245097875595093
0.15739314258098602 0.4929179847240448 0.15217685699462891
0.24072553217411041 0.49299290776252747 0.15151742100715637
0.34081640839576721 0.49269255995750427 0.15285229682922363
0.44611150026321411 0.49281021952629089 0.15394622087478638
0.54523241519927979 0.49192500114440918 0.15287193655967712
0.63504177331924438 0.4904535710811615 0.15099839866161346
0.71225756406784058 0.48981258273124695 0.14975616335868835
0.77475488185882568 0.49222564697265625 0.14926044642925262
0.83205169439315796 0.49546840786933899 0.15031664073467255
0.88706296682357788 0.49586060643196106 0.15250623226165771
0.058202467858791351 0.56003767251968384 0.15245097875595093
0.070970185101032257 0.56060218811035156 0.15245097875595093
0.10040827840566635 0.55966252088546753 0.15245097875595093
0.15760819613933563 0.55989843606948853 0.15262873470783234
0.24064463376998901 0.56029826402664185 0.15342043340206146
0.34098383784294128 0.56015622615814209 0.1545843631029129
0.44669118523597717 0.56040304899215698 0.15554161369800568
0.54574090242385864 0.56014728546142578 0.15486630797386169
0.63550716638565063 0.5595250129699707 0.15283465385437012
0.71203899383544922 0.55950063467025757 0.15122415125370026
0.77617168426513672 0.56083792448043823 0.15063352882862091
0.83378046751022339 0.56257885694503784 0.15192347764968872
0.88911467790603638 0.56228148937225342 0.15450765192508698
0.061016291379928589 0.62367385625839233 0.15245097875595093
0.073783442378044128 0.62427616119384766 0.15245097875595093
0.10167587548494339 0.623615562915802 0.15286988019943237
0.15575127303600311 0.62308967113494873 0.15409021079540253
0.23932541906833649 0.62126100063323975 0.15467849373817444
0.34110468626022339 0.62064951658248901 0.15517556667327881
0.44726011157035828 0.62064951658248901 0.15617293119430542
0.54712498188018799 0.62064951658248901 0.15628477931022644
0.63626134395599365 0.62064951658248901 0.15535144507884979
0.7131543755531311 0.62102752923965454 0.15377506613731384
0.77863514423370361 0.62327289581298828 0.15327885746955872
0.83649736642837524 0.62444114685058594 0.15420214831829071
0.89035862684249878 0.6241830587387085 0.15574546158313751
0.063581518828868866 0.68253475427627563 0.1524704247713089
0.07577069103717804 0.68370604515075684 0.15271565318107605
0.10159289836883545 0.68279027938842773 0.15368998050689697
0.15390579402446747 0.68242162466049194 0.15457133948802948
0.23802907764911652 0.67940247058868408 0.15461897850036621
0.34334471821784973 0.67685270309448242 0.15449588000774384
0.44917380809783936 0.67699205875396729 0.15526236593723297
0.54827088117599487 0.67843896150588989 0.15628039836883545
0.6369892954826355 0.67855393886566162 0.1563725471496582
0.71457725763320923 0.6789555549621582 0.15632623434066772
0.78028815984725952 0.68119978904724121 0.15608538687229156
0.83723080158233643 0.68244826793670654 0.15615838766098022
0.89022922515869141 0.68246537446975708 0.1563725471496582
0.067422680556774139 0.73808985948562622 0.15410031378269196
0.078157387673854828 0.73947316408157349 0.15390798449516296
0.10115396976470947 0.73934602737426758 0.1540178656578064
0.15301162004470825 0.73785287141799927 0.15404412150382996
0.23921185731887817 0.73499375581741333 0.15402388572692871
0.34485486149787903 0.73254191875457764 0.15375338494777679
0.45047926902770996 0.73258846998214722 0.15422654151916504
0.54840606451034546 0.73416131734848022 0.15547186136245728
0.63642740249633789 0.7357298731803894 0.15634956955909729
0.71377700567245483 0.73604041337966919 0.1563725471496582
0.77939927577972412 0.73646450042724609 0.15635862946510315
0.83637434244155884 0.73753869533538818 0.1556469202041626
0.8890068531036377 0.73774337768554688 0.15527041256427765
0.072332493960857391 0.79035788774490356 0.15625454485416412
0.082630649209022522 0.79179638624191284 0.15568046271800995
0.10127973556518555 0.79186463356018066 0.15465956926345825
0.15117193758487701 0.79094147682189941 0.15409837663173676
0.23982727527618408 0.78964650630950928 0.15404412150382996
0.3454858660697937 0.78867822885513306 0.15399627387523651
0.44996523857116699 0.78878873586654663 0.15416507422924042
0.54690122604370117 0.7897685170173645 0.15485197305679321
0.63397794961929321 0.79043275117874146 0.15604570508003235
0.71057838201522827 0.7902262806892395 0.1563725471496582
0.77693736553192139 0.79004788398742676 0.15621687471866608
0.83453923463821411 0.79006290435791016 0.1532997339963913
0.88819736242294312 0.7899022102355957 0.15250153839588165
0.073318421840667725 0.84058952331542969 0.15836688876152039
0.085062138736248016 0.84143435955047607 0.1577925980091095
0.10237899422645569 0.8415757417678833 0.15607407689094543
0.15158830583095551 0.84175270795822144 0.15443092584609985
0.23949909210205078 0.84193748235702515 0.15412405133247375
0.34448972344398499 0.84227466583251953 0.15470756590366364
0.44822254776954651 0.84266018867492676 0.15541945397853851
0.54402154684066772 0.84317541122436523 0.15541000664234161
0.63001954555511475 0.8432888388633728 0.15596558153629303
0.70692944526672363 0.84248578548431396 0.15667495131492615
0.77429217100143433 0.84154576063156128 0.15739236772060394
0.83337920904159546 0.84100937843322754 0.15538634359836578
0.88892704248428345 0.84065759181976318 0.15281368792057037
0.062617279589176178 0.8908085823059082 0.15954171121120453
0.078442774713039398 0.89081358909606934 0.15960589051246643
0.10179537534713745 0.89081358909606934 0.15766701102256775
0.15327206254005432 0.89111196994781494 0.15537296235561371
0.23796017467975616 0.89175420999526978 0.15519988536834717
0.34085386991500854 0.89310330152511597 0.15695162117481232
0.44458803534507751 0.89385503530502319 0.15820819139480591
0.53978139162063599 0.89405494928359985 0.15741796791553497
0.62507784366607666 0.89351367950439453 0.15698269009590149
0.70266753435134888 0.89222198724746704 0.15925836563110352
0.77225887775421143 0.89115744829177856 0.16175736486911774
0.83443039655685425 0.89080607891082764 0.1605924516916275
0.89135521650314331 0.89061897993087769 0.15693087875843048
0.05764523521065712 0.06098112091422081 0.23136046528816223
0.077311031520366669 0.056593608111143112 0.2290777713060379
0.10657981783151627 0.055233824998140335 0.2273305356502533
0.16240200400352478 0.058088459074497223 0.22675497829914093
0.24533040821552277 0.059403885155916214 0.22879540920257568
0.34157571196556091 0.058758694678544998 0.22918953001499176
0.44157895445823669 0.058662623167037964 0.22791789472103119
0.53853845596313477 0.0583927221596241 0.22668208181858063
0.62980717420578003 0.06083863228559494 0.22969752550125122
0.70967668294906616 0.063541591167449951 0.2338748425245285
0.77858924865722656 0.061006389558315277 0.23277761042118073
0.83739674091339111 0.058917026966810226 0.23042118549346924
0.89100539684295654 0.060104817152023315 0.22977918386459351
0.052762947976589203 0.13499149680137634 0.22996510565280914
0.072629116475582123 0.13025976717472076 0.22684067487716675
0.106063112616539 0.12803874909877777 0.2235817015171051
0.16452068090438843 0.13053151965141296 0.22560437023639679
0.2473357766866684 0.13076247274875641 0.22717083990573883
0.34212425351142883 0.12857486307621002 0.22832824289798737
0.44190505146980286 0.12884388864040375 0.22715185582637787
0.53885835409164429 0.12936773896217346 0.22551824152469635
0.62962955236434937 0.13147242367267609 0.226491779088974
0.71002572774887085 0.13331778347492218 0.22985109686851501
0.7808992862701416 0.13095967471599579 0.22999343276023865
0.84049737453460693 0.1283864825963974 0.22840408980846405
0.89301967620849609 0.13332860171794891 0.22940021753311157
0.048307769000530243 0.22630716860294342 0.22965724766254425
0.065978765487670898 0.22688372433185577 0.22650104761123657
0.10009130090475082 0.22870290279388428 0.22346460819244385
0.16137543320655823 0.22746196389198303 0.22463542222976685
0.24599035084247589 0.22331802546977997 0.22556385397911072
0.34158045053482056 0.21996033191680908 0.22579295933246613
0.44133782386779785 0.21903827786445618 0.22592750191688538
0.53796160221099854 0.21931503713130951 0.22501283884048462
0.62862730026245117 0.22015412151813507 0.22573071718215942
0.7095797061920166 0.22116990387439728 0.22798682749271393
0.77888530492782593 0.22102689743041992 0.22832192480564117
0.83887785673141479 0.22205193340778351 0.22688060998916626
0.89223426580429077 0.22770056128501892 0.22685155272483826
0.046956527978181839 0.32510066032409668 0.22965686023235321
0.062540404498577118 0.33035311102867126 0.22781641781330109
0.094451546669006348 0.33477658033370972 0.22515526413917542
0.15588152408599854 0.33085209131240845 0.22326001524925232
0.24143560230731964 0.32383337616920471 0.22271531820297241
0.33946478366851807 0.3193662166595459 0.22336603701114655
0.44084441661834717 0.31769537925720215 0.2242409735918045
0.53858804702758789 0.31716194748878479 0.22431720793247223
0.6296684741973877 0.31683781743049622 0.22520062327384949
0.70896625518798828 0.31794926524162292 0.2264186292886734
0.77608680725097656 0.320535808801651 0.2263949066400528
0.83517241477966309 0.32468980550765991 0.22579179704189301
0.8900151252746582 0.33041879534721375 0.22573529183864594
0.049041222780942917 0.41589799523353577 0.2292826920747757
0.064131475985050201 0.42021209001541138 0.22961384057998657
0.096656382083892822 0.42169234156608582 0.22779741883277893
0.15609091520309448 0.41919481754302979 0.22450804710388184
0.24060864746570587 0.41507956385612488 0.22211167216300964
0.33896595239639282 0.41183033585548401 0.22268499433994293
0.44216704368591309 0.41087749600410461 0.22428640723228455
0.54136496782302856 0.41034424304962158 0.22503039240837097
0.63174796104431152 0.40975531935691833 0.22414271533489227
0.70957714319229126 0.4100496768951416 0.22365222871303558
0.77442824840545654 0.4129636287689209 0.22317557036876678
0.83266955614089966 0.41750374436378479 0.22375588119029999
0.8883054256439209 0.42080587148666382 0.22561915218830109
0.052119836211204529 0.49374485015869141 0.22965686023235321
0.067344591021537781 0.49438783526420593 0.22992332279682159
0.10037922859191895 0.49336129426956177 0.22989986836910248
0.15821941196918488 0.49296724796295166 0.22700080275535583
0.24094639718532562 0.49246394634246826 0.22438207268714905
0.34026458859443665 0.49118691682815552 0.22488848865032196
0.44449067115783691 0.49100780487060547 0.2266889214515686
0.54419171810150146 0.49099653959274292 0.22663453221321106
0.63352090120315552 0.49056360125541687 0.22553837299346924
0.70951551198959351 0.49055451154708862 0.22278890013694763
0.77388721704483032 0.49238532781600952 0.22187013924121857
0.83265441656112671 0.49561306834220886 0.22294361889362335
0.88836079835891724 0.49683845043182373 0.22575050592422485
0.054914109408855438 0.56256520748138428 0.22965686023235321
0.070177264511585236 0.56231725215911865 0.22996819019317627
0.1015416607260704 0.56063413619995117 0.22985213994979858
0.15835769474506378 0.56041663885116577 0.2293156236410141
0.24094067513942719 0.56043654680252075 0.22755624353885651
0.34092572331428528 0.56041663885116577 0.22829566895961761
0.44635435938835144 0.56041902303695679 0.22949686646461487
0.5456087589263916 0.56041663885116577 0.22960373759269714
0.63522934913635254 0.56040233373641968 0.22817791998386383
0.71108603477478027 0.56039315462112427 0.2255060076713562
0.77539300918579102 0.56124246120452881 0.22392310202121735
0.83395123481750488 0.56343430280685425 0.22497619688510895
0.88999569416046143 0.56372874975204468 0.22725950181484222
0.057794652879238129 0.62567520141601562 0.22965686023235321
0.070682048797607422 0.62599760293960571 0.22965686023235321
0.10094842314720154 0.62437689304351807 0.22965686023235321
0.15609763562679291 0.6236686110496521 0.22964945435523987
0.23997399210929871 0.62165540456771851 0.22957804799079895
0.34105068445205688 0.62064951658248901 0.22965110838413239
0.44735124707221985 0.62064951658248901 0.22974701225757599
0.54814344644546509 0.62064951658248901 0.23032009601593018
0.63736402988433838 0.62110650539398193 0.23015014827251434
0.71449488401412964 0.62250643968582153 0.22945690155029297
0.77975344657897949 0.62410950660705566 0.22847501933574677
0.83726447820663452 0.62457108497619629 0.22855910658836365
0.89164763689041138 0.62457108497619629 0.22922329604625702
0.060897331684827805 0.68505489826202393 0.22965686023235321
0.071911834180355072 0.68634456396102905 0.229649618268013
0.098441600799560547 0.68414169549942017 0.22928743064403534
0.15279950201511383 0.6824755072593689 0.22865346074104309
0.237712562084198 0.67993104457855225 0.22857855260372162
0.34219956398010254 0.67818748950958252 0.22934183478355408
0.44913771748542786 0.67836546897888184 0.22966554760932922
0.54937011003494263 0.67855393886566162 0.23051817715167999
0.63915085792541504 0.67940372228622437 0.23325556516647339
0.71674764156341553 0.68155878782272339 0.2332291305065155
0.7824026346206665 0.68244653940200806 0.23144011199474335
0.83906662464141846 0.6824755072593689 0.22993288934230804
0.89175528287887573 0.6824755072593689 0.23028950393199921
0.064898893237113953 0.7397344708442688 0.22965686023235321
0.074136771261692047 0.74062973260879517 0.22936773300170898
0.097152292728424072 0.74007964134216309 0.22783875465393066
0.15001651644706726 0.7385755181312561 0.22702817618846893
0.23704525828361511 0.73630064725875854 0.2268669605255127
0.34275346994400024 0.73357659578323364 0.22733317315578461
0.44995063543319702 0.73370504379272461 0.22914262115955353
0.54935574531555176 0.73620039224624634 0.22972190380096436
0.63905900716781616 0.73645836114883423 0.2315877377986908
0.71655094623565674 0.73651528358459473 0.2334449291229248
0.78221255540847778 0.73728734254837036 0.23254010081291199
0.83825623989105225 0.7380821704864502 0.22985975444316864
0.8898155689239502 0.73803490400314331 0.22974619269371033
0.069259628653526306 0.79225558042526245 0.23007456958293915
0.077938392758369446 0.79263424873352051 0.22962842881679535
0.097979135811328888 0.79262727499008179 0.22799874842166901
0.14973194897174835 0.79218786954879761 0.22670748829841614
0.2368798702955246 0.79119032621383667 0.22600096464157104
0.34285277128219604 0.79041576385498047 0.22653421759605408
0.44952297210693359 0.79036051034927368 0.22806468605995178
0.548694908618927 0.79102641344070435 0.22956685721874237
0.63665115833282471 0.79238080978393555 0.22995454072952271
0.71383494138717651 0.79186046123504639 0.23190441727638245
0.77944177389144897 0.79144024848937988 0.23095411062240601
0.83596563339233398 0.79052239656448364 0.22965718805789948
0.88825708627700806 0.79008561372756958 0.22952695190906525
0.070357993245124817 0.84277874231338501 0.23158159852027893
0.080756336450576782 0.84331858158111572 0.23109754920005798
0.10082792490720749 0.84327346086502075 0.22947847843170166
0.15070812404155731 0.84294688701629639 0.22751525044441223
0.23680451512336731 0.84365367889404297 0.22661861777305603
0.34174776077270508 0.84409934282302856 0.22749637067317963
0.44772565364837646 0.84381657838821411 0.22892743349075317
0.54569202661514282 0.84480684995651245 0.22963379323482513
0.63305151462554932 0.84526503086090088 0.22984738647937775
0.71016448736190796 0.84345912933349609 0.23222580552101135
0.77724504470825195 0.84232443571090698 0.23291027545928955
0.83492648601531982 0.84190398454666138 0.23062214255332947
0.88798075914382935 0.84126722812652588 0.22912786900997162
0.064997650682926178 0.8928038477897644 0.23192523419857025
0.079515300691127777 0.89244794845581055 0.23251506686210632
0.10298419743776321 0.89134544134140015 0.23117685317993164
0.1532837301492691 0.89129900932312012 0.22953426837921143
0.23639693856239319 0.89238661527633667 0.22914619743824005
0.33878561854362488 0.89384603500366211 0.23016341030597687
0.44440409541130066 0.8950498104095459 0.23093418776988983
0.54149562120437622 0.89520984888076782 0.23029793798923492
0.62803387641906738 0.89417606592178345 0.23013307154178619
0.70599275827407837 0.89272874593734741 0.23352254927158356
0.77465611696243286 0.89129900932312012 0.23515444993972778
0.83544129133224487 0.89171576499938965 0.23407916724681854
0.88962697982788086 0.89205282926559448 0.23049156367778778
0.050717867910861969 0.057690653949975967 0.30689269304275513
0.071279756724834442 0.054889380931854248 0.30637097358703613
0.10527279227972031 0.054905354976654053 0.3034827709197998
0.16372911632061005 0.057312294840812683 0.30294117331504822
0.2458595335483551 0.058641679584980011 0.30339661240577698
0.34089979529380798 0.058455880731344223 0.30300968885421753
0.44093933701515198 0.058455880731344223 0.30265131592750549
0.53754258155822754 0.05880306288599968 0.30107349157333374
0.62823754549026489 0.059121794998645782 0.30205544829368591
0.7092774510383606 0.059836294502019882 0.30513951182365417
0.77829384803771973 0.05877043679356575 0.30645439028739929
0.83747786283493042 0.05826161801815033 0.30674031376838684
0.89049035310745239 0.060553666204214096 0.30662199854850769
0.049686893820762634 0.13459503650665283 0.30686312913894653
0.069323278963565826 0.13074107468128204 0.30453783273696899
0.10464341193437576 0.12941233813762665 0.30246686935424805
0.16490185260772705 0.12913218140602112 0.30293142795562744
0.24779652059078217 0.12871983647346497 0.3042398989200592
0.3409942090511322 0.12717022001743317 0.30299049615859985
0.44096344709396362 0.12759022414684296 0.30151468515396118
0.53751927614212036 0.12834160029888153 0.29917806386947632
0.62809252738952637 0.1279156357049942 0.29959920048713684
0.70988023281097412 0.12908592820167542 0.30212277173995972
0.78029835224151611 0.12856097519397736 0.30340439081192017
0.8405081033706665 0.1288561075925827 0.30309027433395386
0.89331650733947754 0.13455885648727417 0.30569866299629211
0.047972541302442551 0.22747235000133514 0.30686274170875549
0.065594255924224854 0.22591120004653931 0.30400654673576355
0.10047327727079391 0.22588188946247101 0.30172502994537354
0.16234268248081207 0.22415982186794281 0.30192744731903076
0.24619503319263458 0.22122104465961456 0.30210557579994202
0.34077638387680054 0.21849498152732849 0.3013090193271637
0.44029596447944641 0.21632438898086548 0.29973426461219788
0.53710854053497314 0.21612611413002014 0.29902896285057068
0.62685191631317139 0.21749760210514069 0.29935944080352783
0.70794975757598877 0.21989884972572327 0.30225154757499695
0.77878814935684204 0.22007763385772705 0.30294117331504822
0.84016579389572144 0.22105909883975983 0.30294117331504822
0.89312130212783813 0.22617305815219879 0.30315276980400085
0.046468127518892288 0.32439762353897095 0.30686274170875549
0.062888696789741516 0.32676151394844055 0.30501800775527954
0.096545547246932983 0.32866495847702026 0.30222982168197632
0.15770083665847778 0.32633066177368164 0.29909291863441467
0.24208797514438629 0.32189139723777771 0.29791784286499023
0.33897840976715088 0.3179781436920166 0.29798147082328796
0.43946617841720581 0.31623914837837219 0.29901152849197388
0.53718072175979614 0.3161126971244812 0.29901960492134094
0.62697994709014893 0.31655159592628479 0.29952022433280945
0.70656496286392212 0.31845152378082275 0.30288287997245789
0.77593612670898438 0.32004019618034363 0.30294117331504822
0.83665817975997925 0.32167160511016846 0.30294117331504822
0.89186245203018188 0.32535937428474426 0.30294117331504822
0.047433488070964813 0.41506412625312805 0.30677679181098938
0.064296454191207886 0.4167371392250061 0.30682408809661865
0.098841935396194458 0.41746088862419128 0.30454421043395996
0.15843296051025391 0.41650757193565369 0.2999018132686615
0.24142478406429291 0.41322246193885803 0.29539287090301514
0.3386455774307251 0.41080549359321594 0.29590067267417908
0.4403407871723175 0.40909808874130249 0.29906237125396729
