assets/lut/others solarized color.cube
# Created by: G'MIC (https://gmic.eu)
TITLE "solarized_color"
# LUT size
LUT_3D_SIZE 5
# Data domain
DOMAIN_MIN 0.0 0.0 0.0
DOMAIN_MAX 1.0 1.0 1.0
# LUT data points
0.069312229752540588 0.13010910153388977 0.048287007957696915
0.25310859084129333 0.14269180595874786 0.040373258292675018
0.44201570749282837 0.12165551632642746 0.046432703733444214
0.79474979639053345 0.13055068254470825 0.039356023073196411
0.94717788696289062 0.13983239233493805 0.038284048438072205
0.069073908030986786 0.5675244927406311 0.033657312393188477
0.25389644503593445 0.56076085567474365 0.042754095047712326
0.44723525643348694 0.56383568048477173 0.046721842139959335
0.79668760299682617 0.56741297245025635 0.040352571755647659
0.94399386644363403 0.56652945280075073 0.045255266129970551
0.074643693864345551 0.49007627367973328 0.037602890282869339
0.25727576017379761 0.49914279580116272 0.05287729948759079
0.4512898325920105 0.49944794178009033 0.040422789752483368
0.78965502977371216 0.50170719623565674 0.057649902999401093
0.94879817962646484 0.49679252505302429 0.049545243382453918
0.092760644853115082 0.82085400819778442 0.047876782715320587
0.25650358200073242 0.8273012638092041 0.054054290056228638
0.44536140561103821 0.81582236289978027 0.039841655641794205
0.79302549362182617 0.8103213906288147 0.038825463503599167
0.9462968111038208 0.83193910121917725 0.044574841856956482
0.073502637445926666 0.95473784208297729 0.04562174528837204
0.25529217720031738 0.94687348604202271 0.039219126105308533
0.43298012018203735 0.95453768968582153 0.042728543281555176
0.79152137041091919 0.94707632064819336 0.045751068741083145
0.94620174169540405 0.948944091796875 0.03630371019244194
0.069340601563453674 0.14457935094833374 0.261930912733078
0.25382500886917114 0.1359344869852066 0.27072107791900635
0.43442556262016296 0.13859237730503082 0.26532843708992004
0.79772746562957764 0.14234593510627747 0.25686296820640564
0.94726085662841797 0.12713994085788727 0.26401379704475403
0.0692099928855896 0.56786811351776123 0.26556298136711121
0.25770354270935059 0.56444108486175537 0.27376642823219299
0.4480651319026947 0.56350803375244141 0.26473584771156311
0.79632419347763062 0.56300371885299683 0.2714543342590332
0.95496898889541626 0.5611422061920166 0.2757510244846344
0.088562160730361938 0.49332746863365173 0.26158082485198975
0.25211679935455322 0.50036156177520752 0.26850476861000061
0.43306863307952881 0.50198078155517578 0.26150020956993103
0.79450047016143799 0.50533014535903931 0.27179223299026489
0.93613958358764648 0.50420898199081421 0.26778107881546021
0.072880640625953674 0.82140213251113892 0.26219373941421509
0.25102341175079346 0.81209307909011841 0.26648297905921936
0.43635392189025879 0.82751983404159546 0.26034760475158691
0.79305130243301392 0.83023655414581299 0.26147046685218811
0.94324052333831787 0.82557052373886108 0.26806265115737915
0.073204293847084045 0.95411056280136108 0.26677730679512024
0.25662383437156677 0.95291143655776978 0.25825828313827515
0.43998652696609497 0.95053839683532715 0.26097431778907776
0.78903359174728394 0.94484454393386841 0.26246589422225952
0.95455366373062134 0.95506376028060913 0.26241731643676758
0.068046823143959045 0.14136119186878204 0.50292754173278809
0.25341042876243591 0.12405696511268616 0.49555954337120056
0.43945848941802979 0.13277950882911682 0.49014443159103394
0.7972334623336792 0.12578035891056061 0.49929851293563843
0.94337618350982666 0.14346678555011749 0.49306583404541016
0.070033669471740723 0.56509566307067871 0.49065753817558289
0.25547781586647034 0.55849307775497437 0.49252116680145264
0.45191729068756104 0.56391668319702148 0.49741989374160767
0.79003322124481201 0.56503450870513916 0.49371129274368286
0.94617867469787598 0.56112194061279297 0.50371640920639038
0.070298977196216583 0.49110355973243713 0.4960709810256958
0.25645184516906738 0.49586081504821777 0.4952126145362854
0.44296199083328247 0.4985034167766571 0.49931719899177551
0.79075568914413452 0.49868321418762207 0.50034201145172119
0.94404476881027222 0.50086581707000732 0.4895150363445282
0.074631616473197937 0.83195000886917114 0.49348267912864685
0.25418591499328613 0.82407850027084351 0.49385708570480347
0.44055289030075073 0.83058488368988037 0.4958558976650238
0.78797262907028198 0.83411484956741333 0.48641139268875122
0.94971960783004761 0.82631790637969971 0.48876321315765381
0.079644158482551575 0.95194476842880249 0.49576321244239807
0.25525662302970886 0.95567178726196289 0.49382251501083374
0.44897612929344177 0.94771283864974976 0.50294989347457886
0.79611784219741821 0.95177072286605835 0.4928528368473053
0.95031094551086426 0.94060105085372925 0.49541482329368591
0.077996350824832916 0.12271915376186371 0.72721892595291138
0.25658971071243286 0.13682740926742554 0.73361873626708984
0.44023424386978149 0.13612645864486694 0.72962117195129395
0.792277991771698 0.12380953133106232 0.72508317232131958
0.94373297691345215 0.13876302540302277 0.72730559110641479
0.078164555132389069 0.56703490018844604 0.72773605585098267
0.25636968016624451 0.56238436698913574 0.72361308336257935
0.43759581446647644 0.56823170185089111 0.7309686541557312
0.78842705488204956 0.56551235914230347 0.72845149040222168
0.96039277315139771 0.5652155876159668 0.7283635139465332
0.07977498322725296 0.48870694637298584 0.73265618085861206
0.25463879108428955 0.49671369791030884 0.72840094566345215
0.44301390647888184 0.49584212899208069 0.72381150722503662
0.78339660167694092 0.49425074458122253 0.72578138113021851
0.95320290327072144 0.49596348404884338 0.72958469390869141
0.074592798948287964 0.8275141716003418 0.72406220436096191
0.2497599720954895 0.8157162070274353 0.72554135322570801
0.43064156174659729 0.82730436325073242 0.72595524787902832
0.79316180944442749 0.82730042934417725 0.725319504737854
0.94866770505905151 0.81418919563293457 0.72913289070129395
0.064031548798084259 0.95133781433105469 0.73146939277648926
0.24443419277667999 0.95078122615814209 0.73218494653701782
0.43974068760871887 0.95370376110076904 0.72413331270217896
0.79383540153503418 0.95346254110336304 0.73369318246841431
0.94438207149505615 0.94233870506286621 0.73041152954101562
0.072208404541015625 0.15066920220851898 0.94768232107162476
0.25682124495506287 0.12299133092164993 0.96072030067443848
0.41896942257881165 0.14337907731533051 0.94946908950805664
0.79097789525985718 0.13818688690662384 0.94690233469009399
0.95073050260543823 0.15030480921268463 0.94784849882125854
0.074533320963382721 0.564616858959198 0.95113140344619751
0.24872519075870514 0.56882154941558838 0.94727027416229248
0.44052693247795105 0.56599080562591553 0.94562935829162598
0.7904706597328186 0.5602836012840271 0.94573765993118286
0.95267564058303833 0.56379276514053345 0.94120943546295166
0.075555972754955292 0.50325793027877808 0.94019973278045654
0.26212164759635925 0.49939778447151184 0.94466662406921387
0.43551331758499146 0.49793234467506409 0.95466059446334839
0.79010093212127686 0.49560815095901489 0.95430666208267212
0.95203036069869995 0.49951574206352234 0.94871556758880615
0.075137972831726074 0.8197292685508728 0.95482605695724487
0.25521227717399597 0.82860583066940308 0.95714634656906128
0.44326391816139221 0.82795423269271851 0.94968128204345703
0.78682792186737061 0.81981378793716431 0.95276844501495361
0.94573980569839478 0.82695585489273071 0.95045357942581177
0.068880341947078705 0.9525301456451416 0.95785331726074219
0.25901532173156738 0.94910037517547607 0.95668894052505493
0.44578030705451965 0.94992548227310181 0.947010338306427
0.78611361980438232 0.95315009355545044 0.95651066303253174
0.95086371898651123 0.95413148403167725 0.94987946748733521
