assets/lut/others cinematic 02.cube
# Created by: G'MIC (https://gmic.eu)
TITLE "cinematic_02"
# LUT size
LUT_3D_SIZE 7
# Data domain
DOMAIN_MIN 0.0 0.0 0.0
DOMAIN_MAX 1.0 1.0 1.0
# LUT data points
0.11225370317697525 0.1079602986574173 0.10229682177305222
0.13600638508796692 0.10928521305322647 0.10506574064493179
0.20575736463069916 0.11301331222057343 0.11065912991762161
0.36948654055595398 0.11043885350227356 0.11585612595081329
0.58995693922042847 0.11308435350656509 0.11889529973268509
0.78234660625457764 0.13211126625537872 0.14709220826625824
0.91409313678741455 0.20788928866386414 0.2231922447681427
0.11428514122962952 0.13323879241943359 0.10520673543214798
0.1411958634853363 0.1381576806306839 0.10753867775201797
0.21801251173019409 0.15063291788101196 0.1101420521736145
0.38254261016845703 0.17426221072673798 0.11492335051298141
0.60019087791442871 0.19804337620735168 0.11970310658216476
0.78232771158218384 0.22373688220977783 0.14633093774318695
0.90797287225723267 0.28422605991363525 0.22746962308883667
0.11682293564081192 0.2267615795135498 0.10749220103025436
0.15414206683635712 0.23851944506168365 0.10763940215110779
0.25290140509605408 0.25174453854560852 0.10611214488744736
0.42888158559799194 0.30335986614227295 0.10353321582078934
0.62772232294082642 0.3503701388835907 0.1101224273443222
0.78575563430786133 0.37960824370384216 0.1487223207950592
0.90091300010681152 0.41698792576789856 0.24815221130847931
0.080528855323791504 0.42898353934288025 0.074624031782150269
0.15653999149799347 0.44300106167793274 0.082579009234905243
0.30202785134315491 0.46166855096817017 0.074467316269874573
0.48571020364761353 0.49284827709197998 0.079421460628509521
0.66046822071075439 0.52614432573318481 0.1050921157002449
0.79233461618423462 0.54816842079162598 0.17028957605361938
0.89777112007141113 0.57296133041381836 0.29677888751029968
0.049740839749574661 0.65220832824707031 0.039974872022867203
0.15834140777587891 0.6516566276550293 0.054095055907964706
0.32474017143249512 0.66107219457626343 0.063569612801074982
0.5027233362197876 0.67150419950485229 0.084098726511001587
0.67201769351959229 0.68639039993286133 0.14433066546916962
0.7994881272315979 0.69765496253967285 0.25138130784034729
0.89926177263259888 0.71311169862747192 0.40110835433006287
0.17498163878917694 0.81057554483413696 0.16758349537849426
0.25319039821624756 0.80604356527328491 0.17125003039836884
0.38305753469467163 0.80690127611160278 0.19220618903636932
0.53397637605667114 0.81227821111679077 0.22955094277858734
0.6857723593711853 0.81936848163604736 0.3057677149772644
0.80852025747299194 0.82501095533370972 0.40920281410217285
0.90974551439285278 0.837188720703125 0.53582006692886353
0.39160060882568359 0.93156760931015015 0.41118961572647095
0.43183249235153198 0.93296569585800171 0.41543394327163696
0.51085478067398071 0.93516188859939575 0.44201120734214783
0.61611729860305786 0.93854737281799316 0.47792735695838928
0.73071849346160889 0.94231313467025757 0.53972876071929932
0.83726406097412109 0.94752323627471924 0.59890985488891602
0.93665528297424316 0.96092289686203003 0.67562878131866455
0.11386705189943314 0.10767535120248795 0.12686590850353241
0.13712495565414429 0.1106051430106163 0.1296306699514389
0.21206392347812653 0.11125639081001282 0.14253309369087219
0.37880507111549377 0.10459429025650024 0.16447290778160095
0.59928005933761597 0.090484306216239929 0.18189367651939392
0.78535914421081543 0.10065274685621262 0.21436966955661774
0.90757942199707031 0.2219432145357132 0.30591803789138794
0.11775416880846024 0.13598416745662689 0.13168101012706757
0.14419560134410858 0.13982099294662476 0.13628865778446198
0.22337272763252258 0.14898175001144409 0.14696839451789856
0.39073830842971802 0.16335338354110718 0.164859339594841
0.60562276840209961 0.1761959046125412 0.18192477524280548
0.78447920083999634 0.20128798484802246 0.21897643804550171
0.90400755405426025 0.29310575127601624 0.30943214893341064
0.1075352355837822 0.23427991569042206 0.13835009932518005
0.1487196683883667 0.24210077524185181 0.14089357852935791
0.25586792826652527 0.25648936629295349 0.14754386246204376
0.43101271986961365 0.29842469096183777 0.15798717737197876
0.62611126899719238 0.34201881289482117 0.1763269454240799
0.78541582822799683 0.37439063191413879 0.22860690951347351
0.89856183528900146 0.42666077613830566 0.33188611268997192
0.052686054259538651 0.44156709313392639 0.12687304615974426
0.13004043698310852 0.44819742441177368 0.13130125403404236
0.28725820779800415 0.46414771676063538 0.1365850567817688
0.48471039533615112 0.49461328983306885 0.14993497729301453
0.65620678663253784 0.52634048461914062 0.18468759953975677
0.78963959217071533 0.54989743232727051 0.25873473286628723
0.89170879125595093 0.58254444599151611 0.37642750144004822
0.046322915703058243 0.65745586156845093 0.13263213634490967
0.13955876231193542 0.65424805879592896 0.13177973031997681
0.31396639347076416 0.661762535572052 0.1501375138759613
0.50821197032928467 0.67377978563308716 0.18204621970653534
0.66994142532348633 0.68564116954803467 0.2432224303483963
0.79487735033035278 0.69729441404342651 0.33889320492744446
0.89492917060852051 0.71736437082290649 0.4627801775932312
0.18307124078273773 0.80882567167282104 0.2494136244058609
0.2527584433555603 0.80347996950149536 0.24359139800071716
0.387062668800354 0.80574709177017212 0.27305075526237488
0.53919535875320435 0.81045627593994141 0.31596961617469788
0.68339437246322632 0.81575989723205566 0.38039052486419678
0.80608940124511719 0.82210421562194824 0.47008946537971497
0.9092336893081665 0.83634835481643677 0.57565653324127197
0.38471731543540955 0.9331325888633728 0.45350721478462219
0.43508946895599365 0.93288600444793701 0.46125727891921997
0.51696455478668213 0.93509131669998169 0.48690217733383179
0.61613339185714722 0.93619674444198608 0.51914268732070923
0.72675162553787231 0.93965137004852295 0.56611818075180054
0.83522409200668335 0.94636327028274536 0.62319380044937134
0.9361383318901062 0.96191489696502686 0.69368010759353638
0.11050738394260406 0.11188918352127075 0.22737489640712738
0.14393775165081024 0.1119195967912674 0.22947251796722412
0.22663778066635132 0.11357787251472473 0.2416938990354538
0.3960842490196228 0.10013314336538315 0.28177204728126526
0.61815208196640015 0.071518734097480774 0.34690794348716736
0.78596264123916626 0.12260966747999191 0.39004611968994141
0.89412397146224976 0.28960725665092468 0.46408584713935852
0.10440204292535782 0.14640457928180695 0.23004923760890961
0.14093698561191559 0.14505594968795776 0.23620162904262543
0.23727868497371674 0.14762140810489655 0.25327280163764954
0.41110557317733765 0.15069113671779633 0.2861386239528656
0.62387770414352417 0.15359050035476685 0.33907207846641541
0.78775179386138916 0.21090847253799438 0.39117085933685303
0.89340096712112427 0.3517860472202301 0.4676811695098877
0.084912769496440887 0.24907319247722626 0.25440332293510437
0.13588500022888184 0.25563666224479675 0.25780832767486572
0.26532623171806335 0.26603662967681885 0.27237766981124878
0.44981914758682251 0.29483577609062195 0.29859229922294617
0.64033812284469604 0.3284434974193573 0.34077149629592896
0.78621721267700195 0.38035079836845398 0.39955353736877441
0.88953804969787598 0.46968233585357666 0.48407801985740662
0.038023527711629868 0.45177888870239258 0.27790209650993347
0.10755942761898041 0.46339535713195801 0.28322902321815491
0.27792766690254211 0.47694924473762512 0.29586175084114075
0.48958572745323181 0.49988856911659241 0.31959527730941772
0.65877759456634521 0.52666831016540527 0.35501971840858459
0.78673684597015381 0.55387246608734131 0.42358314990997314
0.88587266206741333 0.60119420289993286 0.51401132345199585
0.075427412986755371 0.65770560503005981 0.31175166368484497
0.16049082577228546 0.65989691019058228 0.31919968128204346
0.32419085502624512 0.66542321443557739 0.33577510714530945
0.51189339160919189 0.67368555068969727 0.36375337839126587
0.66843801736831665 0.68404865264892578 0.40870916843414307
0.78977447748184204 0.69970273971557617 0.47839337587356567
0.88905507326126099 0.7277103066444397 0.56568336486816406
0.23706561326980591 0.80284100770950317 0.40395656228065491
0.31090441346168518 0.80065399408340454 0.41441094875335693
0.42149287462234497 0.8028368353843689 0.43245065212249756
0.54770302772521973 0.80360174179077148 0.45772355794906616
0.68288809061050415 0.80989336967468262 0.50048148632049561
0.80460476875305176 0.82134127616882324 0.56239897012710571
0.9058648943901062 0.84015476703643799 0.63744992017745972
0.4155888557434082 0.92877501249313354 0.54512685537338257
0.46359550952911377 0.93123465776443481 0.55659836530685425
0.53508007526397705 0.93360960483551025 0.57565975189208984
0.61926990747451782 0.9332696795463562 0.59231317043304443
0.72689741849899292 0.93798023462295532 0.62175142765045166
0.83700096607208252 0.94716101884841919 0.66532468795776367
0.93793588876724243 0.96486878395080566 0.72151356935501099
0.092736281454563141 0.10759644210338593 0.4324493408203125
0.15213850140571594 0.10452364385128021 0.43971911072731018
0.26062968373298645 0.10332892835140228 0.44749733805656433
0.43373137712478638 0.087355822324752808 0.47911444306373596
0.63562166690826416 0.067030884325504303 0.53876835107803345
0.78880691528320312 0.13887341320514679 0.57864594459533691
0.89248782396316528 0.31321832537651062 0.62266844511032104
0.068195447325706482 0.14843739569187164 0.4457835853099823
0.12783101201057434 0.14473903179168701 0.45077580213546753
0.25501576066017151 0.14638791978359222 0.45917761325836182
0.43989843130111694 0.14497995376586914 0.48494794964790344
0.64162415266036987 0.1470787525177002 0.53773808479309082
0.79110080003738403 0.22566324472427368 0.58048760890960693
0.88931375741958618 0.39169144630432129 0.62957566976547241
0.021436234936118126 0.27588015794754028 0.46489930152893066
0.09534512460231781 0.27625942230224609 0.47139057517051697
0.26836541295051575 0.28254219889640808 0.48646381497383118
0.47185516357421875 0.30170285701751709 0.51182252168655396
0.6530793309211731 0.33465069532394409 0.54565036296844482
0.78351366519927979 0.40779358148574829 0.58175051212310791
0.88245886564254761 0.51371294260025024 0.63575917482376099
0.0040362640284001827 0.47813048958778381 0.49054867029190063
0.092531763017177582 0.48490875959396362 0.49595573544502258
0.290141761302948 0.49305868148803711 0.51051771640777588
0.49852278828620911 0.51429742574691772 0.52956002950668335
0.66119122505187988 0.5393100380897522 0.55245405435562134
0.77987641096115112 0.57556724548339844 0.59133386611938477
0.87788963317871094 0.62254863977432251 0.64371216297149658
0.10866974294185638 0.66400158405303955 0.5202566385269165
0.20135988295078278 0.66764193773269653 0.53048455715179443
0.35896626114845276 0.67206937074661255 0.54150885343551636
0.52808272838592529 0.68155503273010254 0.55855029821395874
0.67298883199691772 0.68994468450546265 0.58446896076202393
0.78281378746032715 0.70873284339904785 0.6205524206161499
0.88132685422897339 0.73913884162902832 0.6697959303855896
0.30275797843933105 0.79993951320648193 0.5721820592880249
0.36761990189552307 0.79974544048309326 0.58751434087753296
0.45793139934539795 0.80317729711532593 0.59405040740966797
0.56703096628189087 0.80618959665298462 0.60349005460739136
0.69153058528900146 0.81210839748382568 0.62774449586868286
0.80500054359436035 0.82235080003738403 0.66483563184738159
0.90069073438644409 0.84102994203567505 0.71033072471618652
0.45867085456848145 0.92471826076507568 0.65397202968597412
0.47857680916786194 0.93122392892837524 0.65816318988800049
0.5356365442276001 0.93416857719421387 0.66705524921417236
0.61836105585098267 0.93641620874404907 0.67469304800033569
0.72869777679443359 0.94175416231155396 0.69208699464797974
0.83809155225753784 0.94832354784011841 0.72303980588912964
0.93575692176818848 0.96082329750061035 0.7677537202835083
0.051453892141580582 0.092981822788715363 0.64690840244293213
0.14348292350769043 0.0927763432264328 0.66720771789550781
0.28553381562232971 0.089295558631420135 0.67536658048629761
0.46458277106285095 0.083271220326423645 0.68669211864471436
0.6352766752243042 0.095569685101509094 0.70333480834960938
0.77941656112670898 0.17374677956104279 0.72177785634994507
0.89191430807113647 0.32750129699707031 0.74763888120651245
0.021572576835751534 0.14816045761108398 0.66448020935058594
0.10722599178552628 0.14577184617519379 0.67440378665924072
0.2663835883140564 0.14820036292076111 0.67772841453552246
0.45914414525032043 0.15492276847362518 0.68537318706512451
0.63632333278656006 0.17937253415584564 0.70353001356124878
0.77972203493118286 0.2588580846786499 0.72359907627105713
0.89057469367980957 0.40268152952194214 0.75179398059844971
0.001185189001262188 0.2928377091884613 0.67622131109237671
0.084454603493213654 0.29669445753097534 0.68091166019439697
0.27519586682319641 0.30568104982376099 0.68563246726989746
0.48034855723381042 0.32773497700691223 0.69250977039337158
0.64705044031143188 0.36621728539466858 0.70612215995788574
0.77756184339523315 0.4360014796257019 0.72492039203643799
0.88623416423797607 0.53219598531723022 0.75540554523468018
0.028592502698302269 0.49837449193000793 0.68703925609588623
0.13315504789352417 0.50339257717132568 0.68873292207717896
0.32616320252418518 0.51357543468475342 0.69270509481430054
0.51914525032043457 0.53401660919189453 0.69810909032821655
0.66261160373687744 0.55718004703521729 0.71099436283111572
0.77974998950958252 0.59140390157699585 0.73142284154891968
0.87913310527801514 0.63797450065612793 0.75600343942642212
0.17719130218029022 0.67326623201370239 0.69610881805419922
0.26511102914810181 0.67682206630706787 0.69882065057754517
0.40911498665809631 0.68003976345062256 0.70244407653808594
0.55574965476989746 0.68983858823776245 0.70839864015579224
0.6799551248550415 0.6994895339012146 0.72246336936950684
0.7839277982711792 0.71433085203170776 0.74159598350524902
0.88198208808898926 0.74267220497131348 0.76463747024536133
0.36613357067108154 0.8033021092414856 0.71445858478546143
0.41301023960113525 0.80600094795227051 0.71916830539703369
0.49767133593559265 0.80587869882583618 0.72412347793579102
0.59397631883621216 0.81057369709014893 0.72750961780548096
0.70092403888702393 0.81709867715835571 0.73889529705047607
0.80361998081207275 0.82490462064743042 0.76012969017028809
0.90266066789627075 0.84398955106735229 0.78693526983261108
0.48434814810752869 0.92716836929321289 0.76083254814147949
0.49544569849967957 0.9326280951499939 0.75744634866714478
0.54542863368988037 0.93478298187255859 0.76062899827957153
0.61799263954162598 0.94071942567825317 0.7599872350692749
0.72199505567550659 0.94541299343109131 0.76971614360809326
0.8298494815826416 0.95149779319763184 0.78888952732086182
0.93519532680511475 0.96103376150131226 0.82481133937835693
0.019057014957070351 0.099039666354656219 0.82000505924224854
0.12722863256931305 0.10155376046895981 0.83344823122024536
0.28464919328689575 0.1042218804359436 0.83654892444610596
0.46206900477409363 0.11719667166471481 0.83504027128219604
0.62679249048233032 0.17360682785511017 0.83768343925476074
0.77060019969940186 0.26791355013847351 0.84301412105560303
0.88846027851104736 0.39979550242424011 0.85719376802444458
0.0057983999140560627 0.16956442594528198 0.8276522159576416
0.10800887644290924 0.17288751900196075 0.83368229866027832
0.2764647901058197 0.17890577018260956 0.83270567655563354
0.46623572707176208 0.20141175389289856 0.83337277173995972
0.62473058700561523 0.25369113683700562 0.83561784029006958
0.76840531826019287 0.33918121457099915 0.8421630859375
0.88752907514572144 0.45552900433540344 0.85744547843933105
0.047973062843084335 0.32776430249214172 0.83087557554244995
0.13820214569568634 0.33817094564437866 0.83121365308761597
0.31171178817749023 0.35084080696105957 0.83301275968551636
0.49624934792518616 0.38122224807739258 0.83468711376190186
0.64540290832519531 0.42835456132888794 0.83624279499053955
0.7708398699760437 0.487955242395401 0.84149754047393799
0.88376963138580322 0.55676645040512085 0.85706692934036255
0.16372077167034149 0.51899367570877075 0.83330541849136353
0.24283131957054138 0.53085076808929443 0.83340167999267578
0.38476091623306274 0.54499763250350952 0.83476394414901733
0.53658437728881836 0.56463873386383057 0.83353680372238159
0.66288071870803833 0.59054744243621826 0.8356052041053772
0.77681863307952881 0.61840873956680298 0.84333616495132446
0.88036596775054932 0.65423452854156494 0.85686755180358887
0.30208709836006165 0.6811714768409729 0.8344414234161377
0.36146122217178345 0.68862593173980713 0.83394366502761841
0.46023571491241455 0.69439607858657837 0.83347171545028687
0.57514643669128418 0.7029569149017334 0.8337671160697937
0.68448317050933838 0.71425133943557739 0.83939641714096069
0.78657299280166626 0.72632098197937012 0.84869039058685303
0.88761419057846069 0.74922734498977661 0.86328095197677612
0.42690551280975342 0.81202805042266846 0.83966892957687378
0.45710727572441101 0.81493222713470459 0.84106767177581787
0.52725261449813843 0.81350630521774292 0.84536337852478027
0.61232692003250122 0.81678611040115356 0.84548985958099365
0.70739716291427612 0.82134842872619629 0.85015803575515747
0.80377745628356934 0.8319823145866394 0.85792547464370728
0.90997052192687988 0.84581023454666138 0.87620151042938232
0.4971301257610321 0.93512552976608276 0.86932802200317383
0.51431369781494141 0.93698954582214355 0.86887246370315552
0.55928748846054077 0.93829464912414551 0.86990213394165039
0.62858074903488159 0.94145804643630981 0.86773300170898438
0.72044599056243896 0.9461435079574585 0.86857384443283081
0.82246381044387817 0.9565054178237915 0.87213695049285889
0.93609380722045898 0.96280205249786377 0.89709299802780151
0.036500625312328339 0.15075531601905823 0.96475052833557129
0.14780275523662567 0.16370348632335663 0.96884381771087646
0.30230289697647095 0.18366578221321106 0.96709400415420532
0.47546607255935669 0.223258376121521 0.96403855085372925
0.64329731464385986 0.32094129920005798 0.96752041578292847
0.78008508682250977 0.42671880125999451 0.96826773881912231
0.89182585477828979 0.53210443258285522 0.97298771142959595
0.054154533892869949 0.23292486369609833 0.96585547924041748
0.16501674056053162 0.24635638296604156 0.96559250354766846
0.31845656037330627 0.26675954461097717 0.96166479587554932
0.49374532699584961 0.31549555063247681 0.96401149034500122
0.64938908815383911 0.39358484745025635 0.9669349193572998
0.78197932243347168 0.48522838950157166 0.96874487400054932
0.89374029636383057 0.5688331127166748 0.97350078821182251
0.17250527441501617 0.40436369180679321 0.96827071905136108
0.25242295861244202 0.41027939319610596 0.96584808826446533
0.38525974750518799 0.43292492628097534 0.96510082483291626
0.53899896144866943 0.47445192933082581 0.96811765432357788
0.67343848943710327 0.52489262819290161 0.96855443716049194
0.7861562967300415 0.57320678234100342 0.9649236798286438
0.89083123207092285 0.62080186605453491 0.96956712007522583
0.30501922965049744 0.57844144105911255 0.96985292434692383
0.37032842636108398 0.58809304237365723 0.96914219856262207
0.46313822269439697 0.59993094205856323 0.96966993808746338
0.57613736391067505 0.61637896299362183 0.96952658891677856
0.68525493144989014 0.64155656099319458 0.96575266122817993
0.78897976875305176 0.66455906629562378 0.96338731050491333
0.89204150438308716 0.69247835874557495 0.97067612409591675
0.40227118134498596 0.71799600124359131 0.96847754716873169
0.44711673259735107 0.72495478391647339 0.96624577045440674
0.51342916488647461 0.72634303569793701 0.96821624040603638
0.60061627626419067 0.72974622249603271 0.96825981140136719
0.69797331094741821 0.74143457412719727 0.96913719177246094
0.79836279153823853 0.75215655565261841 0.9720267653465271
0.9050477147102356 0.77212274074554443 0.9807276725769043
0.45963960886001587 0.83819448947906494 0.96798956394195557
0.48837712407112122 0.84154409170150757 0.96931213140487671
0.54251629114151001 0.84142518043518066 0.97272658348083496
0.61963957548141479 0.84154260158538818 0.9727785587310791
0.71118241548538208 0.84242713451385498 0.97834926843643188
0.81185811758041382 0.84611314535140991 0.98280113935470581
0.92286014556884766 0.86160409450531006 0.98651957511901855
0.49719345569610596 0.95741862058639526 0.98426079750061035
0.51984119415283203 0.95813548564910889 0.98658114671707153
0.56381112337112427 0.9590030312538147 0.98855865001678467
0.63336968421936035 0.9607243537902832 0.98584848642349243
0.72406363487243652 0.96063911914825439 0.9868733286857605
0.82844835519790649 0.9627264142036438 0.98692578077316284
0.94188171625137329 0.97320955991744995 0.99129152297973633
