assets/lut/others warm highlight.cube
# Created by: G'MIC (https://gmic.eu)
TITLE "warm_highlight"
# LUT size
LUT_3D_SIZE 5
# Data domain
DOMAIN_MIN 0.0 0.0 0.0
DOMAIN_MAX 1.0 1.0 1.0
# LUT data points
0.12566430866718292 0.11110697686672211 0.079275481402873993
0.32105448842048645 0.11263524740934372 0.083261601626873016
0.77178913354873657 0.11259240657091141 0.078446395695209503
0.96055799722671509 0.1080324798822403 0.078510671854019165
1 0.12534190714359283 0.091153584420681
0.11225476861000061 0.2606658935546875 0.072150975465774536
0.30567416548728943 0.26770839095115662 0.073797114193439484
0.76726365089416504 0.27504277229309082 0.079828627407550812
0.96001946926116943 0.27039802074432373 0.073616936802864075
1 0.26896470785140991 0.073895655572414398
0.10654543340206146 0.63589197397232056 0.067251048982143402
0.30706515908241272 0.64470446109771729 0.07095809280872345
0.74861139059066772 0.63318389654159546 0.068117253482341766
0.95805680751800537 0.63705909252166748 0.070222504436969757
1 0.63001775741577148 0.076492175459861755
0.11460483074188232 0.92903953790664673 0.072893314063549042
0.31917622685432434 0.93252855539321899 0.082441456615924835
0.76309019327163696 0.92548763751983643 0.086057879030704498
0.95718121528625488 0.91864931583404541 0.069355174899101257
0.99979698657989502 0.92719626426696777 0.086809135973453522
0.1306401789188385 0.99985766410827637 0.08941815048456192
0.34608662128448486 1 0.09108416736125946
0.75459408760070801 0.99973046779632568 0.074144415557384491
0.95616239309310913 0.99975943565368652 0.082321137189865112
0.99770969152450562 0.99937456846237183 0.071718402206897736
0.13838402926921844 0.11365942656993866 0.20633497834205627
0.37602940201759338 0.13904072344303131 0.23622508347034454
0.79824584722518921 0.14675126969814301 0.2428433746099472
0.95906186103820801 0.14109137654304504 0.24427230656147003
0.99769258499145508 0.13854248821735382 0.23313696682453156
0.15005603432655334 0.30746632814407349 0.21219339966773987
0.3716399073600769 0.31557977199554443 0.23625677824020386
0.7870708703994751 0.33229008316993713 0.24443361163139343
0.96185153722763062 0.3379325270652771 0.23927685618400574
0.99979627132415771 0.3204781711101532 0.22067378461360931
0.14204888045787811 0.66538137197494507 0.21702900528907776
0.40195006132125854 0.68377691507339478 0.23547409474849701
0.79400789737701416 0.69494074583053589 0.23608359694480896
0.96037888526916504 0.68372166156768799 0.22782695293426514
0.99716454744338989 0.67270725965499878 0.2179412841796875
0.13940046727657318 0.9193529486656189 0.21629218757152557
0.38924825191497803 0.92909049987792969 0.23460383713245392
0.78449481725692749 0.93796652555465698 0.24351963400840759
0.95953148603439331 0.93135148286819458 0.24077014625072479
0.99812978506088257 0.92731213569641113 0.21139627695083618
0.15028046071529388 0.99564242362976074 0.21865813434123993
0.3808770477771759 0.99622458219528198 0.24696032702922821
0.80308836698532104 0.99789482355117798 0.25071382522583008
0.94486600160598755 0.99598723649978638 0.2392236590385437
0.99755257368087769 0.99264252185821533 0.20952370762825012
0.17552362382411957 0.15722343325614929 0.51030969619750977
0.40434694290161133 0.15435051918029785 0.50899827480316162
0.79871374368667603 0.15201935172080994 0.52953493595123291
0.96380919218063354 0.15026086568832397 0.50712448358535767
0.99834173917770386 0.16005772352218628 0.50344157218933105
0.173336461186409 0.33139544725418091 0.52654063701629639
0.39085564017295837 0.33954161405563354 0.49678605794906616
0.77345895767211914 0.347586989402771 0.49932676553726196
0.96069693565368652 0.3595004677772522 0.53404718637466431
0.99797028303146362 0.34152495861053467 0.5277518630027771
0.17662538588047028 0.69400864839553833 0.53026002645492554
0.41403454542160034 0.70118600130081177 0.51494693756103516
0.80140799283981323 0.68441605567932129 0.52915036678314209
0.9593319296836853 0.69875830411911011 0.52251899242401123
0.99634832143783569 0.71472996473312378 0.53662264347076416
0.17530103027820587 0.92970246076583862 0.52116554975509644
0.4091913104057312 0.93459123373031616 0.5446593165397644
0.79147875308990479 0.93108493089675903 0.52543032169342041
0.95663952827453613 0.93772035837173462 0.52140301465988159
0.99584543704986572 0.92721021175384521 0.49306583404541016
0.17251306772232056 0.99338817596435547 0.5158766508102417
0.41221889853477478 0.99643480777740479 0.53826725482940674
0.77590095996856689 0.99393153190612793 0.54537636041641235
0.95727258920669556 0.99725323915481567 0.54016190767288208
0.99498277902603149 0.99372130632400513 0.48597961664199829
0.1427341103553772 0.11927792429924011 0.87476146221160889
0.39913323521614075 0.13817793130874634 0.87459087371826172
0.79970860481262207 0.15013588964939117 0.8794289231300354
0.96064096689224243 0.14121069014072418 0.869911789894104
0.99911403656005859 0.14026267826557159 0.86662524938583374
0.14389033615589142 0.3007049560546875 0.88016349077224731
0.37616381049156189 0.32634127140045166 0.8794548511505127
0.78388547897338867 0.33542457222938538 0.87859487533569336
0.96098363399505615 0.34975510835647583 0.87333661317825317
0.99877989292144775 0.33900940418243408 0.87575340270996094
0.1442205011844635 0.66549068689346313 0.88272017240524292
0.37853109836578369 0.67122596502304077 0.87594354152679443
0.79015862941741943 0.68224453926086426 0.87985390424728394
0.96177881956100464 0.69039857387542725 0.87215393781661987
1 0.67988079786300659 0.88190478086471558
0.14333325624465942 0.92570686340332031 0.87483328580856323
0.37155893445014954 0.92984473705291748 0.88037645816802979
0.7983553409576416 0.93204909563064575 0.87745749950408936
0.95773971080780029 0.92721772193908691 0.86487662792205811
0.99650412797927856 0.90766698122024536 0.86722129583358765
0.14900003373622894 0.99674409627914429 0.87215334177017212
0.38642242550849915 0.9975745677947998 0.87095075845718384
0.7658841609954834 0.99706095457077026 0.87685221433639526
0.95528578758239746 0.99412363767623901 0.87611770629882812
0.99577176570892334 0.98999464511871338 0.87792032957077026
0.12217420339584351 0.11488146334886551 0.99929404258728027
0.35433915257453918 0.13163982331752777 0.99985766410827637
0.75584137439727783 0.11178603768348694 0.9996941089630127
0.96049004793167114 0.11652001738548279 0.99621087312698364
1 0.11977824568748474 0.99849611520767212
0.12139120697975159 0.27745425701141357 0.99999302625656128
0.31820660829544067 0.27638664841651917 1
0.7686532735824585 0.28360387682914734 0.99998009204864502
0.9607500433921814 0.2855551540851593 1
1 0.27585801482200623 0.99982786178588867
0.11176068335771561 0.64420491456985474 0.99986696243286133
0.31304323673248291 0.64628106355667114 0.99985063076019287
0.75544005632400513 0.64013385772705078 0.99893820285797119
0.9589618444442749 0.65400797128677368 0.9993661642074585
1 0.63500112295150757 0.99933707714080811
0.11206723749637604 0.92516720294952393 0.99795800447463989
0.31178823113441467 0.92953819036483765 0.99979031085968018
0.78132563829421997 0.93131881952285767 0.99926292896270752
0.95031112432479858 0.89127832651138306 0.99310684204101562
0.99303567409515381 0.91682356595993042 0.99817520380020142
0.14081847667694092 1 0.99775582551956177
0.34324532747268677 1 0.99693834781646729
0.7804487943649292 0.99730825424194336 0.99376016855239868
0.95945316553115845 0.99374455213546753 0.99030536413192749
0.99317145347595215 0.98835784196853638 0.99602454900741577
