assets/lut/others muted fade.cube
# Created by: G'MIC (https://gmic.eu)
TITLE "muted_fade"
# LUT size
LUT_3D_SIZE 7
# Data domain
DOMAIN_MIN 0.0 0.0 0.0
DOMAIN_MAX 1.0 1.0 1.0
# LUT data points
0.14461018145084381 0.14134146273136139 0.14409714937210083
0.23762328922748566 0.16536241769790649 0.167239710688591
0.32784795761108398 0.18628701567649841 0.18710556626319885
0.41891458630561829 0.2076813280582428 0.20706038177013397
0.50934416055679321 0.22935225069522858 0.22897012531757355
0.60174757242202759 0.25153815746307373 0.25251403450965881
0.69341325759887695 0.27244365215301514 0.27450719475746155
0.18832522630691528 0.2570781409740448 0.18779198825359344
0.28150632977485657 0.2807062566280365 0.21043813228607178
0.37172815203666687 0.30137783288955688 0.23045086860656738
0.46218782663345337 0.32203960418701172 0.25061520934104919
0.55325061082839966 0.34384411573410034 0.27239871025085449
0.64570945501327515 0.36631801724433899 0.29506424069404602
0.7373424768447876 0.38735458254814148 0.3162257969379425
0.22956839203834534 0.36991152167320251 0.22906489670276642
0.32244026660919189 0.3930935263633728 0.2515510618686676
0.41336748003959656 0.41370585560798645 0.27157828211784363
0.50384187698364258 0.43387302756309509 0.29242300987243652
0.59505540132522583 0.4556712806224823 0.31424823403358459
0.68744361400604248 0.47866618633270264 0.33665621280670166
0.77909219264984131 0.50019919872283936 0.35768803954124451
0.27055072784423828 0.482879638671875 0.27134379744529724
0.36321985721588135 0.50562328100204468 0.29296153783798218
0.45475608110427856 0.52580302953720093 0.31361252069473267
0.54581087827682495 0.54609197378158569 0.334970623254776
0.63704347610473633 0.56781405210494995 0.35689687728881836
0.72883540391921997 0.5909917950630188 0.37917527556419373
0.82033008337020874 0.61361873149871826 0.4011211097240448
0.31270310282707214 0.59523707628250122 0.31349858641624451
0.40583688020706177 0.61811554431915283 0.33541634678840637
0.49709615111351013 0.63811194896697998 0.35657361149787903
0.58793151378631592 0.6582295298576355 0.37811964750289917
0.67931586503982544 0.67981231212615967 0.39980918169021606
0.77075421810150146 0.70218217372894287 0.42172467708587646
0.86179906129837036 0.72334551811218262 0.44331574440002441
0.35660481452941895 0.70701295137405396 0.35623839497566223
0.44944858551025391 0.7298130989074707 0.37770923972129822
0.53999096155166626 0.74975216388702393 0.3993508517742157
0.63055068254470825 0.77016752958297729 0.42094343900680542
0.72219371795654297 0.79177623987197876 0.44243043661117554
0.81374275684356689 0.81349903345108032 0.46439915895462036
0.90443527698516846 0.83411335945129395 0.48576146364212036
0.40034964680671692 0.81930333375930786 0.40032708644866943
0.4917265772819519 0.84113401174545288 0.42126971483230591
0.58217686414718628 0.86098092794418335 0.44187161326408386
0.67347759008407593 0.88199079036712646 0.46276041865348816
0.76535779237747192 0.90364181995391846 0.48379319906234741
0.85697728395462036 0.92567765712738037 0.50600653886795044
0.94760221242904663 0.94744348526000977 0.52874863147735596
0.15105292201042175 0.14990314841270447 0.2232135534286499
0.24341440200805664 0.17194624245166779 0.24416506290435791
0.33205068111419678 0.19164778292179108 0.26325780153274536
0.42453262209892273 0.21355699002742767 0.2837461531162262
0.51710933446884155 0.23558804392814636 0.30621585249900818
0.60952162742614746 0.25776538252830505 0.32963550090789795
0.69978058338165283 0.27920976281166077 0.35107403993606567
0.1944257915019989 0.26398888230323792 0.26543614268302917
0.28683075308799744 0.28650075197219849 0.28688618540763855
0.37705674767494202 0.30677539110183716 0.3064018189907074
0.46837100386619568 0.32769522070884705 0.32680043578147888
0.56022018194198608 0.34964087605476379 0.34868806600570679
0.65215826034545898 0.37198352813720703 0.37115186452865601
0.74252778291702271 0.39345180988311768 0.39282697439193726
0.23498155176639557 0.37487334012985229 0.30532175302505493
0.32824450731277466 0.398297518491745 0.32768866419792175
0.4198022186756134 0.41922888159751892 0.3484155535697937
0.51104390621185303 0.4400610625743866 0.3690604567527771
0.60210597515106201 0.46178171038627625 0.39058619737625122
0.69329738616943359 0.48404783010482788 0.41259896755218506
0.78424322605133057 0.505473792552948 0.43384495377540588
0.27628457546234131 0.48775666952133179 0.3478749692440033
0.36955717206001282 0.51101934909820557 0.37029922008514404
0.46194517612457275 0.53159177303314209 0.3910500705242157
0.55338293313980103 0.55253851413726807 0.41207057237625122
0.6439397931098938 0.57451349496841431 0.43350109457969666
0.7350890040397644 0.59698927402496338 0.45516175031661987
0.82631677389144897 0.61880803108215332 0.47612079977989197
0.31981632113456726 0.60115987062454224 0.39106288552284241
0.41288262605667114 0.62317359447479248 0.4126473069190979
0.50396609306335449 0.64381974935531616 0.43407115340232849
0.59434264898300171 0.66534638404846191 0.45597431063652039
0.68560421466827393 0.68745702505111694 0.47710230946540833
0.77723520994186401 0.70965927839279175 0.49831858277320862
0.86865419149398804 0.73094898462295532 0.51935374736785889
0.36400622129440308 0.71278649568557739 0.43332463502883911
0.45681685209274292 0.73399657011032104 0.45415776968002319
0.54631024599075317 0.75549519062042236 0.47660607099533081
0.63603466749191284 0.77768832445144653 0.4991612434387207
0.72783273458480835 0.8000369668006897 0.52017247676849365
0.81993323564529419 0.82183659076690674 0.54121333360671997
0.91147422790527344 0.84242600202560425 0.56247341632843018
0.40549829602241516 0.82513076066970825 0.47668755054473877
0.49679079651832581 0.84687048196792603 0.49732577800750732
0.58806729316711426 0.86783027648925781 0.51881390810012817
0.67954617738723755 0.88950949907302856 0.54013180732727051
0.77102482318878174 0.91118508577346802 0.56102943420410156
0.86281031370162964 0.93295872211456299 0.58266663551330566
0.95419669151306152 0.95428001880645752 0.60467076301574707
0.15543675422668457 0.15559777617454529 0.29815536737442017
0.24946898221969604 0.17770025134086609 0.31846502423286438
0.34052154421806335 0.1979769766330719 0.33761870861053467
0.43212795257568359 0.21915562450885773 0.35867637395858765
0.52385610342025757 0.24088379740715027 0.38173019886016846
0.61477530002593994 0.26263129711151123 0.40470936894416809
0.70382404327392578 0.28490528464317322 0.42548403143882751
0.19870096445083618 0.26937291026115417 0.34025347232818604
0.29212671518325806 0.29144939780235291 0.36112317442893982
0.38369020819664001 0.31198713183403015 0.38084286451339722
0.47523018717765808 0.33299428224563599 0.40169700980186462
0.56663739681243896 0.3546149730682373 0.42398068308830261
0.65721553564071655 0.37628167867660522 0.44650742411613464
0.74645644426345825 0.39777097105979919 0.46788987517356873
0.23992426693439484 0.38001289963722229 0.38036763668060303
0.33362361788749695 0.40283411741256714 0.40253841876983643
0.4260246753692627 0.42427685856819153 0.42323967814445496
0.51764315366744995 0.44558960199356079 0.44435533881187439
0.60846000909805298 0.46722486615180969 0.46603035926818848
0.69875484704971313 0.48857811093330383 0.48797768354415894
0.78829848766326904 0.50896859169006348 0.50983542203903198
0.28217390179634094 0.49204060435295105 0.42239543795585632
0.37572050094604492 0.51476919651031494 0.44476971030235291
0.46823024749755859 0.53640651702880859 0.46603909134864807
0.55978542566299438 0.5582548975944519 0.48737728595733643
0.65031260251998901 0.58039343357086182 0.50882875919342041
0.74105173349380493 0.60229212045669556 0.53035986423492432
0.83189725875854492 0.62359380722045898 0.55201077461242676
0.32595124840736389 0.60487353801727295 0.46579912304878235
0.41902399063110352 0.62687563896179199 0.48751387000083923
0.51031535863876343 0.64855164289474487 0.50911849737167358
0.60086023807525635 0.67109513282775879 0.53106719255447388
0.69181692600250244 0.6937096118927002 0.55234283208847046
0.78333699703216553 0.71592795848846436 0.5736350417137146
0.87511360645294189 0.73740041255950928 0.59497249126434326
0.36934551596641541 0.71700036525726318 0.50880599021911621
0.46224784851074219 0.73838353157043457 0.53002887964248657
0.55259060859680176 0.76060819625854492 0.55199813842773438
0.64237982034683228 0.78359997272491455 0.57425206899642944
0.73345071077346802 0.80629628896713257 0.59554243087768555
0.82536619901657104 0.82810795307159424 0.61678898334503174
0.91753816604614258 0.84907811880111694 0.63798922300338745
0.41053065657615662 0.82942217588424683 0.55197149515151978
0.50299841165542603 0.85132372379302979 0.57329249382019043
0.59444034099578857 0.8734736442565918 0.59469962120056152
0.68501871824264526 0.89571410417556763 0.6163179874420166
0.77556908130645752 0.91748487949371338 0.63747537136077881
0.86732631921768188 0.93894040584564209 0.65894711017608643
0.95969367027282715 0.96017146110534668 0.68028974533081055
0.16087336838245392 0.16116936504840851 0.37213698029518127
0.25556549429893494 0.18410494923591614 0.39362439513206482
0.34785205125808716 0.20508453249931335 0.41368198394775391
0.43913096189498901 0.22588221728801727 0.43495970964431763
0.53002834320068359 0.2469666600227356 0.45762872695922852
0.61991828680038452 0.26824066042900085 0.48023879528045654
0.70824354887008667 0.29163891077041626 0.50066560506820679
0.20322497189044952 0.27512159943580627 0.41488659381866455
0.29780399799346924 0.29727858304977417 0.43602940440177917
0.39026910066604614 0.31824570894241333 0.45638906955718994
0.48179155588150024 0.33926570415496826 0.47740623354911804
0.57271850109100342 0.36055442690849304 0.49965006113052368
0.66269207000732422 0.38216841220855713 0.52212882041931152
0.75179588794708252 0.40435945987701416 0.54381763935089111
0.24551470577716827 0.38632819056510925 0.4557374119758606
0.3392423689365387 0.40829268097877502 0.47733479738235474
0.43183416128158569 0.42971032857894897 0.49825790524482727
0.52352428436279297 0.45142415165901184 0.51947259902954102
0.61459207534790039 0.47329351305961609 0.54132258892059326
0.70482850074768066 0.494823157787323 0.56367439031600952
0.79461765289306641 0.51594763994216919 0.58582383394241333
0.28816890716552734 0.4977700412273407 0.49746218323707581
0.38140639662742615 0.51945263147354126 0.51917433738708496
0.47373291850090027 0.54138171672821045 0.54047971963882446
0.56534206867218018 0.56382465362548828 0.56194519996643066
0.65652620792388916 0.58636176586151123 0.58368158340454102
0.74745136499404907 0.60835033655166626 0.60570335388183594
0.83834749460220337 0.62982076406478882 0.62789016962051392
0.3311939537525177 0.60994154214859009 0.54070746898651123
0.42444571852684021 0.63147944211959839 0.5620189905166626
0.51615267992019653 0.6536794900894165 0.58337783813476562
0.60706162452697754 0.67644697427749634 0.60512864589691162
0.698089599609375 0.69917571544647217 0.62678128480911255
0.78959387540817261 0.72149121761322021 0.64855021238327026
0.88129919767379761 0.74290388822555542 0.67059445381164551
0.37440460920333862 0.72219496965408325 0.58436679840087891
0.46778115630149841 0.74384719133377075 0.6055912971496582
0.55885154008865356 0.76624363660812378 0.6268191933631897
0.64898931980133057 0.78891539573669434 0.64854031801223755
0.73925125598907471 0.81111413240432739 0.67013466358184814
0.83086240291595459 0.8328736424446106 0.69186663627624512
0.92319416999816895 0.85421204566955566 0.71391350030899048
0.41651934385299683 0.83452439308166504 0.62766647338867188
0.5102425217628479 0.85663646459579468 0.64921075105667114
0.60140323638916016 0.87917834520339966 0.67026954889297485
0.69110250473022461 0.9013788104057312 0.69161450862884521
0.7808716893196106 0.92258703708648682 0.71306532621383667
0.87223607301712036 0.94390356540679932 0.73488479852676392
0.96501350402832031 0.96539062261581421 0.75693011283874512
0.1673034280538559 0.16713578999042511 0.44692099094390869
0.26209670305252075 0.19076353311538696 0.46918177604675293
0.35409966111183167 0.21210306882858276 0.49013525247573853
0.44505679607391357 0.23310023546218872 0.5114138126373291
0.53584849834442139 0.2543315589427948 0.53361755609512329
0.62629532814025879 0.27607053518295288 0.55584132671356201
0.71572381258010864 0.29863759875297546 0.57633930444717407
0.20993120968341827 0.28159886598587036 0.4901270866394043
0.30423086881637573 0.3036811351776123 0.51191699504852295
0.39634692668914795 0.32479354739189148 0.53245943784713745
0.48767268657684326 0.34607324004173279 0.55349034070968628
0.57872766256332397 0.36778318881988525 0.57558095455169678
0.66936832666397095 0.38989049196243286 0.59796488285064697
0.75935816764831543 0.41234609484672546 0.61954516172409058
0.25241291522979736 0.39285027980804443 0.53121602535247803
0.34531283378601074 0.41399469971656799 0.55306297540664673
0.43731635808944702 0.43539059162139893 0.57401061058044434
0.52917397022247314 0.45782661437988281 0.59520018100738525
0.62068426609039307 0.48022425174713135 0.61697214841842651
0.71160554885864258 0.5023302435874939 0.6394156813621521
0.80195921659469604 0.52407103776931763 0.66136080026626587
0.2943820059299469 0.50397241115570068 0.57306164503097534
0.38695108890533447 0.52486956119537354 0.59450125694274902
0.47896298766136169 0.54685074090957642 0.61564016342163086
0.57083213329315186 0.56994742155075073 0.63717085123062134
0.66272157430648804 0.59284186363220215 0.65902936458587646
0.75405025482177734 0.614951491355896 0.68106132745742798
0.84462976455688477 0.63603758811950684 0.70327657461166382
0.33615362644195557 0.61604595184326172 0.61614245176315308
0.42977270483970642 0.63728845119476318 0.63713240623474121
0.52176803350448608 0.65938138961791992 0.65820831060409546
0.6130327582359314 0.68228977918624878 0.67994743585586548
0.70453131198883057 0.70495778322219849 0.70182383060455322
0.79603302478790283 0.72682148218154907 0.72368186712265015
0.88676804304122925 0.74727010726928711 0.74572718143463135
0.37987947463989258 0.72871148586273193 0.65987825393676758
0.47358512878417969 0.75029474496841431 0.68100112676620483
0.56509888172149658 0.77238082885742188 0.70186406373977661
0.65543496608734131 0.79450511932373047 0.72344750165939331
0.74566406011581421 0.81592875719070435 0.74524116516113281
0.83664560317993164 0.837424635887146 0.76723802089691162
0.92843961715698242 0.85838884115219116 0.7893792986869812
0.42350417375564575 0.84146451950073242 0.70298439264297485
0.51703977584838867 0.86352032423019409 0.72474247217178345
0.60808843374252319 0.88578325510025024 0.74575573205947876
0.69776690006256104 0.90717184543609619 0.76700699329376221
0.78667545318603516 0.9269106388092041 0.78856933116912842
0.87737321853637695 0.94857513904571533 0.81076717376708984
0.97012639045715332 0.97034680843353271 0.83313071727752686
0.17370840907096863 0.17245423793792725 0.52176165580749512
0.2678019106388092 0.19616305828094482 0.54451799392700195
0.35910344123840332 0.2180335521697998 0.56562513113021851
0.44965854287147522 0.23954731225967407 0.58705466985702515
0.54060143232345581 0.26131099462509155 0.60910332202911377
0.63265323638916016 0.28356170654296875 0.63121479749679565
0.72421783208847046 0.3050505518913269 0.6519629955291748
0.21786695718765259 0.2876066267490387 0.56571090221405029
0.31081682443618774 0.30964520573616028 0.58785831928253174
0.4018886387348175 0.33099421858787537 0.60857498645782471
0.49285268783569336 0.35261392593383789 0.62955665588378906
0.5842660665512085 0.3744887113571167 0.65116977691650391
0.67606538534164429 0.39709007740020752 0.67344456911087036
0.7673225998878479 0.41909295320510864 0.6951831579208374
0.25964230298995972 0.39897811412811279 0.60735756158828735
0.35127606987953186 0.4193652868270874 0.62944877147674561
0.44253328442573547 0.44145104289054871 0.65026450157165527
0.53438049554824829 0.46435746550559998 0.67125481367111206
0.62636673450469971 0.48679587244987488 0.69294434785842896
0.717926025390625 0.50911670923233032 0.715190589427948
0.80882388353347778 0.53073215484619141 0.73730146884918213
0.30082079768180847 0.5102422833442688 0.64944291114807129
0.39226627349853516 0.53024852275848389 0.67083334922790527
0.48381245136260986 0.55294370651245117 0.69203430414199829
0.57596969604492188 0.57663857936859131 0.71338659524917603
0.66834419965744019 0.59926420450210571 0.73533695936203003
0.75996869802474976 0.62102288007736206 0.75738835334777832
0.85053342580795288 0.64169991016387939 0.77928125858306885
0.34166136384010315 0.62249314785003662 0.69251114130020142
0.43521437048912048 0.64327001571655273 0.71326404809951782
0.52703350782394409 0.66579675674438477 0.73424768447875977
0.61847484111785889 0.68890964984893799 0.75614172220230103
0.71058887243270874 0.71097570657730103 0.77817678451538086
0.8019905686378479 0.73217570781707764 0.79981136322021484
0.89233005046844482 0.75189489126205444 0.82152265310287476
0.38562369346618652 0.73546850681304932 0.73562633991241455
0.47918659448623657 0.75685161352157593 0.75678378343582153
0.57062369585037231 0.77859950065612793 0.77786040306091309
0.66173034906387329 0.80016070604324341 0.79947233200073242
0.75273287296295166 0.82134145498275757 0.82143217325210571
0.84337794780731201 0.84269028902053833 0.84330803155899048
0.93424433469772339 0.8633158802986145 0.86507976055145264
0.43031632900238037 0.84859371185302734 0.7781602144241333
0.52283912897109985 0.8704034686088562 0.8003430962562561
0.61377358436584473 0.89164060354232788 0.82151955366134644
0.70476770401000977 0.91138988733291626 0.84298235177993774
0.79491257667541504 0.93155288696289062 0.8646848201751709
0.88463819026947021 0.95405369997024536 0.88658398389816284
0.9759940505027771 0.97580516338348389 0.90903967618942261
0.17513404786586761 0.17335383594036102 0.59444403648376465
0.27017974853515625 0.19843214750289917 0.61813539266586304
0.36175996065139771 0.22137649357318878 0.63992279767990112
0.45238035917282104 0.24332620203495026 0.66155660152435303
0.5435904860496521 0.26561349630355835 0.68374794721603394
0.63719087839126587 0.28755202889442444 0.70580744743347168
0.73080313205718994 0.30867063999176025 0.7263912558555603
0.22156570851802826 0.29025736451148987 0.63991385698318481
0.31495332717895508 0.31387296319007874 0.66279715299606323
0.40598222613334656 0.33587983250617981 0.68394821882247925
0.49675995111465454 0.35772848129272461 0.70478624105453491
0.58861178159713745 0.37911179661750793 0.72596907615661621
0.68115514516830444 0.40157172083854675 0.7483331561088562
0.77348369359970093 0.42334377765655518 0.77014052867889404
0.26468217372894287 0.40378987789154053 0.68299615383148193
0.35646384954452515 0.42529791593551636 0.7053912878036499
0.44746392965316772 0.4476788341999054 0.72662276029586792
0.53903937339782715 0.47043564915657043 0.74744081497192383
0.63114947080612183 0.49226877093315125 0.7688484787940979
0.72312527894973755 0.51414281129837036 0.79107671976089478
0.81399619579315186 0.53551357984542847 0.81282484531402588
0.3067881166934967 0.51623082160949707 0.72567975521087646
0.39799773693084717 0.53691613674163818 0.74764949083328247
0.48873883485794067 0.55999958515167236 0.76888692378997803
0.58052575588226318 0.58357113599777222 0.79019087553024292
0.67311370372772217 0.60508155822753906 0.81227731704711914
0.76498532295227051 0.62616777420043945 0.83415758609771729
0.85554265975952148 0.64697259664535522 0.85546624660491943
0.34788781404495239 0.62811607122421265 0.7682952880859375
0.44037291407585144 0.64944899082183838 0.79023212194442749
0.53139030933380127 0.67271745204925537 0.8114435076713562
0.62301409244537354 0.6960824728012085 0.83298271894454956
0.71565473079681396 0.71690112352371216 0.85547554492950439
0.80741512775421143 0.73763847351074219 0.87710326910018921
0.89809900522232056 0.7581409215927124 0.89804208278656006
0.39086553454399109 0.74069643020629883 0.81077218055725098
0.4835665225982666 0.76245546340942383 0.83303815126419067
0.57478100061416626 0.7846720814704895 0.85437023639678955
0.66661286354064941 0.80653560161590576 0.8759227991104126
0.75861519575119019 0.82765418291091919 0.89761936664581299
0.84971636533737183 0.84890919923782349 0.91924583911895752
0.94034969806671143 0.86966657638549805 0.94084244966506958
0.43435847759246826 0.85358470678329468 0.85261327028274536
0.52602982521057129 0.87560057640075684 0.8753969669342041
0.617107093334198 0.89681857824325562 0.89710193872451782
0.7095341682434082 0.91729855537414551 0.91852813959121704
0.8011019229888916 0.93848758935928345 0.93950742483139038
0.89118599891662598 0.96027016639709473 0.96096134185791016
0.98134225606918335 0.98051553964614868 0.98290872573852539
