assets/lut/others expired polaroid.cube
# Created by: G'MIC (https://gmic.eu)
TITLE "expired_polaroid"
# LUT size
LUT_3D_SIZE 7
# Data domain
DOMAIN_MIN 0.0 0.0 0.0
DOMAIN_MAX 1.0 1.0 1.0
# LUT data points
0.42800945043563843 0.26184657216072083 0.10062351822853088
0.49425306916236877 0.28264158964157104 0.11350855976343155
0.55650532245635986 0.29833132028579712 0.12410327792167664
0.61908805370330811 0.30802181363105774 0.13828478753566742
0.68259477615356445 0.31407493352890015 0.15740384161472321
0.74502575397491455 0.32082667946815491 0.17286209762096405
0.80414700508117676 0.32808423042297363 0.18118886649608612
0.4288291335105896 0.31299495697021484 0.10108247399330139
0.49507114291191101 0.33508890867233276 0.11451311409473419
0.55871498584747314 0.35173290967941284 0.12629999220371246
0.62248384952545166 0.36253723502159119 0.14046765863895416
0.68700039386749268 0.37111982703208923 0.15825746953487396
0.75055307149887085 0.38018530607223511 0.17421849071979523
0.81119918823242188 0.38865157961845398 0.18493637442588806
0.42604410648345947 0.36240306496620178 0.099020145833492279
0.49248573184013367 0.38130250573158264 0.11095802485942841
0.55737721920013428 0.39722955226898193 0.12358222156763077
0.62209451198577881 0.41004747152328491 0.1383792906999588
0.6869472861289978 0.42165017127990723 0.1554955393075943
0.75097435712814331 0.43316641449928284 0.17182967066764832
0.81273108720779419 0.44323593378067017 0.18504743278026581
0.42551532387733459 0.41918298602104187 0.10109930485486984
0.49158719182014465 0.43015372753143311 0.10855355113744736
0.55586415529251099 0.44233536720275879 0.11958538740873337
0.62016677856445312 0.45535504817962646 0.13440054655075073
0.68451261520385742 0.4688265323638916 0.15130090713500977
0.74849754571914673 0.48208582401275635 0.16841328144073486
0.81067264080047607 0.49379763007164001 0.18333061039447784
0.43155518174171448 0.48024106025695801 0.10879966616630554
0.49574047327041626 0.4859931468963623 0.11312788724899292
0.55732107162475586 0.4926857054233551 0.12022361159324646
0.61881965398788452 0.50297868251800537 0.13195699453353882
0.68187838792800903 0.51617443561553955 0.14750990271568298
0.74545764923095703 0.53054296970367432 0.1650329977273941
0.80758798122406006 0.54340612888336182 0.18152628839015961
0.44296008348464966 0.54357618093490601 0.11999336630105972
0.50493764877319336 0.5477181077003479 0.12369625270366669
0.561165452003479 0.54873979091644287 0.12535229325294495
0.61847317218780518 0.55417591333389282 0.13169270753860474
0.68021023273468018 0.56630617380142212 0.14498478174209595
0.74381065368652344 0.5809590220451355 0.16244561970233917
0.80553179979324341 0.59433114528656006 0.1795484870672226
0.45210906863212585 0.60551166534423828 0.12833860516548157
0.51290899515151978 0.60988712310791016 0.13164719939231873
0.56496894359588623 0.60674619674682617 0.12994171679019928
0.61923134326934814 0.6085171103477478 0.13255858421325684
0.68001830577850342 0.6196405291557312 0.14417126774787903
0.74340701103210449 0.63417637348175049 0.16049826145172119
0.80507874488830566 0.64754015207290649 0.17687894403934479
0.4401659369468689 0.27515941858291626 0.16438120603561401
0.5079846978187561 0.29531550407409668 0.17876346409320831
0.5723833441734314 0.31119969487190247 0.19230109453201294
0.63685649633407593 0.32322525978088379 0.20857891440391541
0.70203149318695068 0.33311313390731812 0.22778749465942383
0.76629650592803955 0.34356850385665894 0.24386286735534668
0.82665008306503296 0.35310769081115723 0.25316071510314941
0.44125649333000183 0.32867935299873352 0.16605766117572784
0.50828057527542114 0.34790828824043274 0.17989064753055573
0.5735662579536438 0.36406499147415161 0.19351370632648468
0.63883906602859497 0.37709930539131165 0.20977672934532166
0.70505452156066895 0.38890007138252258 0.22824506461620331
0.77052026987075806 0.40120124816894531 0.24504955112934113
0.83248305320739746 0.41213679313659668 0.25672462582588196
0.43769371509552002 0.37929302453994751 0.16452297568321228
0.50448095798492432 0.39499413967132568 0.17686587572097778
0.57058620452880859 0.40991997718811035 0.19079902768135071
0.63687872886657715 0.42398282885551453 0.20684802532196045
0.70336270332336426 0.43806189298629761 0.22481755912303925
0.76924055814743042 0.45228761434555054 0.24212951958179474
0.83233863115310669 0.46464419364929199 0.2562202513217926
0.43589460849761963 0.43371114134788513 0.16549308598041534
0.50217413902282715 0.4434981644153595 0.17550918459892273
0.56827443838119507 0.45482611656188965 0.18766191601753235
0.63376766443252563 0.4686017632484436 0.20248572528362274
0.69969964027404785 0.48402789235115051 0.21978205442428589
0.76529467105865479 0.49969503283500671 0.23798821866512299
0.82894861698150635 0.5137513279914856 0.2543182373046875
0.44329631328582764 0.49270310997962952 0.17457409203052521
0.5070490837097168 0.49756595492362976 0.18082183599472046
0.56955933570861816 0.50415521860122681 0.18819202482700348
0.63206309080123901 0.51552873849868774 0.19905346632003784
0.69648510217666626 0.53082442283630371 0.21483060717582703
0.76151973009109497 0.54756104946136475 0.23390047252178192
0.82524865865707397 0.56273877620697021 0.25225675106048584
0.45803004503250122 0.55546045303344727 0.18834753334522247
0.51799732446670532 0.55781906843185425 0.19056947529315948
0.57488632202148438 0.55983376502990723 0.19172251224517822
0.63335025310516357 0.56715589761734009 0.19727720320224762
0.69563353061676025 0.58107584714889526 0.21100755035877228
0.76009440422058105 0.59823262691497803 0.23083315789699554
0.82338148355484009 0.61410641670227051 0.25049310922622681
0.47035068273544312 0.6180071234703064 0.19732177257537842
0.52829515933990479 0.61998450756072998 0.19735930860042572
0.581268310546875 0.61921697854995728 0.19510674476623535
0.63623470067977905 0.6234700083732605 0.19768323004245758
0.69671779870986938 0.6354554295539856 0.20988631248474121
0.76045644283294678 0.65198338031768799 0.22916699945926666
0.82312220335006714 0.66751062870025635 0.24883966147899628
0.44852247834205627 0.28488701581954956 0.2246941477060318
0.51754051446914673 0.3034825325012207 0.24012073874473572
0.58408993482589722 0.31944689154624939 0.25564047694206238
0.65046799182891846 0.33400705456733704 0.27296173572540283
0.71711212396621704 0.34858393669128418 0.29150611162185669
0.78305584192276001 0.36369198560714722 0.30797305703163147
0.84492069482803345 0.3752167820930481 0.31926921010017395
0.45094838738441467 0.34171047806739807 0.22837981581687927
0.51869410276412964 0.35809588432312012 0.24278956651687622
0.58526217937469482 0.37322628498077393 0.25773483514785767
0.6520572304725647 0.38801982998847961 0.27501022815704346
0.71967077255249023 0.40350767970085144 0.29332542419433594
0.78637027740478516 0.41930261254310608 0.31060156226158142
0.84959548711776733 0.4320356547832489 0.32356646656990051
0.44844600558280945 0.39445227384567261 0.22906135022640228
0.515289306640625 0.40728092193603516 0.24192756414413452
0.58220022916793823 0.42072597146034241 0.25658270716667175
0.6495136022567749 0.43562737107276917 0.27300754189491272
0.71698105335235596 0.45198929309844971 0.29091718792915344
0.78381383419036865 0.46852502226829529 0.30870258808135986
0.84802955389022827 0.48234695196151733 0.32332080602645874
0.44647523760795593 0.44742691516876221 0.23045472800731659
0.51270031929016113 0.45532342791557312 0.24259939789772034
0.57914125919342041 0.4659048318862915 0.25552698969841003
0.6457093358039856 0.48035487532615662 0.26963254809379578
0.71245771646499634 0.49736681580543518 0.28640976548194885
0.77892971038818359 0.51474636793136597 0.30485963821411133
0.84356141090393066 0.52991980314254761 0.32185885310173035
0.45482364296913147 0.50406450033187866 0.24073289334774017
0.51750397682189941 0.50707602500915527 0.24884159862995148
0.58035874366760254 0.51378047466278076 0.25657707452774048
0.64400464296340942 0.52682149410247803 0.26604470610618591
0.70894533395767212 0.54385900497436523 0.28108879923820496
0.77449434995651245 0.56182092428207397 0.30046734213829041
0.83915287256240845 0.57802039384841919 0.31967142224311829
0.47203171253204346 0.5656813383102417 0.25614532828330994
0.52950829267501831 0.56584244966506958 0.25704896450042725
0.58647716045379639 0.56893861293792725 0.25777840614318848
0.64579540491104126 0.57883387804031372 0.26214000582695007
0.70811235904693604 0.59415847063064575 0.27569621801376343
0.772327721118927 0.61224448680877686 0.29697221517562866
0.83632320165634155 0.62913316488265991 0.31826555728912354
0.48673608899116516 0.62876009941101074 0.26469379663467407
0.54160654544830322 0.62904304265975952 0.26101136207580566
0.59473347663879395 0.63016778230667114 0.25806525349617004
0.65054863691329956 0.6364511251449585 0.26096874475479126
0.71046608686447144 0.64907270669937134 0.27396088838577271
0.77299189567565918 0.665904700756073 0.29564985632896423
0.83510839939117432 0.68257248401641846 0.31780573725700378
0.45620420575141907 0.29249772429466248 0.28295373916625977
0.52531975507736206 0.30936956405639648 0.29858472943305969
0.59254080057144165 0.32461449503898621 0.31466788053512573
0.65955209732055664 0.34048935770988464 0.33189499378204346
0.72692102193832397 0.35799533128738403 0.34996166825294495
0.79370343685150146 0.37632155418395996 0.36640310287475586
0.85660547018051147 0.39005196094512939 0.37879425287246704
0.46137365698814392 0.35283529758453369 0.28971588611602783
0.528664231300354 0.36702144145965576 0.3037610650062561
0.59551697969436646 0.38096261024475098 0.31897205114364624
0.66227215528488159 0.39633148908615112 0.33619603514671326
0.73024684190750122 0.41394218802452087 0.3536626398563385
0.7974579930305481 0.43189129233360291 0.37106737494468689
0.86139249801635742 0.44597750902175903 0.38476267457008362
0.46110329031944275 0.40808618068695068 0.29313075542449951
0.52720791101455688 0.41917338967323303 0.30600500106811523
0.59359872341156006 0.43126571178436279 0.32033941149711609
0.66067159175872803 0.44616919755935669 0.33647662401199341
0.72833454608917236 0.4635680615901947 0.35386708378791809
0.79551476240158081 0.48112133145332336 0.37135133147239685
0.86028057336807251 0.49574840068817139 0.38675087690353394
0.46074491739273071 0.46109998226165771 0.29702311754226685
0.52525687217712402 0.46801269054412842 0.30901157855987549
0.59090596437454224 0.47789362072944641 0.3217695951461792
0.6571575403213501 0.49251803755760193 0.33520874381065369
0.72398048639297485 0.50999575853347778 0.35135218501091003
0.79067516326904297 0.52743762731552124 0.36916917562484741
0.85575693845748901 0.54279369115829468 0.38607385754585266
0.46864047646522522 0.51656317710876465 0.30705568194389343
0.52970302104949951 0.51812165975570679 0.31612232327461243
0.5918503999710083 0.5250059962272644 0.32432898879051208
0.65515363216400146 0.53943830728530884 0.33306106925010681
0.72042572498321533 0.55663955211639404 0.3471018373966217
0.78583908081054688 0.57407349348068237 0.365317702293396
0.85098564624786377 0.58984160423278809 0.38397982716560364
0.48569712042808533 0.57706707715988159 0.3205813467502594
0.54125332832336426 0.57603073120117188 0.32202699780464172
0.59782952070236206 0.57999014854431152 0.32371106743812561
0.65749657154083252 0.59146147966384888 0.32914707064628601
0.71992623805999756 0.60669434070587158 0.34203100204467773
0.7837139368057251 0.62310332059860229 0.36139100790023804
0.84799063205718994 0.63901615142822266 0.38182279467582703
0.50158816576004028 0.64053016901016235 0.32758918404579163
0.55396336317062378 0.64005839824676514 0.32201069593429565
0.60683786869049072 0.64226830005645752 0.32078155875205994
0.66341853141784668 0.64941775798797607 0.3269505500793457
0.72301596403121948 0.66101557016372681 0.33993950486183167
0.7848471999168396 0.67536532878875732 0.35928824543952942
0.84696435928344727 0.69040685892105103 0.3804534375667572
0.46302124857902527 0.29834997653961182 0.33884954452514648
0.53182005882263184 0.31329059600830078 0.35421636700630188
0.59851294755935669 0.3272068202495575 0.3703123927116394
0.66484189033508301 0.34259134531021118 0.38710817694664001
0.73141103982925415 0.36103299260139465 0.40374559164047241
0.79715543985366821 0.37959542870521545 0.41894832253456116
0.85911023616790771 0.39309418201446533 0.43108746409416199
0.47170859575271606 0.36194896697998047 0.34901264309883118
0.53832393884658813 0.37465652823448181 0.36236110329627991
0.60419118404388428 0.38726881146430969 0.37725237011909485
0.67047393321990967 0.40208417177200317 0.3937162458896637
0.73753595352172852 0.41993346810340881 0.41073530912399292
0.80406451225280762 0.43822872638702393 0.4270358681678772
0.86783105134963989 0.4524371325969696 0.44048702716827393
0.47470954060554504 0.42015978693962097 0.3558727502822876
0.54032838344573975 0.43073084950447083 0.36782661080360413
0.60522204637527466 0.44228610396385193 0.3816521167755127
0.67109060287475586 0.45635974407196045 0.39743334054946899
0.73839420080184937 0.47342362999916077 0.41420873999595642
0.80534666776657104 0.49079900979995728 0.43103072047233582
0.87044912576675415 0.50526720285415649 0.44610002636909485
0.47574791312217712 0.47500145435333252 0.36140984296798706
0.5400964617729187 0.48279070854187012 0.3730408251285553
0.60467708110809326 0.49259504675865173 0.38560658693313599
0.66932255029678345 0.50647330284118652 0.3993438184261322
0.73564982414245605 0.52299237251281738 0.41501638293266296
0.80250507593154907 0.53969711065292358 0.43189769983291626
0.86804389953613281 0.55415982007980347 0.4482065737247467
0.48350104689598083 0.53116893768310547 0.3707878589630127
0.54460436105728149 0.53498095273971558 0.38063457608222961
0.60572248697280884 0.54246413707733154 0.38997742533683777
0.66781830787658691 0.55559581518173218 0.39992412924766541
0.73241561651229858 0.57146120071411133 0.41328218579292297
0.79840922355651855 0.58705174922943115 0.42968598008155823
0.86372458934783936 0.6009361743927002 0.44694629311561584
0.50039738416671753 0.59170866012573242 0.38307651877403259
0.55567312240600586 0.59281283617019653 0.38671094179153442
0.6115298867225647 0.59733831882476807 0.39108622074127197
0.67042815685272217 0.60801422595977783 0.39842626452445984
0.73224407434463501 0.62124150991439819 0.41000321507453918
0.79647386074066162 0.63467669486999512 0.42567384243011475
0.86136293411254883 0.64804518222808838 0.44346857070922852
0.51678115129470825 0.65475708246231079 0.39040973782539368
0.56840705871582031 0.6555180549621582 0.38735789060592651
0.62074828147888184 0.65815234184265137 0.38981997966766357
0.67683202028274536 0.6649932861328125 0.39708739519119263
0.73609554767608643 0.67428404092788696 0.40822407603263855
0.79796624183654785 0.68398362398147583 0.42251718044281006
0.8607332706451416 0.69586855173110962 0.43985721468925476
0.46795466542243958 0.3014216423034668 0.39247718453407288
0.53638845682144165 0.31560984253883362 0.40783610939979553
0.6023678183555603 0.32770001888275146 0.42411473393440247
0.66729843616485596 0.3419327437877655 0.4402497410774231
0.73281252384185791 0.36014503240585327 0.45504423975944519
0.7960321307182312 0.3780246376991272 0.46827223896980286
0.85708463191986084 0.39128923416137695 0.47948017716407776
0.47973135113716125 0.36763513088226318 0.40581804513931274
0.54649800062179565 0.38039571046829224 0.41915178298950195
0.61169612407684326 0.39232710003852844 0.43397486209869385
0.67675864696502686 0.40631008148193359 0.44985601305961609
0.74249601364135742 0.42351183295249939 0.46566510200500488
0.80801165103912354 0.44097447395324707 0.48023608326911926
0.87110680341720581 0.45453992486000061 0.49316313862800598
0.4870297908782959 0.4290439784526825 0.41699007153511047
0.55249816179275513 0.44101148843765259 0.42852628231048584
0.61687904596328735 0.45268261432647705 0.44189059734344482
0.68144124746322632 0.46618074178695679 0.45731517672538757
0.747691810131073 0.48237943649291992 0.47337466478347778
0.81489270925521851 0.49895894527435303 0.48912447690963745
0.88030928373336792 0.51276004314422607 0.50331681966781616
0.49283203482627869 0.48731943964958191 0.42738643288612366
0.5565679669380188 0.49774220585823059 0.43743544816970825
0.61915773153305054 0.50850528478622437 0.44922593235969543
0.68196231126785278 0.52112823724746704 0.46336546540260315
0.74805718660354614 0.536704421043396 0.47829189896583557
0.8161931037902832 0.55269211530685425 0.49395379424095154
0.88326358795166016 0.5662958025932312 0.50910323858261108
0.50319099426269531 0.54636973142623901 0.43875768780708313
0.56287050247192383 0.55335968732833862 0.44795432686805725
0.62159448862075806 0.56195259094238281 0.45733574032783508
0.68207430839538574 0.57388293743133545 0.46791303157806396
0.74617069959640503 0.58839118480682373 0.4802187979221344
0.81326031684875488 0.60287338495254517 0.49474111199378967
0.88033097982406616 0.61557608842849731 0.51004284620285034
0.52046173810958862 0.60822248458862305 0.45079523324966431
0.57435125112533569 0.61188966035842896 0.45732343196868896
0.62821149826049805 0.61760908365249634 0.4632079005241394
0.6850813627243042 0.62742173671722412 0.47017231583595276
0.74606865644454956 0.6395142674446106 0.47983118891716003
0.81085264682769775 0.6510617733001709 0.49267095327377319
0.87685823440551758 0.66235411167144775 0.50780749320983887
0.53683531284332275 0.67130333185195923 0.45955660939216614
0.58704054355621338 0.6729123592376709 0.46411541104316711
0.63789445161819458 0.67660170793533325 0.46694037318229675
0.69245153665542603 0.68340563774108887 0.47170534729957581
0.75058639049530029 0.69170844554901123 0.47963261604309082
0.81231033802032471 0.69954597949981689 0.49062830209732056
0.87516450881958008 0.70914453268051147 0.50482416152954102
0.4706299901008606 0.30263516306877136 0.44591262936592102
0.5390886664390564 0.3168342113494873 0.46152320504188538
0.60475736856460571 0.3291989266872406 0.47766542434692383
0.66894495487213135 0.34272149205207825 0.49302062392234802
0.73237407207489014 0.35951524972915649 0.50644809007644653
0.7941100001335144 0.37550386786460876 0.51753914356231689
0.85357511043548584 0.38765725493431091 0.52735036611557007
0.48582512140274048 0.37087270617485046 0.46268090605735779
0.55278587341308594 0.3845277726650238 0.47636556625366211
0.61764615774154663 0.3968597948551178 0.49091783165931702
0.68196707963943481 0.41048768162727356 0.50591814517974854
0.74654608964920044 0.42666164040565491 0.52009618282318115
0.81060606241226196 0.4425254762172699 0.53301090002059937
0.87307846546173096 0.45515412092208862 0.54476743936538696
0.49767407774925232 0.43525156378746033 0.47875899076461792
0.56311023235321045 0.44862508773803711 0.49023231863975525
0.6267009973526001 0.46123471856117249 0.50301790237426758
0.69047373533248901 0.47469231486320496 0.51748096942901611
0.75621575117111206 0.4901643693447113 0.53212988376617432
0.8233489990234375 0.50596773624420166 0.54641836881637573
0.88884150981903076 0.51895201206207275 0.55958861112594604
0.50877285003662109 0.4967685341835022 0.49415254592895508
0.57145684957504272 0.50941187143325806 0.50386530160903931
0.63257241249084473 0.52133244276046753 0.51502501964569092
0.69460415840148926 0.53423774242401123 0.52788645029067993
0.76045036315917969 0.54922235012054443 0.5415046215057373
0.82958531379699707 0.56462687253952026 0.55575716495513916
0.89803755283355713 0.5781242847442627 0.56960016489028931
0.52251875400543213 0.55895543098449707 0.50835108757019043
0.58098185062408447 0.56883180141448975 0.51725089550018311
0.63749921321868896 0.57864189147949219 0.52645725011825562
0.69651401042938232 0.59049081802368164 0.53666496276855469
0.76073920726776123 0.60468882322311401 0.54759246110916138
0.82877206802368164 0.61877846717834473 0.56037163734436035
0.89652228355407715 0.6302458643913269 0.5738530158996582
0.54044550657272339 0.62353688478469849 0.52012377977371216
0.59415340423583984 0.62968182563781738 0.52854758501052856
0.64597505331039429 0.6365169882774353 0.53553366661071777
0.70132577419281006 0.64625042676925659 0.54230380058288574
0.76177459955215454 0.65824806690216064 0.55069750547409058
0.82663220167160034 0.66952866315841675 0.56181979179382324
0.89219415187835693 0.6792140007019043 0.57460254430770874
0.5579601526260376 0.68775975704193115 0.52870917320251465
0.60752600431442261 0.69103193283081055 0.53665399551391602
0.65650320053100586 0.69524341821670532 0.54117047786712646
0.70927006006240845 0.70218110084533691 0.54563182592391968
0.7665216326713562 0.71070623397827148 0.5526435375213623
0.8274456262588501 0.71931010484695435 0.56249463558197021
0.88951563835144043 0.72795951366424561 0.57465565204620361
