assets/lut/others super warm.cube
# Created by: G'MIC (https://gmic.eu)
TITLE "super_warm"
# LUT size
LUT_3D_SIZE 13
# Data domain
DOMAIN_MIN 0.0 0.0 0.0
DOMAIN_MAX 1.0 1.0 1.0
# LUT data points
0.02537117712199688 0.019362745806574821 0.035329975187778473
0.079741820693016052 0.017939968034625053 0.033510662615299225
0.13411474227905273 0.015492547303438187 0.031732626259326935
0.19445303082466125 0.015460563823580742 0.030889354646205902
0.26515066623687744 0.016464682295918465 0.030349761247634888
0.34864622354507446 0.018023591488599777 0.029545549303293228
0.44181913137435913 0.018865862861275673 0.02898751012980938
0.54054319858551025 0.018935484811663628 0.028604693710803986
0.64072918891906738 0.018122969195246696 0.02845255471765995
0.73518544435501099 0.01627502404153347 0.027792971581220627
0.82177561521530151 0.015441176481544971 0.026621231809258461
0.89931082725524902 0.015450331382453442 0.025387529283761978
0.96768546104431152 0.016732474789023399 0.024683529511094093
0.02655475027859211 0.057965684682130814 0.034216608852148056
0.084016062319278717 0.057826638221740723 0.031714946031570435
0.14194707572460175 0.05522918701171875 0.030862964689731598
0.20632588863372803 0.055663149803876877 0.030089898034930229
0.28138086199760437 0.057879146188497543 0.028413211926817894
0.36721044778823853 0.057965684682130814 0.027078665792942047
0.46130415797233582 0.057965684682130814 0.025819158181548119
0.56055933237075806 0.057965684682130814 0.024987539276480675
0.65992194414138794 0.057965684682130814 0.024722514674067497
0.75182819366455078 0.057110924273729324 0.024253949522972107
0.8350222110748291 0.054067455232143402 0.02329833060503006
0.90809148550033569 0.054830782115459442 0.022772395983338356
0.97194522619247437 0.058046780526638031 0.021512065082788467
0.025992285460233688 0.095543593168258667 0.032712001353502274
0.087888844311237335 0.094004325568675995 0.030920140445232391
0.15125147998332977 0.093304216861724854 0.030138636007905006
0.22120086848735809 0.095630928874015808 0.028751103207468987
0.30092233419418335 0.095702275633811951 0.027337377890944481
0.39031577110290527 0.09503154456615448 0.025581464171409607
0.48653528094291687 0.09594370424747467 0.023970510810613632
0.58489835262298584 0.096568629145622253 0.023232344537973404
0.6802527904510498 0.096545889973640442 0.023161765187978745
0.76834684610366821 0.093943215906620026 0.023161765187978745
0.84591293334960938 0.091532565653324127 0.023085828870534897
0.91370046138763428 0.09198259562253952 0.021927507594227791
0.97356539964675903 0.096316047012805939 0.020275773480534554
0.026645945385098457 0.12912742793560028 0.030601007863879204
0.09233199805021286 0.12887370586395264 0.029366197064518929
0.16060115396976471 0.12984731793403625 0.028463670983910561
0.23582606017589569 0.13025200366973877 0.027892004698514938
0.32053425908088684 0.12881146371364594 0.026538310572504997
0.41441798210144043 0.12723168730735779 0.024720016866922379
0.51263749599456787 0.1292070597410202 0.023200001567602158
0.60889405012130737 0.1332651674747467 0.023140762001276016
0.69982272386550903 0.1336195170879364 0.023208633065223694
0.78236782550811768 0.12947091460227966 0.023914381861686707
0.85479623079299927 0.12461603432893753 0.024232901632785797
0.9180493950843811 0.12391144782304764 0.022732378914952278
0.97432267665863037 0.13040454685688019 0.020638858899474144
0.027621744200587273 0.16199743747711182 0.027572287246584892
0.096613459289073944 0.16321602463722229 0.027054401114583015
0.16919079422950745 0.16593137383460999 0.02667694166302681
0.2489907294511795 0.16498789191246033 0.026464603841304779
0.33811929821968079 0.16049790382385254 0.026360230520367622
0.43683549761772156 0.15709088742733002 0.024500798434019089
0.53810340166091919 0.15994887053966522 0.023120475932955742
0.63270950317382812 0.16738131642341614 0.022916980087757111
0.71805483102798462 0.17006024718284607 0.02454020269215107
0.79492485523223877 0.16646350920200348 0.02608102560043335
0.86257904767990112 0.1575239896774292 0.025259727612137794
0.92235082387924194 0.15258949995040894 0.023561155423521996
0.97553670406341553 0.15929263830184937 0.021654870361089706
0.02891622856259346 0.20254614949226379 0.026250772178173065
0.10091708600521088 0.20553262531757355 0.026225490495562553
0.17723859846591949 0.20997177064418793 0.025925880298018456
0.26116219162940979 0.20792068541049957 0.02562357671558857
0.35312771797180176 0.20109334588050842 0.026808600872755051
0.45751091837882996 0.19449701905250549 0.024949930608272552
0.56463176012039185 0.19481435418128967 0.022642277181148529
0.6575353741645813 0.20500196516513824 0.023260198533535004
0.73663967847824097 0.21350909769535065 0.025602677837014198
0.80738484859466553 0.21165867149829865 0.026576083153486252
0.87052673101425171 0.19899049401283264 0.023911135271191597
0.9271513819694519 0.18875814974308014 0.021763864904642105
0.97739511728286743 0.19348286092281342 0.0216091088950634
0.030238162726163864 0.26260849833488464 0.027288878336548805
0.10524996370077133 0.26715022325515747 0.026969371363520622
0.18566851317882538 0.27250409126281738 0.026359707117080688
0.27332854270935059 0.2718845009803772 0.025253161787986755
0.36957406997680664 0.26548153162002563 0.024333834648132324
0.47825175523757935 0.25702545046806335 0.022933062165975571
0.5887865424156189 0.25404909253120422 0.021826082840561867
0.67889583110809326 0.26534506678581238 0.023359948769211769
0.75423198938369751 0.27550244331359863 0.024404892697930336
0.82002663612365723 0.27408301830291748 0.023184264078736305
0.87827223539352417 0.26260554790496826 0.018782582134008408
0.93091833591461182 0.25295498967170715 0.016867827624082565
0.97856098413467407 0.25971314311027527 0.018769986927509308
0.030536770820617676 0.35604086518287659 0.028810178861021996
0.1092555895447731 0.35749396681785583 0.027762334793806076
0.19508928060531616 0.36100274324417114 0.026981009170413017
0.28840470314025879 0.36194208264350891 0.023528708145022392
0.3897826075553894 0.35976970195770264 0.020210430026054382
0.49917548894882202 0.35480910539627075 0.018892863765358925
0.60592097043991089 0.35317915678024292 0.02062644250690937
0.69570976495742798 0.36065542697906494 0.02310841903090477
0.77031987905502319 0.36496293544769287 0.023389823734760284
0.83341044187545776 0.36285743117332458 0.019982701167464256
0.88649481534957886 0.35722175240516663 0.014979837462306023
0.93382406234741211 0.35561829805374146 0.013318753801286221
0.97817200422286987 0.367563396692276 0.014507622458040714
0.02852712944149971 0.47126805782318115 0.026030058041214943
0.11301840841770172 0.46875783801078796 0.026833118870854378
0.20562170445919037 0.46925106644630432 0.025581778958439827
0.30513879656791687 0.47084170579910278 0.021461861208081245
0.41134971380233765 0.47109609842300415 0.017710262909531593
0.5213891863822937 0.47061073780059814 0.017288478091359138
0.62550622224807739 0.47021174430847168 0.019835378974676132
0.71344411373138428 0.47299918532371521 0.023139070719480515
0.78681564331054688 0.47259023785591125 0.023155571892857552
0.8465389609336853 0.4711114764213562 0.020533423870801926
0.89484822750091553 0.47206535935401917 0.015809467062354088
0.93653857707977295 0.47971323132514954 0.012671452015638351
0.97671413421630859 0.49563699960708618 0.01151688490062952
0.034691412001848221 0.58928447961807251 0.023237744346261024
0.12190309166908264 0.58645480871200562 0.023883715271949768
0.21760888397693634 0.58631819486618042 0.023064572364091873
0.32202690839767456 0.58693957328796387 0.020150009542703629
0.43302342295646667 0.58898311853408813 0.01778736524283886
0.54567253589630127 0.58900994062423706 0.01824607141315937
0.64907312393188477 0.58864063024520874 0.019619258120656013
0.73491990566253662 0.58914196491241455 0.022676475346088409
0.80277663469314575 0.5875622034072876 0.023284314200282097
0.85636371374130249 0.58765006065368652 0.022688457742333412
0.89985650777816772 0.59400564432144165 0.018531380221247673
0.93833273649215698 0.60680627822875977 0.014206680469214916
0.97671568393707275 0.62343209981918335 0.011077611707150936
0.04177214577794075 0.70635098218917847 0.024742066860198975
0.13137009739875793 0.70535761117935181 0.023911405354738235
0.22911834716796875 0.70503461360931396 0.021695440635085106
0.33679348230361938 0.70613157749176025 0.019329490140080452
0.4526403546333313 0.70705503225326538 0.017723891884088516
0.56873154640197754 0.70797121524810791 0.018080377951264381
0.67299813032150269 0.70787429809570312 0.019135987386107445
0.75588327646255493 0.70768028497695923 0.019776618108153343
0.81632339954376221 0.70751482248306274 0.02246386930346489
0.86196905374526978 0.7095598578453064 0.023243473842740059
0.90124672651290894 0.71676445007324219 0.020912274718284607
0.93822860717773438 0.72748470306396484 0.01657123863697052
0.97671568393707275 0.73923474550247192 0.013172433711588383
0.041811775416135788 0.82422298192977905 0.022245191037654877
0.13612706959247589 0.82226479053497314 0.022300286218523979
0.23780864477157593 0.8221813440322876 0.020822877064347267
0.34798949956893921 0.82249712944030762 0.018464704975485802
0.46652141213417053 0.82497501373291016 0.016487749293446541
0.58632981777191162 0.82593083381652832 0.01585693284869194
0.69418799877166748 0.82538336515426636 0.016038767993450165
0.77484738826751709 0.82458722591400146 0.017193170264363289
0.82660382986068726 0.82533276081085205 0.019496588036417961
0.86474823951721191 0.8287738561630249 0.021603409200906754
0.90041106939315796 0.83437263965606689 0.02184264175593853
0.93811273574829102 0.83993822336196899 0.018431570380926132
0.97672557830810547 0.84524768590927124 0.014970951713621616
0.04145335778594017 0.93979471921920776 0.020706925541162491
0.13964946568012238 0.93763291835784912 0.020754182711243629
0.24332661926746368 0.93604493141174316 0.019856531172990799
0.35457181930541992 0.93647867441177368 0.017323138192296028
0.47291645407676697 0.938934326171875 0.014371235854923725
0.59542113542556763 0.93975716829299927 0.013588804751634598
0.70694035291671753 0.93892914056777954 0.014901314862072468
0.78742349147796631 0.93765389919281006 0.015441176481544971
0.83210170269012451 0.9369240403175354 0.01608358696103096
0.86520481109619141 0.93872910737991333 0.018132543191313744
0.89985591173171997 0.94282478094100952 0.019858416169881821
0.93811273574829102 0.94445455074310303 0.018896006047725677
0.97777009010314941 0.94521975517272949 0.015449913218617439
0.025009455159306526 0.019362745806574821 0.118172287940979
0.082393035292625427 0.018295466899871826 0.11384061723947525
0.14049389958381653 0.016256354749202728 0.11050403118133545
0.20610146224498749 0.015909889712929726 0.1076045036315918
0.28256130218505859 0.016823682934045792 0.10545670986175537
0.36948481202125549 0.018096325919032097 0.1021307110786438
0.4637247622013092 0.019098453223705292 0.097745694220066071
0.56217187643051147 0.019362745806574821 0.093907296657562256
0.65931969881057739 0.018879864364862442 0.09111495316028595
0.75022310018539429 0.017520919442176819 0.08825402706861496
0.8328319787979126 0.015633616596460342 0.084806598722934723
0.90613919496536255 0.015441356226801872 0.080959603190422058
0.97114771604537964 0.015927961096167564 0.077075421810150146
0.026463931426405907 0.057965684682130814 0.11560022830963135
0.086666494607925415 0.057965684682130814 0.11113275587558746
0.14853236079216003 0.057916723191738129 0.10706786811351776
0.21786639094352722 0.057891741394996643 0.10364975035190582
0.29766571521759033 0.057965684682130814 0.10048757493495941
0.38732072710990906 0.057965684682130814 0.096368707716464996
0.48397079110145569 0.057965684682130814 0.091602519154548645
0.58284449577331543 0.057965684682130814 0.087729468941688538
0.67861604690551758 0.057965684682130814 0.085352607071399689
0.76677912473678589 0.057758048176765442 0.083053469657897949
0.84518134593963623 0.05461285263299942 0.080187387764453888
0.91418164968490601 0.054138228297233582 0.076275378465652466
0.97482097148895264 0.056581638753414154 0.071728363633155823
0.026411378756165504 0.095646277070045471 0.11260435730218887
0.091046489775180817 0.09538763016462326 0.1077817901968956
0.15796062350273132 0.095619440078735352 0.10335446894168854
0.2321048378944397 0.096383742988109589 0.099718697369098663
0.31629827618598938 0.096116639673709869 0.095640577375888824
0.41018855571746826 0.096063725650310516 0.091021925210952759
0.50920301675796509 0.096402429044246674 0.085948407649993896
0.60749274492263794 0.096568629145622253 0.082129746675491333
0.69941681623458862 0.096319712698459625 0.08030247688293457
0.78268837928771973 0.093490481376647949 0.079227223992347717
0.85574281215667725 0.091101415455341339 0.076829887926578522
0.91947585344314575 0.091104127466678619 0.072888664901256561
0.97595441341400146 0.094133295118808746 0.067578442394733429
0.02745036780834198 0.12920704483985901 0.10748282074928284
0.095486611127853394 0.12929895520210266 0.10311683267354965
0.1667896956205368 0.13034458458423615 0.099147915840148926
0.24616973102092743 0.13075453042984009 0.095497682690620422
0.33573538064956665 0.12972339987754822 0.091667875647544861
0.43397194147109985 0.12921802699565887 0.087067365646362305
0.53553247451782227 0.13028398156166077 0.081770144402980804
0.63245189189910889 0.13236150145530701 0.07809554785490036
0.71993541717529297 0.13171590864658356 0.077465623617172241
0.79718285799026489 0.12774001061916351 0.076982460916042328
0.86480003595352173 0.12287501990795135 0.074708364903926849
0.92376112937927246 0.12268581241369247 0.070594355463981628
0.97580862045288086 0.13029943406581879 0.065397478640079498
0.028970351442694664 0.16148783266544342 0.10088146477937698
0.099452421069145203 0.16263705492019653 0.097810767590999603
0.17453795671463013 0.16575546562671661 0.094766698777675629
0.25865012407302856 0.16578073799610138 0.091571033000946045
0.3531290590763092 0.16280657052993774 0.088239453732967377
0.45631644129753113 0.16101504862308502 0.083803139626979828
0.56058865785598755 0.1631910502910614 0.078991800546646118
0.65568315982818604 0.16688583791255951 0.076086394488811493
0.73738676309585571 0.16777794063091278 0.076260551810264587
0.81012165546417236 0.16259835660457611 0.076043464243412018
0.87322348356246948 0.15389405190944672 0.072872519493103027
0.92828232049942017 0.15121953189373016 0.06828753650188446
0.97678524255752563 0.1623544842004776 0.063913904130458832
0.031321119517087936 0.20122021436691284 0.095576778054237366
0.10343915224075317 0.20247457921504974 0.093103893101215363
0.18184694647789001 0.20798452198505402 0.090604878962039948
0.27026954293251038 0.20804443955421448 0.087502181529998779
0.36934050917625427 0.20387794077396393 0.083987340331077576
0.47748181223869324 0.20031736791133881 0.07964731752872467
0.58523821830749512 0.20181803405284882 0.075564563274383545
0.67781615257263184 0.20710198581218719 0.073732815682888031
0.75482583045959473 0.21004566550254822 0.074370197951793671
0.82202339172363281 0.20538780093193054 0.073793984949588776
0.88207197189331055 0.19216027855873108 0.069099247455596924
0.93423038721084595 0.18594193458557129 0.064473293721675873
0.97910922765731812 0.20056194067001343 0.062072739005088806
0.032532740384340286 0.26148015260696411 0.093340568244457245
0.10806398838758469 0.2618926465511322 0.090419605374336243
0.19084784388542175 0.26651078462600708 0.087234929203987122
0.28388509154319763 0.26856577396392822 0.083336204290390015
0.38698971271514893 0.26640781760215759 0.078615732491016388
0.49827539920806885 0.26240125298500061 0.074163727462291718
0.60697460174560547 0.26163750886917114 0.070810295641422272
0.69787436723709106 0.26675039529800415 0.069811955094337463
0.77064269781112671 0.27028214931488037 0.07016570121049881
0.83368039131164551 0.26657506823539734 0.067995838820934296
0.8906053900718689 0.25388360023498535 0.062683731317520142
0.93969476222991943 0.24821363389492035 0.059150215238332748
0.98061519861221313 0.27022364735603333 0.05951835960149765
0.032293625175952911 0.3528081476688385 0.091611243784427643
0.11314068734645844 0.35155570507049561 0.088552035391330719
0.20182546973228455 0.35411113500595093 0.084063872694969177
0.30026036500930786 0.35678529739379883 0.078542999923229218
0.40767845511436462 0.35762006044387817 0.07206764817237854
0.52068793773651123 0.35606792569160461 0.067389108240604401
0.62743532657623291 0.35523363947868347 0.064989902079105377
0.71673411130905151 0.35791414976119995 0.064674779772758484
0.78677618503570557 0.3599126935005188 0.06449514627456665
0.84701621532440186 0.35832330584526062 0.061951953917741776
0.89816844463348389 0.35389584302902222 0.057315543293952942
0.94129949808120728 0.35727789998054504 0.054773923009634018
0.98057824373245239 0.38038265705108643 0.056641027331352234
0.033008575439453125 0.46675121784210205 0.087147623300552368
0.11918842047452927 0.46437543630599976 0.084654591977596283
0.2141500860452652 0.46491235494613647 0.080125607550144196
0.31846073269844055 0.46693837642669678 0.073431544005870819
0.43035480380058289 0.46967434883117676 0.066379591822624207
0.54438304901123047 0.47045508027076721 0.061808925122022629
0.64969110488891602 0.47019612789154053 0.059640549123287201
0.73633772134780884 0.47106948494911194 0.059675987809896469
0.80381757020950317 0.47114476561546326 0.060636080801486969
0.85915756225585938 0.47250020503997803 0.059284854680299759
0.90389370918273926 0.47656935453414917 0.056120283901691437
0.94188970327377319 0.48772212862968445 0.054010879248380661
0.97842895984649658 0.50886332988739014 0.054852727800607681
0.037503678351640701 0.5868983268737793 0.081895075738430023
0.12774989008903503 0.58506041765213013 0.079961784183979034
0.22723215818405151 0.5848088264465332 0.075501777231693268
0.33638712763786316 0.58640140295028687 0.069225907325744629
0.45254778861999512 0.58882802724838257 0.063345938920974731
0.56880193948745728 0.5903923511505127 0.059362761676311493
0.67291796207427979 0.59113180637359619 0.057846877723932266
0.75532823801040649 0.59176516532897949 0.057579759508371353
0.8172873854637146 0.59202653169631958 0.05950457975268364
0.86541688442230225 0.59461301565170288 0.059980250895023346
0.90475296974182129 0.60299837589263916 0.057960182428359985
0.94133120775222778 0.61704772710800171 0.055265285074710846
0.97677546739578247 0.6346631646156311 0.054859384894371033
0.040867224335670471 0.70632803440093994 0.078918367624282837
0.13541138172149658 0.70578658580780029 0.076124273240566254
0.23881684243679047 0.70575392246246338 0.071621477603912354
0.3521675169467926 0.7070845365524292 0.066084481775760651
0.47256356477737427 0.70916181802749634 0.061525203287601471
0.59120374917984009 0.71100318431854248 0.058269515633583069
0.69455862045288086 0.71201157569885254 0.057895883917808533
0.77208214998245239 0.7128482460975647 0.057426661252975464
0.82616233825683594 0.71467870473861694 0.059074446558952332
0.86586195230484009 0.71929454803466797 0.060563493520021439
0.90297907590866089 0.72725659608840942 0.05949566513299942
0.93889814615249634 0.73754018545150757 0.057654347270727158
0.97671568393707275 0.74915987253189087 0.055765967816114426
0.039694301784038544 0.82362931966781616 0.075756669044494629
0.13965585827827454 0.8244512677192688 0.072707697749137878
0.24676723778247833 0.82430732250213623 0.06834537535905838
0.36302226781845093 0.82570117712020874 0.063415646553039551
0.48606926202774048 0.8265576958656311 0.059149648994207382
0.60790550708770752 0.82885938882827759 0.057222627103328705
0.71247565746307373 0.82976871728897095 0.055449977517127991
0.78565055131912231 0.83067202568054199 0.055198356509208679
0.83074957132339478 0.83302265405654907 0.057249855250120163
0.86441105604171753 0.83832848072052002 0.059563446789979935
0.89972418546676636 0.84345197677612305 0.059945154935121536
0.93811273574829102 0.84766209125518799 0.057650052011013031
0.97672814130783081 0.85238182544708252 0.054929293692111969
0.039244677871465683 0.93858295679092407 0.072790376842021942
0.14211459457874298 0.93911147117614746 0.069365933537483215
0.25159373879432678 0.93871051073074341 0.065274678170681
0.36899223923683167 0.93899953365325928 0.060675706714391708
0.49253767728805542 0.94020581245422363 0.056493166834115982
0.61565756797790527 0.94047307968139648 0.054355427622795105
0.72138822078704834 0.94081604480743408 0.053458552807569504
0.79197013378143311 0.94144433736801147 0.053047239780426025
0.8315233588218689 0.94218099117279053 0.054078478366136551
0.8631930947303772 0.94485765695571899 0.056119222193956375
0.89950978755950928 0.94765466451644897 0.05748259648680687
0.93811273574829102 0.94793516397476196 0.056177131831645966
0.9781796932220459 0.94801193475723267 0.054028186947107315
0.024489428848028183 0.018886866047978401 0.19940809905529022
0.084984451532363892 0.017884930595755577 0.19200709462165833
0.14767684042453766 0.01671283133327961 0.18532447516918182
0.21868908405303955 0.01617647148668766 0.18036684393882751
0.30023470520973206 0.016819598153233528 0.17631836235523224
0.39123925566673279 0.017694929614663124 0.1701381504535675
0.48728689551353455 0.018678193911910057 0.1618129163980484
0.58469218015670776 0.019030971452593803 0.15431526303291321
0.67867743968963623 0.018536226823925972 0.14863400161266327
0.76500207185745239 0.017497343942523003 0.14346672594547272
0.84240686893463135 0.015810439363121986 0.13708366453647614
0.9110141396522522 0.015441176481544971 0.13038617372512817
0.97192835807800293 0.015441176481544971 0.12450090050697327
0.026511292904615402 0.057965684682130814 0.19385109841823578
0.09011542797088623 0.057965684682130814 0.18644717335700989
0.15646249055862427 0.057965684682130814 0.17931631207466125
0.23070722818374634 0.057965684682130814 0.17350836098194122
0.31533190608024597 0.057965684682130814 0.16810308396816254
0.40965503454208374 0.058091554790735245 0.16137705743312836
0.50752520561218262 0.058993980288505554 0.1530291885137558
0.60560780763626099 0.058263082057237625 0.14564903080463409
0.69756722450256348 0.057965684682130814 0.1400974839925766
0.78054547309875488 0.057780846953392029 0.13554307818412781
0.85371315479278564 0.055204786360263824 0.13067252933979034
0.91777586936950684 0.054044116288423538 0.12436545640230179
0.97466617822647095 0.054063566029071808 0.11676783859729767
0.027607353404164314 0.096530035138130188 0.18727290630340576
0.095149002969264984 0.09642501175403595 0.18007476627826691
0.16628319025039673 0.096444465219974518 0.17288307845592499
0.24503806233406067 0.096567727625370026 0.16622504591941833
0.33351501822471619 0.096568629145622253 0.15998479723930359
0.43085393309593201 0.096659012138843536 0.15293359756469727
0.5319061279296875 0.096998892724514008 0.14468270540237427
0.62934309244155884 0.096598729491233826 0.13743695616722107
0.7178611159324646 0.095868147909641266 0.13227224349975586
0.7959061861038208 0.093191377818584442 0.12851510941982269
0.86371457576751709 0.091137588024139404 0.12475186586380005
0.92264091968536377 0.090495824813842773 0.11868860572576523
0.97520822286605835 0.091864928603172302 0.11032768338918686
0.028476415202021599 0.13158081471920013 0.17959582805633545
0.099831648170948029 0.13053101301193237 0.17272572219371796
0.17539273202419281 0.13068757951259613 0.16565558314323425
0.25896528363227844 0.13105852901935577 0.159075066447258
0.35241934657096863 0.13148173689842224 0.15289534628391266
0.4542420506477356 0.13186155259609222 0.1462458074092865
0.55749940872192383 0.13236160576343536 0.13838644325733185
0.65377521514892578 0.13225671648979187 0.13133539259433746
0.73760366439819336 0.13030242919921875 0.12667873501777649
0.81043899059295654 0.12685699760913849 0.12315125018358231
0.87279486656188965 0.12314821034669876 0.11917371302843094
0.92667186260223389 0.12301646173000336 0.11314990371465683
0.97547489404678345 0.12915423512458801 0.10552659630775452
0.029926689341664314 0.16366720199584961 0.17146800458431244
