assets/lut/others retro.cube
# Created by: G'MIC (https://gmic.eu)
TITLE "retro"
# LUT size
LUT_3D_SIZE 7
# Data domain
DOMAIN_MIN 0.0 0.0 0.0
DOMAIN_MAX 1.0 1.0 1.0
# LUT data points
0.42751917243003845 0.26730060577392578 0.10516621917486191
0.49441757798194885 0.27714931964874268 0.12387534976005554
0.55838143825531006 0.28772023320198059 0.13714821636676788
0.62309902906417847 0.3020818829536438 0.14576241374015808
0.68847918510437012 0.31852829456329346 0.15452486276626587
0.75390875339508057 0.33810418844223022 0.16872182488441467
0.81708633899688721 0.35884848237037659 0.18953803181648254
0.42758101224899292 0.31902173161506653 0.10574346780776978
0.49518916010856628 0.3301493227481842 0.12194912135601044
0.55884718894958496 0.3403383195400238 0.13438916206359863
0.62267696857452393 0.3525797426700592 0.14294898509979248
0.68794012069702148 0.36644420027732849 0.15026640892028809
0.75352925062179565 0.38326326012611389 0.16258159279823303
0.81756550073623657 0.40479978919029236 0.18563240766525269
0.42405954003334045 0.36730304360389709 0.10336722433567047
0.49259853363037109 0.38008823990821838 0.11752739548683167
0.55567330121994019 0.39045709371566772 0.12964910268783569
0.61882865428924561 0.40233528614044189 0.14077726006507874
0.68381792306900024 0.4159356951713562 0.15128688514232635
0.74942308664321899 0.43217068910598755 0.16616402566432953
0.81321048736572266 0.45099553465843201 0.18671272695064545
0.42184948921203613 0.41558659076690674 0.10124778002500534
0.48991379141807556 0.42818149924278259 0.11216969043016434
0.55309796333312988 0.43979793787002563 0.12439301609992981
0.61549085378646851 0.45286273956298828 0.13916303217411041
0.68108624219894409 0.46722939610481262 0.15406803786754608
0.74650496244430542 0.4832635223865509 0.17115914821624756
0.80919593572616577 0.49970635771751404 0.19050827622413635
0.43083640933036804 0.47192052006721497 0.1074673980474472
0.49419230222702026 0.48060762882232666 0.11111447215080261
0.55514901876449585 0.49087285995483398 0.12030825018882751
0.61725962162017822 0.50428581237792969 0.13619516789913177
0.68351441621780396 0.51944518089294434 0.15376999974250793
0.74903398752212524 0.53526675701141357 0.17208701372146606
0.81014734506607056 0.55023729801177979 0.19020877778530121
0.44550228118896484 0.53470820188522339 0.12421155720949173
0.50344771146774292 0.53943151235580444 0.11996651440858841
0.56030845642089844 0.54646444320678711 0.12243377417325974
0.62201797962188721 0.55802226066589355 0.1361718624830246
0.68796372413635254 0.57260072231292725 0.15354785323143005
0.75296032428741455 0.58801823854446411 0.17144326865673065
0.81206148862838745 0.60100609064102173 0.18839062750339508
0.45855295658111572 0.599403977394104 0.14826114475727081
0.51233571767807007 0.60231274366378784 0.13944721221923828
0.56554645299911499 0.6060602068901062 0.13524140417575836
0.62582844495773315 0.61473560333251953 0.14428529143333435
0.68921315670013428 0.62645262479782104 0.15780019760131836
0.75172132253646851 0.63958567380905151 0.17303293943405151
0.81066536903381348 0.65203815698623657 0.18806391954421997
0.44812887907028198 0.28661432862281799 0.17597588896751404
0.51362866163253784 0.2961965799331665 0.19124363362789154
0.57631736993789673 0.30665048956871033 0.20356115698814392
0.63970941305160522 0.32116785645484924 0.21439376473426819
0.705535888671875 0.33807447552680969 0.22532473504543304
0.77228909730911255 0.35576480627059937 0.23920823633670807
0.83708208799362183 0.37157970666885376 0.25570404529571533
0.44400176405906677 0.33450457453727722 0.17343847453594208
0.5101017951965332 0.34558603167533875 0.18858170509338379
0.57371258735656738 0.35694786906242371 0.20142091810703278
0.63788378238677979 0.37102308869361877 0.21219258010387421
0.70387321710586548 0.38684132695198059 0.22291342914104462
0.77090620994567871 0.40380007028579712 0.23671574890613556
0.83668059110641479 0.42068904638290405 0.25461247563362122
0.43767189979553223 0.37955814599990845 0.16875062882900238
0.50424039363861084 0.3918895423412323 0.18275442719459534
0.56839215755462646 0.40465569496154785 0.19596606492996216
0.63261634111404419 0.41857320070266724 0.20863337814807892
0.69850069284439087 0.43400862812995911 0.22152893245220184
0.76511335372924805 0.45034104585647583 0.23688095808029175
0.83039557933807373 0.46711409091949463 0.2549498975276947
0.43921297788619995 0.42994830012321472 0.16635896265506744
0.50370264053344727 0.44036877155303955 0.17644907534122467
0.56633168458938599 0.4526403546333313 0.18918214738368988
0.62916803359985352 0.46658998727798462 0.20447906851768494
0.69477009773254395 0.4821048378944397 0.22068518400192261
0.76057058572769165 0.4983316957950592 0.23811464011669159
0.82452046871185303 0.51422834396362305 0.25597810745239258
0.45168027281761169 0.48835623264312744 0.17029993236064911
0.51247966289520264 0.49462100863456726 0.17356917262077332
0.57118141651153564 0.50362694263458252 0.18348151445388794
0.6314399242401123 0.51659798622131348 0.20030517876148224
0.69588249921798706 0.53190582990646362 0.21861216425895691
0.76087343692779541 0.54786533117294312 0.23689150810241699
0.82369917631149292 0.56338822841644287 0.25450974702835083
0.46851661801338196 0.55280917882919312 0.18413890898227692
0.52574425935745239 0.55547577142715454 0.1821889728307724
0.57989966869354248 0.56037968397140503 0.18764916062355042
0.63714969158172607 0.57009577751159668 0.2014022022485733
0.69988530874252319 0.58358049392700195 0.21808460354804993
0.76381182670593262 0.59922260046005249 0.23559699952602386
0.82530504465103149 0.61406499147415161 0.25220471620559692
0.48226761817932129 0.61912202835083008 0.20405182242393494
0.53692483901977539 0.6214137077331543 0.2053988128900528
0.58805948495864868 0.62261438369750977 0.20600073039531708
0.64267247915267944 0.62712627649307251 0.21090210974216461
0.70274907350540161 0.63741183280944824 0.22250029444694519
0.76457720994949341 0.6513102650642395 0.23702782392501831
0.82511824369430542 0.66531157493591309 0.25180098414421082
0.46038949489593506 0.29813516139984131 0.23721030354499817
0.52552950382232666 0.30844458937644958 0.25129991769790649
0.58810245990753174 0.32033014297485352 0.26481398940086365
0.65125852823257446 0.33672785758972168 0.27872604131698608
0.71667015552520752 0.35503083467483521 0.29295986890792847
0.78437447547912598 0.37022668123245239 0.30624550580978394
0.85160630941390991 0.38008770346641541 0.31826439499855042
0.4550374448299408 0.34537699818611145 0.23511435091495514
0.5207207202911377 0.35722938179969788 0.2502216100692749
0.58468723297119141 0.3708653450012207 0.26461556553840637
0.64919620752334595 0.3876056969165802 0.27886518836021423
0.71560657024383545 0.40582194924354553 0.29316544532775879
0.78385818004608154 0.42152509093284607 0.3071550726890564
0.85136675834655762 0.43326738476753235 0.32014572620391846
0.44820544123649597 0.39048266410827637 0.23206441104412079
0.51398229598999023 0.4035046398639679 0.24664600193500519
0.57876348495483398 0.41806790232658386 0.26109129190444946
0.64402961730957031 0.43439969420433044 0.27560976147651672
0.71067744493484497 0.4515531063079834 0.29055139422416687
0.77818512916564941 0.46739688515663147 0.30525794625282288
0.84464627504348755 0.48112410306930542 0.31937298178672791
0.45424774289131165 0.44457250833511353 0.23229393362998962
0.51573306322097778 0.45410996675491333 0.24269469082355499
0.57723891735076904 0.46628004312515259 0.25549629330635071
0.64054989814758301 0.48102116584777832 0.27074691653251648
0.70644861459732056 0.49687954783439636 0.28703635931015015
0.772788405418396 0.51254665851593018 0.30285394191741943
0.83836519718170166 0.52719610929489136 0.31756427884101868
0.46971499919891357 0.5057181715965271 0.23634490370750427
0.5271984338760376 0.51032435894012451 0.24080359935760498
0.5830872654914856 0.5178292989730835 0.25100940465927124
0.64217782020568848 0.52922016382217407 0.26639962196350098
0.70583450794219971 0.54382205009460449 0.28346544504165649
0.7711603045463562 0.55953025817871094 0.30003172159194946
0.83595681190490723 0.57482481002807617 0.31521669030189514
0.48667541146278381 0.56987285614013672 0.24736233055591583
0.54130220413208008 0.57102590799331665 0.24863207340240479
0.59306102991104126 0.57357293367385864 0.25497394800186157
0.64776480197906494 0.58073723316192627 0.267160564661026
0.70861774682998657 0.59323328733444214 0.28247454762458801
0.77266532182693481 0.60913562774658203 0.29846912622451782
0.83639746904373169 0.62519621849060059 0.31379866600036621
0.49943944811820984 0.63466304540634155 0.2643180787563324
0.55321896076202393 0.63499730825424194 0.26703950762748718
0.60234802961349487 0.63360917568206787 0.26999685168266296
0.65390968322753906 0.63586843013763428 0.2752627432346344
0.71216046810150146 0.6455838680267334 0.28592488169670105
0.77438247203826904 0.66075915098190308 0.29983532428741455
0.83683079481124878 0.67677110433578491 0.31412306427955627
0.46465966105461121 0.30143126845359802 0.28878507018089294
0.53129750490188599 0.3135564923286438 0.30424898862838745
0.59478241205215454 0.32762914896011353 0.32007309794425964
0.657481849193573 0.34579947590827942 0.33690935373306274
0.72193360328674316 0.36499464511871338 0.353680819272995
0.78860878944396973 0.37844252586364746 0.36663636565208435
0.85616320371627808 0.38462677597999573 0.37579217553138733
0.46422103047370911 0.35395506024360657 0.29138943552970886
0.52956950664520264 0.36634287238121033 0.30743330717086792
0.59340989589691162 0.38104736804962158 0.32355746626853943
0.65777629613876343 0.39936932921409607 0.34032729268074036
0.723857581615448 0.41899511218070984 0.35729870200157166
0.79143363237380981 0.43384060263633728 0.37069123983383179
0.85904985666275024 0.44251716136932373 0.3806416392326355
0.46379944682121277 0.40551462769508362 0.295561283826828
0.52646517753601074 0.41691026091575623 0.30931180715560913
0.58961564302444458 0.43120434880256653 0.32410866022109985
0.65469253063201904 0.448091059923172 0.34023967385292053
0.72189980745315552 0.46599790453910828 0.35639455914497375
0.78922730684280396 0.48164394497871399 0.37003451585769653
0.85571175813674927 0.49356377124786377 0.38123014569282532
0.47201982140541077 0.4624345600605011 0.29997420310974121
0.52981162071228027 0.47034791111946106 0.30962243676185608
0.5883866548538208 0.48124754428863525 0.32189440727233887
0.65147709846496582 0.49550223350524902 0.33728525042533875
0.71865952014923096 0.51132857799530029 0.35334974527359009
0.78551977872848511 0.5266382098197937 0.36729913949966431
0.85101670026779175 0.53988480567932129 0.37861311435699463
0.48693832755088806 0.52380388975143433 0.30502253770828247
0.54002088308334351 0.52716708183288574 0.31032967567443848
0.59319251775741577 0.53303539752960205 0.3198358416557312
0.65202188491821289 0.54322212934494019 0.33397242426872253
0.71702224016189575 0.5571102499961853 0.34979867935180664
0.78345650434494019 0.57226252555847168 0.36417701840400696
0.84823989868164062 0.58659821748733521 0.37611162662506104
0.50165897607803345 0.58601164817810059 0.31429955363273621
0.55366677045822144 0.58620411157608032 0.31682547926902771
0.60280120372772217 0.58670920133590698 0.3227752149105072
0.6567758321762085 0.59192192554473877 0.33356758952140808
0.71822440624237061 0.60408324003219604 0.34787642955780029
0.78358495235443115 0.62032711505889893 0.36274847388267517
0.84918659925460815 0.63661247491836548 0.37588697671890259
0.51288646459579468 0.6482354998588562 0.32845398783683777
0.56488466262817383 0.64673441648483276 0.33011507987976074
0.61208218336105347 0.64319157600402832 0.33262550830841064
0.66204261779785156 0.64322257041931152 0.33809924125671387
0.72081607580184937 0.65394645929336548 0.34942695498466492
0.78494054079055786 0.67056739330291748 0.36342358589172363
0.8492659330368042 0.68758195638656616 0.3771359920501709
0.46626797318458557 0.30266743898391724 0.33984553813934326
0.53315842151641846 0.31544554233551025 0.35512891411781311
0.59680813550949097 0.32990476489067078 0.37156197428703308
0.65974932909011841 0.34735465049743652 0.38928171992301941
0.72379136085510254 0.36504504084587097 0.4061848521232605
0.78829878568649292 0.37731984257698059 0.41888511180877686
0.85340416431427002 0.38462075591087341 0.42871162295341492
0.47253003716468811 0.36165046691894531 0.34947234392166138
0.53709501028060913 0.37354326248168945 0.36405825614929199
0.60024219751358032 0.3877403736114502 0.37961572408676147
0.66474878787994385 0.40526488423347473 0.39717480540275574
0.73078048229217529 0.4238484799861908 0.4146038293838501
0.79681903123855591 0.43868365883827209 0.4279569685459137
0.86247169971466064 0.4483359158039093 0.43794465065002441
0.478788822889328 0.41966685652732849 0.36123296618461609
0.53954285383224487 0.42954719066619873 0.37198761105537415
0.60089784860610962 0.44184887409210205 0.38460811972618103
0.66641205549240112 0.45836663246154785 0.40156346559524536
0.73463666439056396 0.4765530526638031 0.41897395253181458
0.80128777027130127 0.49276122450828552 0.43247148394584656
0.86617231369018555 0.5049547553062439 0.44236952066421509
0.48813250660896301 0.47869840264320374 0.36883699893951416
0.54419916868209839 0.48514708876609802 0.37534108757972717
0.60139119625091553 0.49448680877685547 0.38551622629165649
0.66556799411773682 0.50878190994262695 0.40184062719345093
0.73461723327636719 0.52550190687179565 0.4196816086769104
0.80173027515411377 0.54159367084503174 0.433188796043396
0.86645865440368652 0.55476856231689453 0.44245803356170654
0.50090640783309937 0.53901630640029907 0.37326323986053467
0.55303138494491577 0.54200685024261475 0.37697577476501465
0.60556364059448242 0.54747676849365234 0.38574546575546265
0.66601717472076416 0.55813008546829224 0.40108031034469604
0.73301225900650024 0.57284367084503174 0.41810858249664307
0.80015772581100464 0.58863699436187744 0.4317658543586731
0.86538088321685791 0.60288947820663452 0.44208985567092896
0.51474332809448242 0.60058832168579102 0.38155752420425415
0.5657503604888916 0.60058730840682983 0.38351386785507202
0.61487317085266113 0.60101985931396484 0.38948231935501099
0.66970235109329224 0.60665178298950195 0.40126341581344604
0.7324945330619812 0.61936300992965698 0.41642910242080688
0.79908734560012817 0.635761559009552 0.43039390444755554
0.86535513401031494 0.65180474519729614 0.44199416041374207
0.52575337886810303 0.66179686784744263 0.39429545402526855
0.57695508003234863 0.66026204824447632 0.39549738168716431
0.62363606691360474 0.656363844871521 0.39783710241317749
0.67370939254760742 0.65657782554626465 0.40422546863555908
0.73330175876617432 0.66731667518615723 0.41621872782707214
0.79875952005386353 0.68410640954971313 0.42972970008850098
0.86462777853012085 0.70092564821243286 0.44181153178215027
0.465128093957901 0.30293482542037964 0.39155599474906921
0.53159308433532715 0.31592467427253723 0.4057939350605011
0.59530270099639893 0.32936608791351318 0.42142859101295471
0.65936183929443359 0.34520873427391052 0.43878066539764404
0.72501915693283081 0.36146172881126404 0.45642194151878357
0.79011780023574829 0.37438410520553589 0.47106987237930298
0.85528826713562012 0.383790522813797 0.48339870572090149
0.47765862941741943 0.36686545610427856 0.40789669752120972
0.54158300161361694 0.37815693020820618 0.41954353451728821
0.60454094409942627 0.39100533723831177 0.43296623229980469
0.6700817346572876 0.40709826350212097 0.4502389132976532
0.73762935400009155 0.42513775825500488 0.46866339445114136
0.80431348085403442 0.4405859112739563 0.48380941152572632
0.86972141265869141 0.45170050859451294 0.49548998475074768
0.48939844965934753 0.42973944544792175 0.4258992075920105
0.54950058460235596 0.4381263256072998 0.43178147077560425
0.6107901930809021 0.44917020201683044 0.44123455882072449
0.67768776416778564 0.4653993546962738 0.45877209305763245
0.74810254573822021 0.4840606153011322 0.47868704795837402
0.81500917673110962 0.50131374597549438 0.49345523118972778
0.87918150424957275 0.51431852579116821 0.50348800420761108
0.49995344877243042 0.49025735259056091 0.43422546982765198
0.55592912435531616 0.49532154202461243 0.43566367030143738
0.61429125070571899 0.50413310527801514 0.44334119558334351
0.68128818273544312 0.51988881826400757 0.46279919147491455
0.75262117385864258 0.53857451677322388 0.48448005318641663
0.81991016864776611 0.5565420389175415 0.49901112914085388
0.88396847248077393 0.5706552267074585 0.50772827863693237
0.5117681622505188 0.55048650503158569 0.4369453489780426
0.56480693817138672 0.55285054445266724 0.43701803684234619
0.61972498893737793 0.55907928943634033 0.44532492756843567
0.68383651971817017 0.57282978296279907 0.46600207686424255
0.75228583812713623 0.59001260995864868 0.48705846071243286
0.81958729028701782 0.60719984769821167 0.50143641233444214
0.88471138477325439 0.62167620658874512 0.50996744632720947
0.52605921030044556 0.61325275897979736 0.44599071145057678
0.57832354307174683 0.61394119262695312 0.44697600603103638
0.62926357984542847 0.61591523885726929 0.45400455594062805
0.68697434663772583 0.62446850538253784 0.47032597661018372
0.75065034627914429 0.63806736469268799 0.48754578828811646
0.81744110584259033 0.6545029878616333 0.50117635726928711
0.8835296630859375 0.669597327709198 0.51022452116012573
0.53794360160827637 0.67575961351394653 0.46004784107208252
0.59028398990631104 0.67519176006317139 0.46132013201713562
0.63749581575393677 0.67234832048416138 0.46448144316673279
0.68861502408981323 0.67469459772109985 0.4729960560798645
0.74858367443084717 0.68514120578765869 0.48557543754577637
0.81468105316162109 0.70091706514358521 0.49829372763633728
0.88114619255065918 0.71653831005096436 0.50848531723022461
0.46114003658294678 0.30096986889839172 0.44210052490234375
0.52811437845230103 0.31409528851509094 0.45609894394874573
0.5923912525177002 0.32717591524124146 0.47120636701583862
0.65748059749603271 0.34181392192840576 0.48835784196853638
0.72585505247116089 0.35807710886001587 0.50761085748672485
0.7937391996383667 0.37247961759567261 0.52512764930725098
0.85995215177536011 0.38348519802093506 0.54019421339035034
0.47783267498016357 0.36820745468139648 0.46095448732376099
0.54236257076263428 0.37965795397758484 0.47177562117576599
0.60663968324661255 0.39187657833099365 0.48465928435325623
0.67335718870162964 0.40784642100334167 0.5020943284034729
0.74266064167022705 0.42542383074760437 0.52188074588775635
0.81129604578018188 0.44150972366333008 0.53943651914596558
0.8776017427444458 0.45393374562263489 0.55354040861129761
0.49243292212486267 0.43336948752403259 0.47901096940040588
0.55434787273406982 0.44222012162208557 0.48471242189407349
0.61726313829421997 0.45362088084220886 0.49453926086425781
0.68561846017837524 0.47011017799377441 0.5132337212562561
0.75668478012084961 0.48939257860183716 0.53466510772705078
0.8252597451210022 0.50740772485733032 0.55157309770584106
0.89014959335327148 0.52122682332992554 0.5631222128868103
0.50513780117034912 0.49577504396438599 0.48873114585876465
0.56299710273742676 0.50130438804626465 0.48892989754676819
0.6238940954208374 0.51094275712966919 0.49734503030776978
0.69338244199752808 0.5288882851600647 0.52053540945053101
0.76510006189346313 0.54930144548416138 0.54478603601455688
0.83345139026641846 0.56840264797210693 0.56093853712081909
0.89797842502593994 0.58331942558288574 0.57013106346130371
0.51803123950958252 0.55800825357437134 0.49499037861824036
0.57271111011505127 0.56046980619430542 0.49237644672393799
0.63077318668365479 0.56802487373352051 0.50096887350082397
0.69955039024353027 0.58639252185821533 0.52903640270233154
0.76844877004623413 0.60532385110855103 0.55317509174346924
0.83549880981445312 0.62313812971115112 0.56859493255615234
0.90021795034408569 0.63712066411972046 0.5756797194480896
0.53346771001815796 0.62290585041046143 0.50756353139877319
0.58816647529602051 0.62500190734863281 0.50792956352233887
0.64259696006774902 0.62963026762008667 0.51721203327178955
0.70424026250839233 0.64208072423934937 0.5390784740447998
0.76749569177627563 0.65608453750610352 0.55703461170196533
0.8335687518119812 0.67180907726287842 0.5706133246421814
0.89902174472808838 0.68528765439987183 0.57740890979766846
0.54638808965682983 0.68707752227783203 0.52399516105651855
0.60112917423248291 0.68853884935379028 0.52605950832366943
0.6497197151184082 0.68762648105621338 0.53024780750274658
0.70122802257537842 0.69107133150100708 0.53996920585632324
0.76204562187194824 0.70187890529632568 0.55343782901763916
0.82920777797698975 0.7171860933303833 0.56605297327041626
0.89569664001464844 0.73114508390426636 0.57446253299713135
