assets/lut/others cinematic 01.cube
# Created by: G'MIC (https://gmic.eu)
TITLE "cinematic_01"
# LUT size
LUT_3D_SIZE 13
# Data domain
DOMAIN_MIN 0.0 0.0 0.0
DOMAIN_MAX 1.0 1.0 1.0
# LUT data points
0.091301649808883667 0.063649363815784454 0.062112260609865189
0.11441295593976974 0.065365210175514221 0.063430607318878174
0.1486687958240509 0.06902129203081131 0.06361282616853714
0.18991652131080627 0.07062859833240509 0.060874626040458679
0.23966747522354126 0.069569922983646393 0.062564030289649963
0.30324622988700867 0.071530915796756744 0.063488557934761047
0.381418377161026 0.080408252775669098 0.059795979410409927
0.4652097225189209 0.090463019907474518 0.060954254120588303
0.54576176404953003 0.099643394351005554 0.066210545599460602
0.61974197626113892 0.10838820785284042 0.069213524460792542
0.68893295526504517 0.11498609185218811 0.070191867649555206
0.7560805082321167 0.12056277692317963 0.069921739399433136
0.82266390323638916 0.1263129711151123 0.070511773228645325
0.088517554104328156 0.092587910592556 0.061686914414167404
0.11412519216537476 0.092516928911209106 0.065163739025592804
0.15248548984527588 0.092827156186103821 0.063702933490276337
0.19390644133090973 0.096174560487270355 0.060652654618024826
0.24176642298698425 0.098404109477996826 0.060599863529205322
0.30338621139526367 0.1018521785736084 0.060521099716424942
0.38200882077217102 0.10917491465806961 0.058442838490009308
0.46780204772949219 0.11890372633934021 0.059445131570100784
0.54867291450500488 0.12976807355880737 0.063992954790592194
0.62236481904983521 0.14057303965091705 0.068529166281223297
0.69219791889190674 0.14948350191116333 0.070465683937072754
0.76046979427337646 0.15626245737075806 0.071382276713848114
0.82785749435424805 0.16304953396320343 0.073926918208599091
0.087942250072956085 0.12802094221115112 0.061873774975538254
0.11401291191577911 0.12810845673084259 0.065458811819553375
0.15366710722446442 0.12676891684532166 0.061339974403381348
0.1990618109703064 0.12802942097187042 0.058420278131961823
0.24853503704071045 0.13089445233345032 0.058977898210287094
0.30807659029960632 0.13610237836837769 0.057895898818969727
0.38597893714904785 0.14265120029449463 0.056726299226284027
0.47126886248588562 0.15198774635791779 0.05823121964931488
0.55134421586990356 0.16429322957992554 0.062555782496929169
0.625649094581604 0.17734895646572113 0.068182416260242462
0.69684141874313354 0.18868575990200043 0.071698553860187531
0.76688802242279053 0.19730642437934875 0.074670203030109406
0.83585697412490845 0.20554810762405396 0.077438324689865112
0.09041982889175415 0.16288551688194275 0.065090551972389221
0.11397811025381088 0.16374225914478302 0.066430002450942993
0.15006493031978607 0.16493736207485199 0.061746798455715179
0.20065605640411377 0.16435433924198151 0.061940241605043411
0.25842317938804626 0.16562612354755402 0.062620066106319427
0.32301193475723267 0.17189528048038483 0.059075433760881424
0.39953204989433289 0.17913240194320679 0.058417033404111862
0.48068320751190186 0.18957260251045227 0.059604346752166748
0.55906206369400024 0.20302458107471466 0.063454344868659973
0.63395440578460693 0.21788579225540161 0.06904003769159317
0.70633882284164429 0.23246018588542938 0.073901832103729248
0.77780210971832275 0.24331068992614746 0.077622100710868835
0.84725725650787354 0.25336745381355286 0.081668511033058167
0.091812506318092346 0.20073501765727997 0.06722741574048996
0.11104058474302292 0.20217780768871307 0.069553330540657043
0.14216159284114838 0.20571291446685791 0.068849004805088043
0.19473567605018616 0.20761352777481079 0.066841438412666321
0.26429161429405212 0.20984663069248199 0.063399262726306915
0.34116128087043762 0.21523566544055939 0.058973468840122223
0.42223384976387024 0.22048312425613403 0.061981409788131714
0.50083863735198975 0.23074518144130707 0.064729116857051849
0.57661330699920654 0.24521252512931824 0.067003078758716583
0.65100955963134766 0.26112958788871765 0.071172408759593964
0.72380423545837402 0.27723664045333862 0.075791738927364349
0.79491817951202393 0.29141503572463989 0.080333054065704346
0.86278694868087769 0.30457711219787598 0.086034052073955536
0.092651471495628357 0.24232317507266998 0.070538617670536041
0.1103559136390686 0.24506582319736481 0.072309099137783051
0.13882209360599518 0.25098720192909241 0.071932941675186157
0.19059860706329346 0.25741150975227356 0.069779552519321442
0.26964819431304932 0.26299235224723816 0.065349459648132324
0.36419475078582764 0.26746693253517151 0.062062103301286697
0.45223730802536011 0.27219626307487488 0.065839909017086029
0.52773123979568481 0.28190600872039795 0.069090761244297028
0.60079437494277954 0.29528993368148804 0.070548906922340393
0.67339175939559937 0.31116902828216553 0.073547869920730591
0.74456381797790527 0.32751920819282532 0.077745817601680756
0.8135947585105896 0.34340021014213562 0.083009950816631317
0.87870830297470093 0.35862511396408081 0.089929737150669098
0.094585224986076355 0.29039677977561951 0.07979341596364975
0.11289642751216888 0.29464033246040344 0.077151700854301453
0.14031708240509033 0.30338042974472046 0.074946776032447815
0.19075161218643188 0.31477516889572144 0.073042698204517365
0.27720737457275391 0.32440495491027832 0.070293635129928589
0.38728907704353333 0.3309180736541748 0.067415542900562286
0.4823138415813446 0.33876335620880127 0.069429181516170502
0.55648976564407349 0.34775099158287048 0.073103375732898712
0.62597888708114624 0.35736739635467529 0.074040144681930542
0.69504022598266602 0.37160322070121765 0.076052285730838776
0.76322007179260254 0.3870999813079834 0.080342955887317657
0.82918530702590942 0.401437908411026 0.086239218711853027
0.8909839391708374 0.41585361957550049 0.094156615436077118
0.097122892737388611 0.34918183088302612 0.09305986762046814
0.11519762128591537 0.35506442189216614 0.08843085914850235
0.14086389541625977 0.36581063270568848 0.083737872540950775
0.19101983308792114 0.37991473078727722 0.080448895692825317
0.28195202350616455 0.39314058423042297 0.078788697719573975
0.39728593826293945 0.40573316812515259 0.078643426299095154
0.49910959601402283 0.41898456215858459 0.080722138285636902
0.57826417684555054 0.42600497603416443 0.080854110419750214
0.6467137336730957 0.42868694663047791 0.078961946070194244
0.71326327323913574 0.43950381875038147 0.080121837556362152
0.77814507484436035 0.45333310961723328 0.084973804652690887
0.8406684398651123 0.46449524164199829 0.091578178107738495
0.89998358488082886 0.47645303606987 0.10006013512611389
0.10134828090667725 0.41757035255432129 0.1084805354475975
0.11866793036460876 0.42406868934631348 0.10380328446626663
0.1424325704574585 0.43539106845855713 0.097249932587146759
0.19205218553543091 0.44931262731552124 0.09213034063577652
0.2858026921749115 0.46289792656898499 0.090777106583118439
0.40106746554374695 0.47994089126586914 0.091797970235347748
0.50296854972839355 0.49981036782264709 0.092385761439800262
0.58609014749526978 0.50947529077529907 0.089028000831604004
0.65955883264541626 0.50812846422195435 0.084871865808963776
0.72724711894989014 0.51396405696868896 0.086022228002548218
0.78982579708099365 0.52393174171447754 0.092014387249946594
0.8488692045211792 0.53151005506515503 0.099585562944412231
0.90602433681488037 0.53982770442962646 0.10779653489589691
0.1072283610701561 0.48959338665008545 0.12328363955020905
0.12488002330064774 0.49659734964370728 0.11814995855093002
0.15042009949684143 0.50708568096160889 0.11004870384931564
0.20251692831516266 0.5197594165802002 0.10357719659805298
0.29501596093177795 0.53243941068649292 0.10091552883386612
0.40524938702583313 0.54777389764785767 0.099631860852241516
0.49954679608345032 0.56725597381591797 0.09802950918674469
0.57879078388214111 0.58237570524215698 0.09502430260181427
0.65919351577758789 0.58935850858688354 0.09226652979850769
0.73350614309310913 0.59555530548095703 0.094806060194969177
0.79703450202941895 0.59967309236526489 0.10113348811864853
0.85398703813552856 0.60117316246032715 0.10867055505514145
0.90985143184661865 0.60570400953292847 0.11575275659561157
0.11556293070316315 0.56105023622512817 0.13675884902477264
0.13368880748748779 0.56846916675567627 0.12994211912155151
0.16260413825511932 0.5784258246421814 0.12055761367082596
0.21782614290714264 0.5919114351272583 0.11302789300680161
0.30689021944999695 0.60628503561019897 0.10855302959680557
0.4104190468788147 0.61909890174865723 0.10482511669397354
0.49710544943809509 0.63218021392822266 0.10164730250835419
0.56861454248428345 0.64688271284103394 0.10050880908966064
0.64942830801010132 0.6634291410446167 0.10174179077148438
0.72961270809173584 0.67549622058868408 0.10599663108587265
0.79580068588256836 0.67606598138809204 0.11093304306268692
0.85348546504974365 0.67324984073638916 0.11652524024248123
0.90910851955413818 0.67520725727081299 0.12205014377832413
0.12857341766357422 0.62905454635620117 0.15133970975875854
0.14751137793064117 0.63567793369293213 0.14399001002311707
0.175920769572258 0.64702993631362915 0.13263934850692749
0.23260185122489929 0.66477793455123901 0.1241271048784256
0.32003480195999146 0.68374091386795044 0.11918202042579651
0.41713762283325195 0.69689756631851196 0.11374165862798691
0.50158566236495972 0.70507550239562988 0.10843688249588013
0.57151520252227783 0.71557629108428955 0.10722988098859787
0.64202922582626343 0.73068755865097046 0.11096242070198059
0.71622657775878906 0.74304699897766113 0.11616522073745728
0.78376513719558716 0.74508118629455566 0.11960466951131821
0.84482944011688232 0.74436473846435547 0.12280647456645966
0.9034542441368103 0.74696224927902222 0.12699601054191589
0.14201110601425171 0.69693076610565186 0.16527603566646576
0.16199716925621033 0.70283865928649902 0.15866787731647491
0.19071009755134583 0.71447789669036865 0.1487748771905899
0.2481108158826828 0.7360108494758606 0.14056624472141266
0.33382418751716614 0.76039457321166992 0.1351432204246521
0.42450442910194397 0.77339047193527222 0.12811709940433502
0.50663286447525024 0.77819705009460449 0.12060818821191788
0.575755774974823 0.78440523147583008 0.1178022176027298
0.63672012090682983 0.79378777742385864 0.12109123915433884
0.7002454400062561 0.80221277475357056 0.12529361248016357
0.76815587282180786 0.80885571241378784 0.12767726182937622
0.83358639478683472 0.81307733058929443 0.1296466737985611
0.89565032720565796 0.81782984733581543 0.13268181681632996
0.089398525655269623 0.066656328737735748 0.078603707253932953
0.1110554113984108 0.066998407244682312 0.078940145671367645
0.14908160269260406 0.06622016429901123 0.079334735870361328
0.19330520927906036 0.069570876657962799 0.076077990233898163
0.24486476182937622 0.071839712560176849 0.075431421399116516
0.30897617340087891 0.074970990419387817 0.075275719165802002
0.3874666690826416 0.082075871527194977 0.073445037007331848
0.47203513979911804 0.090203382074832916 0.075367994606494904
0.55186957120895386 0.098859347403049469 0.08118787407875061
0.62440949678421021 0.10746359825134277 0.085788458585739136
0.69238024950027466 0.11490538716316223 0.087803937494754791
0.75813990831375122 0.12060108780860901 0.08966333419084549
0.82323950529098511 0.12640184164047241 0.092279352247714996
0.088061511516571045 0.092543631792068481 0.083224140107631683
0.10976972430944443 0.094208016991615295 0.086595751345157623
0.14675469696521759 0.096557497978210449 0.08437163382768631
0.19247926771640778 0.097779907286167145 0.081610225141048431
0.24454464018344879 0.10081921517848969 0.079083569347858429
0.30741125345230103 0.10488072037696838 0.07750353217124939
0.38895770907402039 0.11004052311182022 0.075184345245361328
0.47812864184379578 0.1176014319062233 0.075836420059204102
0.55718731880187988 0.12819927930831909 0.081285975873470306
0.62815642356872559 0.13919506967067719 0.086946360766887665
0.69623106718063354 0.14836955070495605 0.090282827615737915
0.76263850927352905 0.15486866235733032 0.092909418046474457
0.82802051305770874 0.16161878407001495 0.096923381090164185
0.088913068175315857 0.12824705243110657 0.089866533875465393
0.11033745855093002 0.13062833249568939 0.091780073940753937
0.14583146572113037 0.13232825696468353 0.085717625916004181
0.1954001784324646 0.13197310268878937 0.080124661326408386
0.24785234034061432 0.13463158905506134 0.079515703022480011
0.30876359343528748 0.13940112292766571 0.07923019677400589
0.39102825522422791 0.14407223463058472 0.077720537781715393
0.48060816526412964 0.15161076188087463 0.077695928514003754
0.55926662683486938 0.16357921063899994 0.082943350076675415
0.63105916976928711 0.1769232451915741 0.088989302515983582
0.70100009441375732 0.1881406307220459 0.093317084014415741
0.76905500888824463 0.19634184241294861 0.097071282565593719
0.83495068550109863 0.20495671033859253 0.10222561657428741
0.092796117067337036 0.16543905436992645 0.098773464560508728
0.11318395286798477 0.16627150774002075 0.097723625600337982
0.14574527740478516 0.16935206949710846 0.088420748710632324
0.19825349748134613 0.16891200840473175 0.080520004034042358
0.25949600338935852 0.16998894512653351 0.080087535083293915
0.32579344511032104 0.17561520636081696 0.079250171780586243
0.40419262647628784 0.18215754628181458 0.079341188073158264
0.4866175651550293 0.19169518351554871 0.080939382314682007
0.56412303447723389 0.2050030380487442 0.085986539721488953
0.63869798183441162 0.21946248412132263 0.091815412044525146
0.71078628301620483 0.2336006760597229 0.096633940935134888
0.77965235710144043 0.24570758640766144 0.10175691545009613
0.8455275297164917 0.25727659463882446 0.10844327509403229
0.094802945852279663 0.20388182997703552 0.10493865609169006
0.11337093263864517 0.20564857125282288 0.10422830283641815
0.13982850313186646 0.21003484725952148 0.09704938530921936
0.18955695629119873 0.21341389417648315 0.087907023727893829
0.26606461405754089 0.21389031410217285 0.080800510942935944
0.3495221734046936 0.21882407367229462 0.076507195830345154
0.43025961518287659 0.22550345957279205 0.079494073987007141
0.50710111856460571 0.23546895384788513 0.084206871688365936
0.5823742151260376 0.24936044216156006 0.088520094752311707
0.65717267990112305 0.26490548253059387 0.093304909765720367
0.728951096534729 0.28133770823478699 0.098896577954292297
0.79589128494262695 0.29837152361869812 0.10596989840269089
0.85911756753921509 0.31443014740943909 0.11467235535383224
0.096399985253810883 0.2479531466960907 0.1105538010597229
0.11346441507339478 0.25025591254234314 0.10878045856952667
0.13678945600986481 0.25564336776733398 0.10360217839479446
0.18145391345024109 0.26335915923118591 0.0959295853972435
0.26351630687713623 0.26921883225440979 0.087712652981281281
0.36991101503372192 0.27379456162452698 0.082658745348453522
0.46104550361633301 0.27952229976654053 0.083836935460567474
0.53584736585617065 0.28867429494857788 0.087755881249904633
0.6094210147857666 0.30171707272529602 0.090627722442150116
0.68191653490066528 0.31722557544708252 0.094414778053760529
0.75139880180358887 0.33388552069664001 0.10099943727254868
0.81500053405761719 0.3531489372253418 0.10920958966016769
0.87475639581680298 0.37164163589477539 0.11983234435319901
0.099428974092006683 0.29858231544494629 0.12051647156476974
0.11765286326408386 0.30099320411682129 0.1153964027762413
0.14030070602893829 0.30798289179801941 0.1093512624502182
0.18054461479187012 0.32082709670066833 0.10317359119653702
0.26433038711547852 0.33285322785377502 0.097911223769187927
0.38684883713722229 0.34055989980697632 0.094606183469295502
0.48986917734146118 0.34816896915435791 0.093077607452869415
0.56674826145172119 0.35653930902481079 0.093681856989860535
0.63664901256561279 0.36706253886222839 0.094276443123817444
0.70401674509048462 0.3823886513710022 0.097222886979579926
0.77000373601913452 0.39707821607589722 0.10339917987585068
0.83197498321533203 0.41195157170295715 0.1122022271156311
0.88912391662597656 0.42855444550514221 0.12412043660879135
0.10426412522792816 0.35937979817390442 0.1347765326499939
0.122078537940979 0.36277395486831665 0.12858760356903076
0.14282920956611633 0.37150099873542786 0.12012074887752533
0.18233263492584229 0.38655936717987061 0.1116972416639328
0.26881712675094604 0.40223884582519531 0.10653028637170792
0.39325916767120361 0.41588056087493896 0.10529659688472748
0.50543785095214844 0.42876964807510376 0.10555629432201385
0.5890771746635437 0.43656736612319946 0.10298056155443192
0.65715062618255615 0.4408910870552063 0.10026562213897705
0.72024202346801758 0.45262259244918823 0.10270769894123077
0.78249156475067139 0.46492508053779602 0.10900576412677765
0.84252744913101196 0.47506624460220337 0.11792741715908051
0.89915710687637329 0.48790404200553894 0.13004963099956512
0.1126505509018898 0.42669248580932617 0.15297393500804901
0.12985455989837646 0.43082040548324585 0.14772176742553711
0.14624819159507751 0.44053566455841064 0.13653083145618439
0.18515828251838684 0.45487606525421143 0.1254337877035141
0.27335616946220398 0.47025081515312195 0.11969167739152908
0.39660447835922241 0.48852360248565674 0.11766822636127472
0.50774079561233521 0.5087096095085144 0.11554933339357376
0.59486603736877441 0.52030187845230103 0.11149819940328598
0.66631782054901123 0.51710963249206543 0.10742154717445374
0.73092800378799438 0.52302616834640503 0.10965421795845032
0.79088813066482544 0.53355485200881958 0.11717411130666733
0.84850442409515381 0.54157149791717529 0.12692561745643616
0.90506899356842041 0.55068290233612061 0.13755914568901062
0.12332841753959656 0.4957522451877594 0.1708836704492569
0.14096245169639587 0.50016236305236816 0.16582006216049194
0.15458816289901733 0.51053780317306519 0.15167222917079926
0.1926388293504715 0.52319991588592529 0.13967978954315186
0.27892604470252991 0.53786361217498779 0.13265495002269745
0.40034198760986328 0.55740123987197876 0.12658224999904633
0.50485938787460327 0.57849764823913574 0.12180093675851822
0.58677631616592407 0.59352463483810425 0.11850710213184357
0.6614530086517334 0.59633117914199829 0.11615226417779922
0.73241084814071655 0.60019630193710327 0.11907516419887543
0.79536217451095581 0.60511106252670288 0.12674176692962646
0.85354697704315186 0.60912597179412842 0.13549120724201202
0.90920281410217285 0.6156923770904541 0.14480189979076385
0.13302022218704224 0.5652536153793335 0.18505644798278809
0.15015693008899689 0.57083481550216675 0.17748834192752838
0.16578051447868347 0.58125633001327515 0.16106373071670532
0.20475277304649353 0.59409815073013306 0.14879274368286133
0.28791055083274841 0.6101299524307251 0.14169420301914215
0.40492090582847595 0.62915390729904175 0.13327226042747498
0.50426459312438965 0.64496475458145142 0.12680558860301971
0.5763094425201416 0.65738976001739502 0.1250089555978775
0.64550089836120605 0.66760993003845215 0.12681573629379272
0.72181093692779541 0.67491042613983154 0.13073766231536865
0.79207932949066162 0.67678380012512207 0.13659572601318359
0.85382407903671265 0.6782413125038147 0.14307524263858795
0.90998083353042603 0.68350225687026978 0.1505495011806488
0.14555172622203827 0.63247436285018921 0.20000313222408295
0.16310034692287445 0.63849961757659912 0.19051790237426758
0.17871491611003876 0.65063214302062988 0.16951727867126465
0.21836313605308533 0.66582638025283813 0.1578603982925415
0.2966344952583313 0.68278402090072632 0.15353855490684509
0.40370574593544006 0.70025140047073364 0.14598371088504791
0.50356948375701904 0.71384358406066895 0.13759645819664001
0.57368642091751099 0.72363299131393433 0.13539814949035645
0.63473039865493774 0.73327767848968506 0.13859820365905762
0.70618689060211182 0.74146324396133423 0.14296592772006989
0.77880710363388062 0.74571490287780762 0.14658144116401672
0.84494990110397339 0.74841636419296265 0.15031853318214417
0.90507954359054565 0.75352299213409424 0.15594370663166046
0.15525607764720917 0.70003342628479004 0.21247602999210358
0.17388010025024414 0.70606422424316406 0.20321749150753021
0.19345614314079285 0.71840643882751465 0.18577638268470764
0.23426690697669983 0.73536926507949829 0.17587536573410034
0.30701601505279541 0.75398588180541992 0.17209920287132263
0.40451312065124512 0.77082991600036621 0.16498275101184845
0.5007479190826416 0.78283447027206421 0.15553732216358185
0.57340657711029053 0.7912176251411438 0.15224498510360718
0.63176608085632324 0.79829806089401245 0.15309335291385651
0.69478780031204224 0.80486106872558594 0.15548798441886902
0.76500123739242554 0.81178289651870728 0.15701684355735779
0.83365970849990845 0.81789284944534302 0.15887285768985748
0.89775454998016357 0.82422006130218506 0.16299399733543396
0.093774743378162384 0.064215473830699921 0.10681395977735519
0.11212162673473358 0.063103951513767242 0.10751854628324509
0.14849591255187988 0.06300036609172821 0.10848353058099747
0.19564199447631836 0.066631525754928589 0.10544025152921677
0.25125378370285034 0.070572361350059509 0.10126027464866638
0.31480616331100464 0.074183538556098938 0.10006206482648849
0.39183691143989563 0.080027982592582703 0.098992444574832916
0.47616535425186157 0.087885506451129913 0.099793121218681335
0.5560181736946106 0.097175478935241699 0.10369129478931427
0.62849408388137817 0.1071171760559082 0.10697551071643829
0.69609838724136353 0.11527293920516968 0.10933432728052139
0.76076531410217285 0.122525654733181 0.11212783306837082
0.82430863380432129 0.12863203883171082 0.11716373264789581
0.090956702828407288 0.091016583144664764 0.1153370589017868
0.1075911745429039 0.092253290116786957 0.11844360083341599
0.14069372415542603 0.095368646085262299 0.11863606423139572
0.19009444117546082 0.097908064723014832 0.11561581492424011
0.24979871511459351 0.10130941122770309 0.109346903860569
0.31513696908950806 0.10543480515480042 0.10648711025714874
0.3959909975528717 0.10964445024728775 0.10366730391979218
0.48475486040115356 0.11604557186365128 0.10230007022619247
0.56295812129974365 0.1265595555305481 0.1060178130865097
0.6335863471031189 0.1382422000169754 0.11042793095111847
0.70109611749649048 0.14820113778114319 0.11364562064409256
0.76599717140197754 0.15540827810764313 0.11741547286510468
0.82945138216018677 0.16239206492900848 0.12330511957406998
0.09013703465461731 0.12794117629528046 0.1259768158197403
0.10584525018930435 0.12996959686279297 0.12828581035137177
0.13325554132461548 0.13393604755401611 0.12710849940776825
0.18328119814395905 0.13515526056289673 0.12203415483236313
0.24520768225193024 0.1373477578163147 0.11744619905948639
0.31186410784721375 0.14197908341884613 0.11550763994455338
0.39662167429924011 0.14582200348377228 0.11127214878797531
0.48799881339073181 0.15220308303833008 0.10830418020486832
0.56524151563644409 0.16379135847091675 0.11174137145280838
0.6369091272354126 0.17730817198753357 0.11622000485658646
0.70663374662399292 0.18893347680568695 0.11961103230714798
0.77279597520828247 0.19771771132946014 0.12432996183633804
0.83598059415817261 0.20593926310539246 0.1314137727022171
0.092053264379501343 0.16832241415977478 0.13743893802165985
0.1080612912774086 0.16776876151561737 0.13803495466709137
0.13410741090774536 0.1705804169178009 0.13411648571491241
0.18420419096946716 0.17208296060562134 0.12371125817298889
0.25503945350646973 0.17394162714481354 0.11713773012161255
0.32964125275611877 0.18017622828483582 0.1150381788611412
0.41140627861022949 0.18641000986099243 0.11350993812084198
0.49382007122039795 0.19569973647594452 0.11488489061594009
0.569244384765625 0.20924973487854004 0.11939644813537598
0.64423131942749023 0.2239980548620224 0.1225927472114563
0.71672463417053223 0.23833681643009186 0.12581931054592133
0.78248637914657593 0.25182679295539856 0.13265733420848846
0.8443792462348938 0.26452767848968506 0.14175929129123688
0.09333743155002594 0.21010485291481018 0.1472422182559967
0.10891713201999664 0.21145707368850708 0.14716844260692596
0.13160905241966248 0.21446193754673004 0.14166252315044403
0.17675478756427765 0.21836140751838684 0.12918783724308014
0.26394373178482056 0.21900662779808044 0.11393769085407257
