assets/lut/others faux infrared.cube
# Created by: G'MIC (https://gmic.eu)
TITLE "faux_infrared"
# LUT size
LUT_3D_SIZE 13
# Data domain
DOMAIN_MIN 0.0 0.0 0.0
DOMAIN_MAX 1.0 1.0 1.0
# LUT data points
0.048132024705410004 0.057374961674213409 0.060728482902050018
0.079622529447078705 0.093531467020511627 0.10946425050497055
0.14080879092216492 0.14213564991950989 0.18461205065250397
0.19912184774875641 0.19358637928962708 0.26838997006416321
0.2600407600402832 0.25144064426422119 0.3439757227897644
0.33318415284156799 0.31103634834289551 0.41165423393249512
0.39434924721717834 0.35986509919166565 0.48791760206222534
0.47168886661529541 0.42340332269668579 0.56760674715042114
0.53027206659317017 0.47845703363418579 0.64264595508575439
0.59867620468139648 0.54048305749893188 0.7221713662147522
0.65901923179626465 0.59621906280517578 0.79865676164627075
0.72618949413299561 0.65562158823013306 0.8765714168548584
0.78065842390060425 0.70421493053436279 0.95199966430664062
0.099051125347614288 0.10782933235168457 0.098210446536540985
0.089488610625267029 0.12405391037464142 0.11167380958795547
0.13172966241836548 0.1680331826210022 0.17325830459594727
0.1920115053653717 0.21935732662677765 0.26330220699310303
0.25472381711006165 0.27094674110412598 0.34254327416419983
0.32832232117652893 0.32399970293045044 0.41516900062561035
0.38727653026580811 0.37080776691436768 0.49076688289642334
0.44158828258514404 0.42595255374908447 0.56580299139022827
0.49888312816619873 0.47858619689941406 0.64366024732589722
0.55755358934402466 0.52963078022003174 0.72585803270339966
0.61682838201522827 0.58371269702911377 0.80077850818634033
0.68950486183166504 0.64424985647201538 0.87784087657928467
0.74322301149368286 0.69376552104949951 0.95376253128051758
0.17364361882209778 0.16034139692783356 0.16285263001918793
0.14392738044261932 0.153010293841362 0.17485721409320831
0.13280041515827179 0.19369280338287354 0.17368403077125549
0.17615650594234467 0.24775196611881256 0.24467985332012177
0.23606656491756439 0.29948833584785461 0.33435022830963135
0.30151724815368652 0.34189128875732422 0.41532263159751892
0.36083796620368958 0.38164055347442627 0.49381738901138306
0.40063744783401489 0.43175312876701355 0.56702065467834473
0.45969435572624207 0.48318597674369812 0.64340299367904663
0.52796131372451782 0.53811037540435791 0.72650802135467529
0.57563102245330811 0.58147692680358887 0.80413025617599487
0.63542854785919189 0.63278639316558838 0.87784832715988159
0.69550490379333496 0.68660616874694824 0.95519334077835083
0.25955197215080261 0.23402032256126404 0.2346075028181076
0.23615817725658417 0.20518504083156586 0.25521424412727356
0.18644994497299194 0.21314603090286255 0.24943728744983673
0.17813277244567871 0.27004659175872803 0.25131964683532715
0.22075876593589783 0.32535704970359802 0.31862834095954895
0.2726779580116272 0.37597405910491943 0.40536028146743774
0.32647401094436646 0.42109566926956177 0.4909631609916687
0.37924569845199585 0.46830499172210693 0.56885313987731934
0.43753883242607117 0.51612573862075806 0.64525061845779419
0.50625205039978027 0.56375080347061157 0.72601288557052612
0.55728638172149658 0.60619497299194336 0.80130487680435181
0.61253702640533447 0.65181469917297363 0.87593239545822144
0.66305059194564819 0.69767796993255615 0.95011013746261597
0.34316638112068176 0.30652335286140442 0.29689720273017883
0.32252088189125061 0.26862192153930664 0.32346466183662415
0.26430884003639221 0.24456226825714111 0.33675238490104675
0.21532301604747772 0.28483635187149048 0.31940272450447083
0.21096953749656677 0.35034829378128052 0.31116434931755066
0.2490801215171814 0.40357282757759094 0.37276485562324524
0.30398374795913696 0.46594470739364624 0.48391264677047729
0.36615875363349915 0.51788437366485596 0.57142388820648193
0.42039728164672852 0.5628896951675415 0.64912182092666626
0.47564616799354553 0.6004982590675354 0.72425299882888794
0.53249311447143555 0.63793772459030151 0.79949218034744263
0.5884743332862854 0.68430429697036743 0.87301903963088989
0.63589048385620117 0.73074853420257568 0.94528627395629883
0.41758602857589722 0.35257771611213684 0.35835468769073486
0.40701767802238464 0.32820597290992737 0.38561654090881348
0.36378324031829834 0.30238145589828491 0.41398471593856812
0.28494048118591309 0.30748942494392395 0.41253188252449036
0.25687837600708008 0.37672370672225952 0.40309908986091614
0.24817420542240143 0.42571002244949341 0.36168572306632996
0.29000666737556458 0.4939415454864502 0.45118743181228638
0.34723895788192749 0.56175738573074341 0.56603819131851196
0.40220540761947632 0.60836195945739746 0.64842683076858521
0.45474284887313843 0.64733016490936279 0.72475969791412354
0.5126643180847168 0.684550940990448 0.80170786380767822
0.56949859857559204 0.72924739122390747 0.87999141216278076
0.61747348308563232 0.77022248506546021 0.94883471727371216
0.48955729603767395 0.40814068913459778 0.41579505801200867
0.49512144923210144 0.3894135057926178 0.45427969098091125
0.47053664922714233 0.36586371064186096 0.4897807240486145
0.37625399231910706 0.3455997109413147 0.48885419964790344
0.31815168261528015 0.37719690799713135 0.48708316683769226
0.29414603114128113 0.45983678102493286 0.47119230031967163
0.2845160961151123 0.50974541902542114 0.43305107951164246
0.33218884468078613 0.5722382664680481 0.51348972320556641
0.38712570071220398 0.63313984870910645 0.61524254083633423
0.43662318587303162 0.69138103723526001 0.7103850245475769
0.49542859196662903 0.73327732086181641 0.79575568437576294
0.55583715438842773 0.77388101816177368 0.88085466623306274
0.60665225982666016 0.81219726800918579 0.95201247930526733
0.56283652782440186 0.47413647174835205 0.47455728054046631
0.56090497970581055 0.44959902763366699 0.51613682508468628
0.55146992206573486 0.42516186833381653 0.55871391296386719
0.47126734256744385 0.39911410212516785 0.56482803821563721
0.38597425818443298 0.39450711011886597 0.56366229057312012
0.35410502552986145 0.46659928560256958 0.56489747762680054
0.3308926522731781 0.55262589454650879 0.54871934652328491
0.3328891396522522 0.58786237239837646 0.49829503893852234
0.36717727780342102 0.64498627185821533 0.55841600894927979
0.41967755556106567 0.71894156932830811 0.67593216896057129
0.48054859042167664 0.77688783407211304 0.78007292747497559
0.54325515031814575 0.81711781024932861 0.86881023645401001
0.5966610312461853 0.85895991325378418 0.95548290014266968
0.6397591233253479 0.53943711519241333 0.53106570243835449
0.63649213314056396 0.51616942882537842 0.56850236654281616
0.63630741834640503 0.48807170987129211 0.62302345037460327
0.58502113819122314 0.46209090948104858 0.64575082063674927
0.48690533638000488 0.44167032837867737 0.64459007978439331
0.4236181378364563 0.46738886833190918 0.6469343900680542
0.39898836612701416 0.55911576747894287 0.64848554134368896
0.37453195452690125 0.63001316785812378 0.60642892122268677
0.36226719617843628 0.66166746616363525 0.54367738962173462
0.40800702571868896 0.72393572330474854 0.62597262859344482
0.47058951854705811 0.79550635814666748 0.74401986598968506
0.53337109088897705 0.85541349649429321 0.85459697246551514
0.57967841625213623 0.90630531311035156 0.94949585199356079
0.71956431865692139 0.60114610195159912 0.59138888120651245
0.71766138076782227 0.57991385459899902 0.61825180053710938
0.72124713659286499 0.55138856172561646 0.67910993099212646
0.69895917177200317 0.52913928031921387 0.72431701421737671
0.60074317455291748 0.50539171695709229 0.72635990381240845
0.49794349074363708 0.49387669563293457 0.72318118810653687
0.45953047275543213 0.55881422758102417 0.72548824548721313
0.43401595950126648 0.64453107118606567 0.71796113252639771
0.41092965006828308 0.71101653575897217 0.68011319637298584
0.40172162652015686 0.74030798673629761 0.6149524450302124
0.45521700382232666 0.80405795574188232 0.69678187370300293
0.51301747560501099 0.87564325332641602 0.81339436769485474
0.56003797054290771 0.94638186693191528 0.9331325888633728
0.79826617240905762 0.65839606523513794 0.65508109331130981
0.795940101146698 0.63008236885070801 0.69070416688919067
0.79787051677703857 0.60812520980834961 0.73843079805374146
0.78282713890075684 0.59454137086868286 0.78253620862960815
0.71390408277511597 0.56998264789581299 0.80386263132095337
0.60073554515838623 0.5463441014289856 0.79837244749069214
0.53249752521514893 0.568916916847229 0.79965955018997192
0.49705949425697327 0.63443994522094727 0.79705071449279785
0.4728100597858429 0.72927731275558472 0.79374831914901733
0.44914266467094421 0.79253536462783813 0.74580299854278564
0.44688093662261963 0.81801444292068481 0.67298322916030884
0.4865378737449646 0.87763494253158569 0.74369198083877563
0.54161912202835083 0.95171672105789185 0.86973321437835693
0.87444877624511719 0.72339856624603271 0.72425532341003418
0.87442350387573242 0.6914939284324646 0.76165014505386353
0.87616574764251709 0.6759723424911499 0.79465407133102417
0.86739081144332886 0.66195601224899292 0.84051322937011719
0.81417417526245117 0.63134628534317017 0.87913542985916138
0.71011650562286377 0.60447078943252563 0.87889909744262695
0.61436688899993896 0.58783000707626343 0.87750411033630371
0.56286042928695679 0.63232302665710449 0.87502622604370117
0.53441148996353149 0.72181898355484009 0.87276148796081543
0.50816410779953003 0.81581389904022217 0.86102950572967529
0.48686522245407104 0.87066078186035156 0.80196946859359741
0.47779360413551331 0.893959641456604 0.72192847728729248
0.52308827638626099 0.95140987634658813 0.79834699630737305
0.94949603080749512 0.79309302568435669 0.78757864236831665
0.95091915130615234 0.75305724143981934 0.82472497224807739
0.95204764604568481 0.73358172178268433 0.86010760068893433
0.94947260618209839 0.71317863464355469 0.91650742292404175
0.9033437967300415 0.68561232089996338 0.95220291614532471
0.80768710374832153 0.65792655944824219 0.9519273042678833
0.71990954875946045 0.64032280445098877 0.95506578683853149
0.63933956623077393 0.64636147022247314 0.95577830076217651
0.5881417989730835 0.71111577749252319 0.94272911548614502
0.55736356973648071 0.81139296293258667 0.92593473196029663
0.53668344020843506 0.90851432085037231 0.92428469657897949
0.52334487438201904 0.95173388719558716 0.86050498485565186
0.51821553707122803 0.96530383825302124 0.7651515007019043
0.086865849792957306 0.091317214071750641 0.11049810796976089
0.087095148861408234 0.093077778816223145 0.12687213718891144
0.12867012619972229 0.12987098097801208 0.18523447215557098
0.19946768879890442 0.18523606657981873 0.26555302739143372
0.26404130458831787 0.24113959074020386 0.33874931931495667
0.32752883434295654 0.30341640114784241 0.41203254461288452
0.38761541247367859 0.35537120699882507 0.48965603113174438
0.45534002780914307 0.41181293129920959 0.56710869073867798
0.51790553331375122 0.46763443946838379 0.64441275596618652
0.58206337690353394 0.52428442239761353 0.72130841016769409
0.64589470624923706 0.58127570152282715 0.79822885990142822
0.71493178606033325 0.64325964450836182 0.87630254030227661
0.77781319618225098 0.70187997817993164 0.9482954740524292
0.11194472759962082 0.12132915109395981 0.12099938839673996
0.1223018541932106 0.13666553795337677 0.14356665313243866
0.15228857100009918 0.16775761544704437 0.18929225206375122
0.21394625306129456 0.21847793459892273 0.26645419001579285
0.27764534950256348 0.27487123012542725 0.34008634090423584
0.33592972159385681 0.32412451505661011 0.41606080532073975
0.39252784848213196 0.37205672264099121 0.49201300740242004
0.46779149770736694 0.43295389413833618 0.56919705867767334
0.5365416407585144 0.49251225590705872 0.6473228931427002
0.59996318817138672 0.54900777339935303 0.72500938177108765
0.65510076284408569 0.60080468654632568 0.79948562383651733
0.72317588329315186 0.66107761859893799 0.87895703315734863
0.78574532270431519 0.71762937307357788 0.95587372779846191
0.17182351648807526 0.17910557985305786 0.17390304803848267
0.17516744136810303 0.18348360061645508 0.19044125080108643
0.17076875269412994 0.20272532105445862 0.19691497087478638
0.20591564476490021 0.24530389904975891 0.25438129901885986
0.26261401176452637 0.29773086309432983 0.33762800693511963
0.32117736339569092 0.33872872591018677 0.41865959763526917
0.38041949272155762 0.38385045528411865 0.49692896008491516
0.43943208456039429 0.43820789456367493 0.56932574510574341
0.49877312779426575 0.49103981256484985 0.64394474029541016
0.56693124771118164 0.55118972063064575 0.7272828221321106
0.62705725431442261 0.60413014888763428 0.80330318212509155
0.68850642442703247 0.65889185667037964 0.87655419111251831
0.74844264984130859 0.71273154020309448 0.95201140642166138
0.25717565417289734 0.25172498822212219 0.23193888366222382
0.2551727294921875 0.23647302389144897 0.25049468874931335
0.23202617466449738 0.23997724056243896 0.25211650133132935
0.21369200944900513 0.27034768462181091 0.26416841149330139
0.25211009383201599 0.32432442903518677 0.32692739367485046
0.30497545003890991 0.36908939480781555 0.40737047791481018
0.35957691073417664 0.41560304164886475 0.49409133195877075
0.41222569346427917 0.46151965856552124 0.56942558288574219
0.46608874201774597 0.50953382253646851 0.64337730407714844
0.52887845039367676 0.56165802478790283 0.72540432214736938
0.58793777227401733 0.60955291986465454 0.80279529094696045
0.64642494916915894 0.65653723478317261 0.87375956773757935
0.70204949378967285 0.70544040203094482 0.94701051712036133
0.33949470520019531 0.32097232341766357 0.28961542248725891
0.33798840641975403 0.29874309897422791 0.31342390179634094
0.32010653614997864 0.28299754858016968 0.33562695980072021
0.26232558488845825 0.29032400250434875 0.33254808187484741
0.24975830316543579 0.34805938601493835 0.32538187503814697
0.28604081273078918 0.40112906694412231 0.38558349013328552
0.34212887287139893 0.45833092927932739 0.48991328477859497
0.39522957801818848 0.50514072179794312 0.57079780101776123
0.44914019107818604 0.54854041337966919 0.64613640308380127
0.50426888465881348 0.59213662147521973 0.72187715768814087
0.5598328709602356 0.63549602031707764 0.79845172166824341
0.61814790964126587 0.68072718381881714 0.87241929769515991
0.67336905002593994 0.72763586044311523 0.94619208574295044
0.41558387875556946 0.38120397925376892 0.34938246011734009
0.41582831740379333 0.35965234041213989 0.37375327944755554
0.40127307176589966 0.33923646807670593 0.40402960777282715
0.32997795939445496 0.32205277681350708 0.40983983874320984
0.2907414436340332 0.36860597133636475 0.40664318203926086
0.28651252388954163 0.4267846941947937 0.39316225051879883
0.32765981554985046 0.48954784870147705 0.469919353723526
0.38024592399597168 0.55035972595214844 0.5669018030166626
0.43360063433647156 0.59506720304489136 0.6456761360168457
0.48639208078384399 0.63303267955780029 0.72058403491973877
0.54083371162414551 0.6732330322265625 0.79683113098144531
0.60155481100082397 0.72102177143096924 0.87646913528442383
0.65857470035552979 0.76719778776168823 0.95498186349868774
0.49018919467926025 0.44244644045829773 0.40915441513061523
0.49207502603530884 0.4205869734287262 0.43943354487419128
0.48575255274772644 0.3994191586971283 0.47205987572669983
0.42580372095108032 0.37818843126296997 0.48539119958877563
0.3606078028678894 0.38184818625450134 0.49278569221496582
0.3315371572971344 0.45295947790145874 0.48429015278816223
0.32366383075714111 0.50831973552703857 0.45529437065124512
0.36445000767707825 0.56895047426223755 0.52249312400817871
0.41652852296829224 0.6341930627822876 0.63054549694061279
0.46792808175086975 0.6804049015045166 0.71592825651168823
0.52370965480804443 0.71658432483673096 0.79433566331863403
0.58258110284805298 0.76167947053909302 0.87565481662750244
0.63934433460235596 0.80780279636383057 0.95585048198699951
0.56601393222808838 0.50562787055969238 0.47050189971923828
0.56520414352416992 0.48274937272071838 0.50064998865127563
0.56631892919540405 0.46072873473167419 0.53921627998352051
0.53404533863067627 0.4386390745639801 0.56423074007034302
0.44976207613945007 0.42118847370147705 0.56589978933334351
0.39188733696937561 0.45581167936325073 0.56689608097076416
0.36821404099464417 0.53877323865890503 0.55328452587127686
0.36387607455253601 0.58679914474487305 0.5124320387840271
0.3990841805934906 0.64738702774047852 0.57998389005661011
0.45164138078689575 0.71561223268508911 0.69203746318817139
0.50810891389846802 0.76464325189590454 0.78269678354263306
0.56567716598510742 0.80575239658355713 0.86650216579437256
0.61959612369537354 0.8506971001625061 0.95363587141036987
0.64440524578094482 0.57168936729431152 0.53143680095672607
0.64165359735488892 0.54810315370559692 0.55821520090103149
0.64193958044052124 0.52260339260101318 0.6012311577796936
0.6242641806602478 0.49974429607391357 0.6331295371055603
0.55544501543045044 0.47913950681686401 0.64183437824249268
0.46913498640060425 0.47604510188102722 0.64531546831130981
0.43326619267463684 0.54928922653198242 0.6456717848777771
0.40786713361740112 0.62749564647674561 0.62374705076217651
0.39776667952537537 0.6629713773727417 0.56626886129379272
0.43892407417297363 0.72176969051361084 0.63943076133728027
0.49369716644287109 0.79240179061889648 0.75334882736206055
0.54913592338562012 0.84933382272720337 0.85399311780929565
0.6027761697769165 0.8959466814994812 0.94381892681121826
0.72412294149398804 0.63645517826080322 0.59261238574981689
0.71977704763412476 0.60761135816574097 0.61192727088928223
0.71762287616729736 0.58302754163742065 0.6531977653503418
0.7083008885383606 0.56217920780181885 0.69909453392028809
0.66408085823059082 0.54076653718948364 0.72179883718490601
0.56542420387268066 0.52459663152694702 0.72452801465988159
0.50259262323379517 0.56158870458602905 0.72308945655822754
0.46801772713661194 0.64233911037445068 0.72074025869369507
0.44338619709014893 0.70796746015548706 0.68381649255752563
0.43557608127593994 0.73722892999649048 0.62580853700637817
0.47615733742713928 0.80013561248779297 0.69917654991149902
0.53467458486557007 0.8756372332572937 0.82306051254272461
0.59020781517028809 0.94318622350692749 0.93718802928924561
0.79723304510116577 0.69496315717697144 0.65135902166366577
0.79277712106704712 0.66714763641357422 0.66874927282333374
0.79263877868652344 0.64447897672653198 0.70574158430099487
0.79144585132598877 0.624076247215271 0.7599605917930603
0.76260954141616821 0.60458463430404663 0.79964959621429443
0.67458367347717285 0.59228181838989258 0.80095022916793823
0.58999365568161011 0.58820432424545288 0.79944276809692383
0.53037518262863159 0.62619602680206299 0.79852449893951416
0.50443482398986816 0.72139197587966919 0.79412013292312622
0.48255202174186707 0.78447109460830688 0.74950325489044189
0.47664758563041687 0.8158336877822876 0.6868290901184082
0.51943755149841309 0.88115620613098145 0.76549720764160156
0.57189631462097168 0.9559253454208374 0.88717842102050781
0.87168574333190918 0.75623518228530884 0.71416294574737549
0.86868101358413696 0.7291291356086731 0.73435449600219727
0.87236738204956055 0.70655286312103271 0.76970362663269043
0.87251555919647217 0.68672966957092285 0.82128280401229858
0.85556870698928833 0.66645759344100952 0.87191945314407349
0.78010737895965576 0.64720356464385986 0.8810497522354126
0.6888851523399353 0.63173085451126099 0.87671893835067749
0.60678988695144653 0.63682955503463745 0.87621581554412842
0.56834059953689575 0.71780574321746826 0.87600624561309814
0.54219156503677368 0.80976414680480957 0.86700379848480225
0.52154481410980225 0.86227577924728394 0.8060004711151123
0.518940269947052 0.89630460739135742 0.74780404567718506
0.55633640289306641 0.95501267910003662 0.82074445486068726
0.94906854629516602 0.82102960348129272 0.77802437543869019
0.94836610555648804 0.79045116901397705 0.80273914337158203
0.94974112510681152 0.76579022407531738 0.8373267650604248
0.94772642850875854 0.74243372678756714 0.88327288627624512
0.93998187780380249 0.72208565473556519 0.93513298034667969
0.87851583957672119 0.69825953245162964 0.95248621702194214
0.79121512174606323 0.67935824394226074 0.95415687561035156
0.68996143341064453 0.65962451696395874 0.95294344425201416
0.62711447477340698 0.70899355411529541 0.9459652304649353
0.5996435284614563 0.80422478914260864 0.94323992729187012
0.57981175184249878 0.89355063438415527 0.93632090091705322
0.56104004383087158 0.94619262218475342 0.86879241466522217
0.55217975378036499 0.96853333711624146 0.79614853858947754
0.15062402188777924 0.15465819835662842 0.18779444694519043
0.12861752510070801 0.13419181108474731 0.18461914360523224
0.12975138425827026 0.13105608522891998 0.20287239551544189
0.1819273829460144 0.17276401817798615 0.26913118362426758
0.24348725378513336 0.22869175672531128 0.3385540246963501
0.30668097734451294 0.28844562172889709 0.4111294150352478
0.37614437937736511 0.34940046072006226 0.49033257365226746
0.4376596212387085 0.40038216114044189 0.56995731592178345
0.49934884905815125 0.45311838388442993 0.64837795495986938
0.56252717971801758 0.50840955972671509 0.72451913356781006
0.62613487243652344 0.56393730640411377 0.80167436599731445
0.69185250997543335 0.62209343910217285 0.87907451391220093
0.76060837507247925 0.68517386913299561 0.9524848461151123
0.15511080622673035 0.17100390791893005 0.18654029071331024
0.16155178844928741 0.16911035776138306 0.19463376700878143
0.17471922934055328 0.17648351192474365 0.21441209316253662
0.21385721862316132 0.20954924821853638 0.26677227020263672
0.27190336585044861 0.26516437530517578 0.3407033383846283
0.33490464091300964 0.32163730263710022 0.4180944561958313
0.40039491653442383 0.3764636218547821 0.49456441402435303
0.46756759285926819 0.43093881011009216 0.571402907371521
0.53343015909194946 0.48568925261497498 0.65088236331939697
0.59384053945541382 0.54076611995697021 0.72562062740325928
0.6543954610824585 0.59529650211334229 0.80147069692611694
0.71661794185638428 0.65147948265075684 0.87860012054443359
0.77900248765945435 0.70714426040649414 0.95583474636077881
0.18068313598632812 0.20584803819656372 0.20237497985363007
0.19692860543727875 0.20676626265048981 0.21199856698513031
0.20550158619880676 0.21428526937961578 0.22279666364192963
0.23357732594013214 0.24454443156719208 0.2662026584148407
0.28465792536735535 0.29497689008712769 0.34193706512451172
0.34043648838996887 0.34448018670082092 0.41882273554801941
0.40609228610992432 0.39765298366546631 0.49400737881660461
0.4819493293762207 0.45683580636978149 0.5713425874710083
0.55109107494354248 0.51292407512664795 0.64886969327926636
0.60995066165924072 0.56713330745697021 0.72478890419006348
0.67340022325515747 0.62449771165847778 0.80246150493621826
0.73049640655517578 0.67817497253417969 0.87934154272079468
0.79800021648406982 0.73704499006271362 0.9565051794052124
0.24981842935085297 0.27227848768234253 0.24427014589309692
0.25139740109443665 0.26513761281967163 0.24805937707424164
0.25188139081001282 0.26065531373023987 0.2583158016204834
0.24883711338043213 0.28021913766860962 0.27486938238143921
0.28039178252220154 0.32436862587928772 0.33328089118003845
0.33066821098327637 0.36933186650276184 0.41089558601379395
0.39229536056518555 0.41840830445289612 0.49348974227905273
0.45617967844009399 0.47113722562789917 0.5687142014503479
0.51618415117263794 0.52106589078903198 0.6443977952003479
0.57792598009109497 0.57115381956100464 0.72200322151184082
0.6384894847869873 0.62481468915939331 0.79813665151596069
0.7001652717590332 0.67904496192932129 0.87579512596130371
0.76374322175979614 0.73604542016983032 0.95439404249191284
0.32358062267303467 0.33873844146728516 0.29742738604545593
0.33082783222198486 0.33082890510559082 0.30587983131408691
0.33383876085281372 0.31497478485107422 0.3281363844871521
0.303102046251297 0.31744986772537231 0.33301299810409546
0.28130638599395752 0.35160303115844727 0.33008080720901489
0.31911832094192505 0.40013620257377625 0.39784508943557739
0.37648084759712219 0.45145529508590698 0.49353361129760742
0.43096014857292175 0.49605676531791687 0.57019942998886108
0.48744893074035645 0.54135668277740479 0.64471924304962158
