assets/lut/others cinematic 03.cube
# Created by: G'MIC (https://gmic.eu)
TITLE "cinematic_03"
# LUT size
LUT_3D_SIZE 5
# Data domain
DOMAIN_MIN 0.0 0.0 0.0
DOMAIN_MAX 1.0 1.0 1.0
# LUT data points
0.063248202204704285 0.068948633968830109 0.063786692917346954
0.19173631072044373 0.072047784924507141 0.07139122486114502
0.36818605661392212 0.11377065628767014 0.066090933978557587
0.50180923938751221 0.17268972098827362 0.069405891001224518
0.60333544015884399 0.22547240555286407 0.066715657711029053
0.068905085325241089 0.10639383643865585 0.070330359041690826
0.22712151706218719 0.1536179780960083 0.067748412489891052
0.44735914468765259 0.22551287710666656 0.066316567361354828
0.57287514209747314 0.26332074403762817 0.077878467738628387
0.61652988195419312 0.25805377960205078 0.07740619033575058
0.064527086913585663 0.20984494686126709 0.074245885014533997
0.18185423314571381 0.28055942058563232 0.073684900999069214
0.51609152555465698 0.34810402989387512 0.09413522481918335
0.68307191133499146 0.39750280976295471 0.110606849193573
0.68471747636795044 0.33727926015853882 0.098969355225563049
0.070973865687847137 0.32586681842803955 0.070119105279445648
0.076282590627670288 0.3489454984664917 0.068997353315353394
0.33550244569778442 0.45831918716430664 0.10887153446674347
0.73769783973693848 0.52631831169128418 0.14363428950309753
0.78883939981460571 0.52141880989074707 0.14059464633464813
0.05485973134636879 0.41607850790023804 0.10839281231164932
0.082875899970531464 0.43860143423080444 0.10047188401222229
0.17828299105167389 0.47425457835197449 0.091060608625411987
0.44965985417366028 0.58889055252075195 0.14063824713230133
0.80721932649612427 0.63301765918731689 0.16655653715133667
0.071031831204891205 0.074324585497379303 0.13953807950019836
0.11220076680183411 0.083808436989784241 0.13281069695949554
0.34879755973815918 0.15549255907535553 0.12967099249362946
0.54267257452011108 0.22895607352256775 0.12535017728805542
0.64012247323989868 0.25405183434486389 0.1013622060418129
0.072879284620285034 0.11679862439632416 0.14252744615077972
0.14216822385787964 0.17219212651252747 0.17990279197692871
0.45152562856674194 0.24532966315746307 0.15461410582065582
0.59207397699356079 0.26987606287002563 0.12737537920475006
0.64497584104537964 0.26658725738525391 0.10127068310976028
0.071558982133865356 0.249293252825737 0.19457834959030151
0.096132330596446991 0.26410523056983948 0.17099706828594208
0.50200951099395752 0.38504910469055176 0.18402943015098572
0.70788103342056274 0.42216047644615173 0.15375746786594391
0.68100535869598389 0.31710749864578247 0.10748350620269775
0.069658063352108002 0.34516024589538574 0.16574820876121521
0.07353433221578598 0.36735263466835022 0.12890906631946564
0.28624638915061951 0.45567873120307922 0.14069107174873352
0.7674860954284668 0.56661099195480347 0.18660275638103485
0.79855918884277344 0.53944879770278931 0.1588997095823288
0.07026074081659317 0.43382501602172852 0.16576837003231049
0.086385391652584076 0.45588922500610352 0.14749404788017273
0.16343410313129425 0.48443645238876343 0.13198187947273254
0.42512071132659912 0.59095519781112671 0.15849851071834564
0.81578636169433594 0.64239192008972168 0.18124468624591827
0.070574231445789337 0.14154604077339172 0.24954807758331299
0.063372701406478882 0.13950371742248535 0.22059865295886993
0.25961703062057495 0.19021540880203247 0.20199422538280487
0.54070925712585449 0.26130136847496033 0.18750186264514923
0.70431375503540039 0.29104220867156982 0.24878159165382385
0.070588238537311554 0.17645299434661865 0.26032400131225586
0.069113053381443024 0.20681805908679962 0.29169228672981262
0.34169062972068787 0.28463065624237061 0.28615632653236389
0.60469305515289307 0.31650501489639282 0.24382588267326355
0.75739902257919312 0.33903035521507263 0.28882619738578796
0.071971237659454346 0.25236248970031738 0.30498829483985901
0.069777980446815491 0.27012678980827332 0.31087943911552429
0.37871482968330383 0.42708155512809753 0.41781625151634216
0.76062238216400146 0.49749311804771423 0.4021756649017334
0.78147214651107788 0.37040680646896362 0.30058002471923828
0.10373208671808243 0.43488270044326782 0.40061339735984802
0.12676538527011871 0.44716092944145203 0.39370003342628479
0.16894692182540894 0.47229620814323425 0.371654212474823
0.78838342428207397 0.62552469968795776 0.30534496903419495
0.83503061532974243 0.59183651208877563 0.23649799823760986
0.076078198850154877 0.45899152755737305 0.24437722563743591
0.088529013097286224 0.47332936525344849 0.2320156991481781
0.13665269315242767 0.49695008993148804 0.18076916038990021
0.40003296732902527 0.59905779361724854 0.19402480125427246
0.82126933336257935 0.65554571151733398 0.19723986089229584
0.070706717669963837 0.24396927654743195 0.37924668192863464
0.07423718273639679 0.24436484277248383 0.35293304920196533
0.14837279915809631 0.28002715110778809 0.36970812082290649
0.53824716806411743 0.33439749479293823 0.38349372148513794
0.69719612598419189 0.3236270546913147 0.38810104131698608
0.070588238537311554 0.26598289608955383 0.39444747567176819
0.071801833808422089 0.27276277542114258 0.39859119057655334
0.14896281063556671 0.30367162823677063 0.40418791770935059
0.5772019624710083 0.38152000308036804 0.45472145080566406
0.73428797721862793 0.36561834812164307 0.45898455381393433
0.067203432321548462 0.29050269722938538 0.39610835909843445
0.075062863528728485 0.32268455624580383 0.43058064579963684
0.20006321370601654 0.39382466673851013 0.49933040142059326
0.66449826955795288 0.47151529788970947 0.5774187445640564
0.77219247817993164 0.39954280853271484 0.52604049444198608
0.095371633768081665 0.3912074863910675 0.45534303784370422
0.12135501950979233 0.41953408718109131 0.47747457027435303
0.15280565619468689 0.46125957369804382 0.51624512672424316
0.76300454139709473 0.76420325040817261 0.72194141149520874
0.86955958604812622 0.76527392864227295 0.72497266530990601
0.1930222362279892 0.57190608978271484 0.56943172216415405
0.21471889317035675 0.59096741676330566 0.5828896164894104
0.23313675820827484 0.60847169160842896 0.58531910181045532
0.31789052486419678 0.67468094825744629 0.61955088376998901
0.87225937843322754 0.79125219583511353 0.52216482162475586
0.066743664443492889 0.32351124286651611 0.49252533912658691
0.079723402857780457 0.32325941324234009 0.48190677165985107
0.11537785083055496 0.33728313446044922 0.48544102907180786
0.44191789627075195 0.42733019590377808 0.61812758445739746
0.73424136638641357 0.41992601752281189 0.66299039125442505
0.070561200380325317 0.33239498734474182 0.49100711941719055
0.085852004587650299 0.34023827314376831 0.49724587798118591
0.10568678379058838 0.33907589316368103 0.48665052652359009
0.50632351636886597 0.46331989765167236 0.66560417413711548
0.74963551759719849 0.43284168839454651 0.67065727710723877
0.07665397971868515 0.34999153017997742 0.49799534678459167
0.08780854195356369 0.34835270047187805 0.50596332550048828
0.11563225835561752 0.36953854560852051 0.5254935622215271
0.56221753358840942 0.49675005674362183 0.70862233638763428
0.77578926086425781 0.46157673001289368 0.69839274883270264
0.10981366038322449 0.42540854215621948 0.53451073169708252
0.13724938035011292 0.44867822527885437 0.55594664812088013
0.16028124094009399 0.47631484270095825 0.58563625812530518
0.66223043203353882 0.69410812854766846 0.80339270830154419
0.83349567651748657 0.62673765420913696 0.77395671606063843
0.16358417272567749 0.528606116771698 0.59954577684402466
0.19247688353061676 0.54892903566360474 0.61104261875152588
0.21656869351863861 0.5688973069190979 0.63402950763702393
0.2616240382194519 0.60617923736572266 0.67059612274169922
0.88007485866546631 0.87707042694091797 0.85505157709121704
