assets/lut/others 60s faded.cube
# Created by: G'MIC (https://gmic.eu)
TITLE "60s_faded"
# LUT size
LUT_3D_SIZE 5
# Data domain
DOMAIN_MIN 0.0 0.0 0.0
DOMAIN_MAX 1.0 1.0 1.0
# LUT data points
0.49301111698150635 0.16871088743209839 0.15012037754058838
0.54844093322753906 0.18039451539516449 0.16458302736282349
0.66336792707443237 0.19853916764259338 0.17037828266620636
0.76545077562332153 0.20681367814540863 0.17779695987701416
0.76372289657592773 0.21551069617271423 0.18413680791854858
0.46795877814292908 0.34142521023750305 0.15433089435100555
0.54687654972076416 0.34758087992668152 0.15986265242099762
0.6694299578666687 0.35814949870109558 0.17350101470947266
0.76437902450561523 0.37048017978668213 0.1833975613117218
0.77829784154891968 0.3884643018245697 0.20273053646087646
0.46681299805641174 0.49156901240348816 0.17329534888267517
0.55244463682174683 0.48908606171607971 0.17079614102840424
0.67201834917068481 0.49020415544509888 0.17236579954624176
0.76891541481018066 0.49878606200218201 0.18539176881313324
0.7978966236114502 0.50657010078430176 0.19141463935375214
0.45709100365638733 0.61155754327774048 0.18855917453765869
0.56197053194046021 0.60787004232406616 0.17971359193325043
0.67533618211746216 0.6062120795249939 0.17909203469753265
0.76726722717285156 0.60638165473937988 0.1815902441740036
0.81148171424865723 0.62562251091003418 0.20262594521045685
0.45657014846801758 0.68154364824295044 0.20090830326080322
0.57926744222640991 0.69684904813766479 0.21268495917320251
0.69636076688766479 0.69988292455673218 0.21619641780853271
0.78702586889266968 0.69631093740463257 0.21037454903125763
0.84990102052688599 0.69749218225479126 0.22477595508098602
0.41389316320419312 0.31286093592643738 0.35897552967071533
0.54849028587341309 0.30854803323745728 0.36293509602546692
0.66381573677062988 0.3257296085357666 0.36444875597953796
0.76462054252624512 0.33030441403388977 0.37770548462867737
0.8529057502746582 0.35865911841392517 0.40816885232925415
0.42245808243751526 0.45622169971466064 0.37066325545310974
0.56273543834686279 0.47122251987457275 0.37746620178222656
0.68193060159683228 0.47988682985305786 0.39101892709732056
0.78594094514846802 0.49044609069824219 0.39985564351081848
0.86578971147537231 0.50104731321334839 0.40666958689689636
0.42421749234199524 0.5714573860168457 0.3656611442565918
0.57334417104721069 0.59206384420394897 0.39091962575912476
0.68669462203979492 0.59762704372406006 0.38926643133163452
0.78587931394577026 0.60551708936691284 0.39982670545578003
0.86897033452987671 0.61544924974441528 0.40509745478630066
0.4325660765171051 0.67832338809967041 0.36960592865943909
0.57593697309494019 0.70415747165679932 0.39436706900596619
0.68598484992980957 0.70393890142440796 0.39302518963813782
0.78279370069503784 0.70567905902862549 0.39737942814826965
0.84685111045837402 0.71930068731307983 0.41415137052536011
0.46280726790428162 0.76235580444335938 0.40663260221481323
0.59875780344009399 0.77821725606918335 0.42587676644325256
0.71157461404800415 0.79359781742095947 0.42199787497520447
0.79660904407501221 0.80124515295028687 0.41131967306137085
0.87144261598587036 0.789009690284729 0.41939643025398254
0.42525458335876465 0.3920154869556427 0.53979390859603882
0.56633615493774414 0.40272796154022217 0.54006922245025635
0.67227154970169067 0.38512000441551208 0.53139024972915649
0.77036827802658081 0.39442795515060425 0.53591477870941162
0.84851491451263428 0.42207908630371094 0.5568128228187561
0.43094217777252197 0.53337258100509644 0.53058207035064697
0.57364487648010254 0.55037623643875122 0.54709172248840332
0.68967413902282715 0.55327725410461426 0.55063283443450928
0.79094415903091431 0.56158930063247681 0.55862593650817871
0.85384005308151245 0.58885312080383301 0.58491271734237671
0.43703895807266235 0.65417909622192383 0.53879189491271973
0.57806551456451416 0.66714495420455933 0.55133515596389771
0.69320154190063477 0.67425346374511719 0.55678325891494751
0.79464590549468994 0.68129044771194458 0.56538492441177368
0.87176972627639771 0.69075417518615723 0.57148414850234985
0.46109876036643982 0.75027525424957275 0.54297184944152832
0.5804935097694397 0.76869469881057739 0.55189555883407593
0.69760143756866455 0.77352726459503174 0.55879443883895874
0.79432958364486694 0.77908527851104736 0.56715810298919678
0.87439662218093872 0.78907561302185059 0.57984238862991333
0.42610308527946472 0.83418101072311401 0.53247177600860596
0.59364134073257446 0.85246777534484863 0.5709986686706543
0.71371358633041382 0.85317105054855347 0.57862335443496704
0.80855751037597656 0.85875838994979858 0.58202213048934937
0.86332809925079346 0.87298369407653809 0.5946725606918335
0.44378364086151123 0.46083685755729675 0.66414761543273926
0.56633913516998291 0.46712639927864075 0.66087126731872559
0.68766123056411743 0.46592962741851807 0.67124325037002563
0.76060193777084351 0.46373051404953003 0.64974141120910645
0.85322368144989014 0.48740291595458984 0.67386209964752197
0.45993426442146301 0.60759741067886353 0.67123740911483765
0.58690738677978516 0.61974680423736572 0.67917406558990479
0.69544196128845215 0.62377834320068359 0.68000966310501099
0.78793823719024658 0.62331366539001465 0.68398356437683105
0.86665159463882446 0.6365283727645874 0.69445699453353882
0.45780783891677856 0.71235746145248413 0.65900862216949463
0.58764195442199707 0.73088246583938599 0.6765931248664856
0.7038910984992981 0.74002093076705933 0.68506962060928345
0.79533565044403076 0.74202489852905273 0.689136803150177
0.87205415964126587 0.75705140829086304 0.70480698347091675
0.45938608050346375 0.81640076637268066 0.67255008220672607
0.58662587404251099 0.82250678539276123 0.67677414417266846
0.70473325252532959 0.83110302686691284 0.68957459926605225
0.80029511451721191 0.83733320236206055 0.69686329364776611
0.86065250635147095 0.84455776214599609 0.69797784090042114
0.47452592849731445 0.86307203769683838 0.67969763278961182
0.59916168451309204 0.88362580537796021 0.69322717189788818
0.71339243650436401 0.88773941993713379 0.69844073057174683
0.80960655212402344 0.91156560182571411 0.70496654510498047
0.85664469003677368 0.90071219205856323 0.72060674428939819
0.49963021278381348 0.56542426347732544 0.77732062339782715
0.59170281887054443 0.56719470024108887 0.77320986986160278
0.70192211866378784 0.55654454231262207 0.780769944190979
0.7980387806892395 0.55511343479156494 0.78902649879455566
0.83705568313598633 0.55762004852294922 0.78959643840789795
0.53360527753829956 0.66194355487823486 0.77950948476791382
0.60209780931472778 0.67659610509872437 0.79507243633270264
0.70819169282913208 0.67556726932525635 0.7957344651222229
0.79480922222137451 0.6752358078956604 0.79600411653518677
0.81383568048477173 0.67878329753875732 0.79824841022491455
0.56036877632141113 0.77351498603820801 0.78781729936599731
0.60811865329742432 0.77954936027526855 0.79233080148696899
0.71824228763580322 0.78893429040908813 0.80731064081192017
0.797119140625 0.78899818658828735 0.80193477869033813
0.80547153949737549 0.79100686311721802 0.80653232336044312
0.57350212335586548 0.86663961410522461 0.79059255123138428
0.6077238917350769 0.8711928129196167 0.79631221294403076
0.7123226523399353 0.87744945287704468 0.80516117811203003
0.80514496564865112 0.88597625494003296 0.81093317270278931
0.79144096374511719 0.88439172506332397 0.8075253963470459
0.59224897623062134 0.9417911171913147 0.79269504547119141
0.60497242212295532 0.94630515575408936 0.79518252611160278
0.71731430292129517 0.95370745658874512 0.8055998682975769
0.80869042873382568 0.95564109086990356 0.80356144905090332
0.7955135703086853 0.96398055553436279 0.81416100263595581
