assets/lut/others golden bright.cube
# Created by: G'MIC (https://gmic.eu)
TITLE "golden_bright"
# LUT size
LUT_3D_SIZE 5
# Data domain
DOMAIN_MIN 0.0 0.0 0.0
DOMAIN_MAX 1.0 1.0 1.0
# LUT data points
0.1623254120349884 0.1520640105009079 0.098425529897212982
0.46538588404655457 0.1402326226234436 0.092066265642642975
0.79360455274581909 0.13739384710788727 0.083826757967472076
0.96828782558441162 0.14637888967990875 0.081968285143375397
0.97671538591384888 0.12363424897193909 0.072476692497730255
0.15077550709247589 0.42664057016372681 0.093150541186332703
0.4319191575050354 0.40319991111755371 0.079759024083614349
0.75780463218688965 0.39445638656616211 0.069399692118167877
0.96709698438644409 0.38927024602890015 0.071392133831977844
0.97659081220626831 0.37931004166603088 0.070977948606014252
0.14924465119838715 0.72356957197189331 0.08462873101234436
0.41639542579650879 0.71042132377624512 0.085309393703937531
0.74178272485733032 0.70371192693710327 0.069571278989315033
0.9726409912109375 0.69054186344146729 0.068728730082511902
0.9597625732421875 0.67104047536849976 0.067799858748912811
0.14092656970024109 0.95729219913482666 0.066467270255088806
0.3880249559879303 0.94476264715194702 0.068275466561317444
0.73041331768035889 0.94428956508636475 0.06464800238609314
0.96044397354125977 0.93981921672821045 0.063798747956752777
0.96287316083908081 0.91291344165802002 0.059678874909877777
0.12500804662704468 0.96229362487792969 0.058094024658203125
0.36350962519645691 0.97002774477005005 0.058564130216836929
0.69998013973236084 0.98244386911392212 0.062256261706352234
0.93750870227813721 0.97600740194320679 0.060741767287254333
0.96702396869659424 0.966991126537323 0.062831804156303406
0.17638008296489716 0.14852327108383179 0.34232619404792786
0.47012487053871155 0.14506684243679047 0.33482056856155396
0.79672068357467651 0.13894350826740265 0.32471826672554016
0.99097436666488647 0.14871892333030701 0.31476020812988281
0.99821138381958008 0.12407808750867844 0.3075663149356842
0.15461716055870056 0.43221038579940796 0.32462349534034729
0.44172686338424683 0.40977582335472107 0.31711140275001526
0.7780652642250061 0.40598854422569275 0.30467367172241211
0.98753005266189575 0.39233946800231934 0.29798656702041626
0.99590349197387695 0.37716218829154968 0.28844431042671204
0.14484703540802002 0.73061448335647583 0.30815261602401733
0.41630557179450989 0.71864283084869385 0.29745796322822571
0.75862997770309448 0.70977413654327393 0.28761637210845947
0.97633278369903564 0.69738900661468506 0.27694910764694214
0.99578869342803955 0.68541967868804932 0.26637357473373413
0.13708549737930298 0.96561360359191895 0.29084521532058716
0.3896564245223999 0.96010756492614746 0.28146529197692871
0.7378847599029541 0.94704771041870117 0.26863497495651245
0.97684788703918457 0.94559556245803833 0.25856339931488037
0.99928319454193115 0.93494695425033569 0.24697218835353851
0.12785683572292328 0.98359686136245728 0.27245444059371948
0.36574769020080566 0.98755502700805664 0.26125925779342651
0.7031019926071167 0.99607843160629272 0.24997523427009583
0.96930551528930664 0.99969828128814697 0.24490252137184143
0.99975377321243286 0.99980980157852173 0.23046311736106873
0.17891028523445129 0.14963549375534058 0.59265363216400146
0.46973520517349243 0.14919467270374298 0.58173346519470215
0.80184531211853027 0.13668249547481537 0.5802498459815979
0.99618685245513916 0.1304938942193985 0.5692143440246582
0.99779731035232544 0.12883226573467255 0.56726288795471191
0.15517255663871765 0.42386561632156372 0.57885944843292236
0.44159865379333496 0.40959405899047852 0.56614589691162109
0.77970898151397705 0.40783679485321045 0.55924415588378906
0.97287291288375854 0.38862785696983337 0.5487673282623291
0.99056714773178101 0.37147241830825806 0.53689956665039062
0.14328618347644806 0.73099488019943237 0.55977797508239746
0.41129866242408752 0.71755349636077881 0.55542409420013428
0.7538449764251709 0.70354217290878296 0.54448264837265015
0.98221182823181152 0.69497150182723999 0.53500598669052124
0.98797839879989624 0.68002933263778687 0.52652549743652344
0.14708876609802246 0.96581351757049561 0.53701531887054443
0.39206564426422119 0.95367681980133057 0.53198504447937012
0.72955477237701416 0.9484790563583374 0.52330869436264038
0.97895336151123047 0.94949781894683838 0.51445692777633667
0.99734640121459961 0.93241232633590698 0.5015183687210083
0.13300387561321259 0.99057859182357788 0.519683837890625
0.35584178566932678 0.99559950828552246 0.50944727659225464
0.70292645692825317 0.99683684110641479 0.50027370452880859
0.96231323480606079 1 0.49300616979598999
0.99609243869781494 1 0.48554688692092896
0.16041763126850128 0.15352369844913483 0.84470683336257935
0.45923566818237305 0.14561989903450012 0.82862067222595215
0.793984055519104 0.1378762274980545 0.82860559225082397
0.9902271032333374 0.13000579178333282 0.81992477178573608
0.99783122539520264 0.13114945590496063 0.81180322170257568
0.15612903237342834 0.42264470458030701 0.81946241855621338
0.43664669990539551 0.41287639737129211 0.82127416133880615
0.76824992895126343 0.39689958095550537 0.81151849031448364
0.98753571510314941 0.39063501358032227 0.79661089181900024
0.99612164497375488 0.37227365374565125 0.78951168060302734
0.15239039063453674 0.71463513374328613 0.80227148532867432
0.4136996865272522 0.71036279201507568 0.79880720376968384
0.75319552421569824 0.70719218254089355 0.79182982444763184
0.97926110029220581 0.69213360548019409 0.78451931476593018
0.99610412120819092 0.66670817136764526 0.78155124187469482
0.13856388628482819 0.96485131978988647 0.7909126877784729
0.38587114214897156 0.95440483093261719 0.7853882908821106
0.723285973072052 0.95279258489608765 0.77234542369842529
0.97642886638641357 0.94297605752944946 0.76445543766021729
0.99607843160629272 0.92132472991943359 0.76297861337661743
0.12917521595954895 0.98032742738723755 0.76576399803161621
0.36007162928581238 0.99504154920578003 0.76551252603530884
0.68924862146377563 0.98970329761505127 0.75143295526504517
0.95614349842071533 0.99617630243301392 0.74300390481948853
0.99215686321258545 0.99607843160629272 0.74514812231063843
0.15981860458850861 0.14490655064582825 0.89899182319641113
0.44488781690597534 0.14432348310947418 0.90380614995956421
0.7677462100982666 0.13595153391361237 0.90845978260040283
0.98024040460586548 0.12393626570701599 0.93177872896194458
0.98933213949203491 0.1330721378326416 0.92745459079742432
0.1512359082698822 0.41528290510177612 0.92313086986541748
0.42847913503646851 0.40154904127120972 0.92395120859146118
0.75377881526947021 0.39318212866783142 0.92089635133743286
0.97489070892333984 0.37811115384101868 0.92817264795303345
0.96596050262451172 0.36005586385726929 0.90908652544021606
0.15399228036403656 0.71029651165008545 0.9344714879989624
0.39906179904937744 0.69948214292526245 0.92703366279602051
0.7372393012046814 0.69554013013839722 0.93012601137161255
0.96651601791381836 0.6777147650718689 0.92862159013748169
0.97918140888214111 0.6644359827041626 0.91562294960021973
0.14596579968929291 0.93507403135299683 0.92926716804504395
0.37890708446502686 0.93919819593429565 0.92593282461166382
0.71509003639221191 0.93772178888320923 0.93178278207778931
0.92624235153198242 0.91923177242279053 0.90796291828155518
0.96520960330963135 0.90505683422088623 0.90564358234405518
0.13523684442043304 0.99528247117996216 0.93309062719345093
0.34332641959190369 0.96571260690689087 0.90705490112304688
0.68403404951095581 0.97707939147949219 0.9174574613571167
0.93526846170425415 0.97293734550476074 0.91119652986526489
0.98252767324447632 0.98442089557647705 0.92294573783874512
