assets/lut/others sutro fx.cube
# Created by: G'MIC (https://gmic.eu)
TITLE "sutro_fx"
# LUT size
LUT_3D_SIZE 7
# Data domain
DOMAIN_MIN 0.0 0.0 0.0
DOMAIN_MAX 1.0 1.0 1.0
# LUT data points
0.083872973918914795 0.031359266489744186 0.04268169030547142
0.27935433387756348 0.061913464218378067 0.087923355400562286
0.49721303582191467 0.11223476380109787 0.13465677201747894
0.67122423648834229 0.17068411409854889 0.18992801010608673
0.79392391443252563 0.22374628484249115 0.244275763630867
0.89249616861343384 0.28753200173377991 0.30065467953681946
0.9757726788520813 0.37393015623092651 0.35817387700080872
0.19407036900520325 0.12377983331680298 0.1084912046790123
0.29835107922554016 0.1374758780002594 0.14416947960853577
0.49063846468925476 0.20172211527824402 0.18700240552425385
0.66851234436035156 0.30265578627586365 0.2419302761554718
0.79795050621032715 0.39305216073989868 0.29853394627571106
0.89191091060638428 0.47306257486343384 0.3561076819896698
0.97648179531097412 0.56143772602081299 0.41415902972221375
0.35436969995498657 0.28271904587745667 0.19882641732692719
0.4152337908744812 0.28188788890838623 0.22171185910701752
0.51896345615386963 0.30676072835922241 0.26137849688529968
0.64828109741210938 0.39791864156723022 0.30963438749313354
0.78663104772567749 0.53500854969024658 0.36671262979507446
0.8925701379776001 0.63821119070053101 0.42684966325759888
0.97633856534957886 0.7184484601020813 0.48808729648590088
0.49080511927604675 0.48631560802459717 0.28772825002670288
0.56343811750411987 0.48186546564102173 0.31280457973480225
0.61129558086395264 0.46755078434944153 0.34660184383392334
0.66114860773086548 0.48554635047912598 0.3828122615814209
0.7804112434387207 0.62086403369903564 0.43749842047691345
0.8915361762046814 0.74427038431167603 0.50130653381347656
0.97698408365249634 0.82801371812820435 0.56607151031494141
0.58974224328994751 0.67879676818847656 0.3677736222743988
0.669109046459198 0.67960363626480103 0.39806470274925232
0.72998291254043579 0.67932051420211792 0.44071796536445618
0.75961941480636597 0.67070597410202026 0.47785475850105286
0.81077027320861816 0.71430742740631104 0.51872414350509644
0.88482451438903809 0.79585087299346924 0.57500523328781128
0.9750138521194458 0.89282983541488647 0.64438676834106445
0.69026726484298706 0.83918541669845581 0.46794894337654114
0.76214903593063354 0.83808952569961548 0.4970257580280304
0.82380610704421997 0.84255564212799072 0.54198557138442993
0.8555523157119751 0.83877325057983398 0.58207684755325317
0.86894536018371582 0.82744896411895752 0.61703985929489136
0.89322888851165771 0.84470027685165405 0.66129612922668457
0.97343188524246216 0.93447047472000122 0.72628337144851685
0.77795559167861938 0.96603888273239136 0.5754932165145874
0.83500379323959351 0.96517854928970337 0.60581475496292114
0.88116073608398438 0.96541690826416016 0.64428341388702393
0.91620075702667236 0.96507352590560913 0.68573325872421265
0.94006669521331787 0.95939791202545166 0.72550219297409058
0.94955378770828247 0.95176517963409424 0.76719909906387329
0.98142588138580322 0.97649562358856201 0.81371873617172241
0.2319774329662323 0.09949677437543869 0.14371064305305481
0.2950805127620697 0.066638439893722534 0.16280737519264221
0.47348415851593018 0.092803031206130981 0.19889068603515625
0.66360962390899658 0.15781086683273315 0.26227447390556335
0.7960628867149353 0.21842342615127563 0.31919673085212708
0.8929787278175354 0.27756553888320923 0.37517216801643372
0.97671103477478027 0.34934478998184204 0.42803442478179932
0.28392955660820007 0.164714515209198 0.16517525911331177
0.30611202120780945 0.13331784307956696 0.170281782746315
0.47020384669303894 0.16791106760501862 0.21164716780185699
0.66240715980529785 0.24660985171794891 0.26611346006393433
0.79976040124893188 0.33784317970275879 0.32930821180343628
0.89189833402633667 0.40991654992103577 0.38216099143028259
0.97525691986083984 0.48844164609909058 0.4382961094379425
0.38884127140045166 0.28607609868049622 0.24238348007202148
0.4025036096572876 0.26251652836799622 0.23526783287525177
0.49763444066047668 0.28210052847862244 0.27135953307151794
0.64887154102325439 0.36201423406600952 0.31867653131484985
0.79455161094665527 0.49205845594406128 0.37957543134689331
0.8961300253868103 0.58221334218978882 0.43484121561050415
0.97666972875595093 0.66887962818145752 0.50319886207580566
0.51830261945724487 0.480925053358078 0.34953096508979797
0.54640257358551025 0.47451865673065186 0.33673149347305298
0.59616941213607788 0.46986687183380127 0.35962373018264771
0.66302424669265747 0.48499709367752075 0.39722532033920288
0.78732341527938843 0.61815184354782104 0.45829495787620544
0.89710754156112671 0.72957032918930054 0.51907229423522949
0.97957468032836914 0.8070560097694397 0.58617687225341797
0.61929690837860107 0.67681384086608887 0.44141483306884766
0.65082615613937378 0.68249547481536865 0.42645755410194397
0.70968329906463623 0.67894440889358521 0.45584064722061157
0.7533075213432312 0.67101359367370605 0.49517309665679932
0.80614167451858521 0.70972663164138794 0.53919303417205811
0.88201171159744263 0.78903520107269287 0.5967642068862915
0.97544211149215698 0.88569563627243042 0.66856908798217773
0.71492248773574829 0.84131008386611938 0.54435163736343384
0.74150413274765015 0.8424496054649353 0.52208244800567627
0.80183762311935425 0.84340000152587891 0.55535405874252319
0.84937280416488647 0.84256470203399658 0.59939175844192505
0.86792284250259399 0.82892638444900513 0.63770323991775513
0.89433091878890991 0.84527629613876343 0.6833985447883606
0.97386598587036133 0.93304437398910522 0.75077193975448608
0.79848754405975342 0.96639525890350342 0.6604464054107666
0.82254904508590698 0.96692389249801636 0.63690143823623657
0.86413323879241943 0.96602135896682739 0.66441583633422852
0.91010242700576782 0.96684998273849487 0.70478588342666626
0.9415469765663147 0.964405357837677 0.74999552965164185
0.95619302988052368 0.95998239517211914 0.79215282201766968
0.98196280002593994 0.97659683227539062 0.83830755949020386
0.47439137101173401 0.27041947841644287 0.29501321911811829
0.45210745930671692 0.19118908047676086 0.29490160942077637
0.4927331805229187 0.11331713944673538 0.2950761616230011
0.64563524723052979 0.13826669752597809 0.33958879113197327
0.79507660865783691 0.21734818816184998 0.40659940242767334
0.89761704206466675 0.28442791104316711 0.46697744727134705
0.9788520336151123 0.35495251417160034 0.52716106176376343
0.4813239574432373 0.30457192659378052 0.28889283537864685
0.4780116081237793 0.26801446080207825 0.2880786657333374
0.50401431322097778 0.1979430764913559 0.29278373718261719
0.6469883918762207 0.21993382275104523 0.33295056223869324
0.79564332962036133 0.31878554821014404 0.40078186988830566
0.89537966251373291 0.39434120059013367 0.45878762006759644
0.97671568393707275 0.47077682614326477 0.52031946182250977
0.4717460572719574 0.3108971118927002 0.3058474063873291
0.47217860817909241 0.2875010073184967 0.29441669583320618
0.50870633125305176 0.28495496511459351 0.30493947863578796
0.64648878574371338 0.34121105074882507 0.34888288378715515
0.79393333196640015 0.4598332941532135 0.41714650392532349
0.89411330223083496 0.52736914157867432 0.46744340658187866
0.97671568393707275 0.61315572261810303 0.53817081451416016
0.53532630205154419 0.43895933032035828 0.37941429018974304
0.55728769302368164 0.45058295130729675 0.36843591928482056
0.59346765279769897 0.4678991436958313 0.3777642548084259
0.66421836614608765 0.49019134044647217 0.41444674134254456
0.79126453399658203 0.60607409477233887 0.47603124380111694
0.89640706777572632 0.68997788429260254 0.53267186880111694
0.97671568393707275 0.76582050323486328 0.60255062580108643
0.63892829418182373 0.6421130895614624 0.48890846967697144
0.66060459613800049 0.66433709859848022 0.47352397441864014
0.70356124639511108 0.68502587080001831 0.48066768050193787
0.74510741233825684 0.68236392736434937 0.50837630033493042
0.80670976638793945 0.7128218412399292 0.5549582839012146
0.88431209325790405 0.77750831842422485 0.61151427030563354
0.97362971305847168 0.86836659908294678 0.68339020013809204
0.73975062370300293 0.82436352968215942 0.61429792642593384
0.75415515899658203 0.8391997218132019 0.59063255786895752
0.78532189130783081 0.84457117319107056 0.58385777473449707
0.82973301410675049 0.846260666847229 0.61128693819046021
0.86384934186935425 0.83591145277023315 0.65446168184280396
0.89726006984710693 0.84900832176208496 0.70283216238021851
0.97433686256408691 0.93057370185852051 0.76920557022094727
0.8236963152885437 0.96371674537658691 0.73970621824264526
0.82928025722503662 0.96507352590560913 0.70778590440750122
0.85200285911560059 0.96507352590560913 0.69608098268508911
0.89717209339141846 0.96659606695175171 0.7237168550491333
0.93753647804260254 0.96487820148468018 0.76947849988937378
0.95557707548141479 0.96180862188339233 0.81176388263702393
0.98242425918579102 0.97790729999542236 0.85955584049224854
0.66081434488296509 0.47866034507751465 0.43898671865463257
0.62538796663284302 0.38284876942634583 0.44356665015220642
0.59982860088348389 0.24090336263179779 0.43331310153007507
0.66446495056152344 0.1619391143321991 0.43988883495330811
0.78262567520141602 0.19104751944541931 0.48878997564315796
0.89031106233596802 0.27305614948272705 0.55776900053024292
0.97679156064987183 0.35538625717163086 0.62749439477920532
0.66098982095718384 0.49643030762672424 0.43412134051322937
0.6646159291267395 0.47844418883323669 0.44133234024047852
0.63199377059936523 0.36444544792175293 0.43335515260696411
0.66629326343536377 0.25388571619987488 0.43857386708259583
0.7800905704498291 0.29429206252098083 0.49094787240028381
0.88958203792572021 0.39085277915000916 0.56131696701049805
0.97698843479156494 0.47946423292160034 0.62728667259216309
0.61629104614257812 0.45932716131210327 0.42266395688056946
0.63825923204421997 0.47588354349136353 0.42516586184501648
0.63598549365997314 0.44218319654464722 0.42366129159927368
0.66861653327941895 0.37575799226760864 0.43270313739776611
0.77778679132461548 0.41177955269813538 0.48459067940711975
0.88592684268951416 0.49730169773101807 0.54638779163360596
0.97563952207565308 0.59383195638656616 0.61892974376678467
0.60708081722259521 0.48892202973365784 0.43866905570030212
0.62923508882522583 0.49801939725875854 0.44024506211280823
0.6415327787399292 0.49000412225723267 0.43806391954421997
0.67380249500274658 0.49225357174873352 0.44751822948455811
0.77749031782150269 0.55469214916229248 0.50373381376266479
0.88640904426574707 0.63809013366699219 0.56652736663818359
0.97708982229232788 0.73095840215682983 0.64549833536148071
0.66996568441390991 0.63250601291656494 0.52790564298629761
0.69312912225723267 0.64932763576507568 0.53156787157058716
0.71527111530303955 0.66012930870056152 0.52600640058517456
0.73856031894683838 0.66791552305221558 0.53075307607650757
0.79277873039245605 0.68927979469299316 0.57020622491836548
0.88305437564849854 0.75438636541366577 0.62583345174789429
0.97650420665740967 0.84794682264328003 0.70328742265701294
0.76401692628860474 0.81075894832611084 0.66876184940338135
0.78881514072418213 0.83571404218673706 0.6747322678565979
0.79985642433166504 0.83797615766525269 0.65014618635177612
0.81937235593795776 0.84088999032974243 0.64313161373138428
0.85282033681869507 0.83518111705780029 0.67220252752304077
0.90063410997390747 0.8522956371307373 0.72329914569854736
0.97570604085922241 0.92515283823013306 0.78839468955993652
0.84590190649032593 0.96155381202697754 0.81175452470779419
0.8599320650100708 0.96501070261001587 0.79959732294082642
0.86984777450561523 0.96507352590560913 0.77618527412414551
0.88717561960220337 0.96708709001541138 0.76502913236618042
0.92691266536712646 0.96551680564880371 0.78960943222045898
0.95289433002471924 0.96419799327850342 0.83429205417633057
0.98374539613723755 0.9801032543182373 0.88377243280410767
0.78326749801635742 0.66136693954467773 0.59204638004302979
0.75326448678970337 0.57772266864776611 0.59870129823684692
0.71948498487472534 0.43928903341293335 0.59690982103347778
0.73349058628082275 0.30735048651695251 0.59233701229095459
0.79320710897445679 0.21749161183834076 0.59516465663909912
0.87945586442947388 0.2373373955488205 0.64272391796112061
0.97353833913803101 0.34637600183486938 0.72803008556365967
0.78955924510955811 0.68263643980026245 0.59253770112991333
0.79328256845474243 0.67627698183059692 0.60019731521606445
0.75520652532577515 0.5775681734085083 0.59916359186172485
0.73811942338943481 0.42579543590545654 0.59089356660842896
0.79020076990127563 0.32376506924629211 0.59741228818893433
0.87949079275131226 0.35310366749763489 0.64769268035888672
0.97547298669815063 0.47315046191215515 0.72849512100219727
0.76864343881607056 0.66444194316864014 0.59409946203231812
0.78846728801727295 0.69136542081832886 0.59487539529800415
0.78975361585617065 0.67641341686248779 0.59805625677108765
0.76116400957107544 0.54339665174484253 0.5852857232093811
0.79228579998016357 0.44325625896453857 0.59719765186309814
0.87671613693237305 0.47045660018920898 0.64126330614089966
0.97378355264663696 0.59351950883865356 0.72234576940536499
0.73781180381774902 0.64903086423873901 0.58285695314407349
0.75060820579528809 0.65256178379058838 0.57927989959716797
0.76478129625320435 0.65246766805648804 0.57924157381057739
0.76411843299865723 0.61939120292663574 0.57485634088516235
0.79113274812698364 0.57372182607650757 0.59189945459365845
0.87539547681808472 0.60438007116317749 0.63899081945419312
0.97544717788696289 0.71115458011627197 0.72817504405975342
0.73736613988876343 0.6911194920539856 0.60387283563613892
0.75061500072479248 0.68819767236709595 0.60277533531188965
0.76723837852478027 0.68910491466522217 0.6015898585319519
0.7794189453125 0.69316846132278442 0.59922194480895996
0.80424559116363525 0.69421732425689697 0.61276376247406006
0.87923884391784668 0.73473930358886719 0.6562768816947937
0.97634583711624146 0.82014596462249756 0.74147254228591919
0.79348194599151611 0.81163144111633301 0.70662128925323486
0.81170493364334106 0.82051008939743042 0.71304774284362793
0.82069182395935059 0.81849098205566406 0.70223879814147949
0.83078473806381226 0.81962907314300537 0.68885529041290283
0.85198444128036499 0.83070391416549683 0.6973385214805603
0.89152437448501587 0.84083569049835205 0.73479288816452026
0.97139060497283936 0.9069327712059021 0.80497252941131592
0.86751484870910645 0.95916062593460083 0.86388802528381348
0.88211768865585327 0.96226662397384644 0.85997509956359863
0.89101946353912354 0.96144330501556396 0.84927326440811157
0.90158981084823608 0.96404176950454712 0.83565354347229004
0.92328226566314697 0.9670448899269104 0.83097356557846069
0.95175838470458984 0.96497547626495361 0.8570060133934021
0.98639184236526489 0.98357433080673218 0.9018779993057251
0.87460815906524658 0.81728285551071167 0.7605290412902832
0.84973281621932983 0.74943584203720093 0.76616376638412476
0.82332897186279297 0.63913345336914062 0.76944643259048462
0.82041120529174805 0.51454180479049683 0.76673221588134766
0.84192323684692383 0.38556146621704102 0.76233446598052979
0.88985139131546021 0.28581821918487549 0.76516783237457275
0.96810084581375122 0.32214990258216858 0.82320386171340942
0.88543486595153809 0.8384544849395752 0.7621842622756958
0.88682764768600464 0.83283358812332153 0.76337063312530518
0.85388970375061035 0.74947607517242432 0.76585769653320312
0.83476263284683228 0.63711452484130859 0.7633323073387146
0.84424519538879395 0.49603527784347534 0.75854206085205078
0.89279186725616455 0.40204444527626038 0.7701340913772583
0.9749334454536438 0.46886500716209412 0.830466628074646
0.87093687057495117 0.81862735748291016 0.76780027151107788
0.89009791612625122 0.84709614515304565 0.76945477724075317
0.88797307014465332 0.836029052734375 0.77005302906036377
0.8625977635383606 0.75708615779876709 0.76764166355133057
0.85062581300735474 0.63063466548919678 0.76571327447891235
0.89301145076751709 0.53106188774108887 0.77027702331542969
0.97452187538146973 0.59292924404144287 0.83166331052780151
0.84959036111831665 0.80226141214370728 0.75792616605758667
0.86559277772903442 0.81442761421203613 0.76068156957626343
0.88376808166503906 0.83075505495071411 0.76384466886520386
0.88610577583312988 0.83228558301925659 0.76370048522949219
0.86684912443161011 0.74076962471008301 0.76399672031402588
0.89196872711181641 0.65098452568054199 0.76756566762924194
0.97300750017166138 0.70576536655426025 0.83164733648300171
0.82910960912704468 0.79734510183334351 0.73729485273361206
0.84099733829498291 0.79640811681747437 0.73995602130889893
0.85821664333343506 0.80641549825668335 0.74509072303771973
0.87451356649398804 0.82439684867858887 0.74924772977828979
0.88420885801315308 0.82560938596725464 0.7651793360710144
0.89431548118591309 0.76194852590560913 0.75982081890106201
0.96280431747436523 0.78992527723312378 0.81926774978637695
0.83861911296844482 0.84467834234237671 0.76987206935882568
0.84643518924713135 0.84379249811172485 0.77186453342437744
0.85816073417663574 0.84103798866271973 0.76897996664047241
0.87022995948791504 0.84265977144241333 0.76908004283905029
0.88281100988388062 0.85216629505157471 0.77448993921279907
0.90215802192687988 0.8480796217918396 0.78136295080184937
0.96325242519378662 0.88631534576416016 0.84839636087417603
0.88665622472763062 0.96002525091171265 0.90811818838119507
0.89829760789871216 0.96050196886062622 0.90639489889144897
0.91036701202392578 0.95788586139678955 0.89921110868453979
0.92346084117889404 0.96104168891906738 0.90192151069641113
0.93309295177459717 0.96091336011886597 0.89042729139328003
0.94747984409332275 0.95351874828338623 0.88298416137695312
0.97959238290786743 0.97093439102172852 0.92366212606430054
0.95756733417510986 0.94557201862335205 0.94265168905258179
0.94221937656402588 0.89606600999832153 0.94780153036117554
0.90919411182403564 0.80705827474594116 0.94803923368453979
0.89780956506729126 0.71164911985397339 0.94803923368453979
0.90663182735443115 0.59918254613876343 0.94701367616653442
0.9324461817741394 0.45749878883361816 0.9385378360748291
0.97795796394348145 0.37438002228736877 0.95433294773101807
0.96911054849624634 0.96635127067565918 0.94565379619598389
0.96923673152923584 0.95714426040649414 0.9472535252571106
0.93851172924041748 0.8909907341003418 0.94725078344345093
0.91663908958435059 0.80676037073135376 0.94773679971694946
0.91390532255172729 0.70897936820983887 0.94661420583724976
0.93736231327056885 0.5879741907119751 0.94470447301864624
0.98075741529464722 0.50198465585708618 0.95342248678207397
0.9559510350227356 0.94417959451675415 0.94798612594604492
0.9680866003036499 0.95889568328857422 0.94802135229110718
0.96908968687057495 0.95605522394180298 0.94814980030059814
0.94229084253311157 0.89139741659164429 0.94847416877746582
0.92701685428619385 0.80553501844406128 0.94821327924728394
0.93858253955841064 0.70593738555908203 0.94707107543945312
0.98020279407501221 0.62994885444641113 0.95738846063613892
0.94469398260116577 0.93843477964401245 0.94562989473342896
0.95642465353012085 0.94611155986785889 0.9471355676651001
0.97336429357528687 0.96729272603988647 0.94861298799514771
0.97091770172119141 0.96128416061401367 0.94827151298522949
0.94530564546585083 0.89079469442367554 0.94911032915115356
0.94288241863250732 0.80195051431655884 0.94635319709777832
0.97807604074478149 0.73388391733169556 0.95604783296585083
0.929229736328125 0.93310511112213135 0.93050533533096313
0.94279736280441284 0.93972212076187134 0.94220864772796631
0.95268136262893677 0.94604867696762085 0.94328099489212036
0.96947163343429565 0.96468222141265869 0.94528430700302124
0.97086620330810547 0.95918077230453491 0.94883936643600464
0.95544171333312988 0.88090068101882935 0.93884134292602539
0.97903138399124146 0.81943744421005249 0.94814091920852661
0.9173845648765564 0.94420111179351807 0.9300113320350647
0.93032121658325195 0.94589090347290039 0.93902373313903809
0.93788754940032959 0.94274294376373291 0.93584978580474854
0.95418137311935425 0.954548180103302 0.94423156976699829
0.96623879671096802 0.95939630270004272 0.94664269685745239
0.9681660532951355 0.94285911321640015 0.94011437892913818
0.98662883043289185 0.9226951003074646 0.95891141891479492
0.92373782396316528 0.98716366291046143 0.97537761926651001
0.93208611011505127 0.97534346580505371 0.96181434392929077
0.94969010353088379 0.98409485816955566 0.97556638717651367
0.96042746305465698 0.98748183250427246 0.98105430603027344
0.96476805210113525 0.98024773597717285 0.96756041049957275
0.97490531206130981 0.98150151968002319 0.96418160200119019
0.99451780319213867 0.99016314744949341 0.98907536268234253
