assets/lut/others extreme.cube
# Created by: G'MIC (https://gmic.eu)
TITLE "extreme"
# LUT size
LUT_3D_SIZE 13
# Data domain
DOMAIN_MIN 0.0 0.0 0.0
DOMAIN_MAX 1.0 1.0 1.0
# LUT data points
0.0039215688593685627 0.0085753193125128746 0.055003896355628967
0.0072129643522202969 0.007366853766143322 0.05284544825553894
0.052688419818878174 0.006082586944103241 0.063099458813667297
0.13334634900093079 0.0040659136138856411 0.075872339308261871
0.25930294394493103 0.0031873516272753477 0.065947093069553375
0.39621803164482117 0.0044546090066432953 0.057493053376674652
0.49455699324607849 0.0061572357080876827 0.053506635129451752
0.57201141119003296 0.0039359447546303272 0.066559150815010071
0.63950645923614502 0.0073111141100525856 0.096700899302959442
0.71329659223556519 0.010648615658283234 0.1037851944565773
0.79432910680770874 0.009901413694024086 0.084458552300930023
0.87713527679443359 0.0054141622968018055 0.078985504806041718
0.94401603937149048 0.0054116044193506241 0.064749985933303833
0.0038978725206106901 0.020913980901241302 0.057889871299266815
0.0062200059182941914 0.018955022096633911 0.071499228477478027
0.049041267484426498 0.018728233873844147 0.069000974297523499
0.12451255321502686 0.015736538916826248 0.075386792421340942
0.25336477160453796 0.015273853205144405 0.067350156605243683
0.39373224973678589 0.015783974900841713 0.062682166695594788
0.49604043364524841 0.018090043216943741 0.059958424419164658
0.56972795724868774 0.017789324745535851 0.054603204131126404
0.63956648111343384 0.019773505628108978 0.069444216787815094
0.71754187345504761 0.022748565301299095 0.086691148579120636
0.79592221975326538 0.020220931619405746 0.068579100072383881
0.87466192245483398 0.018776897341012955 0.062451634556055069
0.93071222305297852 0.01980355940759182 0.060777358710765839
0.0018338521476835012 0.0648484006524086 0.065286643803119659
0.0062170438468456268 0.052993115037679672 0.063157878816127777
0.041151951998472214 0.050018925219774246 0.060714781284332275
0.12365462630987167 0.056697186082601547 0.060532126575708389
0.24560950696468353 0.055493060499429703 0.05840732529759407
0.38331884145736694 0.05140439048409462 0.061550229787826538
0.49920365214347839 0.051508720964193344 0.05961965024471283
0.57024264335632324 0.05855172872543335 0.058562513440847397
0.63938850164413452 0.057159751653671265 0.05792153999209404
0.72103345394134521 0.055338166654109955 0.084165282547473907
0.80062878131866455 0.057296916842460632 0.084342703223228455
0.87606978416442871 0.056059520691633224 0.074457980692386627
0.95042288303375244 0.050521250814199448 0.062716752290725708
0.00027088838396593928 0.13982908427715302 0.065425679087638855
0.0081918900832533836 0.12625391781330109 0.055918421596288681
0.043801505118608475 0.12605412304401398 0.060333896428346634
0.11185335367918015 0.12657523155212402 0.059276655316352844
0.24342124164104462 0.12851338088512421 0.060292381793260574
0.39491039514541626 0.12546297907829285 0.061935797333717346
0.50228303670883179 0.12448151409626007 0.068981513381004333
0.5719679594039917 0.12884698808193207 0.063195034861564636
0.64419019222259521 0.12735490500926971 0.056459657847881317
0.72420269250869751 0.12285801023244858 0.065394625067710876
0.80591773986816406 0.12131725996732712 0.074407182633876801
0.87911850214004517 0.11847155541181564 0.069925971329212189
0.94575327634811401 0.10676576197147369 0.056982286274433136
0.00052436377154663205 0.25986021757125854 0.062334038317203522
0.0090646184980869293 0.24632023274898529 0.057744763791561127
0.039641078561544418 0.23063516616821289 0.058244265615940094
0.11279299855232239 0.22608943283557892 0.05816027894616127
0.25298476219177246 0.22766779363155365 0.056383498013019562
0.4017828106880188 0.22388529777526855 0.058101803064346313
0.50083523988723755 0.22636404633522034 0.078421890735626221
0.57369494438171387 0.22864474356174469 0.073928400874137878
0.65135288238525391 0.23004887998104095 0.063412591814994812
0.72905528545379639 0.24133048951625824 0.065199457108974457
0.80546027421951294 0.2426946759223938 0.071260206401348114
0.88225758075714111 0.23371925950050354 0.065141670405864716
0.94032806158065796 0.22079747915267944 0.05787721648812294
0.00079997943248599768 0.37939226627349854 0.057406868785619736
0.011908961459994316 0.37354430556297302 0.063811957836151123
0.045926366001367569 0.37740683555603027 0.075389206409454346
0.14348293840885162 0.37921276688575745 0.069843500852584839
0.27115187048912048 0.37343540787696838 0.062437843531370163
0.40191170573234558 0.36745256185531616 0.064964830875396729
0.49702847003936768 0.36652272939682007 0.073056809604167938
0.56859594583511353 0.37575137615203857 0.071555852890014648
0.64799761772155762 0.37362796068191528 0.05782650038599968
0.72839754819869995 0.37046721577644348 0.04709910973906517
0.80364465713500977 0.37467303872108459 0.063025258481502533
0.87820899486541748 0.37070345878601074 0.069709405303001404
0.94727528095245361 0.36803436279296875 0.069459624588489532
0.0019427879014983773 0.48752734065055847 0.058517277240753174
0.011272789910435677 0.48438882827758789 0.06501876562833786
0.049876779317855835 0.49246591329574585 0.079032957553863525
0.13510538637638092 0.48760873079299927 0.070481091737747192
0.26155033707618713 0.48411482572555542 0.05617191269993782
0.39774468541145325 0.48759639263153076 0.054823990911245346
0.49465298652648926 0.48878094553947449 0.061715546995401382
0.56658214330673218 0.49178668856620789 0.066770501434803009
0.64504289627075195 0.48512446880340576 0.065993338823318481
0.72529202699661255 0.47679513692855835 0.064343199133872986
0.80008292198181152 0.48750072717666626 0.066576279699802399
0.87431925535202026 0.4887230396270752 0.068824440240859985
0.9478258490562439 0.48041513562202454 0.070473797619342804
0.0017695109127089381 0.57128560543060303 0.066501602530479431
0.0053930692374706268 0.57222622632980347 0.055421072989702225
0.055401716381311417 0.56934452056884766 0.060707751661539078
0.13586057722568512 0.56733286380767822 0.060547336935997009
0.2593005895614624 0.57406795024871826 0.045763351023197174
0.39363625645637512 0.57317149639129639 0.052885435521602631
0.48753237724304199 0.57347393035888672 0.063882730901241302
0.56403219699859619 0.57414495944976807 0.066502906382083893
0.64259815216064453 0.56841939687728882 0.075091779232025146
0.72095298767089844 0.56873214244842529 0.078372254967689514
0.7986370325088501 0.57967323064804077 0.068320289254188538
0.8759913444519043 0.57933264970779419 0.071307450532913208
0.95196640491485596 0.57080256938934326 0.065250501036643982
0.0035793529823422432 0.64837014675140381 0.071820415556430817
0.009802844375371933 0.64791339635848999 0.067207500338554382
0.045111741870641708 0.6447608470916748 0.065712317824363708
0.14183005690574646 0.64507162570953369 0.063824281096458435
0.27518472075462341 0.64668017625808716 0.056662451475858688
0.40471628308296204 0.64604413509368896 0.056074567139148712
0.49370744824409485 0.64910781383514404 0.059018723666667938
0.56282663345336914 0.65254098176956177 0.059066548943519592
0.64074712991714478 0.64755183458328247 0.076335325837135315
0.7207176685333252 0.64720988273620605 0.084780491888523102
0.79906105995178223 0.65411752462387085 0.075321584939956665
0.87840437889099121 0.6611594557762146 0.077191494405269623
0.95065963268280029 0.65812122821807861 0.064495459198951721
0.0050901523791253567 0.72572827339172363 0.068864248692989349
0.013149291276931763 0.72297161817550659 0.072652213275432587
0.037560511380434036 0.71990638971328735 0.068191558122634888
0.13375204801559448 0.71921038627624512 0.067825958132743835
0.2657507061958313 0.72125804424285889 0.062456917017698288
0.40192237496376038 0.72207480669021606 0.05647716298699379
0.50038063526153564 0.72434967756271362 0.057736862450838089
0.56281465291976929 0.72608119249343872 0.060535207390785217
0.64013081789016724 0.72477632761001587 0.066649824380874634
0.72118479013442993 0.72582429647445679 0.071846425533294678
0.79952210187911987 0.73005807399749756 0.066494673490524292
0.88086044788360596 0.73808586597442627 0.075574763119220734
0.94872242212295532 0.73945403099060059 0.064175009727478027
0.0038242563605308533 0.80284088850021362 0.058360949158668518
0.0077793793752789497 0.80009037256240845 0.055568486452102661
0.042736653238534927 0.79616636037826538 0.064271308481693268
0.12459975481033325 0.79509806632995605 0.083798490464687347
0.25184464454650879 0.79620879888534546 0.066862471401691437
0.39253267645835876 0.80582690238952637 0.057490136474370956
0.49755385518074036 0.81092697381973267 0.056252200156450272
0.5667230486869812 0.80762642621994019 0.06449127197265625
0.64141947031021118 0.80634826421737671 0.06040293350815773
0.72077840566635132 0.80576592683792114 0.069264009594917297
0.80054783821105957 0.80680555105209351 0.076018251478672028
0.87962782382965088 0.80989533662796021 0.075974471867084503
0.95115655660629272 0.81086903810501099 0.067219078540802002
0.0011378867784515023 0.88028430938720703 0.068379499018192291
0.0095857959240674973 0.87813490629196167 0.057555239647626877
0.043905653059482574 0.87383866310119629 0.053374480456113815
0.11653006821870804 0.87374246120452881 0.0656723752617836
0.25110158324241638 0.87363260984420776 0.070751994848251343
0.39184558391571045 0.87969398498535156 0.063566960394382477
0.49708461761474609 0.88309586048126221 0.065720833837985992
0.56992673873901367 0.89087486267089844 0.078076966106891632
0.64292764663696289 0.88746088743209839 0.074261009693145752
0.72141140699386597 0.88163632154464722 0.076190784573554993
0.80248910188674927 0.88070553541183472 0.081350646913051605
0.88020634651184082 0.88193213939666748 0.075837694108486176
0.94670194387435913 0.88315242528915405 0.069033816456794739
0.0029054379556328058 0.94853430986404419 0.079572446644306183
0.010881535708904266 0.94190692901611328 0.057845801115036011
0.042269222438335419 0.93493503332138062 0.052708256989717484
0.11835552752017975 0.92914086580276489 0.061678927391767502
0.24974419176578522 0.94097042083740234 0.069340631365776062
0.38400688767433167 0.95108330249786377 0.060924381017684937
0.49219986796379089 0.94639354944229126 0.061294198036193848
0.56992322206497192 0.95655816793441772 0.06649315357208252
0.64590984582901001 0.95503777265548706 0.068967081606388092
0.72437912225723267 0.95523160696029663 0.0680060014128685
0.80558162927627563 0.9495970606803894 0.072369232773780823
0.88299864530563354 0.94474649429321289 0.065885595977306366
0.93939554691314697 0.94066756963729858 0.059598121792078018
0.0040222764946520329 0.0072429729625582695 0.17804685235023499
0.0065158023498952389 0.0056955376639962196 0.16280846297740936
0.046883229166269302 0.0043066437356173992 0.17402087152004242
0.11806277185678482 0.0038927115965634584 0.20013427734375
0.25039780139923096 0.0033798068761825562 0.1767428070306778
0.3782544732093811 0.0048561994917690754 0.17664653062820435
0.48043310642242432 0.0046811723150312901 0.18027828633785248
0.56793022155761719 0.0033371120225638151 0.17853496968746185
0.63676732778549194 0.0063860425725579262 0.21554496884346008
0.71541821956634521 0.0082326550036668777 0.22170364856719971
0.80040848255157471 0.0076914620585739613 0.20483754575252533
0.88235676288604736 0.005846614483743906 0.17821677029132843
0.94991821050643921 0.0058260299265384674 0.18062569200992584
0.0038702273741364479 0.027657408267259598 0.19196717441082001
0.0063510672189295292 0.021147424355149269 0.1761116087436676
0.048164144158363342 0.019095716997981071 0.18420957028865814
0.12448030710220337 0.016983406618237495 0.17943398654460907
0.25209614634513855 0.017610348761081696 0.18827261030673981
0.38571131229400635 0.019275994971394539 0.20111849904060364
0.48701679706573486 0.021296257153153419 0.19422715902328491
0.56553560495376587 0.02530987374484539 0.17774149775505066
0.63478767871856689 0.027686189860105515 0.18727393448352814
0.71655368804931641 0.024507351219654083 0.2053377777338028
0.80469286441802979 0.017561579123139381 0.2039802223443985
0.88042062520980835 0.020088793709874153 0.1969153881072998
0.94473934173583984 0.026662429794669151 0.19430936872959137
0.0035128125455230474 0.079308800399303436 0.18952788412570953
0.0099882986396551132 0.068728968501091003 0.18243750929832458
0.051258731633424759 0.061066780239343643 0.19382277131080627
0.12644121050834656 0.064680226147174835 0.19026640057563782
0.24706555902957916 0.058226969093084335 0.20648674666881561
0.38078039884567261 0.054978299885988235 0.21325947344303131
0.48784381151199341 0.060206111520528793 0.19498799741268158
0.56186652183532715 0.061808627098798752 0.17531992495059967
0.63542795181274414 0.058335352689027786 0.15627841651439667
0.71734422445297241 0.060657113790512085 0.19028833508491516
0.8037685751914978 0.05823160707950592 0.21094444394111633
0.87907898426055908 0.056261502206325531 0.20440497994422913
0.94955146312713623 0.054874449968338013 0.19969314336776733
0.00382207240909338 0.15668043494224548 0.19751225411891937
0.017469862475991249 0.14255613088607788 0.19723911583423615
0.053805917501449585 0.12856495380401611 0.19858351349830627
0.11963867396116257 0.12858466804027557 0.18522533774375916
0.24108566343784332 0.12462476640939713 0.19949689507484436
0.38745442032814026 0.12298067659139633 0.19636234641075134
0.49373844265937805 0.12764331698417664 0.17584700882434845
0.56658273935317993 0.13270436227321625 0.17802324891090393
0.64438921213150024 0.13226620852947235 0.17188572883605957
0.72700804471969604 0.13269446790218353 0.193674236536026
0.80206507444381714 0.13153764605522156 0.21119356155395508
0.87470012903213501 0.12215806543827057 0.19782710075378418
0.94746989011764526 0.10463297367095947 0.17656153440475464
0.00214411411434412 0.26642599701881409 0.1785990297794342
0.018492709845304489 0.25518068671226501 0.17959561944007874
0.05547129362821579 0.24281863868236542 0.19197638332843781
0.12132490426301956 0.22907374799251556 0.17484845221042633
0.24893766641616821 0.23101837933063507 0.1790301501750946
0.39662343263626099 0.23516343533992767 0.1782631129026413
0.49877658486366272 0.23465099930763245 0.18046556413173676
0.57610386610031128 0.2374553382396698 0.20326000452041626
0.65651100873947144 0.23626452684402466 0.19888249039649963
0.73592972755432129 0.2323758602142334 0.18188214302062988
0.80726301670074463 0.23823446035385132 0.1911526620388031
0.87847352027893066 0.23322932422161102 0.18925794959068298
0.9447823166847229 0.22301551699638367 0.18434680998325348
0.0010821174364537001 0.3854885995388031 0.18904101848602295
0.014479977078735828 0.3810519278049469 0.17430490255355835
0.050563976168632507 0.3858008086681366 0.18259021639823914
0.14185649156570435 0.37849012017250061 0.17494146525859833
0.26547732949256897 0.37265568971633911 0.167920783162117
0.39292597770690918 0.37605956196784973 0.19152718782424927
0.4907342791557312 0.37325569987297058 0.19066117703914642
0.57428443431854248 0.36646628379821777 0.20173004269599915
0.65677201747894287 0.36434361338615417 0.1949516087770462
0.73406243324279785 0.36987724900245667 0.16580982506275177
0.8061559796333313 0.37236985564231873 0.18409916758537292
0.87815117835998535 0.36994209885597229 0.19664523005485535
0.94583231210708618 0.36583918333053589 0.20391370356082916
0.0026205324102193117 0.4909481406211853 0.20295342803001404
0.011158857494592667 0.48768523335456848 0.17624303698539734
0.046613804996013641 0.49498015642166138 0.18201041221618652
0.13797846436500549 0.49071517586708069 0.19344425201416016
0.26426592469215393 0.48430612683296204 0.17436575889587402
0.38546475768089294 0.48687452077865601 0.18592590093612671
0.48415008187294006 0.48730325698852539 0.17732562124729156
0.57082140445709229 0.48178559541702271 0.18010129034519196
0.65099608898162842 0.47389465570449829 0.18832051753997803
0.72839629650115967 0.47420495748519897 0.18713779747486115
0.80060315132141113 0.48293095827102661 0.20295608043670654
0.87619376182556152 0.48269647359848022 0.20477741956710815
0.94650238752365112 0.47398486733436584 0.1956806480884552
0.0039215688593685627 0.57205122709274292 0.1839754581451416
0.0060476413927972317 0.57689434289932251 0.16770249605178833
0.052633576095104218 0.57646739482879639 0.17686764895915985
0.14081542193889618 0.5741269588470459 0.19683560729026794
0.25679266452789307 0.57726657390594482 0.1689067929983139
0.37628886103630066 0.57447552680969238 0.16852933168411255
0.48075476288795471 0.57142490148544312 0.17947717010974884
0.56487488746643066 0.57030773162841797 0.18904608488082886
0.6472097635269165 0.56321394443511963 0.19906793534755707
0.72468113899230957 0.55961185693740845 0.20175452530384064
0.79622828960418701 0.56800699234008789 0.21614329516887665
0.8751329779624939 0.57239443063735962 0.21185016632080078
0.94758492708206177 0.56841641664505005 0.1931050717830658
0.0039316215552389622 0.6486780047416687 0.1918455958366394
0.01045099925249815 0.6496204137802124 0.18951407074928284
0.050015855580568314 0.64883196353912354 0.19194598495960236
0.13719658553600311 0.64963388442993164 0.1922595202922821
0.26008349657058716 0.6509556770324707 0.16972216963768005
0.38974979519844055 0.64804941415786743 0.17103129625320435
0.48710986971855164 0.64701253175735474 0.17496205866336823
0.56167364120483398 0.64781016111373901 0.18562121689319611
0.64587509632110596 0.6436346173286438 0.20622634887695312
0.72616958618164062 0.64087438583374023 0.19328732788562775
0.80165475606918335 0.6466296911239624 0.19460287690162659
0.87865769863128662 0.65585410594940186 0.19617359340190887
0.93977886438369751 0.65785187482833862 0.18307472765445709
0.0044465605169534683 0.72570496797561646 0.20151716470718384
0.015259327366948128 0.72454476356506348 0.20095360279083252
0.047381173819303513 0.72208583354949951 0.19416928291320801
0.12726646661758423 0.72260010242462158 0.18059325218200684
0.25790774822235107 0.72308975458145142 0.17796015739440918
0.39345589280128479 0.72230547666549683 0.18176613748073578
0.4857601523399353 0.72264689207077026 0.15960568189620972
0.56063973903656006 0.72381597757339478 0.16398316621780396
0.64340728521347046 0.72314131259918213 0.19572471082210541
0.72347742319107056 0.7235296368598938 0.19602744281291962
0.80127835273742676 0.7255251407623291 0.20132395625114441
0.88101029396057129 0.73574703931808472 0.18716762959957123
0.93538635969161987 0.74135923385620117 0.17328663170337677
0.0033448012545704842 0.80295675992965698 0.19554847478866577
0.01699473150074482 0.80326515436172485 0.18185703456401825
0.049405340105295181 0.79961872100830078 0.17461873590946198
0.11442576348781586 0.79748404026031494 0.16552798449993134
0.24784228205680847 0.79627841711044312 0.18718260526657104
0.38660117983818054 0.80007821321487427 0.19585278630256653
0.48496323823928833 0.80262809991836548 0.1690177321434021
0.56171023845672607 0.80538135766983032 0.17044681310653687
0.63929682970046997 0.80782866477966309 0.1878504753112793
0.71860551834106445 0.81108766794204712 0.18383608758449554
0.79899078607559204 0.80498427152633667 0.2111486941576004
0.8770759105682373 0.80769747495651245 0.20440293848514557
0.94502758979797363 0.81166690587997437 0.1836850494146347
0.0015343012055382133 0.87890791893005371 0.18217724561691284
0.015569783747196198 0.88245576620101929 0.17276008427143097
0.04794171079993248 0.87720215320587158 0.17513459920883179
0.11279807239770889 0.87180924415588379 0.18635646998882294
0.24270708858966827 0.87230533361434937 0.19491702318191528
0.38258403539657593 0.8770255446434021 0.17959243059158325
0.4881017804145813 0.88083231449127197 0.17146235704421997
0.56577169895172119 0.88887709379196167 0.18296347558498383
0.64075386524200439 0.88537043333053589 0.20260225236415863
0.7190137505531311 0.88380730152130127 0.19355796277523041
0.80093640089035034 0.88022691011428833 0.20377333462238312
0.87835413217544556 0.87975591421127319 0.20385919511318207
0.95049309730529785 0.88183820247650146 0.18133507668972015
0.0043548583053052425 0.94406938552856445 0.20889073610305786
0.012446743436157703 0.94781112670898438 0.19588483870029449
0.038726985454559326 0.95172107219696045 0.17574761807918549
0.11621549725532532 0.94335043430328369 0.18823403120040894
0.24291947484016418 0.94277048110961914 0.20289154350757599
0.38303065299987793 0.94273197650909424 0.20107671618461609
0.48671180009841919 0.94478285312652588 0.1906791627407074
0.56385701894760132 0.95514875650405884 0.20064438879489899
0.64111781120300293 0.94987374544143677 0.20042546093463898
0.72101885080337524 0.94846397638320923 0.20011416077613831
0.80335646867752075 0.94889682531356812 0.19656142592430115
0.8831825852394104 0.95178025960922241 0.18673953413963318
0.95182007551193237 0.95301896333694458 0.17097529768943787
0.0074127647094428539 0.0085438145324587822 0.33750563859939575
0.011285774409770966 0.0069285971112549305 0.33504727482795715
0.044862531125545502 0.0055651944130659103 0.33334076404571533
0.11783412843942642 0.0057457420043647289 0.34440475702285767
0.25209009647369385 0.0056853950954973698 0.31929567456245422
0.38045391440391541 0.0051238266751170158 0.32094100117683411
0.48255893588066101 0.0046510286629199982 0.3445301353931427
0.56462907791137695 0.0049600936472415924 0.3522171676158905
0.63525485992431641 0.0060392045415937901 0.34187686443328857
0.71786582469940186 0.0083429226651787758 0.35826587677001953
0.8022117018699646 0.0097011346369981766 0.35915631055831909
0.87906771898269653 0.0083796782419085503 0.33661887049674988
0.95162904262542725 0.0065856482833623886 0.32374784350395203
0.0056929644197225571 0.031475335359573364 0.34244433045387268
0.011939015239477158 0.02967764250934124 0.34270617365837097
0.03934377059340477 0.020788902416825294 0.35067272186279297
0.12957508862018585 0.019647186622023582 0.34696182608604431
0.26435205340385437 0.019205983728170395 0.34427493810653687
0.39050424098968506 0.018652403727173805 0.34966495633125305
0.487566739320755 0.022350551560521126 0.35236817598342896
0.56388992071151733 0.024873726069927216 0.34094458818435669
0.63330793380737305 0.025675725191831589 0.32689762115478516
0.71689832210540771 0.025948064401745796 0.34825751185417175
0.80443322658538818 0.020795455202460289 0.35379728674888611
0.88047224283218384 0.021249972283840179 0.3394007682800293
0.94819241762161255 0.025421023368835449 0.33288997411727905
0.0043332269415259361 0.081887878477573395 0.33203679323196411
0.016490127891302109 0.075856618583202362 0.332917720079422
0.050115875899791718 0.066643118858337402 0.34995844960212708
0.13469801843166351 0.062624923884868622 0.35119065642356873
0.25967156887054443 0.05609619989991188 0.36230072379112244
0.38443046808242798 0.054310832172632217 0.36226946115493774
0.48367848992347717 0.061062831431627274 0.33650663495063782
0.56083947420120239 0.06152820959687233 0.31842207908630371
0.63450998067855835 0.059432040899991989 0.31195691227912903
0.71720033884048462 0.062782704830169678 0.34420761466026306
0.80159503221511841 0.0595894455909729 0.36375153064727783
0.8785976767539978 0.058745335787534714 0.34526383876800537
0.95230114459991455 0.055585481226444244 0.33815035223960876
0.0045544793829321861 0.16397687792778015 0.34562674164772034
0.023255426436662674 0.14668695628643036 0.34429123997688293
0.056333355605602264 0.12636399269104004 0.35130330920219421
0.13979347050189972 0.12396442145109177 0.35399630665779114
0.25802868604660034 0.12076044827699661 0.3682781457901001
0.38105019927024841 0.12297730147838593 0.36048325896263123
0.48532626032829285 0.1270596832036972 0.32467439770698547
0.56393182277679443 0.12554691731929779 0.31935322284698486
0.64112180471420288 0.12326232343912125 0.3202650249004364
0.7235640287399292 0.1321905106306076 0.33848458528518677
0.79984492063522339 0.13679346442222595 0.35208466649055481
0.87618768215179443 0.13306128978729248 0.34167146682739258
0.95344680547714233 0.12343993782997131 0.33569511771202087
0.0035832275170832872 0.26522484421730042 0.34788021445274353
