assets/lut/others hong kong.cube
# Created by: G'MIC (https://gmic.eu)
TITLE "hong_kong"
# LUT size
LUT_3D_SIZE 5
# Data domain
DOMAIN_MIN 0.0 0.0 0.0
DOMAIN_MAX 1.0 1.0 1.0
# LUT data points
0.0078431377187371254 0.00011201746383449063 0.0079693514853715897
0.20447741448879242 0.0039215688593685627 0.0070822322741150856
0.59954911470413208 0.0083204684779047966 0.016780972480773926
0.87508493661880493 0.0034279916435480118 0.0072079827077686787
0.97757542133331299 0.0037768795154988766 0.011792306788265705
0.0078431377187371254 0.14566691219806671 0.0071454965509474277
0.21359547972679138 0.14376728236675262 0.0076654921285808086
0.60011082887649536 0.14822225272655487 0.011690566316246986
0.87303227186203003 0.15308108925819397 0.0089783910661935806
0.97999811172485352 0.15077675879001617 0.0050433292053639889
0.0078302118927240372 0.48797839879989624 0.0055635040625929832
0.21290673315525055 0.47545966506004333 0.0063191731460392475
0.59750503301620483 0.46926736831665039 0.0084725469350814819
0.86865603923797607 0.48776271939277649 0.0040376549586653709
0.98262888193130493 0.48048493266105652 0.0057681663893163204
0.0078221336007118225 0.80820286273956299 0.006948553491383791
0.21122172474861145 0.79846596717834473 0.0070379967801272869
0.60322540998458862 0.79098248481750488 0.0063540441915392876
0.86795413494110107 0.79889935255050659 0.0061241895891726017
0.97991764545440674 0.80124658346176147 0.0066121118143200874
0.010252664797008038 0.91352194547653198 0.0043204212561249733
0.21392297744750977 0.91126132011413574 0.011648888699710369
0.60745328664779663 0.90681636333465576 0.0073931226506829262
0.87180638313293457 0.91657674312591553 0.0077189425937831402
0.98103243112564087 0.91991382837295532 0.0021590287797152996
0.00037538117612712085 0.0039215688593685627 0.16769601404666901
0.21895405650138855 0.0038102841936051846 0.17151808738708496
0.60462361574172974 0.0088281966745853424 0.16372710466384888
0.87259864807128906 0.0078431377187371254 0.16228120028972626
0.97938889265060425 0.0039215688593685627 0.16697372496128082
0.0047038807533681393 0.14370664954185486 0.16298092901706696
0.20371142029762268 0.14961181581020355 0.16593153774738312
0.6039007306098938 0.1521274745464325 0.16600103676319122
0.86853706836700439 0.15382601320743561 0.16373586654663086
0.98092585802078247 0.15058325231075287 0.16785717010498047
0.0039061303250491619 0.48512011766433716 0.16850350797176361
0.21026359498500824 0.48110958933830261 0.16736158728599548
0.60390067100524902 0.47428524494171143 0.16873684525489807
0.86340135335922241 0.4822237491607666 0.1660369336605072
0.98069226741790771 0.48628330230712891 0.16899675130844116
0.0058032465167343616 0.79639303684234619 0.16180084645748138
0.21330443024635315 0.79694610834121704 0.16380706429481506
0.60131090879440308 0.79463773965835571 0.16667293012142181
0.87149971723556519 0.80286711454391479 0.16736364364624023
0.98052620887756348 0.80221039056777954 0.16930998861789703
0.0073151979595422745 0.91615581512451172 0.1614982932806015
0.20972822606563568 0.92011815309524536 0.16301010549068451
0.59837424755096436 0.91069084405899048 0.16843651235103607
0.86655020713806152 0.92003792524337769 0.1679130345582962
0.9816623330116272 0.90910166501998901 0.17117597162723541
0.00058370851911604404 0.0039215688593685627 0.46706464886665344
0.2041589617729187 0.004918715450912714 0.46554750204086304
0.60587424039840698 0.0076966527849435806 0.46763113141059875
0.86780685186386108 0.0079474803060293198 0.46384474635124207
0.98074626922607422 0.0004809211241081357 0.46132922172546387
0.0022858413867652416 0.14652888476848602 0.46262326836585999
0.20961900055408478 0.14415700733661652 0.47203949093818665
0.60653376579284668 0.14767643809318542 0.47339978814125061
0.86205852031707764 0.15317206084728241 0.47052791714668274
0.9786069393157959 0.14615283906459808 0.46627932786941528
0.003741963766515255 0.47589471936225891 0.46155524253845215
0.21061587333679199 0.47304812073707581 0.47044086456298828
0.60600215196609497 0.47605207562446594 0.46970966458320618
0.86854487657546997 0.48339188098907471 0.4643804132938385
0.98166954517364502 0.48145166039466858 0.47328305244445801
0.0061922711320221424 0.80117028951644897 0.45982101559638977
0.20547208189964294 0.7957007884979248 0.46882861852645874
0.60798150300979614 0.79327285289764404 0.47309398651123047
0.87421876192092896 0.79691475629806519 0.47422432899475098
0.98117458820343018 0.80155026912689209 0.4755779504776001
0.007475490216165781 0.91186130046844482 0.46363207697868347
0.20572344958782196 0.91859513521194458 0.46718481183052063
0.60749369859695435 0.91586661338806152 0.47057965397834778
0.86892235279083252 0.92046856880187988 0.46903195977210999
0.98195070028305054 0.92115253210067749 0.46447649598121643
0.0024598962627351284 0.0039215688593685627 0.78009611368179321
0.20776402950286865 0.0033042458817362785 0.77744877338409424
0.61162537336349487 0.0038614759687334299 0.77830106019973755
0.86043262481689453 0.0039215688593685627 0.7795102596282959
0.98233932256698608 0.00055618287296965718 0.77153021097183228
0.0064721051603555679 0.1424558013677597 0.77258521318435669
0.21372279524803162 0.14260375499725342 0.78160589933395386
0.61071318387985229 0.14278717339038849 0.77899014949798584
0.86991220712661743 0.1446465402841568 0.77841365337371826
0.98272413015365601 0.14609046280384064 0.77384573221206665
0.0095010790973901749 0.47179141640663147 0.77729588747024536
0.2042650580406189 0.47168639302253723 0.78059327602386475
0.60797274112701416 0.46847119927406311 0.7842211127281189
0.87098318338394165 0.47110602259635925 0.77706700563430786
0.98064571619033813 0.47997957468032837 0.77663862705230713
0.0079194316640496254 0.80207633972167969 0.78143471479415894
0.20457907021045685 0.7965083122253418 0.77752649784088135
0.60468763113021851 0.79586726427078247 0.77624326944351196
0.87114173173904419 0.79808908700942993 0.77666723728179932
0.98087596893310547 0.79459017515182495 0.7763480544090271
0.0011528314789757133 0.91989308595657349 0.78362888097763062
0.20791764557361603 0.9162713885307312 0.7752729058265686
0.60277873277664185 0.91697382926940918 0.78276234865188599
0.87013411521911621 0.92149591445922852 0.78224313259124756
0.98215091228485107 0.92071157693862915 0.77991020679473877
0.0023284314665943384 0.0039215688593685627 0.96408283710479736
0.21694295108318329 0.0050047929398715496 0.963764488697052
0.60016411542892456 0.0010764028411358595 0.96243083477020264
0.8681911826133728 0.0020069645252078772 0.96588671207427979
0.9810415506362915 0.0047303740866482258 0.9678916335105896
0.005053546279668808 0.14998598396778107 0.96235746145248413
0.20307524502277374 0.14386004209518433 0.96117359399795532
0.61014211177825928 0.1426786333322525 0.9669497013092041
0.86663883924484253 0.14067690074443817 0.96616494655609131
0.98286879062652588 0.14235526323318481 0.96862363815307617
0.0052169500850141048 0.4726085364818573 0.96224099397659302
0.2017868310213089 0.47252452373504639 0.96484637260437012
0.60287070274353027 0.47290199995040894 0.96680217981338501
0.86571842432022095 0.475645512342453 0.96190369129180908
0.97426623106002808 0.47774946689605713 0.96419072151184082
0.0063478206284344196 0.80257350206375122 0.96433186531066895
0.21212466061115265 0.79859495162963867 0.96175402402877808
0.60764056444168091 0.79097658395767212 0.96401810646057129
0.87005746364593506 0.78687560558319092 0.96532487869262695
0.9814421534538269 0.79476439952850342 0.96690785884857178
0.0026246164925396442 0.92033106088638306 0.96690851449966431
0.21100312471389771 0.92060059309005737 0.96749591827392578
0.58855986595153809 0.9119756817817688 0.96381616592407227
0.86720043420791626 0.91918426752090454 0.96580046415328979
0.97672182321548462 0.91923850774765015 0.96633684635162354
