assets/lut/others 60s.cube
# Created by: G'MIC (https://gmic.eu)
TITLE "60s"
# LUT size
LUT_3D_SIZE 13
# Data domain
DOMAIN_MIN 0.0 0.0 0.0
DOMAIN_MAX 1.0 1.0 1.0
# LUT data points
0.46053346991539001 0.12877112627029419 0.49975848197937012
0.46813923120498657 0.13103652000427246 0.51088857650756836
0.45593589544296265 0.13263468444347382 0.49299103021621704
0.50653892755508423 0.13150125741958618 0.50019234418869019
0.59309864044189453 0.1376909464597702 0.5080450177192688
0.68380641937255859 0.13887852430343628 0.50594812631607056
0.76924949884414673 0.13917352259159088 0.4999639093875885
0.84176719188690186 0.13628478348255157 0.50793492794036865
0.89287364482879639 0.13746084272861481 0.5122411847114563
0.92215436697006226 0.13988319039344788 0.50191861391067505
0.92429095506668091 0.14494046568870544 0.50898832082748413
0.90798991918563843 0.14843398332595825 0.52162539958953857
0.83661478757858276 0.15054984390735626 0.51188725233078003
0.47309926152229309 0.1599837988615036 0.50642275810241699
0.4631594717502594 0.16683770716190338 0.51651167869567871
0.45461651682853699 0.1684674471616745 0.50080925226211548
0.50635206699371338 0.16694295406341553 0.49081093072891235
0.59703493118286133 0.17107181251049042 0.49513101577758789
0.68768280744552612 0.1750415712594986 0.49349117279052734
0.77202928066253662 0.1774158775806427 0.49688500165939331
0.83992481231689453 0.17881007492542267 0.49976658821105957
0.89482861757278442 0.17762215435504913 0.49712130427360535
0.91929644346237183 0.18240205943584442 0.49642741680145264
0.91695702075958252 0.18809795379638672 0.49728336930274963
0.90203714370727539 0.19357782602310181 0.50597250461578369
0.84645926952362061 0.19443932175636292 0.50800389051437378
0.44736272096633911 0.21393340826034546 0.49567592144012451
0.44612449407577515 0.22130508720874786 0.50862473249435425
0.45692497491836548 0.22003068029880524 0.49947169423103333
0.49925723671913147 0.219863161444664 0.4970853328704834
0.59792399406433105 0.22117893397808075 0.49264156818389893
0.69190067052841187 0.2253248393535614 0.49192741513252258
0.77430546283721924 0.23307788372039795 0.50187373161315918
0.84996664524078369 0.23299431800842285 0.5078732967376709
0.8979526162147522 0.23945233225822449 0.50118786096572876
0.92489200830459595 0.24033772945404053 0.50192791223526001
0.92175173759460449 0.24059565365314484 0.49668782949447632
0.901172935962677 0.24619318544864655 0.49922749400138855
0.86338841915130615 0.24770419299602509 0.50784748792648315
0.44695666432380676 0.31801033020019531 0.49899512529373169
0.44459646940231323 0.31971871852874756 0.50155532360076904
0.43654605746269226 0.31451192498207092 0.49387058615684509
0.49144130945205688 0.30703252553939819 0.50214272737503052
0.58827930688858032 0.31335681676864624 0.49752095341682434
0.69404125213623047 0.31979095935821533 0.49298843741416931
0.7799612283706665 0.3259223997592926 0.50260525941848755
0.8546711802482605 0.33037519454956055 0.51394063234329224
0.90147858858108521 0.33708617091178894 0.50483816862106323
0.93194502592086792 0.33933404088020325 0.50674170255661011
0.93781918287277222 0.34647595882415771 0.51111906766891479
0.91558349132537842 0.35108748078346252 0.50704795122146606
0.87339329719543457 0.35903686285018921 0.51255851984024048
0.43820604681968689 0.46931794285774231 0.5089220404624939
0.44107744097709656 0.47421729564666748 0.51463049650192261
0.43661674857139587 0.47070935368537903 0.50613516569137573
0.49818390607833862 0.45090696215629578 0.50585806369781494
0.5857425332069397 0.44313928484916687 0.50153887271881104
0.69154953956604004 0.44992548227310181 0.49627935886383057
0.77679526805877686 0.47053337097167969 0.50847285985946655
0.84671074151992798 0.48544344305992126 0.51859420537948608
0.90037781000137329 0.48186275362968445 0.50655418634414673
0.9325026273727417 0.49376413226127625 0.51020103693008423
0.93492543697357178 0.50307643413543701 0.51433807611465454
0.92158901691436768 0.50584709644317627 0.50972259044647217
0.87803798913955688 0.51774543523788452 0.51452195644378662
0.41659870743751526 0.60569435358047485 0.49827411770820618
0.42419496178627014 0.62141668796539307 0.51566553115844727
0.43672624230384827 0.61501199007034302 0.51293230056762695
0.50575953722000122 0.60094332695007324 0.51211309432983398
0.59829872846603394 0.59525144100189209 0.50634109973907471
0.68979829549789429 0.60341775417327881 0.4985983669757843
0.77329427003860474 0.62013208866119385 0.49925652146339417
0.84387087821960449 0.62190705537796021 0.50827562808990479
0.89936375617980957 0.63268452882766724 0.50064206123352051
0.92890191078186035 0.64161556959152222 0.50511395931243896
0.92514759302139282 0.64118450880050659 0.50891244411468506
0.90963596105575562 0.64716935157775879 0.50655674934387207
0.87828612327575684 0.66089189052581787 0.5232054591178894
0.42879810929298401 0.72219330072402954 0.49797070026397705
0.44129228591918945 0.73499971628189087 0.51562339067459106
0.43835330009460449 0.73052495718002319 0.50861215591430664
0.50856876373291016 0.72442805767059326 0.51370865106582642
0.61161386966705322 0.73036360740661621 0.50766003131866455
0.70427864789962769 0.73342853784561157 0.49866190552711487
0.77729356288909912 0.72884052991867065 0.49544218182563782
0.8455396294593811 0.72750866413116455 0.49946412444114685
0.89929258823394775 0.73513084650039673 0.49820905923843384
0.92222601175308228 0.73912250995635986 0.49783137440681458
0.91947591304779053 0.73928308486938477 0.50376546382904053
0.91123229265213013 0.74688977003097534 0.50557208061218262
0.88589096069335938 0.76629394292831421 0.521270751953125
0.4172084629535675 0.81867492198944092 0.51487308740615845
0.44178912043571472 0.81987756490707397 0.51112204790115356
0.43867826461791992 0.82505285739898682 0.50193816423416138
0.50705206394195557 0.82102560997009277 0.51922065019607544
0.60406845808029175 0.81827104091644287 0.51501137018203735
0.7045673131942749 0.8159022331237793 0.49512055516242981
0.7859535813331604 0.81400084495544434 0.49596169590950012
0.85790890455245972 0.81514400243759155 0.50595498085021973
0.89940279722213745 0.81427550315856934 0.50385087728500366
0.91738951206207275 0.81459051370620728 0.50006037950515747
0.91585040092468262 0.82197058200836182 0.50100219249725342
0.91898548603057861 0.83050495386123657 0.50415325164794922
0.90031707286834717 0.84866327047348022 0.51604276895523071
0.41410309076309204 0.87843376398086548 0.51177883148193359
0.43449634313583374 0.88401460647583008 0.51256674528121948
0.43592637777328491 0.89090210199356079 0.51316380500793457
0.50936955213546753 0.88030606508255005 0.51788139343261719
0.60417884588241577 0.87362104654312134 0.51036131381988525
0.70296019315719604 0.87724548578262329 0.49345487356185913
0.79184287786483765 0.88374888896942139 0.49720111489295959
0.86351943016052246 0.88918966054916382 0.50644171237945557
0.89896762371063232 0.88469475507736206 0.49992090463638306
0.91841167211532593 0.88382118940353394 0.49806955456733704
0.92592793703079224 0.8866005539894104 0.50443106889724731
0.9338800311088562 0.89049661159515381 0.51079541444778442
0.90468335151672363 0.9043307900428772 0.51791059970855713
0.38698270916938782 0.92468887567520142 0.51025325059890747
0.42026636004447937 0.93105226755142212 0.50614809989929199
0.44145891070365906 0.92995178699493408 0.51206368207931519
0.51438629627227783 0.92256534099578857 0.51641499996185303
0.60808753967285156 0.91651707887649536 0.50821214914321899
0.70234709978103638 0.92158776521682739 0.4996429979801178
0.79371017217636108 0.93132883310317993 0.49556124210357666
0.85525220632553101 0.93114596605300903 0.49824592471122742
0.89738649129867554 0.93082565069198608 0.49490842223167419
0.92349714040756226 0.93208259344100952 0.49746882915496826
0.9373011589050293 0.9338834285736084 0.50657820701599121
0.94752299785614014 0.93610334396362305 0.51311463117599487
0.90848690271377563 0.94485771656036377 0.51854139566421509
0.39264348149299622 0.95180231332778931 0.51114267110824585
0.42537036538124084 0.96082961559295654 0.52155607938766479
0.44166955351829529 0.96136778593063354 0.51864469051361084
0.52374213933944702 0.95439130067825317 0.51442080736160278
0.61877143383026123 0.95063430070877075 0.50459450483322144
0.71151572465896606 0.95124000310897827 0.50166535377502441
0.79901832342147827 0.95127308368682861 0.50097978115081787
0.85583662986755371 0.95293956995010376 0.49916616082191467
0.89784103631973267 0.95780384540557861 0.49527361989021301
0.92375075817108154 0.95878905057907104 0.49745082855224609
0.93293112516403198 0.95790326595306396 0.50167101621627808
0.94339609146118164 0.96244502067565918 0.50682240724563599
0.91465651988983154 0.97156298160552979 0.51826328039169312
0.39395385980606079 0.97407376766204834 0.51607155799865723
0.4185967743396759 0.97526133060455322 0.52013462781906128
0.44534024596214294 0.97235012054443359 0.50889497995376587
0.52948558330535889 0.96351569890975952 0.50844764709472656
0.63073796033859253 0.96737521886825562 0.50212192535400391
0.72467446327209473 0.96530532836914062 0.5065879225730896
0.80687248706817627 0.95290344953536987 0.51244086027145386
0.86681854724884033 0.95113211870193481 0.50775343179702759
0.90684574842453003 0.96475523710250854 0.50263518095016479
0.9328187108039856 0.96226054430007935 0.50525867938995361
0.94362396001815796 0.96396321058273315 0.50838851928710938
0.94522112607955933 0.97071117162704468 0.50723105669021606
0.92012530565261841 0.98110991716384888 0.51809883117675781
0.40489262342453003 0.89565187692642212 0.5281253457069397
0.43089783191680908 0.90737420320510864 0.53458535671234131
0.46115130186080933 0.9082368016242981 0.5291779637336731
0.54982548952102661 0.91943782567977905 0.53411644697189331
0.66199427843093872 0.91978657245635986 0.53538471460342407
0.74572962522506714 0.91886824369430542 0.53021109104156494
0.82426291704177856 0.90095514059066772 0.53420805931091309
0.89295613765716553 0.91089707612991333 0.53257912397384644
0.93213051557540894 0.90629565715789795 0.5361514687538147
0.95774233341217041 0.90535634756088257 0.53802371025085449
0.96540677547454834 0.90917700529098511 0.53142136335372925
0.96621185541152954 0.92070227861404419 0.53230130672454834
0.93691080808639526 0.93631547689437866 0.54300165176391602
0.41885697841644287 0.16953025758266449 0.50809454917907715
0.42350327968597412 0.17425879836082458 0.51128727197647095
0.42882224917411804 0.17617371678352356 0.51170027256011963
0.48752722144126892 0.18176358938217163 0.50854986906051636
0.57835906744003296 0.18523953855037689 0.51090478897094727
0.67654544115066528 0.18226367235183716 0.51073712110519409
0.76602888107299805 0.17418393492698669 0.5149109959602356
0.83756375312805176 0.17908495664596558 0.51434868574142456
0.8814578652381897 0.1833079606294632 0.5122261643409729
0.91442209482192993 0.18269534409046173 0.51169013977050781
0.91833740472793579 0.18753251433372498 0.51446002721786499
0.9056321382522583 0.18415263295173645 0.51624536514282227
0.86291742324829102 0.18396304547786713 0.5279039740562439
0.43228769302368164 0.1602708101272583 0.52374422550201416
0.43887421488761902 0.16620840132236481 0.52996844053268433
0.43894293904304504 0.17388395965099335 0.52638739347457886
0.50776386260986328 0.17648480832576752 0.52830022573471069
0.59812742471694946 0.17988802492618561 0.52949047088623047
0.68984097242355347 0.18588954210281372 0.52537816762924194
0.78452324867248535 0.18134781718254089 0.5303453803062439
0.85150837898254395 0.1870993971824646 0.53178900480270386
0.90010875463485718 0.192469522356987 0.52984237670898438
0.92994922399520874 0.19670234620571136 0.5307316780090332
0.92804598808288574 0.2074522078037262 0.52624630928039551
0.9208756685256958 0.20670978724956512 0.52874457836151123
0.88833153247833252 0.20504729449748993 0.54691433906555176
0.42772963643074036 0.20997096598148346 0.52199333906173706
0.43328738212585449 0.21855777502059937 0.5299375057220459
0.44670414924621582 0.22375001013278961 0.5289161205291748
0.50258535146713257 0.22630149126052856 0.53219246864318848
0.60293447971343994 0.23474244773387909 0.53341054916381836
0.69568037986755371 0.23458167910575867 0.52884042263031006
0.78323101997375488 0.23573395609855652 0.53090918064117432
0.85799825191497803 0.23496940732002258 0.5359950065612793
0.90606671571731567 0.23888765275478363 0.53732442855834961
0.93731355667114258 0.24220734834671021 0.53866797685623169
0.94146233797073364 0.24832101166248322 0.53475737571716309
0.93239480257034302 0.25266620516777039 0.53391498327255249
0.89706265926361084 0.26170995831489563 0.54767709970474243
0.42683902382850647 0.30834278464317322 0.52657461166381836
0.4319646954536438 0.31984946131706238 0.53002560138702393
0.42547997832298279 0.31775650382041931 0.52595692873001099
0.4965551495552063 0.32085570693016052 0.5317455530166626
0.60254788398742676 0.32788845896720886 0.53290039300918579
0.70114684104919434 0.32963919639587402 0.53005266189575195
0.78616589307785034 0.32945072650909424 0.53296232223510742
0.85962647199630737 0.33672225475311279 0.53668797016143799
0.90495675802230835 0.34892088174819946 0.53777658939361572
0.93570637702941895 0.34815925359725952 0.54130369424819946
0.94918251037597656 0.34709477424621582 0.54153060913085938
0.93944519758224487 0.35065093636512756 0.54139864444732666
0.90528684854507446 0.36797323822975159 0.54915976524353027
0.43195813894271851 0.45858776569366455 0.51959621906280518
0.43058782815933228 0.4745800793170929 0.53273594379425049
0.42809990048408508 0.47348901629447937 0.53061515092849731
0.49938938021659851 0.47722184658050537 0.53440290689468384
0.5961119532585144 0.47101014852523804 0.53461939096450806
0.69886690378189087 0.4622533917427063 0.53269100189208984
0.78347229957580566 0.47479709982872009 0.53742682933807373
0.8576362133026123 0.48700553178787231 0.5385890007019043
0.90658342838287354 0.49305742979049683 0.53806054592132568
0.93568611145019531 0.50620013475418091 0.54463881254196167
0.94752317667007446 0.50629466772079468 0.54720836877822876
0.94186681509017944 0.50577539205551147 0.54663151502609253
0.90973705053329468 0.5306708812713623 0.55590677261352539
0.41672366857528687 0.61411982774734497 0.52473908662796021
0.42321115732192993 0.62687122821807861 0.53524839878082275
0.43040454387664795 0.62271285057067871 0.53428107500076294
0.50317180156707764 0.619110107421875 0.53773343563079834
0.59636193513870239 0.61496764421463013 0.53790050745010376
0.69655841588973999 0.60879665613174438 0.53527283668518066
0.78334450721740723 0.6182628870010376 0.53489798307418823
0.85664653778076172 0.62712019681930542 0.53494936227798462
0.9074205756187439 0.63315355777740479 0.5351143479347229
0.93346571922302246 0.64266782999038696 0.54243385791778564
0.94350367784500122 0.64636683464050293 0.5457836389541626
0.94301873445510864 0.65329658985137939 0.54336577653884888
0.90707945823669434 0.67706245183944702 0.55632036924362183
0.42001023888587952 0.72737222909927368 0.52719146013259888
0.42907169461250305 0.73685717582702637 0.53778016567230225
0.43174490332603455 0.73283380270004272 0.53519338369369507
0.50766241550445557 0.72584706544876099 0.54071193933486938
0.60520052909851074 0.72667020559310913 0.54233384132385254
0.70471185445785522 0.73287868499755859 0.53666222095489502
0.78535521030426025 0.73340564966201782 0.53312486410140991
0.85623490810394287 0.73202180862426758 0.5336005687713623
0.90525448322296143 0.73532503843307495 0.53332334756851196
0.92739850282669067 0.73837274312973022 0.53671574592590332
0.93413370847702026 0.74254810810089111 0.54082310199737549
0.94062960147857666 0.75582242012023926 0.54095518589019775
0.91118866205215454 0.77792036533355713 0.55595940351486206
0.41478487849235535 0.8113132119178772 0.52582627534866333
0.43025201559066772 0.82069534063339233 0.54029613733291626
0.43208184838294983 0.82304328680038452 0.53849464654922485
0.50696814060211182 0.81851446628570557 0.54583859443664551
0.60679775476455688 0.81598752737045288 0.54737818241119385
0.70402055978775024 0.81572157144546509 0.53612023591995239
0.78947126865386963 0.81692755222320557 0.53502517938613892
0.85887902975082397 0.81921941041946411 0.53777885437011719
0.90098398923873901 0.81919890642166138 0.53635543584823608
0.92210561037063599 0.8178553581237793 0.53570735454559326
0.93089693784713745 0.82278716564178467 0.53759890794754028
0.94133877754211426 0.83250826597213745 0.54147195816040039
0.91469407081604004 0.8532567024230957 0.55775320529937744
0.41149622201919556 0.87438583374023438 0.52614879608154297
0.42540672421455383 0.88554269075393677 0.53956753015518188
0.43049341440200806 0.89282679557800293 0.53835797309875488
0.50894421339035034 0.88544118404388428 0.53965181112289429
0.60704237222671509 0.87831228971481323 0.5396263599395752
0.70438027381896973 0.87988024950027466 0.53436219692230225
0.79432493448257446 0.88476979732513428 0.53476691246032715
0.86412918567657471 0.88796371221542358 0.53841763734817505
0.89976054430007935 0.88531440496444702 0.53665602207183838
0.9256521463394165 0.88250666856765747 0.53581696748733521
0.94167590141296387 0.88367509841918945 0.53753918409347534
0.94481432437896729 0.89127558469772339 0.54354840517044067
0.91103214025497437 0.91097736358642578 0.55837178230285645
0.39886617660522461 0.91829091310501099 0.52410989999771118
0.42433911561965942 0.93322741985321045 0.5390053391456604
0.43360835313796997 0.93560707569122314 0.53913259506225586
0.51201248168945312 0.92910611629486084 0.53857779502868652
0.61299335956573486 0.92194253206253052 0.53672820329666138
0.70949661731719971 0.92433756589889526 0.53488618135452271
0.79882550239562988 0.93087315559387207 0.53533256053924561
0.86430293321609497 0.93206793069839478 0.53635591268539429
0.90044748783111572 0.92989504337310791 0.53563135862350464
0.92846035957336426 0.93021988868713379 0.53567945957183838
0.95127719640731812 0.93341153860092163 0.53749269247055054
0.95578616857528687 0.93800097703933716 0.54404079914093018
0.91645973920822144 0.94840449094772339 0.5579533576965332
0.39778810739517212 0.95412111282348633 0.53644478321075439
0.42073911428451538 0.96200859546661377 0.54417151212692261
0.43676033616065979 0.96204125881195068 0.54196035861968994
0.52427047491073608 0.95590966939926147 0.54032927751541138
0.62543189525604248 0.9509742259979248 0.53798240423202515
0.72115790843963623 0.95197826623916626 0.53831571340560913
0.80672538280487061 0.95030969381332397 0.54015439748764038
0.86709469556808472 0.94761604070663452 0.54006940126419067
0.90411627292633057 0.95483511686325073 0.53609079122543335
0.93266147375106812 0.95567244291305542 0.5359836220741272
0.95405125617980957 0.95458298921585083 0.53858959674835205
0.96085792779922485 0.96151262521743774 0.54139262437820435
0.92416131496429443 0.97233384847640991 0.55499053001403809
0.40124809741973877 0.96766382455825806 0.53695833683013916
0.41933819651603699 0.9754403829574585 0.54417228698730469
0.45147925615310669 0.96708416938781738 0.54645800590515137
0.54479843378067017 0.9601561427116394 0.54623919725418091
0.63796442747116089 0.96484750509262085 0.54269009828567505
0.73081260919570923 0.96522939205169678 0.54502081871032715
0.81524431705474854 0.96007347106933594 0.54502397775650024
0.87395679950714111 0.95654070377349854 0.5457150936126709
0.91344958543777466 0.96404194831848145 0.54211699962615967
0.94270581007003784 0.96394169330596924 0.54001468420028687
0.96165400743484497 0.96254384517669678 0.5425487756729126
0.96262329816818237 0.96247577667236328 0.54686552286148071
0.91513568162918091 0.97918641567230225 0.5570300817489624
0.40816739201545715 0.90293198823928833 0.5620344877243042
0.43502706289291382 0.91180908679962158 0.56979095935821533
0.47357505559921265 0.91055470705032349 0.5708509087562561
0.5709688663482666 0.89945214986801147 0.57875704765319824
0.66658025979995728 0.90813392400741577 0.57224738597869873
0.75382500886917114 0.91382354497909546 0.57076692581176758
0.83381026983261108 0.91922134160995483 0.56915915012359619
0.89792841672897339 0.91042488813400269 0.57734626531600952
0.93381112813949585 0.90775549411773682 0.57651305198669434
0.95797717571258545 0.91463285684585571 0.56642955541610718
0.9718480110168457 0.91575741767883301 0.56316983699798584
0.96971958875656128 0.89865612983703613 0.56922239065170288
0.93788522481918335 0.91570889949798584 0.58099043369293213
0.33950722217559814 0.15146292746067047 0.51989376544952393
0.37752857804298401 0.16061702370643616 0.54135406017303467
0.38483646512031555 0.16313415765762329 0.53003621101379395
0.45825862884521484 0.17013426125049591 0.5264400839805603
0.56319695711135864 0.17514678835868835 0.52656573057174683
0.67439931631088257 0.17290481925010681 0.52998095750808716
0.75612384080886841 0.17644301056861877 0.53124183416366577
0.8352164626121521 0.1805824488401413 0.54458057880401611
0.8784058690071106 0.17767176032066345 0.53614252805709839
0.92081654071807861 0.17572292685508728 0.54534995555877686
0.93463444709777832 0.18372224271297455 0.54742288589477539
0.93315649032592773 0.18119625747203827 0.54606169462203979
0.91209334135055542 0.18436938524246216 0.55874276161193848
0.35980749130249023 0.1553155779838562 0.55263489484786987
0.38829720020294189 0.16505363583564758 0.5588454008102417
0.40988436341285706 0.17559404671192169 0.55819714069366455
0.49013134837150574 0.18481652438640594 0.55892032384872437
0.59284377098083496 0.18581819534301758 0.5593639612197876
0.69257766008377075 0.18311014771461487 0.55815094709396362
0.7801283597946167 0.19100373983383179 0.56019622087478638
0.85139751434326172 0.19615276157855988 0.56338042020797729
0.90121424198150635 0.192855104804039 0.56196743249893188
0.93449133634567261 0.19877135753631592 0.56454062461853027
0.94418096542358398 0.20653238892555237 0.56559044122695923
0.94353866577148438 0.20190459489822388 0.56595367193222046
0.92863065004348755 0.20167012512683868 0.57893162965774536
0.3535802960395813 0.20176208019256592 0.54706192016601562
0.39079764485359192 0.21711209416389465 0.55813062191009521
0.4204353392124176 0.2323162704706192 0.55860322713851929
0.49881753325462341 0.2387763112783432 0.5659366250038147
0.60570722818374634 0.2437034398317337 0.57052475214004517
0.70255440473556519 0.2406422346830368 0.56627309322357178
0.79069209098815918 0.23811003565788269 0.56603175401687622
0.86189836263656616 0.23851446807384491 0.57207846641540527
0.91417115926742554 0.24195127189159393 0.57799625396728516
0.94699448347091675 0.24457652866840363 0.58045226335525513
0.95426231622695923 0.24989016354084015 0.57584106922149658
0.95658355951309204 0.25167986750602722 0.57263386249542236
0.94401019811630249 0.26105669140815735 0.58532619476318359
0.35384705662727356 0.28954204916954041 0.54126757383346558
0.38762158155441284 0.31323656439781189 0.55665105581283569
0.40961307287216187 0.31881535053253174 0.5576244592666626
0.49916949868202209 0.32743179798126221 0.56546276807785034
0.615203857421875 0.33500143885612488 0.57102113962173462
0.71383523941040039 0.33493110537528992 0.57008475065231323
0.7973751425743103 0.33093589544296265 0.57021802663803101
0.8628653883934021 0.34859225153923035 0.57405751943588257
0.91205120086669922 0.36229583621025085 0.57985794544219971
0.94181519746780396 0.35811120271682739 0.5850217342376709
0.95569795370101929 0.35262659192085266 0.58286190032958984
0.96144366264343262 0.3580988347530365 0.58109515905380249
0.93895053863525391 0.39033427834510803 0.59307366609573364
0.36439517140388489 0.44464004039764404 0.54115235805511475
0.40168273448944092 0.47482430934906006 0.56011784076690674
0.41769906878471375 0.46750479936599731 0.56628096103668213
0.50052022933959961 0.47321170568466187 0.57526731491088867
0.61260402202606201 0.46994435787200928 0.57790756225585938
0.71227174997329712 0.46792551875114441 0.57450360059738159
0.79118198156356812 0.47981938719749451 0.57288146018981934
0.86342871189117432 0.4940522313117981 0.57371002435684204
0.91335088014602661 0.503406822681427 0.5789259672164917
