assets/lut/others instantc.cube
# Created by: G'MIC (https://gmic.eu)
TITLE "instantc"
# LUT size
LUT_3D_SIZE 5
# Data domain
DOMAIN_MIN 0.0 0.0 0.0
DOMAIN_MAX 1.0 1.0 1.0
# LUT data points
0.039873011410236359 0.04618135467171669 0.047418408095836639
0.12263853847980499 0.043821536004543304 0.029506264254450798
0.26238259673118591 0.048824042081832886 0.022042158991098404
0.31096139550209045 0.044401265680789948 0.019432950764894485
0.36771935224533081 0.033192623406648636 0.015686275437474251
0.030178219079971313 0.085523806512355804 0.047323621809482574
0.13484320044517517 0.10752147436141968 0.039881300181150436
0.39177697896957397 0.1289505809545517 0.022144017741084099
0.53589367866516113 0.092096410691738129 0.015675369650125504
0.60880893468856812 0.068839654326438904 0.021787844598293304
0.15208779275417328 0.26309269666671753 0.056378681212663651
0.24989581108093262 0.29421272873878479 0.051037553697824478
0.45623430609703064 0.31250089406967163 0.041099995374679565
0.68609911203384399 0.26718086004257202 0.028175054118037224
0.73660904169082642 0.20112702250480652 0.034550834447145462
0.63195794820785522 0.5915224552154541 0.045933697372674942
0.63218659162521362 0.57990735769271851 0.045030601322650909
0.62629133462905884 0.54885268211364746 0.048156917095184326
0.79908591508865356 0.53570210933685303 0.054069846868515015
0.89471518993377686 0.51901251077651978 0.070792868733406067
0.92780905961990356 0.82380396127700806 0.11585289239883423
0.9150395393371582 0.80994480848312378 0.10385776311159134
0.88695859909057617 0.78170692920684814 0.09196026623249054
0.93903279304504395 0.77596217393875122 0.1114337220788002
0.97440379858016968 0.76483851671218872 0.1348525732755661
0.023341938853263855 0.047552518546581268 0.071899533271789551
0.091306321322917938 0.052666220813989639 0.094006136059761047
0.21640513837337494 0.054425600916147232 0.10361818969249725
0.28394585847854614 0.048478309065103531 0.089305698871612549
0.34916800260543823 0.033707533031702042 0.045798987150192261
0.020235592499375343 0.10304306447505951 0.11602147668600082
0.1281658411026001 0.13742807507514954 0.13304105401039124
0.3742850124835968 0.14890772104263306 0.1073644608259201
0.53552842140197754 0.12274625897407532 0.081082887947559357
0.58802878856658936 0.067628480494022369 0.040306944400072098
0.045022446662187576 0.2487964928150177 0.1266612708568573
0.28600543737411499 0.35397949814796448 0.14833042025566101
0.54481518268585205 0.37710243463516235 0.10184106230735779
0.7557072639465332 0.34705209732055664 0.067296646535396576
0.77868366241455078 0.25884747505187988 0.056409332901239395
0.40440660715103149 0.5671570897102356 0.10150489211082458
0.55879276990890503 0.63037788867950439 0.11391701549291611
0.75708895921707153 0.66968357563018799 0.095739476382732391
0.89921474456787109 0.66356188058853149 0.095508918166160583
0.94382250308990479 0.63625574111938477 0.10951276123523712
0.81828826665878296 0.80200892686843872 0.096048109233379364
0.86142057180404663 0.82247847318649292 0.11431253701448441
0.91091442108154297 0.83078324794769287 0.1280808299779892
0.96628069877624512 0.84074485301971436 0.16127604246139526
0.98822134733200073 0.83232766389846802 0.17981444299221039
0.016839884221553802 0.055831894278526306 0.10285276174545288
0.043276093900203705 0.068133994936943054 0.13713312149047852
0.14052523672580719 0.056745655834674835 0.17148797214031219
0.23790094256401062 0.052791982889175415 0.18516117334365845
0.30394160747528076 0.046209074556827545 0.14659973978996277
0.017946729436516762 0.15014392137527466 0.25148168206214905
0.053188472986221313 0.16496855020523071 0.25889354944229126
0.30602321028709412 0.15438559651374817 0.28439834713935852
0.46597063541412354 0.13619011640548706 0.25727096199989319
0.55072075128555298 0.081295385956764221 0.17323490977287292
0.016960024833679199 0.25168910622596741 0.32705682516098022
0.058642815798521042 0.29849958419799805 0.3743559718132019
0.4455011785030365 0.46249821782112122 0.45469403266906738
0.7434573769569397 0.48697468638420105 0.43572458624839783
0.80359941720962524 0.42444917559623718 0.36274078488349915
0.05505618080496788 0.46044754981994629 0.33636099100112915
0.16759054362773895 0.55994033813476562 0.35251247882843018
0.57778465747833252 0.71214228868484497 0.42682066559791565
0.88095104694366455 0.76147103309631348 0.39900118112564087
0.95280593633651733 0.75017458200454712 0.36978903412818909
0.45435410737991333 0.75492709875106812 0.31294593214988708
0.58249425888061523 0.79399663209915161 0.31385752558708191
0.7799028754234314 0.84772408008575439 0.35773828625679016
0.93823617696762085 0.87380462884902954 0.35551822185516357
0.98611795902252197 0.86192840337753296 0.32112586498260498
0.011764706112444401 0.061555571854114532 0.13369826972484589
0.022319240495562553 0.081817656755447388 0.19496990740299225
0.061585519462823868 0.084944739937782288 0.23463171720504761
0.094197429716587067 0.074802234768867493 0.22813694179058075
0.19234506785869598 0.066814854741096497 0.26429358124732971
0.011764706112444401 0.17642460763454437 0.38626435399055481
0.021860849112272263 0.18768283724784851 0.40289655327796936
0.12628217041492462 0.18142020702362061 0.4255516529083252
0.29670953750610352 0.12074088305234909 0.41983240842819214
0.53068011999130249 0.092465914785861969 0.43418616056442261
0.0078431377187371254 0.30168092250823975 0.5600811243057251
0.012769886292517185 0.31328961253166199 0.58563411235809326
0.11834375560283661 0.42515513300895691 0.63475567102432251
0.554970383644104 0.47433668375015259 0.64977347850799561
0.7959665060043335 0.4875214695930481 0.6626816987991333
0.0068147396668791771 0.48729899525642395 0.66231584548950195
0.019769033417105675 0.5359046459197998 0.6819426417350769
0.16177436709403992 0.65624970197677612 0.72508430480957031
0.80940097570419312 0.8228147029876709 0.80371129512786865
0.92077291011810303 0.83759140968322754 0.80347007513046265
0.039398491382598877 0.64653205871582031 0.65082502365112305
0.069694831967353821 0.69053941965103149 0.66311252117156982
0.29009932279586792 0.79077374935150146 0.69922536611557007
0.82011562585830688 0.89879268407821655 0.75544321537017822
0.96054536104202271 0.91640651226043701 0.77552264928817749
0.011764706112444401 0.082185275852680206 0.19441169500350952
0.012360711582005024 0.096958145499229431 0.24799805879592896
0.030201302841305733 0.12766917049884796 0.34945568442344666
0.054004084318876266 0.12265583127737045 0.35491392016410828
0.064550556242465973 0.10550118237733841 0.3140527606010437
0.011152558960020542 0.19943735003471375 0.47897166013717651
0.0089191514998674393 0.20821142196655273 0.51445132493972778
0.025533817708492279 0.21586540341377258 0.52011895179748535
0.12584228813648224 0.19475676119327545 0.54176425933837891
0.24544420838356018 0.1364801824092865 0.53992617130279541
0.0041083539836108685 0.3217988908290863 0.67547869682312012
0.0048232884146273136 0.32890728116035461 0.67686432600021362
0.067598573863506317 0.44362831115722656 0.72127819061279297
0.33313757181167603 0.53567016124725342 0.74168097972869873
0.60746979713439941 0.50695335865020752 0.74674457311630249
0.0032895256299525499 0.51234143972396851 0.77310740947723389
0.013779584318399429 0.57026916742324829 0.78662097454071045
0.1638500839471817 0.68932515382766724 0.8222959041595459
0.75827044248580933 0.83923465013504028 0.87525069713592529
0.86281090974807739 0.84677278995513916 0.87440764904022217
0.012040860019624233 0.65551596879959106 0.80723351240158081
0.026637537404894829 0.68727660179138184 0.81335914134979248
0.24520735442638397 0.80400127172470093 0.85444056987762451
0.75507527589797974 0.89700746536254883 0.88693994283676147
0.93722885847091675 0.92960530519485474 0.90579074621200562
