assets/lut/others alien green.cube
# Created by: G'MIC (https://gmic.eu)
TITLE "alien_green"
# LUT size
LUT_3D_SIZE 5
# Data domain
DOMAIN_MIN 0.0 0.0 0.0
DOMAIN_MAX 1.0 1.0 1.0
# LUT data points
0.050635948777198792 0.039477717131376266 0.037540465593338013
0.15655031800270081 0.18374903500080109 0.01141707506030798
0.33887368440628052 0.35691067576408386 0.0074987374246120453
0.51167422533035278 0.52786999940872192 0.025593850761651993
0.67500370740890503 0.69446647167205811 0.15578815340995789
0.26510363817214966 0.082486175000667572 0.055726338177919388
0.15620197355747223 0.16582977771759033 0.27948284149169922
0.10580576211214066 0.41893202066421509 0.23742128908634186
0.14184838533401489 0.5895501971244812 0.13629539310932159
0.34042400121688843 0.74588108062744141 0.20752601325511932
0.49381360411643982 0.088893190026283264 0.051416989415884018
0.46030071377754211 0.14368900656700134 0.45557692646980286
0.25712129473686218 0.28226187825202942 0.50771468877792358
0.21735338866710663 0.62382757663726807 0.62416458129882812
0.28054964542388916 0.80846655368804932 0.53831464052200317
0.7269057035446167 0.088748708367347717 0.056066431105136871
0.73304623365402222 0.14804083108901978 0.52515906095504761
0.57939630746841431 0.25072270631790161 0.72007250785827637
0.37221303582191467 0.3845527172088623 0.75086468458175659
0.36152562499046326 0.73811924457550049 0.88209652900695801
0.95339065790176392 0.090797156095504761 0.062256038188934326
0.95337998867034912 0.14026901125907898 0.53581142425537109
0.94140684604644775 0.24733297526836395 0.93608754873275757
0.66340500116348267 0.34756827354431152 0.9570043683052063
0.4648345410823822 0.45728829503059387 0.96246927976608276
0.030206672847270966 0.1201215535402298 0.26125830411911011
0.28086391091346741 0.04159858450293541 0.17498882114887238
0.42276635766029358 0.12685929238796234 0.018792230635881424
0.58656042814254761 0.29937955737113953 0.031125595793128014
0.73745179176330566 0.51503849029541016 0.12684205174446106
0.046480186283588409 0.27230948209762573 0.22572462260723114
0.2547842264175415 0.26824334263801575 0.26048845052719116
0.39267092943191528 0.40947133302688599 0.17228001356124878
0.581218421459198 0.59463030099868774 0.25025221705436707
0.75013202428817749 0.76261049509048462 0.35899347066879272
0.26572200655937195 0.48811003565788269 0.04377543181180954
0.49132534861564636 0.30867668986320496 0.28968164324760437
0.37537398934364319 0.38804298639297485 0.49923470616340637
0.34928345680236816 0.65060412883758545 0.48741108179092407
0.44497567415237427 0.80867582559585571 0.43503931164741516
0.69102072715759277 0.67780774831771851 0.038651902228593826
0.73121941089630127 0.30997267365455627 0.29182007908821106
0.68886536359786987 0.36916795372962952 0.67901158332824707
0.4910409152507782 0.51181954145431519 0.74671012163162231
0.49344417452812195 0.85048454999923706 0.85568898916244507
0.94922131299972534 0.72447168827056885 0.043682530522346497
0.94954228401184082 0.3094465434551239 0.28255459666252136
0.94708138704299927 0.36728373169898987 0.7577252984046936
0.8051002025604248 0.47062060236930847 0.94790929555892944
0.59027087688446045 0.60093569755554199 0.96990877389907837
0.028177209198474884 0.2305125892162323 0.49197152256965637
0.25059226155281067 0.055939424782991409 0.49066975712776184
0.50921350717544556 0.047756209969520569 0.2885918915271759
0.65622884035110474 0.065355725586414337 0.063698142766952515
0.81288653612136841 0.27617692947387695 0.10049701482057571
0.042486738413572311 0.38347688317298889 0.4892437756061554
0.2573828399181366 0.3621114194393158 0.50097310543060303
0.4947640597820282 0.2555173933506012 0.39616632461547852
0.65517514944076538 0.35853371024131775 0.26019257307052612
0.81235617399215698 0.56485593318939209 0.33429041504859924
0.04282735288143158 0.50838553905487061 0.44912856817245483
0.26641431450843811 0.50360190868377686 0.454010009765625
0.5010373592376709 0.48543462157249451 0.50662565231323242
0.62920689582824707 0.64231985807418823 0.48605051636695862
0.8038063645362854 0.81440627574920654 0.55705589056015015
0.090194717049598694 0.72821354866027832 0.081731505692005157
0.51912832260131836 0.72129881381988525 0.27678129076957703
0.72040045261383057 0.53335040807723999 0.5144081711769104
0.61963057518005371 0.6237444281578064 0.73397129774093628
0.63638448715209961 0.87633585929870605 0.7646830677986145
0.51860076189041138 0.95804190635681152 0.042303241789340973
0.90905284881591797 0.92112153768539429 0.2550872266292572
0.94194632768630981 0.53741401433944702 0.51344144344329834
0.93147540092468262 0.59847778081893921 0.93019014596939087
0.70050114393234253 0.73119235038757324 0.95206093788146973
0.016837386414408684 0.3295113742351532 0.72941398620605469
0.15018591284751892 0.053931187838315964 0.73217099905014038
0.60689020156860352 0.052766148000955582 0.72267723083496094
0.73827308416366577 0.046586938202381134 0.40072715282440186
0.87524068355560303 0.072464674711227417 0.1879860907793045
0.039579056203365326 0.49841916561126709 0.72368764877319336
0.2414076030254364 0.44552898406982422 0.72691226005554199
0.49966335296630859 0.27172371745109558 0.72972089052200317
0.74246537685394287 0.26367679238319397 0.52656263113021851
0.87163251638412476 0.31619971990585327 0.32491171360015869
0.039660241454839706 0.60947650671005249 0.7237846851348877
0.26794588565826416 0.61207336187362671 0.71689873933792114
0.48717594146728516 0.57893526554107666 0.7268836498260498
0.73382169008255005 0.49607545137405396 0.64165747165679932
0.86719542741775513 0.59871047735214233 0.52513319253921509
0.039724297821521759 0.74038231372833252 0.68163192272186279
0.26535439491271973 0.74039030075073242 0.69282978773117065
0.50510650873184204 0.74020689725875854 0.68600022792816162
0.73344695568084717 0.72882276773452759 0.73674768209457397
0.85465508699417114 0.85884404182434082 0.7460254430770874
0.040329862385988235 0.95607596635818481 0.27098163962364197
0.30383336544036865 0.94876217842102051 0.31085020303726196
0.71600186824798584 0.95166796445846558 0.50136977434158325
0.93896156549453735 0.76124757528305054 0.74454551935195923
0.85560518503189087 0.86223739385604858 0.96406477689743042
0.024514112621545792 0.45935636758804321 0.95088255405426025
0.064674928784370422 0.06411762535572052 0.94856375455856323
0.48399770259857178 0.047018762677907944 0.9467507004737854
0.92829978466033936 0.038950946182012558 0.9272950291633606
0.9679635763168335 0.050856377929449081 0.5360710620880127
0.039207205176353455 0.6067156195640564 0.94786667823791504
0.24172092974185944 0.57235962152481079 0.95375603437423706
0.39312013983726501 0.26984816789627075 0.95260441303253174
0.83683425188064575 0.26848462224006653 0.94571077823638916
0.95856428146362305 0.26827546954154968 0.62391197681427002
0.050441022962331772 0.73173975944519043 0.95461130142211914
0.27604559063911438 0.71616309881210327 0.93495643138885498
0.47756087779998779 0.69753521680831909 0.95575177669525146
0.7265738844871521 0.49896389245986938 0.94441705942153931
0.95651835203170776 0.5026700496673584 0.74310481548309326
0.043877143412828445 0.85353976488113403 0.94902664422988892
0.27040785551071167 0.83277249336242676 0.93334048986434937
0.49050328135490417 0.84657728672027588 0.95104056596755981
0.72205030918121338 0.81335616111755371 0.94620287418365479
0.96210616827011108 0.73818576335906982 0.85874480009078979
0.043001782149076462 0.96022897958755493 0.91700500249862671
0.26120808720588684 0.96161222457885742 0.92095279693603516
0.48747280240058899 0.96178239583969116 0.8973463773727417
0.72950214147567749 0.95553100109100342 0.92663019895553589
0.96271312236785889 0.96256113052368164 0.9579581618309021
