assets/lut/others 60s faded alt.cube
# Created by: G'MIC (https://gmic.eu)
TITLE "60s_faded_alt"
# LUT size
LUT_3D_SIZE 5
# Data domain
DOMAIN_MIN 0.0 0.0 0.0
DOMAIN_MAX 1.0 1.0 1.0
# LUT data points
0.34048366546630859 0.16249392926692963 0.067177839577198029
0.41021394729614258 0.17322653532028198 0.081744715571403503
0.60913366079330444 0.20838369429111481 0.10469331592321396
0.77202856540679932 0.24779181182384491 0.11934445053339005
0.75123852491378784 0.26501733064651489 0.13321711122989655
0.39383012056350708 0.40731209516525269 0.12789496779441833
0.5192980170249939 0.42710599303245544 0.1153646856546402
0.7193719744682312 0.48409208655357361 0.14534163475036621
0.85140389204025269 0.52481937408447266 0.1691683828830719
0.83110940456390381 0.57455265522003174 0.23860123753547668
0.48457330465316772 0.63079524040222168 0.15961521863937378
0.64581048488616943 0.66550689935684204 0.16880810260772705
0.79657769203186035 0.70077216625213623 0.22353708744049072
0.89521580934524536 0.73591983318328857 0.29233762621879578
0.88676893711090088 0.77233755588531494 0.36595511436462402
0.62714254856109619 0.80566006898880005 0.26514929533004761
0.75203007459640503 0.82406735420227051 0.29454687237739563
0.86352056264877319 0.8439335823059082 0.36117774248123169
0.9260551929473877 0.86540383100509644 0.43859076499938965
0.92517870664596558 0.88680863380432129 0.49378272891044617
0.71681362390518188 0.87009513378143311 0.37462708353996277
0.82138878107070923 0.86661714315414429 0.43965625762939453
0.91797131299972534 0.87839466333389282 0.5259743332862854
0.95470923185348511 0.88716620206832886 0.5632702112197876
0.94691359996795654 0.89595568180084229 0.5753929615020752
0.24962186813354492 0.18233397603034973 0.13515684008598328
0.40763309597969055 0.20718196034431458 0.16583932936191559
0.62313783168792725 0.24641673266887665 0.2255166620016098
0.78794741630554199 0.28205129504203796 0.27565613389015198
0.86747616529464722 0.3366800844669342 0.33230909705162048
0.30713894963264465 0.37801116704940796 0.21763011813163757
0.56081312894821167 0.45496204495429993 0.29087907075881958
0.75791430473327637 0.5199352502822876 0.35027444362640381
0.87531191110610962 0.57009565830230713 0.39473074674606323
0.91660696268081665 0.64751642942428589 0.48428806662559509
0.46022060513496399 0.62550663948059082 0.3150486946105957
0.68359076976776123 0.68438321352005005 0.39191237092018127
0.83354783058166504 0.72647130489349365 0.45213490724563599
0.91662919521331787 0.76569294929504395 0.50895881652832031
0.93351584672927856 0.81437134742736816 0.58596467971801758
0.61233311891555786 0.79779469966888428 0.42530721426010132
0.78696137666702271 0.83829110860824585 0.50771081447601318
0.88133782148361206 0.85868388414382935 0.56420588493347168
0.94149422645568848 0.88283991813659668 0.62073820829391479
0.94224321842193604 0.9140394926071167 0.66739445924758911
0.73383247852325439 0.86240178346633911 0.54729700088500977
0.85167461633682251 0.88114911317825317 0.62464034557342529
0.92856711149215698 0.89445048570632935 0.67788034677505493
0.96218085289001465 0.90825295448303223 0.70585376024246216
0.96394944190979004 0.91119241714477539 0.7112383246421814
0.26412025094032288 0.20477959513664246 0.25713860988616943
0.45379209518432617 0.23377245664596558 0.31581026315689087
0.66155213117599487 0.26063543558120728 0.38567996025085449
0.80071836709976196 0.2781004011631012 0.42585879564285278
0.88083678483963013 0.36026319861412048 0.50171840190887451
0.32740539312362671 0.41136986017227173 0.37054640054702759
0.59578651189804077 0.48856419324874878 0.46479865908622742
0.77595573663711548 0.54153275489807129 0.52354520559310913
0.88584810495376587 0.59538137912750244 0.5768132209777832
0.9194033145904541 0.66295319795608521 0.6380387544631958
0.49575987458229065 0.64172071218490601 0.49076411128044128
0.71758604049682617 0.70728433132171631 0.56911319494247437
0.84705471992492676 0.74359411001205444 0.62692725658416748
0.92710667848587036 0.78118741512298584 0.67442518472671509
0.94521015882492065 0.84463447332382202 0.74033308029174805
0.6333928108215332 0.80530309677124023 0.58124548196792603
0.79645878076553345 0.84392690658569336 0.65728628635406494
0.89611220359802246 0.87130892276763916 0.71265965700149536
0.94645434617996216 0.8892592191696167 0.74374377727508545
0.96092575788497925 0.91230708360671997 0.78320932388305664
0.76410633325576782 0.88472431898117065 0.69194912910461426
0.86415165662765503 0.89093506336212158 0.74625486135482788
0.93063175678253174 0.90191841125488281 0.78551733493804932
0.96556574106216431 0.90378081798553467 0.80590498447418213
0.96057820320129395 0.91064786911010742 0.80925506353378296
0.29503995180130005 0.2246822714805603 0.3849489688873291
0.48731625080108643 0.25314733386039734 0.45891964435577393
0.66930335760116577 0.27284196019172668 0.51664513349533081
0.82716614007949829 0.30717518925666809 0.59686034917831421
0.87455654144287109 0.36575430631637573 0.64725685119628906
0.37416151165962219 0.4420783519744873 0.53168243169784546
0.63078123331069946 0.52210420370101929 0.6398589015007019
0.78899079561233521 0.57028508186340332 0.68964630365371704
0.89185541868209839 0.61034971475601196 0.72481411695480347
0.91703939437866211 0.66847580671310425 0.76344442367553711
0.53522181510925293 0.66601443290710449 0.65870994329452515
0.74241119623184204 0.73087930679321289 0.72685164213180542
0.8577805757522583 0.76783305406570435 0.7633165717124939
0.93015867471694946 0.7964443564414978 0.79603546857833862
0.92689138650894165 0.83141642808914185 0.83169567584991455
0.66982203722000122 0.81960076093673706 0.72676628828048706
0.81020873785018921 0.84720563888549805 0.78335320949554443
0.90463924407958984 0.88768643140792847 0.82760608196258545
0.95036017894744873 0.88943421840667725 0.84359067678451538
0.94212830066680908 0.91680192947387695 0.86096298694610596
0.78651654720306396 0.87609219551086426 0.80963718891143799
0.85285860300064087 0.86190146207809448 0.83033740520477295
0.92152911424636841 0.88452261686325073 0.85327666997909546
0.9591183066368103 0.8848688006401062 0.86966431140899658
0.94746267795562744 0.88990324735641479 0.87470859289169312
0.39973679184913635 0.28163057565689087 0.5540766716003418
0.53339689970016479 0.29855546355247498 0.60639083385467529
0.702644944190979 0.32461488246917725 0.6710326075553894
0.83897161483764648 0.37407094240188599 0.75439965724945068
0.85505670309066772 0.42187422513961792 0.78006935119628906
0.51308679580688477 0.49907442927360535 0.72045785188674927
0.67491918802261353 0.54548358917236328 0.80019295215606689
0.80860483646392822 0.58769983053207397 0.83278119564056396
0.90059274435043335 0.63868355751037598 0.85577964782714844
0.88150393962860107 0.65907591581344604 0.85854816436767578
0.67086160182952881 0.72676819562911987 0.83404117822647095
0.76861858367919922 0.74636328220367432 0.85398316383361816
0.87731826305389404 0.7827460765838623 0.87855440378189087
0.93837147951126099 0.81114226579666138 0.89572608470916748
0.89408934116363525 0.81829440593719482 0.90733104944229126
0.76965934038162231 0.85637712478637695 0.86297422647476196
0.83466440439224243 0.87373620271682739 0.88819104433059692
0.91215652227401733 0.88947612047195435 0.90757006406784058
0.94935959577560425 0.89850163459777832 0.91784453392028809
0.92283779382705688 0.90062052011489868 0.92006075382232666
0.83764404058456421 0.93249368667602539 0.90014135837554932
0.86201375722885132 0.93359601497650146 0.89472705125808716
0.92178791761398315 0.94087040424346924 0.90925753116607666
0.95498943328857422 0.94473350048065186 0.91787523031234741
0.92339092493057251 0.94529372453689575 0.91896039247512817
