assets/lut/others expired fade.cube
# Created by: G'MIC (https://gmic.eu)
TITLE "expired_fade"
# LUT size
LUT_3D_SIZE 5
# Data domain
DOMAIN_MIN 0.0 0.0 0.0
DOMAIN_MAX 1.0 1.0 1.0
# LUT data points
0.21707382798194885 0.12044046074151993 0.022406110540032387
0.32622823119163513 0.14286850392818451 0.037506043910980225
0.54046732187271118 0.2337128221988678 0.10424273461103439
0.76519370079040527 0.35141617059707642 0.20130608975887299
0.91473740339279175 0.43339040875434875 0.28037244081497192
0.2508150041103363 0.21847903728485107 0.041366007179021835
0.33072683215141296 0.21782208979129791 0.041623823344707489
0.52749162912368774 0.29138508439064026 0.090132616460323334
0.76117360591888428 0.40239271521568298 0.18544723093509674
0.9148070216178894 0.48857194185256958 0.26909187436103821
0.3479156494140625 0.40823566913604736 0.10423718392848969
0.41066998243331909 0.40066072344779968 0.094905495643615723
0.55004346370697021 0.42264431715011597 0.097875304520130157
0.75894105434417725 0.4986301064491272 0.16604897379875183
0.9167400598526001 0.57658833265304565 0.24227632582187653
0.47302514314651489 0.61140090227127075 0.19905237853527069
0.53224289417266846 0.61263883113861084 0.18836782872676849
0.63564556837081909 0.6089215874671936 0.16314180195331573
0.76698517799377441 0.61725497245788574 0.15686103701591492
0.90931254625320435 0.67291402816772461 0.21274462342262268
0.576671302318573 0.75845474004745483 0.28437355160713196
0.62889778614044189 0.7574036717414856 0.26923948526382446
0.7243921160697937 0.75710785388946533 0.24408261477947235
0.83341711759567261 0.75829136371612549 0.21944437921047211
0.9238092303276062 0.76311498880386353 0.21402625739574432
0.25083133578300476 0.14555929601192474 0.093742772936820984
0.33524319529533386 0.14655473828315735 0.09345351904630661
0.54302018880844116 0.22082069516181946 0.15379981696605682
0.75893700122833252 0.33191448450088501 0.2470984011888504
0.91243410110473633 0.42367967963218689 0.32384943962097168
0.25441679358482361 0.2259109765291214 0.10110608488321304
0.32800257205963135 0.21794238686561584 0.092713795602321625
0.5284658670425415 0.27963483333587646 0.14016589522361755
0.7657172679901123 0.39290371537208557 0.23552921414375305
0.91401380300521851 0.47747322916984558 0.31048524379730225
0.33120271563529968 0.40578746795654297 0.1579924076795578
0.40562617778778076 0.40638959407806396 0.14990845322608948
0.55310243368148804 0.41833829879760742 0.14790266752243042
0.76388633251190186 0.4933992326259613 0.22074252367019653
0.91637957096099854 0.56653422117233276 0.29095810651779175
0.45622870326042175 0.61387497186660767 0.24706242978572845
0.52140796184539795 0.61728900671005249 0.23736736178398132
0.63641953468322754 0.61508190631866455 0.21708798408508301
0.77001136541366577 0.62432265281677246 0.22093480825424194
0.91397058963775635 0.67580121755599976 0.27187427878379822
0.54909259080886841 0.75710785388946533 0.32449382543563843
0.60947579145431519 0.75774562358856201 0.30970361828804016
0.71537590026855469 0.75669795274734497 0.28769409656524658
0.82917869091033936 0.75646322965621948 0.27063316106796265
0.91884934902191162 0.76211690902709961 0.26755723357200623
0.34785100817680359 0.23065812885761261 0.25418853759765625
0.42005705833435059 0.22435727715492249 0.25489309430122375
0.55873978137969971 0.22151795029640198 0.26694762706756592
0.74355781078338623 0.28845283389091492 0.32175219058990479
0.9103771448135376 0.39490044116973877 0.39818868041038513
0.33714762330055237 0.29366675019264221 0.25288188457489014
0.39915138483047485 0.28217759728431702 0.24533814191818237
0.54694700241088867 0.28320202231407166 0.25783857703208923
0.74731719493865967 0.3531566858291626 0.31771391630172729
0.91089779138565063 0.44979989528656006 0.39126932621002197
0.32894435524940491 0.4147641658782959 0.26041257381439209
0.40997710824012756 0.41694468259811401 0.2620970606803894
0.55299025774002075 0.41850006580352783 0.26218041777610779
0.74478870630264282 0.46718665957450867 0.30882439017295837
0.91173422336578369 0.55050873756408691 0.38003489375114441
0.43144217133522034 0.61048370599746704 0.33131402730941772
0.49492228031158447 0.61038297414779663 0.32460233569145203
0.61462903022766113 0.60843425989151001 0.31362271308898926
0.76509207487106323 0.61928254365921021 0.31830024719238281
0.91346448659896851 0.67015355825424194 0.36775481700897217
0.52948737144470215 0.75710785388946533 0.400522381067276
0.58856940269470215 0.75967180728912354 0.3951742947101593
0.69832372665405273 0.76051098108291626 0.3802599310874939
0.82376611232757568 0.75731152296066284 0.37165403366088867
0.91699868440628052 0.76129442453384399 0.36428076028823853
0.47271242737770081 0.34213042259216309 0.43798324465751648
0.53514748811721802 0.33475211262702942 0.43770164251327515
0.64009463787078857 0.30548208951950073 0.43693721294403076
0.76560091972351074 0.29775509238243103 0.44081971049308777
0.91297715902328491 0.36933574080467224 0.49443727731704712
0.46016818284988403 0.40302863717079163 0.44003558158874512
0.52276158332824707 0.39414817094802856 0.43916812539100647
0.63050276041030884 0.3636048436164856 0.43243494629859924
0.77196425199508667 0.36057829856872559 0.44267547130584717
0.91111272573471069 0.42884173989295959 0.48771536350250244
0.42584496736526489 0.49768346548080444 0.43370270729064941
0.49399229884147644 0.49103441834449768 0.43743818998336792
0.61589306592941284 0.47937110066413879 0.43412336707115173
0.76785570383071899 0.48347729444503784 0.44190424680709839
0.90786164999008179 0.53460478782653809 0.48047024011611938
0.42399188876152039 0.62214809656143188 0.44166713953018188
0.49485713243484497 0.62297987937927246 0.44117477536201477
0.62631070613861084 0.62714606523513794 0.44905176758766174
0.76985538005828857 0.62909328937530518 0.44698438048362732
0.9087451696395874 0.66280478239059448 0.47866138815879822
0.4904666543006897 0.75318628549575806 0.49113914370536804
0.56363224983215332 0.75710785388946533 0.49279120564460754
0.68137681484222412 0.75710785388946533 0.48647579550743103
0.81438291072845459 0.75710785388946533 0.4797573983669281
0.92129838466644287 0.76416730880737305 0.48055750131607056
0.57617521286010742 0.44165754318237305 0.56707233190536499
0.62769025564193726 0.42409929633140564 0.56685781478881836
0.7217215895652771 0.39907810091972351 0.56758183240890503
0.83067172765731812 0.37010011076927185 0.56725841760635376
0.92881304025650024 0.37026527523994446 0.57470792531967163
0.56103974580764771 0.48731294274330139 0.56793361902236938
0.61546224355697632 0.47322660684585571 0.56753027439117432
0.71050548553466797 0.4523664116859436 0.56568050384521484
0.82746708393096924 0.42895835638046265 0.56623393297195435
0.92519885301589966 0.43376579880714417 0.5751950740814209
0.52813363075256348 0.57699346542358398 0.56756758689880371
0.5878029465675354 0.56651884317398071 0.5672793984413147
0.6931908130645752 0.55350041389465332 0.56801873445510864
0.82128357887268066 0.53897160291671753 0.5672793984413147
0.91946041584014893 0.53792154788970947 0.57032722234725952
0.49732619524002075 0.68112218379974365 0.57148808240890503
0.56234550476074219 0.67365813255310059 0.56401097774505615
0.68461859226226807 0.67116791009902954 0.56848615407943726
0.81603008508682251 0.66161197423934937 0.56594634056091309
0.9186055064201355 0.66669923067092896 0.56682825088500977
0.49437549710273743 0.7710874080657959 0.58323138952255249
0.55035334825515747 0.76423341035842896 0.56878721714019775
0.67902851104736328 0.76337164640426636 0.57361030578613281
0.81730252504348755 0.7601509690284729 0.57072585821151733
0.92377263307571411 0.76084911823272705 0.5692284107208252
