assets/lut/others light blown.cube
# Created by: G'MIC (https://gmic.eu)
TITLE "light_blown"
# LUT size
LUT_3D_SIZE 5
# Data domain
DOMAIN_MIN 0.0 0.0 0.0
DOMAIN_MAX 1.0 1.0 1.0
# LUT data points
0.019482690840959549 0.013766524381935596 0.0036229901015758514
0.22858723998069763 0.00065253762295469642 0.016809726133942604
0.49951872229576111 0.0076325060799717903 0.090207554399967194
0.59858345985412598 0 0.11007941514253616
0.56687545776367188 0 0.082717970013618469
0.12704119086265564 0.30515846610069275 0.11206462979316711
0.30163824558258057 0.25498437881469727 0.12675625085830688
0.56510895490646362 0.25517421960830688 0.19726480543613434
0.72981643676757812 0.22275291383266449 0.22475443780422211
0.68971800804138184 0.16395695507526398 0.18457184731960297
0.34167912602424622 0.66123497486114502 0.3011576235294342
0.42458921670913696 0.59804993867874146 0.30731236934661865
0.67695605754852295 0.58220034837722778 0.35511091351509094
0.91722065210342407 0.5582391619682312 0.4066498875617981
0.93029528856277466 0.51007413864135742 0.38899075984954834
0.60384666919708252 0.98262298107147217 0.49247291684150696
0.58623474836349487 0.92870956659317017 0.47440338134765625
0.77854961156845093 0.91644454002380371 0.50884014368057251
0.99246925115585327 0.88906741142272949 0.54448717832565308
1 0.88057929277420044 0.54078274965286255
0.687247633934021 1 0.57303094863891602
0.66142421960830688 1 0.56516724824905396
0.82366818189620972 0.99997079372406006 0.61890780925750732
0.99968832731246948 0.99130946397781372 0.74747735261917114
0.99550431966781616 0.99624508619308472 0.85579031705856323
0.044996779412031174 0.088732622563838959 0.15573835372924805
0.27963796257972717 0.072821207344532013 0.18403026461601257
0.5724824070930481 0.11831182986497879 0.25690445303916931
0.65131479501724243 0.097837992012500763 0.25004270672798157
0.60742539167404175 0.043926268815994263 0.20710943639278412
0.17412231862545013 0.3767392635345459 0.25596308708190918
0.326406329870224 0.31429731845855713 0.23842692375183105
0.58492547273635864 0.2862495481967926 0.27453073859214783
0.73183524608612061 0.25143769383430481 0.28409576416015625
0.68972200155258179 0.176707923412323 0.2269475907087326
0.38798168301582336 0.66439962387084961 0.36300912499427795
0.40304404497146606 0.58826076984405518 0.32136654853820801
0.65253835916519165 0.57350379228591919 0.36046239733695984
0.88922202587127686 0.55448621511459351 0.41151672601699829
0.91124135255813599 0.4935188889503479 0.37145805358886719
0.59120601415634155 0.960368812084198 0.49027198553085327
0.53824955224990845 0.89787042140960693 0.45097166299819946
0.74074381589889526 0.88854199647903442 0.49137651920318604
0.96978044509887695 0.88012039661407471 0.52049970626831055
0.99742591381072998 0.84163832664489746 0.52683460712432861
0.67066025733947754 1 0.54390448331832886
0.62133634090423584 1 0.51567822694778442
0.77300041913986206 0.99997371435165405 0.56029981374740601
0.9971805214881897 0.99785828590393066 0.69047528505325317
0.9946669340133667 0.99079900979995728 0.81938409805297852
0.09178490936756134 0.18071137368679047 0.32383942604064941
0.36061447858810425 0.2078106701374054 0.39300507307052612
0.62078768014907837 0.23170652985572815 0.44615957140922546
0.74684303998947144 0.24345844984054565 0.46890631318092346
0.71104210615158081 0.22285850346088409 0.43509101867675781
0.25336351990699768 0.47168269753456116 0.44929274916648865
0.37821501493453979 0.42489105463027954 0.43762984871864319
0.62599557638168335 0.38717135787010193 0.46282327175140381
0.80636811256408691 0.35358336567878723 0.48054900765419006
0.75598764419555664 0.26239994168281555 0.40886804461479187
0.4579768180847168 0.77753740549087524 0.54863077402114868
0.45150747895240784 0.69515311717987061 0.50040721893310547
0.68562465906143188 0.68385964632034302 0.53075551986694336
0.94698417186737061 0.64271605014801025 0.5712660551071167
0.94810134172439575 0.55870205163955688 0.50538653135299683
0.66266947984695435 0.99811279773712158 0.6694144606590271
0.59648686647415161 0.98472887277603149 0.59820491075515747
0.75286984443664551 0.96373826265335083 0.60211580991744995
0.99027848243713379 0.92125338315963745 0.63499826192855835
1 0.87170785665512085 0.606342613697052
0.73711901903152466 1 0.69198250770568848
0.66183173656463623 1 0.61664116382598877
0.79941332340240479 0.99853372573852539 0.64788925647735596
0.99664688110351562 0.99789333343505859 0.74235814809799194
0.99998599290847778 1 0.82889533042907715
0.11617232859134674 0.19848832488059998 0.36062496900558472
0.35343760251998901 0.21942168474197388 0.43119409680366516
0.64136886596679688 0.27812516689300537 0.51825344562530518
0.79347264766693115 0.28902041912078857 0.56071096658706665
0.74959695339202881 0.26821267604827881 0.55258435010910034
0.27623096108436584 0.51975727081298828 0.54003208875656128
0.40629372000694275 0.47099629044532776 0.54312384128570557
0.65323770046234131 0.45039427280426025 0.58318161964416504
0.84708201885223389 0.43414685130119324 0.61335545778274536
0.79809200763702393 0.35501781105995178 0.56487900018692017
0.51552808284759521 0.87063694000244141 0.71518206596374512
0.52324157953262329 0.79749178886413574 0.68279212713241577
0.74522322416305542 0.79199516773223877 0.71042132377624512
0.98000597953796387 0.74454706907272339 0.73962968587875366
0.97811919450759888 0.66781872510910034 0.71038681268692017
0.74207800626754761 1 0.88610196113586426
0.67146265506744385 0.99935603141784668 0.80422937870025635
0.8310091495513916 0.99945485591888428 0.8009224534034729
0.99924248456954956 0.99708783626556396 0.8353201150894165
0.99957543611526489 0.95882302522659302 0.82358592748641968
0.90176171064376831 0.99612390995025635 0.94338387250900269
0.85545986890792847 0.99991112947463989 0.91359490156173706
0.92188394069671631 0.99857181310653687 0.92847168445587158
0.99063754081726074 0.99582511186599731 0.99892348051071167
0.9949381947517395 0.99061357975006104 1
0.099442258477210999 0.17997333407402039 0.35404184460639954
0.31801015138626099 0.20142358541488647 0.4090932309627533
0.60436439514160156 0.24370256066322327 0.49121266603469849
0.75981706380844116 0.24539738893508911 0.53287768363952637
0.722969651222229 0.2083551436662674 0.54042655229568481
0.26912322640419006 0.49877792596817017 0.52027434110641479
0.35778319835662842 0.42816224694252014 0.51172661781311035
0.62035715579986572 0.40404769778251648 0.56244426965713501
0.83251947164535522 0.40947070717811584 0.60452103614807129
0.8042677640914917 0.36249998211860657 0.6024324893951416
0.50920242071151733 0.850902259349823 0.69783365726470947
0.49318182468414307 0.78881716728210449 0.67812037467956543
0.74887150526046753 0.7663567066192627 0.73592847585678101
0.9848247766494751 0.75260382890701294 0.78500896692276001
0.96659141778945923 0.70690029859542847 0.78938686847686768
0.79425114393234253 0.99431425333023071 0.89863097667694092
0.67461735010147095 0.99909979104995728 0.84815680980682373
0.86688661575317383 1 0.89956420660018921
0.9991944432258606 0.99318480491638184 0.96150797605514526
0.99403780698776245 0.97790074348449707 0.98931610584259033
0.9967041015625 0.99103790521621704 1
0.98501086235046387 1 0.99992763996124268
0.99828612804412842 0.99686163663864136 1
0.99816066026687622 0.98279744386672974 1
0.98839020729064941 0.97296261787414551 1
