assets/lut/others faded.cube
# Created by: G'MIC (https://gmic.eu)
TITLE "faded"
# LUT size
LUT_3D_SIZE 5
# Data domain
DOMAIN_MIN 0.0 0.0 0.0
DOMAIN_MAX 1.0 1.0 1.0
# LUT data points
0.025018759071826935 0.025806965306401253 0.018494145944714546
0.14477637410163879 0.051370102912187576 0.048502963036298752
0.28823959827423096 0.075699582695960999 0.079960599541664124
0.45540362596511841 0.10683006048202515 0.11207965016365051
0.62026810646057129 0.13870419561862946 0.14101047813892365
0.11859184503555298 0.22657717764377594 0.11821690201759338
0.25791418552398682 0.26210322976112366 0.14786222577095032
0.41546967625617981 0.29690632224082947 0.18456533551216125
0.58968651294708252 0.33519792556762695 0.21295426785945892
0.73670744895935059 0.37694361805915833 0.25145667791366577
0.23344254493713379 0.47930699586868286 0.23070774972438812
0.38933432102203369 0.51856428384780884 0.26609602570533752
0.56153815984725952 0.56298303604125977 0.3075660765171051
0.7085578441619873 0.59982430934906006 0.33774292469024658
0.82877171039581299 0.63376325368881226 0.38387212157249451
0.35675671696662903 0.72518444061279297 0.35674834251403809
0.52895891666412354 0.7553752064704895 0.39834204316139221
0.68448889255523682 0.78305184841156006 0.43573668599128723
0.80816948413848877 0.81319332122802734 0.47310873866081238
0.90746140480041504 0.83843749761581421 0.52384567260742188
0.49583500623703003 0.89342242479324341 0.49702772498130798
0.6591801643371582 0.91594809293746948 0.53748691082000732
0.78725194931030273 0.9306337833404541 0.58046340942382812
0.88683182001113892 0.94880843162536621 0.61242431402206421
0.95804852247238159 0.96316087245941162 0.65017330646514893
0.034359697252511978 0.032533444464206696 0.12270790338516235
0.15855632722377777 0.059419907629489899 0.15954776108264923
0.30256795883178711 0.089887000620365143 0.191048264503479
0.47114109992980957 0.11865325272083282 0.22611510753631592
0.63593602180480957 0.14993003010749817 0.25915288925170898
0.12751641869544983 0.23311340808868408 0.2320820540189743
0.27174532413482666 0.27239266037940979 0.27489832043647766
0.43547368049621582 0.30933952331542969 0.3100564181804657
0.60667937994003296 0.34935367107391357 0.34713897109031677
0.74701923131942749 0.38518953323364258 0.38821506500244141
0.24489860236644745 0.48956704139709473 0.36285397410392761
0.39934509992599487 0.52805989980697632 0.40255433320999146
0.57172232866287231 0.5728832483291626 0.44793024659156799
0.72509771585464478 0.61230409145355225 0.483183354139328
0.84208023548126221 0.64829707145690918 0.52647638320922852
0.36735996603965759 0.7346915602684021 0.49702385067939758
0.53646248579025269 0.7620728611946106 0.54041135311126709
0.69211775064468384 0.79259753227233887 0.58751589059829712
0.81751048564910889 0.82209759950637817 0.62013036012649536
0.9096183180809021 0.84744328260421753 0.65688556432723999
0.50671076774597168 0.90002387762069702 0.63600748777389526
0.67916488647460938 0.92011123895645142 0.67667758464813232
0.8018072247505188 0.9375 0.71410864591598511
0.89524751901626587 0.95066052675247192 0.73958367109298706
0.96609652042388916 0.96362274885177612 0.773215651512146
0.042264241725206375 0.04048481211066246 0.24184964597225189
0.16886062920093536 0.06709492951631546 0.28114047646522522
0.31211274862289429 0.092474423348903656 0.31403109431266785
0.48023185133934021 0.12642665207386017 0.35399806499481201
0.64933580160140991 0.16203010082244873 0.3922894299030304
0.13666987419128418 0.24759306013584137 0.36118140816688538
0.27885714173316956 0.28492778539657593 0.40352791547775269
0.44589373469352722 0.32486364245414734 0.44511914253234863
0.62113291025161743 0.36412468552589417 0.49121597409248352
0.75910598039627075 0.40247738361358643 0.53333598375320435
0.25414541363716125 0.50921696424484253 0.50244855880737305
0.41366666555404663 0.54298388957977295 0.54357510805130005
0.5837518572807312 0.5854913592338562 0.58952111005783081
0.73530459403991699 0.62277370691299438 0.62472689151763916
0.84983640909194946 0.65976011753082275 0.65866708755493164
0.3842681348323822 0.74765443801879883 0.64050233364105225
0.55759972333908081 0.7728046178817749 0.67373770475387573
0.70583558082580566 0.80108028650283813 0.71595507860183716
0.82700508832931519 0.82708048820495605 0.74410116672515869
0.92124360799789429 0.84870320558547974 0.77160531282424927
0.5146288275718689 0.90890794992446899 0.75002282857894897
0.68632453680038452 0.92621761560440063 0.77924519777297974
0.80536723136901855 0.94190675020217896 0.80527442693710327
0.90459388494491577 0.95476692914962769 0.8371395468711853
0.9696582555770874 0.96893095970153809 0.85988599061965942
0.053311876952648163 0.051147971302270889 0.37352541089057922
0.1811860203742981 0.081141933798789978 0.4165990948677063
0.32183152437210083 0.10680317878723145 0.44704967737197876
0.49183234572410583 0.13482838869094849 0.49309316277503967
0.65677106380462646 0.17175804078578949 0.5378488302230835
0.15067039430141449 0.26198932528495789 0.50919437408447266
0.29474988579750061 0.30047044157981873 0.55591034889221191
0.45789459347724915 0.3399985134601593 0.58898735046386719
0.62664800882339478 0.37565380334854126 0.62569797039031982
0.76557958126068115 0.41563320159912109 0.66854238510131836
0.26362532377243042 0.51795864105224609 0.63936078548431396
0.42884856462478638 0.55949306488037109 0.6823076605796814
0.59315818548202515 0.59999209642410278 0.71387636661529541
0.73824280500411987 0.63762599229812622 0.74216645956039429
0.85021418333053589 0.67706584930419922 0.77074205875396729
0.40117752552032471 0.7556648850440979 0.75874823331832886
0.57343596220016479 0.78481566905975342 0.78994375467300415
0.71700477600097656 0.81421083211898804 0.81673002243041992
0.83330219984054565 0.84103876352310181 0.83573967218399048
0.92043310403823853 0.86452668905258179 0.85609859228134155
0.53820908069610596 0.91093200445175171 0.84544235467910767
0.70120763778686523 0.93243604898452759 0.87173104286193848
0.81291264295578003 0.95135653018951416 0.88876998424530029
0.90851813554763794 0.96393668651580811 0.90899759531021118
0.97169053554534912 0.97670203447341919 0.9231685996055603
0.054682068526744843 0.056492239236831665 0.51402109861373901
0.18946543335914612 0.089526444673538208 0.55910235643386841
0.34009629487991333 0.1186392530798912 0.59744876623153687
0.50629615783691406 0.14990471303462982 0.63102054595947266
0.66983801126480103 0.18356606364250183 0.66366809606552124
0.16690485179424286 0.27245563268661499 0.65494662523269653
0.31370401382446289 0.30946913361549377 0.68689656257629395
0.47549709677696228 0.352468341588974 0.71790003776550293
0.63774794340133667 0.38766777515411377 0.74656981229782104
0.77925294637680054 0.42922210693359375 0.77864533662796021
0.27659204602241516 0.5294194221496582 0.75766646862030029
0.44373941421508789 0.56840288639068604 0.79150032997131348
0.60552793741226196 0.60770529508590698 0.81450343132019043
0.74817061424255371 0.64673376083374023 0.83997893333435059
0.8618624210357666 0.6857374906539917 0.86288052797317505
0.41496887803077698 0.76379770040512085 0.84752398729324341
0.58226960897445679 0.79027324914932251 0.8736763596534729
0.72686070203781128 0.81758636236190796 0.88955587148666382
0.84346592426300049 0.84994101524353027 0.90666335821151733
0.92592906951904297 0.87476110458374023 0.92527908086776733
0.55061501264572144 0.91909730434417725 0.91932731866836548
0.70579797029495239 0.93833243846893311 0.93707108497619629
0.82376813888549805 0.95174968242645264 0.95068931579589844
0.91369104385375977 0.96951603889465332 0.963786780834198
0.98052054643630981 0.98568964004516602 0.98224282264709473
