assets/lut/others alien green.cube
# Created by: G'MIC (https://gmic.eu)
TITLE "alien_green"
# LUT size
LUT_3D_SIZE 13
# Data domain
DOMAIN_MIN 0.0 0.0 0.0
DOMAIN_MAX 1.0 1.0 1.0
# LUT data points
0.050635948777198792 0.039477717131376266 0.037540465593338013
0.058331582695245743 0.078036844730377197 0.017091339454054832
0.10362660884857178 0.13234707713127136 0.016205731779336929
0.15655031800270081 0.18374903500080109 0.01141707506030798
0.22816076874732971 0.24835392832756042 0.0080726174637675285
0.29281389713287354 0.30925807356834412 0.0061603621579706669
0.33887368440628052 0.35691067576408386 0.0074987374246120453
0.39785468578338623 0.41280943155288696 0.0055521945469081402
0.44939503073692322 0.47270309925079346 0.013103904202580452
0.51167422533035278 0.52786999940872192 0.025593850761651993
0.56074672937393188 0.57706576585769653 0.056014865636825562
0.62580543756484985 0.63982295989990234 0.10448428988456726
0.67500370740890503 0.69446647167205811 0.15578815340995789
0.091225884854793549 0.070902816951274872 0.038836430758237839
0.078887775540351868 0.10385624319314957 0.088545031845569611
0.061164360493421555 0.16125628352165222 0.099028915166854858
0.072843544185161591 0.21188317239284515 0.07623908668756485
0.11388696730136871 0.27526190876960754 0.04798348993062973
0.16902123391628265 0.33600333333015442 0.037147268652915955
0.21099549531936646 0.38770315051078796 0.032907359302043915
0.26328584551811218 0.43891307711601257 0.032310664653778076
0.30904576182365417 0.49332049489021301 0.038643766194581985
0.37088611721992493 0.54847186803817749 0.049634311348199844
0.44216224551200867 0.60223305225372314 0.085314430296421051
0.51737332344055176 0.66778618097305298 0.13160310685634613
0.5820767879486084 0.71614265441894531 0.17906461656093597
0.18201605975627899 0.081443801522254944 0.05655314028263092
0.16489860415458679 0.088546290993690491 0.16190044581890106
0.11214017868041992 0.13727088272571564 0.19698317348957062
0.089657455682754517 0.21261604130268097 0.21882288157939911
0.080397360026836395 0.28969442844390869 0.19313852488994598
0.092494308948516846 0.34599965810775757 0.12739647924900055
0.10704328119754791 0.40171468257904053 0.088314712047576904
0.12999977171421051 0.4562276303768158 0.073571972548961639
0.1699712723493576 0.51034927368164062 0.070522844791412354
0.23535194993019104 0.56636142730712891 0.074857763946056366
0.30796527862548828 0.61872667074203491 0.10177622735500336
0.39168408513069153 0.67070823907852173 0.1422821581363678
0.46626177430152893 0.72462165355682373 0.19031937420368195
0.26510363817214966 0.082486175000667572 0.055726338177919388
0.25554919242858887 0.077978290617465973 0.18416574597358704
0.21050973236560822 0.11407789587974548 0.25659358501434326
0.15620197355747223 0.16582977771759033 0.27948284149169922
0.12087272107601166 0.25759810209274292 0.28607562184333801
0.11071180552244186 0.35450699925422668 0.27961647510528564
0.10580576211214066 0.41893202066421509 0.23742128908634186
0.10558322072029114 0.47410404682159424 0.18033073842525482
0.11708880960941315 0.53143310546875 0.14179424941539764
0.14184838533401489 0.5895501971244812 0.13629539310932159
0.1898987740278244 0.64007037878036499 0.13390915095806122
0.26178845763206482 0.69080644845962524 0.1639288067817688
0.34042400121688843 0.74588108062744141 0.20752601325511932
0.34126713871955872 0.077693060040473938 0.052896194159984589
0.33497628569602966 0.077244296669960022 0.18985496461391449
0.32075351476669312 0.1058429479598999 0.31202110648155212
0.25617194175720215 0.14490014314651489 0.33683466911315918
0.18892930448055267 0.20675115287303925 0.34523668885231018
0.15998701751232147 0.31846868991851807 0.38615629076957703
0.14823465049266815 0.42560112476348877 0.40499657392501831
0.14119313657283783 0.49728411436080933 0.37096911668777466
0.1392386257648468 0.55462402105331421 0.32894432544708252
0.14631640911102295 0.61090075969696045 0.28787663578987122
0.16379733383655548 0.6623004674911499 0.2544751763343811
0.20379519462585449 0.71393400430679321 0.24215294420719147
0.26103797554969788 0.7630387544631958 0.257955402135849
0.41811409592628479 0.084044031798839569 0.056213721632957458
0.41616994142532349 0.085041657090187073 0.20241838693618774
0.41458022594451904 0.10826311260461807 0.3479430079460144
0.36987963318824768 0.14522981643676758 0.40496653318405151
0.28914684057235718 0.18760363757610321 0.40775948762893677
0.22149121761322021 0.24111028015613556 0.42412519454956055
0.19525596499443054 0.35562098026275635 0.46663346886634827
0.18488048017024994 0.47959685325622559 0.50667136907577515
0.17815811932086945 0.57033753395080566 0.51594847440719604
0.18164494633674622 0.63301283121109009 0.47297140955924988
0.19492045044898987 0.68424355983734131 0.42844143509864807
0.22074794769287109 0.73739033937454224 0.41827297210693359
0.25733467936515808 0.78846758604049683 0.38967591524124146
0.49381360411643982 0.088893190026283264 0.051416989415884018
0.49508172273635864 0.091674789786338806 0.18953345715999603
0.49110826849937439 0.11347617208957672 0.35511910915374756
0.46030071377754211 0.14368900656700134 0.45557692646980286
0.39032453298568726 0.18350560963153839 0.47411158680915833
0.31360584497451782 0.22097092866897583 0.48665991425514221
0.25712129473686218 0.28226187825202942 0.50771468877792358
0.23004366457462311 0.37936893105506897 0.54115599393844604
0.22245670855045319 0.50989115238189697 0.59460180997848511
0.21735338866710663 0.62382757663726807 0.62416458129882812
0.2290710061788559 0.70443761348724365 0.60698145627975464
0.25213980674743652 0.75884568691253662 0.5778806209564209
0.28054964542388916 0.80846655368804932 0.53831464052200317
0.57477611303329468 0.083450883626937866 0.04900028184056282
0.57270139455795288 0.079606093466281891 0.20580452680587769
0.56803607940673828 0.11102133244276047 0.36405083537101746
0.55405563116073608 0.14427758753299713 0.49485933780670166
0.50231677293777466 0.18080015480518341 0.55168658494949341
0.41588714718818665 0.21822366118431091 0.5604284405708313
0.34514912962913513 0.25877094268798828 0.57113790512084961
0.30515635013580322 0.32221683859825134 0.58953636884689331
0.27331969141960144 0.41369670629501343 0.62578797340393066
0.26073601841926575 0.54284405708312988 0.67411422729492188
0.25963476300239563 0.66592496633529663 0.71519190073013306
0.28176066279411316 0.76849544048309326 0.73296594619750977
0.30430734157562256 0.82372266054153442 0.70651578903198242
0.65701436996459961 0.084254667162895203 0.049078099429607391
0.65519613027572632 0.080468662083148956 0.2080937922000885
0.65283548831939697 0.1106497198343277 0.36821275949478149
0.64754283428192139 0.14735740423202515 0.51113271713256836
0.6250116229057312 0.18066762387752533 0.6132233738899231
0.5447232723236084 0.21537129580974579 0.63867068290710449
0.45329999923706055 0.24669346213340759 0.64307409524917603
0.38722750544548035 0.28595581650733948 0.65598303079605103
0.34143480658531189 0.34404483437538147 0.67345660924911499
0.31095659732818604 0.44676530361175537 0.70582962036132812
0.30620852112770081 0.57314789295196533 0.75502860546112061
0.31942346692085266 0.69929599761962891 0.80398577451705933
0.33124205470085144 0.82126927375793457 0.83216482400894165
0.7269057035446167 0.088748708367347717 0.056066431105136871
0.73371660709381104 0.082317516207695007 0.21253387629985809
0.73543858528137207 0.11695689707994461 0.38075807690620422
0.73304623365402222 0.14804083108901978 0.52515906095504761
0.73007023334503174 0.17912082374095917 0.65359681844711304
0.66901832818984985 0.21848738193511963 0.71170502901077271
0.57939630746841431 0.25072270631790161 0.72007250785827637
0.4967714250087738 0.27756324410438538 0.72349762916564941
0.42977619171142578 0.32086086273193359 0.73266518115997314
0.37221303582191467 0.3845527172088623 0.75086468458175659
0.35563409328460693 0.48748904466629028 0.78479301929473877
0.35736760497093201 0.59890377521514893 0.83173108100891113
0.36152562499046326 0.73811924457550049 0.88209652900695801
0.80806088447570801 0.08560054749250412 0.0633888840675354
0.81030619144439697 0.080991856753826141 0.2247336357831955
0.8082273006439209 0.11894332617521286 0.38477429747581482
0.80961722135543823 0.14511503279209137 0.54208284616470337
0.80066108703613281 0.17814552783966064 0.67159140110015869
0.7672160267829895 0.21860837936401367 0.76346546411514282
0.70084488391876221 0.25252869725227356 0.79528474807739258
0.61577832698822021 0.28096556663513184 0.79424881935119629
0.53004968166351318 0.31490844488143921 0.80199313163757324
0.45437747240066528 0.36047220230102539 0.80848342180252075
0.41081517934799194 0.42680549621582031 0.82229113578796387
0.38946807384490967 0.51421278715133667 0.85584276914596558
0.3966519832611084 0.6466975212097168 0.90115422010421753
0.88536906242370605 0.077523984014987946 0.067891903221607208
0.88477057218551636 0.077766969799995422 0.22401623427867889
0.87952512502670288 0.111833356320858 0.38784772157669067
0.88116014003753662 0.14214429259300232 0.5375780463218689
0.87673914432525635 0.1764616072177887 0.67902094125747681
0.87451958656311035 0.21693184971809387 0.81136143207550049
0.83411449193954468 0.25151574611663818 0.86787694692611694
0.73719006776809692 0.2783794105052948 0.8706403374671936
0.63611334562301636 0.31362700462341309 0.87354177236557007
0.55029833316802979 0.34884461760520935 0.87657582759857178
0.48833355307579041 0.39070039987564087 0.88221263885498047
0.43565517663955688 0.44735190272331238 0.89541590213775635
0.43295073509216309 0.55650776624679565 0.92955625057220459
0.95339065790176392 0.090797156095504761 0.062256038188934326
0.95421850681304932 0.081334345042705536 0.22770211100578308
0.95096367597579956 0.11053688079118729 0.39323350787162781
0.95337998867034912 0.14026901125907898 0.53581142425537109
0.95601481199264526 0.17482109367847443 0.69987601041793823
0.95374757051467896 0.21329422295093536 0.84524106979370117
0.94140684604644775 0.24733297526836395 0.93608754873275757
0.86948853731155396 0.27928423881530762 0.95095711946487427
0.75482779741287231 0.31771448254585266 0.95226985216140747
0.66340500116348267 0.34756827354431152 0.9570043683052063
0.5815693736076355 0.38423541188240051 0.95583778619766235
0.51264065504074097 0.42084428668022156 0.95873671770095825
0.4648345410823822 0.45728829503059387 0.96246927976608276
0.040377702564001083 0.046039760112762451 0.11059646308422089
0.098947562277317047 0.058663669973611832 0.07594628632068634
0.16159924864768982 0.08842138946056366 0.035225331783294678
0.20645216107368469 0.11586647480726242 0.01128940936177969
0.27272909879684448 0.18314798176288605 0.010352235287427902
0.33659854531288147 0.24238218367099762 0.0079231858253479004
0.38777107000350952 0.29745832085609436 0.0066671036183834076
0.43843543529510498 0.34610843658447266 0.0055635939352214336
0.4927670955657959 0.40090984106063843 0.012501406483352184
0.54417669773101807 0.45517882704734802 0.031775321811437607
0.600921630859375 0.51854676008224487 0.062664330005645752
0.66377311944961548 0.58537417650222778 0.10875114053487778
0.71338355541229248 0.63945609331130981 0.15019325911998749
0.047007497400045395 0.11836950480937958 0.097100019454956055
0.099977381527423859 0.12016021460294724 0.086103536188602448
0.13245506584644318 0.15296146273612976 0.046515416353940964
0.18028882145881653 0.20256975293159485 0.023241829127073288
0.24420689046382904 0.26641437411308289 0.016243025660514832
0.29919576644897461 0.31909197568893433 0.017222564667463303
0.35181733965873718 0.37255042791366577 0.015418542549014091
0.41091325879096985 0.43391880393028259 0.016335580497980118
0.47492849826812744 0.49435245990753174 0.050787936896085739
0.5365370512008667 0.55499124526977539 0.092141062021255493
0.59482210874557495 0.61029106378555298 0.13757461309432983
0.66355937719345093 0.67706453800201416 0.1952698677778244
0.71921992301940918 0.7312932014465332 0.23943199217319489
0.11136679351329803 0.17176678776741028 0.047619029879570007
0.17037731409072876 0.14587776362895966 0.12030431628227234
0.13627715408802032 0.17205747961997986 0.17234271764755249
0.11330443620681763 0.23011124134063721 0.15650440752506256
0.11722787469625473 0.29109460115432739 0.10194874554872513
0.15423989295959473 0.34542164206504822 0.066494807600975037
0.20180600881576538 0.4004065990447998 0.054665014147758484
0.25965496897697449 0.45509514212608337 0.056522667407989502
0.34272778034210205 0.51846992969512939 0.088545538485050201
0.39682215452194214 0.57261252403259277 0.11385779082775116
0.47775945067405701 0.63073962926864624 0.15950410068035126
0.54523736238479614 0.68483203649520874 0.20425707101821899
0.60979336500167847 0.74680358171463013 0.2536015510559082
0.19305357336997986 0.21323215961456299 0.038730785250663757
0.24492324888706207 0.1441052258014679 0.12983584403991699
0.23673282563686371 0.16117970645427704 0.23645371198654175
0.18877561390399933 0.21206338703632355 0.27104127407073975
0.1317286491394043 0.29471376538276672 0.24903124570846558
0.12317685782909393 0.36596748232841492 0.20454934239387512
0.12286127358675003 0.41779205203056335 0.1577754020690918
0.13804431259632111 0.47112172842025757 0.1222442165017128
0.20004259049892426 0.53177422285079956 0.11998236924409866
0.25883299112319946 0.58897489309310913 0.14898353815078735
0.3232915997505188 0.6405951976776123 0.17660407721996307
0.3977295458316803 0.69282853603363037 0.21099843084812164
0.4651329517364502 0.74283856153488159 0.24908652901649475
0.31185254454612732 0.25428527593612671 0.037621889263391495
0.33350205421447754 0.14880721271038055 0.12904450297355652
0.3370094895362854 0.15014669299125671 0.2632843554019928
0.29678034782409668 0.19031073153018951 0.33166337013244629
0.22217302024364471 0.25027114152908325 0.34936538338661194
0.17155545949935913 0.35940787196159363 0.37290424108505249
0.15863603353500366 0.44285416603088379 0.35667487978935242
0.15237502753734589 0.49671760201454163 0.30698153376579285
0.16089349985122681 0.55563247203826904 0.25857806205749512
0.1951504647731781 0.6082344651222229 0.24220171570777893
0.23348590731620789 0.65973198413848877 0.23195059597492218
0.29239854216575623 0.71267718076705933 0.25067541003227234
0.35909417271614075 0.75902771949768066 0.27668008208274841
0.41783896088600159 0.26204809546470642 0.04043063148856163
0.41964766383171082 0.15398257970809937 0.14060001075267792
0.41857558488845825 0.15290741622447968 0.27331158518791199
0.40648472309112549 0.18113537132740021 0.38096535205841064
0.32813236117362976 0.22185999155044556 0.4083191454410553
0.25249281525611877 0.29413065314292908 0.43196254968643188
0.22408629953861237 0.40585878491401672 0.47502779960632324
0.20379787683486938 0.50025767087936401 0.49248439073562622
0.20792208611965179 0.57622224092483521 0.47051730751991272
0.22936491668224335 0.63123148679733276 0.42789497971534729
0.24288807809352875 0.68024921417236328 0.37668368220329285
0.26801636815071106 0.73529893159866333 0.36021286249160767
0.30887225270271301 0.78817391395568848 0.35414037108421326
0.49459823966026306 0.27336022257804871 0.044848393648862839
0.49629569053649902 0.16327917575836182 0.14989626407623291
0.49106097221374512 0.15897330641746521 0.28437680006027222
0.47253555059432983 0.18203508853912354 0.39896062016487122
0.42021045088768005 0.22215273976325989 0.46158003807067871
0.35058373212814331 0.26478192210197449 0.49001783132553101
0.2959635853767395 0.33173510432243347 0.51610648632049561
0.26556414365768433 0.42644140124320984 0.54917478561401367
0.25688889622688293 0.54061037302017212 0.58816033601760864
0.26189526915550232 0.63388592004776001 0.58423370122909546
0.27561357617378235 0.70135962963104248 0.55168938636779785
0.29511815309524536 0.75560015439987183 0.51341021060943604
0.31984215974807739 0.81019634008407593 0.49669894576072693
0.57456499338150024 0.28559684753417969 0.042828444391489029
0.56922167539596558 0.16660308837890625 0.14255821704864502
0.56543749570846558 0.15822714567184448 0.2862001359462738
0.55703449249267578 0.1875298023223877 0.42266964912414551
0.5354917049407959 0.22198054194450378 0.53023606538772583
0.46776175498962402 0.26096934080123901 0.56086742877960205
0.38726973533630371 0.29615291953086853 0.57267695665359497
0.34392577409744263 0.35679531097412109 0.59646314382553101
0.31354182958602905 0.45153400301933289 0.6306459903717041
0.30405107140541077 0.57958787679672241 0.66431939601898193
0.30811271071434021 0.6829492449760437 0.68033343553543091
0.32231256365776062 0.77358043193817139 0.6836969256401062
0.34587875008583069 0.82976406812667847 0.66323715448379517
0.65487200021743774 0.27183276414871216 0.045793585479259491
0.64887970685958862 0.15683010220527649 0.13302506506443024
0.64618480205535889 0.15256011486053467 0.27645453810691833
0.64615309238433838 0.18985362350940704 0.43581297993659973
0.64014506340026855 0.22058168053627014 0.56382173299789429
0.58985793590545654 0.25876703858375549 0.63005542755126953
0.51128476858139038 0.29091444611549377 0.64775663614273071
0.44651687145233154 0.32846975326538086 0.66000616550445557
0.38680967688560486 0.38891398906707764 0.67192238569259644
0.35602110624313354 0.48444607853889465 0.69496250152587891
0.35367006063461304 0.60293495655059814 0.7371947169303894
0.36023607850074768 0.73337632417678833 0.78437298536300659
0.37633103132247925 0.84234738349914551 0.80612754821777344
0.72554928064346313 0.2893737256526947 0.041276641190052032
0.72954809665679932 0.16016530990600586 0.13955628871917725
0.73145133256912231 0.16748547554016113 0.29247990250587463
0.73205429315567017 0.18674863874912262 0.4483892023563385
0.72678464651107788 0.21809676289558411 0.58240723609924316
0.70034939050674438 0.25834757089614868 0.68869996070861816
0.63278841972351074 0.29032588005065918 0.72370046377182007
0.55146294832229614 0.32099825143814087 0.72444862127304077
0.47752183675765991 0.36514186859130859 0.72846859693527222
0.41263067722320557 0.41810145974159241 0.73814094066619873
0.3998056948184967 0.51979047060012817 0.77736157178878784
0.39855873584747314 0.64142948389053345 0.82460856437683105
0.40747538208961487 0.79059576988220215 0.87936210632324219
0.80355948209762573 0.27129366993904114 0.040932971984148026
0.80593466758728027 0.1571897566318512 0.13532651960849762
0.80780261754989624 0.16427057981491089 0.29351842403411865
0.80680680274963379 0.19033183157444 0.46105879545211792
0.80362397432327271 0.2208421379327774 0.60699194669723511
0.79727089405059814 0.25493812561035156 0.7341427206993103
0.74660563468933105 0.28702577948570251 0.78774857521057129
0.65782678127288818 0.31972983479499817 0.79187667369842529
0.57267975807189941 0.35753464698791504 0.80020684003829956
0.49370583891868591 0.39943692088127136 0.80270928144454956
0.45377233624458313 0.46413755416870117 0.8231005072593689
0.43055239319801331 0.55071175098419189 0.85656309127807617
0.43663832545280457 0.68628734350204468 0.90019553899765015
0.8787534236907959 0.27556267380714417 0.045582924038171768
0.87802398204803467 0.14657586812973022 0.13417986035346985
0.8772462010383606 0.15815424919128418 0.2840607762336731
0.88040053844451904 0.19211308658123016 0.45096203684806824
0.87648254632949829 0.22397719323635101 0.62055975198745728
0.86787301301956177 0.25625646114349365 0.74107545614242554
0.84683197736740112 0.28729096055030823 0.82542544603347778
0.77266722917556763 0.31799453496932983 0.86740165948867798
0.6769416332244873 0.35398095846176147 0.87601280212402344
0.59946554899215698 0.39285805821418762 0.87821143865585327
0.53697395324707031 0.44103682041168213 0.88688504695892334
0.48164170980453491 0.49438396096229553 0.89905834197998047
0.46591544151306152 0.59600287675857544 0.92914873361587524
0.94873422384262085 0.28104153275489807 0.04935372993350029
0.94875419139862061 0.15287694334983826 0.15100263059139252
0.94998025894165039 0.15624980628490448 0.29212653636932373
0.94756025075912476 0.18839189410209656 0.44735413789749146
0.94712728261947632 0.21906504034996033 0.61327618360519409
0.94758176803588867 0.25190699100494385 0.76617658138275146
0.9499390721321106 0.28345751762390137 0.88347220420837402
0.9066392183303833 0.32083070278167725 0.94592052698135376
0.79888606071472168 0.35681042075157166 0.94720923900604248
0.71064794063568115 0.39153096079826355 0.95319515466690063
0.62323105335235596 0.42784285545349121 0.95481783151626587
0.55018502473831177 0.46069428324699402 0.95526009798049927
0.50784891843795776 0.51401680707931519 0.96603834629058838
0.036037743091583252 0.07685379683971405 0.19154033064842224
0.11387016624212265 0.05142752081155777 0.17893624305725098
0.19426298141479492 0.043171722441911697 0.12437038123607635
0.24163790047168732 0.045110650360584259 0.050646405667066574
0.29790091514587402 0.088837854564189911 0.024748783558607101
0.35498526692390442 0.15096510946750641 0.019112845882773399
0.40453621745109558 0.21061508357524872 0.01770935021340847
0.45231688022613525 0.26768749952316284 0.014959177933633327
0.50804799795150757 0.31557148694992065 0.016954759135842323
0.56390702724456787 0.37371450662612915 0.028676321730017662
0.62190002202987671 0.44905954599380493 0.057743385434150696
0.67626237869262695 0.5194162130355835 0.10043979436159134
0.7284473180770874 0.58558827638626099 0.13727357983589172
0.043489269912242889 0.15218564867973328 0.18340037763118744
0.10937222093343735 0.13924366235733032 0.16294975578784943
0.17518863081932068 0.11532150208950043 0.11853141337633133
0.2382497638463974 0.12512464821338654 0.063121721148490906
0.29288646578788757 0.18012592196464539 0.035811152309179306
0.34739795327186584 0.23809802532196045 0.027966098859906197
0.40118551254272461 0.2923029363155365 0.031315941363573074
0.45902994275093079 0.36436691880226135 0.042308643460273743
0.51894885301589966 0.42011898756027222 0.067510508000850677
0.57316654920578003 0.47762814164161682 0.094810649752616882
0.63635373115539551 0.55145597457885742 0.14329606294631958
0.6949884295463562 0.61810511350631714 0.1917416900396347
0.74779421091079712 0.68048179149627686 0.2322569340467453
0.05051567405462265 0.20692551136016846 0.14152377843856812
0.12279387563467026 0.20091454684734344 0.15221983194351196
0.16316194832324982 0.19197586178779602 0.16731385886669159
0.19219391047954559 0.22073920071125031 0.12086311727762222
0.24426396191120148 0.28104731440544128 0.072908304631710052
0.28795835375785828 0.33137321472167969 0.065376490354537964
0.36514276266098022 0.39277878403663635 0.073375895619392395
0.4317261278629303 0.45596131682395935 0.096729069948196411
0.49349892139434814 0.51096296310424805 0.13130910694599152
0.53578603267669678 0.5583425760269165 0.15629561245441437
0.61739224195480347 0.63335788249969482 0.21259014308452606
0.68331855535507202 0.69576281309127808 0.26732447743415833
0.73544216156005859 0.75091153383255005 0.30388686060905457
0.066975884139537811 0.25913289189338684 0.077947176992893219
0.1751263290643692 0.25139293074607849 0.12133900076150894
0.23975104093551636 0.2368573397397995 0.20231157541275024
0.21470348536968231 0.25033119320869446 0.24908587336540222
0.17434656620025635 0.31113454699516296 0.20115280151367188
0.18570129573345184 0.36718717217445374 0.14049765467643738
0.23355522751808167 0.42298233509063721 0.12934105098247528
0.28034687042236328 0.47703111171722412 0.13904339075088501
0.35782387852668762 0.53978121280670166 0.17367497086524963
0.42864078283309937 0.5954289436340332 0.20330414175987244
0.4855370819568634 0.64951688051223755 0.23143796622753143
0.55795800685882568 0.70592457056045532 0.27318671345710754
0.6225816011428833 0.75944811105728149 0.31367802619934082
0.17020805180072784 0.33279064297676086 0.043448608368635178
0.2957758903503418 0.2966465950012207 0.11373941600322723
0.33656755089759827 0.23019127547740936 0.20715039968490601
0.31646382808685303 0.24650414288043976 0.30017665028572083
0.26205357909202576 0.29829886555671692 0.34891897439956665
0.20809362828731537 0.37409710884094238 0.33552408218383789
