assets/lut/others vibrant alien.cube
# Created by: G'MIC (https://gmic.eu)
TITLE "vibrant_alien"
# LUT size
LUT_3D_SIZE 13
# Data domain
DOMAIN_MIN 0.0 0.0 0.0
DOMAIN_MAX 1.0 1.0 1.0
# LUT data points
0.025299446657299995 0.0088277328759431839 0.012706711888313293
0.069209545850753784 0.0081803267821669579 0.01342296227812767
0.12627622485160828 0.0086736641824245453 0.012888500466942787
0.19495221972465515 0.009852076880633831 0.012582875788211823
0.28066766262054443 0.01132552232593298 0.013395421206951141
0.37656626105308533 0.0092771044000983238 0.013240275904536247
0.48085519671440125 0.007976531982421875 0.012534796260297298
0.5933382511138916 0.0095501020550727844 0.011031236499547958
0.69959139823913574 0.0098771192133426666 0.010285575874149799
0.79019218683242798 0.010104025714099407 0.010132210329174995
0.86363911628723145 0.010858259163796902 0.010336079634726048
0.92441666126251221 0.010497896932065487 0.010093958117067814
0.96957826614379883 0.0067346161231398582 0.01152140274643898
0.027065500617027283 0.033419769257307053 0.012886212207376957
0.070323213934898376 0.028922406956553459 0.012066501192748547
0.12893611192703247 0.034761823713779449 0.012590265832841396
0.19526571035385132 0.032656993716955185 0.012618375010788441
0.27834820747375488 0.032003544270992279 0.011978089809417725
0.3757597804069519 0.034141451120376587 0.012176094576716423
0.47966188192367554 0.032564830034971237 0.011379451490938663
0.59285050630569458 0.037347443401813507 0.010774320922791958
0.69980448484420776 0.040446188300848007 0.01090342178940773
0.78957122564315796 0.036998927593231201 0.011147367767989635
0.86432665586471558 0.034685008227825165 0.009672725573182106
0.92511904239654541 0.029921349138021469 0.0088534038513898849
0.9663006067276001 0.031984921544790268 0.010104654356837273
0.026061607524752617 0.097124092280864716 0.013245451264083385
0.070387043058872223 0.09695512056350708 0.010576090775430202
0.12586778402328491 0.093098767101764679 0.010406180284917355
0.19728206098079681 0.098102942109107971 0.014862659387290478
0.28225433826446533 0.10611220449209213 0.012211623601615429
0.37736189365386963 0.1056666225194931 0.0096306297928094864
0.48260807991027832 0.098533228039741516 0.0088311592116951942
0.59301161766052246 0.098193317651748657 0.0091455047950148582
0.70413714647293091 0.10618945956230164 0.0098896399140357971
0.79415345191955566 0.099325217306613922 0.010406150482594967
0.8688843846321106 0.094306290149688721 0.010578155517578125
0.92212289571762085 0.10089641064405441 0.011863977648317814
0.96787267923355103 0.096643455326557159 0.0089000780135393143
0.02844606339931488 0.23818089067935944 0.013748273253440857
0.068799473345279694 0.23295806348323822 0.011815508827567101
0.12405196577310562 0.2284243106842041 0.012836591340601444
0.1930048018693924 0.23165181279182434 0.015332315117120743
0.2778838574886322 0.23755766451358795 0.012948054820299149
0.37606871128082275 0.23738314211368561 0.0090025654062628746
0.48425662517547607 0.24342663586139679 0.0090687619522213936
0.59613281488418579 0.24153740704059601 0.011717627756297588
0.70678508281707764 0.23429103195667267 0.0091515332460403442
0.79390919208526611 0.23352374136447906 0.010605292394757271
0.86751860380172729 0.23140576481819153 0.01189600583165884
0.92212498188018799 0.24516211450099945 0.012155675329267979
0.96742928028106689 0.25161007046699524 0.012383509427309036
0.023892242461442947 0.4313291609287262 0.014129878021776676
0.068668156862258911 0.42737668752670288 0.011064013466238976
0.12681351602077484 0.42086613178253174 0.010478613898158073
0.19392305612564087 0.42542329430580139 0.013268040493130684
0.27430522441864014 0.43190854787826538 0.01244035642594099
0.37464386224746704 0.42670038342475891 0.0097461920231580734
0.4824104905128479 0.4230102002620697 0.0091540021821856499
0.59413629770278931 0.4191763699054718 0.011966750025749207
0.7002837061882019 0.42011627554893494 0.011058553121984005
0.79290366172790527 0.42563608288764954 0.009293694980442524
0.87130296230316162 0.42685282230377197 0.008645704947412014
0.92402023077011108 0.43670475482940674 0.010681272484362125
0.96766060590744019 0.43745630979537964 0.013662180863320827
0.024994241073727608 0.5907856822013855 0.01403497438877821
0.07129591703414917 0.58866018056869507 0.011095128953456879
0.12783807516098022 0.58562767505645752 0.0094770845025777817
0.19636419415473938 0.58996796607971191 0.010901028290390968
0.27432185411453247 0.59609431028366089 0.010458014905452728
0.37363964319229126 0.59262770414352417 0.0087613128125667572
0.48023578524589539 0.59167444705963135 0.0082358568906784058
0.59290504455566406 0.59148091077804565 0.0089586144313216209
0.69754600524902344 0.59275448322296143 0.0091639803722500801
0.79511898756027222 0.59743428230285645 0.0084086395800113678
0.86784452199935913 0.59966021776199341 0.0097549883648753166
0.9255836009979248 0.60457032918930054 0.011830229312181473
0.9702756404876709 0.60467439889907837 0.01208654697984457
0.026078512892127037 0.7129594087600708 0.012555021792650223
0.07244148850440979 0.70871776342391968 0.0099955685436725616
0.12584015727043152 0.70875793695449829 0.0097145382314920425
0.19506566226482391 0.7088894248008728 0.012660830281674862
0.27774280309677124 0.70487022399902344 0.010415813885629177
0.37415993213653564 0.70638185739517212 0.0082418257370591164
0.48043829202651978 0.70440888404846191 0.008725394494831562
0.59105193614959717 0.70853209495544434 0.010148605331778526
0.69427210092544556 0.70486080646514893 0.0096678640693426132
0.79146218299865723 0.70459449291229248 0.0093535929918289185
0.8650214672088623 0.70735907554626465 0.011370101943612099
0.92523670196533203 0.71100527048110962 0.013533438555896282
0.96951276063919067 0.71358126401901245 0.011661425232887268
0.024237344041466713 0.78046697378158569 0.013086790218949318
0.071300387382507324 0.77020007371902466 0.013124354183673859
0.12660609185695648 0.76916325092315674 0.014494218863546848
0.19291001558303833 0.77492570877075195 0.016102330759167671
0.2782876193523407 0.77200955152511597 0.011415893211960793
0.37499526143074036 0.77650779485702515 0.0087962280958890915
0.48223093152046204 0.77556723356246948 0.0095465118065476418
0.59233230352401733 0.77644175291061401 0.011833340860903263
0.69430094957351685 0.77598863840103149 0.011687768623232841
0.79143387079238892 0.77787607908248901 0.011313000693917274
0.86384063959121704 0.76893556118011475 0.013356735929846764
0.92406970262527466 0.76496624946594238 0.013623435981571674
0.96825587749481201 0.77722430229187012 0.010104265064001083
0.023588726297020912 0.81437909603118896 0.015294377692043781
0.070532061159610748 0.81138062477111816 0.015921005979180336
0.12589670717716217 0.8105894923210144 0.016784263774752617
0.19248868525028229 0.81144589185714722 0.0156580600887537
0.27608957886695862 0.81318879127502441 0.011933165602385998
0.37545028328895569 0.80774474143981934 0.010852214880287647
0.48423826694488525 0.8055155873298645 0.011229691095650196
0.59198993444442749 0.80945694446563721 0.012128553353250027
0.69275718927383423 0.80667215585708618 0.012996942736208439
0.78855139017105103 0.80384212732315063 0.014475280418992043
0.86298412084579468 0.80038642883300781 0.015861930325627327
0.92422217130661011 0.79667395353317261 0.012886121869087219
0.96207231283187866 0.80245286226272583 0.011316427029669285
0.023238401859998703 0.82145559787750244 0.01257985457777977
0.072384312748908997 0.82098531723022461 0.014399090781807899
0.12843665480613708 0.82155066728591919 0.01539688091725111
0.19104801118373871 0.82244819402694702 0.013084187172353268
0.27526682615280151 0.82394123077392578 0.012407130561769009
0.37208038568496704 0.82229471206665039 0.011915648356080055
0.48163291811943054 0.82154935598373413 0.012641233392059803
0.5902600884437561 0.8228229284286499 0.012009579688310623
0.69483488798141479 0.82094520330429077 0.012904193252325058
0.79115062952041626 0.81846892833709717 0.015608858317136765
0.86347103118896484 0.81714272499084473 0.015371838584542274
0.92581444978713989 0.8173864483833313 0.013229564763605595
0.95827174186706543 0.81807184219360352 0.014785706996917725
0.027464309707283974 0.82352942228317261 0.0098901037126779556
0.071291983127593994 0.82352548837661743 0.011257321573793888
0.12846653163433075 0.82351934909820557 0.014278157614171505
0.1911693662405014 0.82472372055053711 0.01272976491600275
0.27695807814598083 0.82506769895553589 0.01192652340978384
0.37083199620246887 0.82500940561294556 0.0097975488752126694
0.47628083825111389 0.82498079538345337 0.011354872956871986
0.58634579181671143 0.82726538181304932 0.012877041473984718
0.69467037916183472 0.82639783620834351 0.013540484942495823
0.79410886764526367 0.82461011409759521 0.015452485531568527
0.86711984872817993 0.82193672657012939 0.014457657933235168
0.92380350828170776 0.82138192653656006 0.013985293917357922
0.96509158611297607 0.82362043857574463 0.015895513817667961
0.027932649478316307 0.82208752632141113 0.011185365729033947
0.070214517414569855 0.82153123617172241 0.01286634523421526
0.12817400693893433 0.82126820087432861 0.016873633489012718
0.19621956348419189 0.82153910398483276 0.013825674541294575
0.27605199813842773 0.8219146728515625 0.011175506748259068
0.3709927499294281 0.82315468788146973 0.0071944440715014935
0.47347813844680786 0.82377642393112183 0.0088088838383555412
0.58470237255096436 0.82553327083587646 0.013274398632347584
0.69767743349075317 0.82299864292144775 0.012349790893495083
0.79737228155136108 0.82157355546951294 0.012526568025350571
0.87087047100067139 0.82065683603286743 0.014301599003374577
0.92430055141448975 0.8219333291053772 0.01453769113868475
0.96978425979614258 0.82352942228317261 0.013106357306241989
0.020565751940011978 0.81960785388946533 0.013543925248086452
0.067203521728515625 0.81960785388946533 0.012790919281542301
0.12653939425945282 0.81960785388946533 0.014889107085764408
0.19496773183345795 0.81960785388946533 0.013784625567495823
0.27496469020843506 0.81960785388946533 0.011629186570644379
0.36856725811958313 0.82071727514266968 0.011341393925249577
0.47343337535858154 0.82327622175216675 0.0098806191235780716
0.58646970987319946 0.82352942228317261 0.0099181532859802246
0.69697046279907227 0.82114511728286743 0.010088512673974037
0.79299134016036987 0.81960785388946533 0.012188496068120003
0.8676307201385498 0.81960785388946533 0.015020377933979034
0.92730259895324707 0.82057225704193115 0.015542542561888695
0.97185146808624268 0.82352942228317261 0.014550721272826195
0.027614863589406013 0.010767200030386448 0.036479290574789047
0.068334154784679413 0.0082681244239211082 0.032101664692163467
0.12738069891929626 0.0076996595598757267 0.035019520670175552
0.1971278041601181 0.011149387806653976 0.033722925931215286
0.27948740124702454 0.0096430163830518723 0.032332014292478561
0.37421876192092896 0.0081598022952675819 0.035494126379489899
0.48043105006217957 0.0076156016439199448 0.036914721131324768
0.5899997353553772 0.0061770123429596424 0.032056067138910294
0.69644081592559814 0.008208046667277813 0.034570012241601944
0.79201483726501465 0.0081722186878323555 0.033198650926351547
0.86791545152664185 0.0065330355428159237 0.028564183041453362
0.92522382736206055 0.0081142503768205643 0.029232233762741089
0.96607053279876709 0.0057087317109107971 0.030320260673761368
0.027049031108617783 0.031396020203828812 0.032076053321361542
0.069477051496505737 0.030603624880313873 0.03203042596578598
0.12704050540924072 0.031671889126300812 0.034479565918445587
0.19828219711780548 0.037681236863136292 0.036304235458374023
0.27929657697677612 0.032431747764348984 0.034198235720396042
0.37215599417686462 0.029236048460006714 0.032711014151573181
0.48005318641662598 0.031818419694900513 0.031932443380355835
0.59127330780029297 0.029141310602426529 0.028085879981517792
0.69550132751464844 0.030332962051033974 0.03218638151884079
0.79058337211608887 0.030011001974344254 0.031144773587584496
0.8680538535118103 0.028877587988972664 0.028338698670268059
0.92513036727905273 0.031905408948659897 0.031251210719347
0.97112196683883667 0.026424586772918701 0.030715763568878174
0.029140278697013855 0.10083212703466415 0.032416325062513351
0.069263622164726257 0.098094969987869263 0.030978871509432793
0.12648439407348633 0.09317518025636673 0.029878772795200348
0.19515536725521088 0.095253966748714447 0.034385636448860168
0.27988412976264954 0.1047189012169838 0.035437759011983871
0.3755529522895813 0.10030414164066315 0.03168937936425209
0.47903448343276978 0.095387294888496399 0.027862025424838066
0.59299087524414062 0.099263794720172882 0.03066781722009182
0.70144301652908325 0.1003471240401268 0.031287219375371933
0.79419034719467163 0.095946475863456726 0.031083259731531143
0.86814284324645996 0.093706957995891571 0.031297646462917328
0.92605674266815186 0.094094894826412201 0.032065987586975098
0.96938341856002808 0.094656921923160553 0.031810101121664047
0.02962360717356205 0.23599724471569061 0.034004032611846924
0.069361455738544464 0.23679354786872864 0.032587416470050812
0.12775179743766785 0.23138737678527832 0.02895323745906353
0.19194638729095459 0.22793960571289062 0.032525800168514252
0.27584221959114075 0.23274001479148865 0.034081015735864639
0.37370294332504272 0.24172163009643555 0.032764554023742676
0.47909688949584961 0.24219627678394318 0.030673561617732048
0.59386032819747925 0.23839601874351501 0.031893398612737656
0.70392465591430664 0.23394009470939636 0.030012661591172218
0.7963518500328064 0.2343422919511795 0.031236371025443077
0.86837530136108398 0.23428301513195038 0.033003430813550949
0.92607998847961426 0.2352491170167923 0.032781399786472321
0.97130900621414185 0.23722930252552032 0.031406298279762268
0.024081271141767502 0.43268212676048279 0.032926790416240692
0.06926262378692627 0.43032574653625488 0.03370317816734314
0.12812060117721558 0.41991829872131348 0.02973601408302784
0.19541274011135101 0.41712841391563416 0.030766669660806656
0.27736645936965942 0.42061468958854675 0.032688021659851074
0.37388354539871216 0.42697915434837341 0.029588885605335236
0.48025229573249817 0.42391955852508545 0.030191324651241302
0.59394192695617676 0.42368623614311218 0.030367787927389145
0.70071548223495483 0.42168229818344116 0.030487779527902603
0.79435437917709351 0.41793864965438843 0.030781570822000504
0.86953532695770264 0.42727246880531311 0.030774869024753571
0.92624509334564209 0.43263238668441772 0.030972110107541084
0.96924060583114624 0.42769244313240051 0.033606108278036118
0.027467181906104088 0.59641200304031372 0.034267857670783997
0.069616101682186127 0.59452193975448608 0.029521329328417778
0.12779736518859863 0.59064877033233643 0.027631752192974091
0.19519500434398651 0.59212791919708252 0.028031382709741592
0.2769019603729248 0.59215432405471802 0.027834020555019379
0.3727506697177887 0.59136438369750977 0.02596760168671608
0.48032507300376892 0.59164875745773315 0.027190638706088066
0.59277546405792236 0.59475159645080566 0.028954749926924706
0.69952458143234253 0.59010601043701172 0.030412232503294945
0.7944953441619873 0.59337562322616577 0.028248222544789314
0.86855816841125488 0.59647315740585327 0.029189091175794601
0.92662566900253296 0.60111916065216064 0.031097156926989555
0.96982288360595703 0.59838920831680298 0.032900538295507431
0.029525188729166985 0.70674985647201538 0.036222405731678009
0.070854023098945618 0.70994287729263306 0.029476465657353401
0.12632067501544952 0.71081167459487915 0.029533984139561653
0.19497504830360413 0.71288645267486572 0.02980550192296505
0.28068774938583374 0.70885258913040161 0.028115740045905113
0.37228637933731079 0.7087705135345459 0.02440960519015789
0.48295038938522339 0.70612144470214844 0.026577593758702278
0.59437137842178345 0.70740813016891479 0.029192816466093063
0.69954293966293335 0.70693010091781616 0.03191770613193512
0.79489541053771973 0.70830667018890381 0.026798412203788757
0.86824202537536621 0.70885324478149414 0.028433466330170631
0.92657661437988281 0.7119794487953186 0.030862456187605858
0.97059398889541626 0.71305078268051147 0.029048815369606018
0.024909060448408127 0.77744132280349731 0.0331076979637146
0.071051262319087982 0.77446049451828003 0.033075504004955292
0.12684944272041321 0.77382522821426392 0.03365752100944519
0.19453889131546021 0.77914929389953613 0.032788790762424469
0.28143477439880371 0.77763277292251587 0.029313480481505394
0.3733479380607605 0.77576833963394165 0.024698056280612946
0.48425117135047913 0.77551925182342529 0.026001261547207832
0.59410959482192993 0.77699631452560425 0.025791257619857788
0.69466912746429443 0.77367293834686279 0.028092941269278526
0.79178535938262939 0.77451580762863159 0.027419714257121086
0.86815130710601807 0.77251285314559937 0.029639046639204025
0.92567354440689087 0.77312260866165161 0.02861531637609005
0.96804153919219971 0.77738350629806519 0.023287978023290634
0.023404169827699661 0.81370574235916138 0.033804532140493393
0.070941045880317688 0.81193149089813232 0.036149941384792328
0.12649501860141754 0.81016278266906738 0.03703581914305687
0.19431215524673462 0.80976170301437378 0.035233605653047562
0.27950069308280945 0.80990093946456909 0.031298916786909103
0.37323439121246338 0.8108333945274353 0.026843620464205742
0.48423478007316589 0.80906933546066284 0.027367999777197838
0.5923343300819397 0.80957114696502686 0.027123050764203072
0.69241529703140259 0.80688142776489258 0.02965913712978363
0.78633308410644531 0.80623698234558105 0.032829046249389648
0.86678922176361084 0.80689144134521484 0.034334715455770493
0.92374080419540405 0.80478042364120483 0.029811978340148926
0.96456611156463623 0.80581635236740112 0.0260440893471241
0.024536911398172379 0.82158744335174561 0.037146952003240585
0.069697856903076172 0.82161730527877808 0.03451870009303093
0.12776210904121399 0.82089465856552124 0.035881474614143372
0.19638445973396301 0.82105231285095215 0.035153646022081375
0.27410194277763367 0.8226621150970459 0.028860503807663918
0.37427642941474915 0.82154804468154907 0.030919872224330902
0.48086100816726685 0.8217816948890686 0.032705284655094147
0.58978068828582764 0.82211434841156006 0.030262397602200508
0.69524127244949341 0.82146298885345459 0.029583664610981941
0.78992503881454468 0.82075560092926025 0.035676438361406326
0.86479377746582031 0.81903684139251709 0.036834716796875
0.9215543270111084 0.81721657514572144 0.035929854959249496
0.96467131376266479 0.81866824626922607 0.031797371804714203
0.024561190977692604 0.82352942228317261 0.031418878585100174
0.069651059806346893 0.82320499420166016 0.032342500984668732
0.12592616677284241 0.82220762968063354 0.033384568989276886
0.19572585821151733 0.82349556684494019 0.034339066594839096
0.27472096681594849 0.82479912042617798 0.031306426972150803
0.37125721573829651 0.82462811470031738 0.031841788440942764
0.47775748372077942 0.82558625936508179 0.032628633081912994
0.58840584754943848 0.82695102691650391 0.030748508870601654
0.69601297378540039 0.82687568664550781 0.032694108784198761
0.79408878087997437 0.82649773359298706 0.035111192613840103
0.86741769313812256 0.82371503114700317 0.034166596829891205
0.92106741666793823 0.82311302423477173 0.036307405680418015
0.96706712245941162 0.82405024766921997 0.033079095184803009
0.023509291931986809 0.82350140810012817 0.026267481967806816
0.067501679062843323 0.82093995809555054 0.029922904446721077
0.12370472401380539 0.81963515281677246 0.031457535922527313
0.19719181954860687 0.82072305679321289 0.036864832043647766
0.27960804104804993 0.82256686687469482 0.03937796875834465
0.3730614185333252 0.82214468717575073 0.031799107789993286
0.47751286625862122 0.82349658012390137 0.031144415959715843
0.5891684889793396 0.82470077276229858 0.032028723508119583
0.69843870401382446 0.82351148128509521 0.035012278705835342
0.79566580057144165 0.82381552457809448 0.033004313707351685
0.8690221905708313 0.82377678155899048 0.032662380486726761
0.92254805564880371 0.82348084449768066 0.033792890608310699
0.97225546836853027 0.82352942228317261 0.03173644095659256
0.021099809557199478 0.82145613431930542 0.03620452806353569
0.064878605306148529 0.81961214542388916 0.031780093908309937
0.1240302175283432 0.81960785388946533 0.033562738448381424
0.19632174074649811 0.81995075941085815 0.039312578737735748
0.28107136487960815 0.81992417573928833 0.038775023072957993
0.37291061878204346 0.81960910558700562 0.032124076038599014
0.47568047046661377 0.82071948051452637 0.031105954200029373
0.58702564239501953 0.82242071628570557 0.032975617796182632
0.70109039545059204 0.82050752639770508 0.029986154288053513
0.79197978973388672 0.81991392374038696 0.032319910824298859
0.86667877435684204 0.81965488195419312 0.031617123633623123
0.92455601692199707 0.82236665487289429 0.036278203129768372
0.97236162424087524 0.82352942228317261 0.036007300019264221
0.024973116815090179 0.0090605048462748528 0.07475695013999939
0.070579394698143005 0.0085929566994309425 0.079508058726787567
0.12669935822486877 0.0058817993849515915 0.078623302280902863
0.19479453563690186 0.011170734651386738 0.081735916435718536
0.27666053175926208 0.012862635776400566 0.0832047238945961
0.37399393320083618 0.0097821401432156563 0.080274723470211029
0.47849437594413757 0.0077696256339550018 0.077581934630870819
0.58761632442474365 0.0078498246148228645 0.07682926207780838
0.69819897413253784 0.0075266221538186073 0.077110216021537781
0.79146784543991089 0.0082491552457213402 0.077435843646526337
0.86595368385314941 0.0065650041215121746 0.076375626027584076
0.92356634140014648 0.0081867296248674393 0.078206472098827362
0.96770429611206055 0.006494858767837286 0.080164708197116852
0.026749718934297562 0.03677990660071373 0.082241937518119812
0.072997026145458221 0.034715104848146439 0.08310738205909729
0.1274862140417099 0.032466605305671692 0.080430410802364349
0.19506019353866577 0.037891432642936707 0.080634713172912598
0.27668654918670654 0.038588892668485641 0.082229122519493103
0.37355759739875793 0.037239536643028259 0.083740442991256714
0.47972813248634338 0.037083972245454788 0.080286405980587006
0.59084391593933105 0.03011748380959034 0.07613016664981842
0.69618207216262817 0.031142409890890121 0.079509824514389038
0.7886849045753479 0.036359794437885284 0.076609320938587189
0.86681389808654785 0.03369884192943573 0.075176000595092773
0.92603373527526855 0.031317826360464096 0.077666774392127991
0.96956557035446167 0.031894009560346603 0.080418653786182404
0.026192639023065567 0.101992167532444 0.078631140291690826
0.070305876433849335 0.099943794310092926 0.078527309000492096
0.1266341358423233 0.098002821207046509 0.076168403029441833
0.19477890431880951 0.09788244217634201 0.075969040393829346
0.27934673428535461 0.096533440053462982 0.076428674161434174
0.37521037459373474 0.096504777669906616 0.078504927456378937
0.47875943779945374 0.095411188900470734 0.077139712870121002
0.59091877937316895 0.098127745091915131 0.073722586035728455
0.6977502703666687 0.1021515354514122 0.076891429722309113
0.7935183048248291 0.098176904022693634 0.073482081294059753
0.86887937784194946 0.095012500882148743 0.073608756065368652
0.92900383472442627 0.093920491635799408 0.076323024928569794
0.96947526931762695 0.10229960083961487 0.080491639673709869
0.024555789306759834 0.23650820553302765 0.074866637587547302
0.068498231470584869 0.23452761769294739 0.075256571173667908
0.12776359915733337 0.23563048243522644 0.074484415352344513
0.19701816141605377 0.23479345440864563 0.077152833342552185
0.28055772185325623 0.23370403051376343 0.073531389236450195
0.37241554260253906 0.23118649423122406 0.075203701853752136
0.47715145349502563 0.23316428065299988 0.075845099985599518
0.58904623985290527 0.23648244142532349 0.072564922273159027
0.69696635007858276 0.24032524228096008 0.073422826826572418
0.79627686738967896 0.23531906306743622 0.071466915309429169
0.86910808086395264 0.23705990612506866 0.074605710804462433
0.92909371852874756 0.2349611222743988 0.077816173434257507
