assets/lut/others natural vivid.cube
# Created by: G'MIC (https://gmic.eu)
TITLE "natural_vivid"
# LUT size
LUT_3D_SIZE 13
# Data domain
DOMAIN_MIN 0.0 0.0 0.0
DOMAIN_MAX 1.0 1.0 1.0
# LUT data points
0.048474524170160294 0.055370539426803589 0.18709363043308258
0.088975705206394196 0.061154190450906754 0.18966148793697357
0.14196003973484039 0.067483149468898773 0.19249337911605835
0.20858095586299896 0.071567922830581665 0.19434908032417297
0.2895471453666687 0.072379857301712036 0.19294543564319611
0.38297873735427856 0.070396602153778076 0.18653188645839691
0.47633504867553711 0.068918205797672272 0.18225492537021637
0.56405097246170044 0.069549083709716797 0.18472592532634735
0.64393043518066406 0.071101963520050049 0.18841607868671417
0.71304780244827271 0.072526685893535614 0.19092193245887756
0.76933133602142334 0.072406113147735596 0.19061420857906342
0.81473493576049805 0.070324257016181946 0.18946078419685364
0.85531973838806152 0.066857360303401947 0.19016128778457642
0.04994494840502739 0.11517124623060226 0.1871737539768219
0.088676020503044128 0.11866637319326401 0.1898186206817627
0.14109385013580322 0.12200038880109787 0.19296109676361084
0.20845967531204224 0.12280566990375519 0.19450680911540985
0.29100874066352844 0.12012138962745667 0.19367900490760803
0.38275140523910522 0.11807189881801605 0.1894608736038208
0.47515282034873962 0.11814249306917191 0.18594391644001007
0.56304705142974854 0.11840716749429703 0.18601956963539124
0.64299595355987549 0.11943652480840683 0.18696829676628113
0.71206766366958618 0.12002208828926086 0.18772810697555542
0.76988273859024048 0.11971209943294525 0.18884555995464325
0.8172498345375061 0.11871055513620377 0.18983633816242218
0.8583492636680603 0.11911972612142563 0.19235920906066895
0.053700599819421768 0.18252857029438019 0.1859680563211441
0.09132646769285202 0.18441535532474518 0.18900547921657562
0.14260558784008026 0.18476311862468719 0.19203539192676544
0.20883253216743469 0.18266952037811279 0.19368456304073334
0.29111292958259583 0.17964443564414978 0.19282680749893188
0.38164243102073669 0.17868852615356445 0.18973042070865631
0.47384253144264221 0.17917004227638245 0.18694527447223663
0.56164026260375977 0.17859245836734772 0.18632605671882629
0.64095085859298706 0.17836259305477142 0.18550337851047516
0.71141093969345093 0.17756466567516327 0.18583486974239349
0.76978898048400879 0.17728306353092194 0.18830467760562897
0.81828856468200684 0.17778597772121429 0.19193199276924133
0.85906863212585449 0.17995533347129822 0.19678469002246857
0.058112230151891708 0.25391072034835815 0.18402878940105438
0.093886628746986389 0.25500714778900146 0.18686303496360779
0.14299604296684265 0.25345239043235779 0.18977643549442291
0.20817062258720398 0.25093162059783936 0.1912597268819809
0.28998041152954102 0.24913232028484344 0.1905924528837204
0.3807976245880127 0.24984622001647949 0.18815283477306366
0.47338610887527466 0.25040611624717712 0.18588635325431824
0.56186765432357788 0.24920172989368439 0.18562419712543488
0.64225190877914429 0.24799209833145142 0.18533402681350708
0.71156704425811768 0.24726574122905731 0.18546260893344879
0.76922076940536499 0.24705594778060913 0.18785688281059265
0.81756514310836792 0.24756786227226257 0.19242140650749207
0.85906863212585449 0.24952533841133118 0.19793461263179779
0.061530362814664841 0.32660326361656189 0.18183021247386932
0.095007531344890594 0.32764467597007751 0.18483364582061768
0.1428554356098175 0.32621416449546814 0.18767200410366058
0.20778186619281769 0.32415983080863953 0.1895165741443634
0.28962355852127075 0.32401961088180542 0.18973168730735779
0.38236519694328308 0.3243165910243988 0.18857771158218384
0.47526469826698303 0.32506182789802551 0.18670748174190521
0.56385660171508789 0.3241468071937561 0.18651528656482697
0.6440354585647583 0.32401961088180542 0.18659035861492157
0.71215248107910156 0.32390543818473816 0.18674106895923615
0.76872855424880981 0.32339957356452942 0.18725895881652832
0.81592828035354614 0.32371765375137329 0.18972796201705933
0.85878205299377441 0.32409292459487915 0.19358876347541809
0.06069323793053627 0.40050581097602844 0.18079249560832977
0.09381452202796936 0.40187820792198181 0.1837049126625061
0.14157521724700928 0.40138694643974304 0.1866094172000885
0.20778186619281769 0.40070801973342896 0.18853403627872467
0.29032307863235474 0.39901196956634521 0.18960964679718018
0.38388481736183167 0.3993898332118988 0.19087649881839752
0.47850370407104492 0.40115547180175781 0.18989670276641846
0.56587857007980347 0.40122547745704651 0.18828247487545013
0.64430683851242065 0.40122547745704651 0.18745420873165131
0.71185761690139771 0.40122547745704651 0.18657518923282623
0.76777440309524536 0.40122547745704651 0.18567711114883423
0.81494361162185669 0.40128383040428162 0.18600927293300629
0.85582327842712402 0.40168038010597229 0.18723151087760925
0.057977326214313507 0.47587108612060547 0.18138252198696136
0.092384859919548035 0.47769841551780701 0.18477219343185425
0.13996309041976929 0.4784088134765625 0.18749737739562988
0.207049161195755 0.47754496335983276 0.18779240548610687
0.28942793607711792 0.47578203678131104 0.18766501545906067
0.38380897045135498 0.47582384943962097 0.1886885017156601
0.47900295257568359 0.47821629047393799 0.18916602432727814
0.56685525178909302 0.47843137383460999 0.18871966004371643
0.64455580711364746 0.47843137383460999 0.18806000053882599
0.71121156215667725 0.47843137383460999 0.18662826716899872
0.76672381162643433 0.47843137383460999 0.18484413623809814
0.8141365647315979 0.48004835844039917 0.18250337243080139
0.85514706373214722 0.48196756839752197 0.18117727339267731
0.05944393202662468 0.5526997447013855 0.18469761312007904
0.092918425798416138 0.55404353141784668 0.18845367431640625
0.14029210805892944 0.5546308159828186 0.1896531730890274
0.20696771144866943 0.55397915840148926 0.18794098496437073
0.28826066851615906 0.55274391174316406 0.18542741239070892
0.38148769736289978 0.55325299501419067 0.18543516099452972
0.47842904925346375 0.55544978380203247 0.1878584623336792
0.56735968589782715 0.55563724040985107 0.18919366598129272
0.6446419358253479 0.55563724040985107 0.18862085044384003
0.71082007884979248 0.55563431978225708 0.18666289746761322
0.76648092269897461 0.55560225248336792 0.18426051735877991
0.81387108564376831 0.55629426240921021 0.18095214664936066
0.85514706373214722 0.55723458528518677 0.17784659564495087
0.063818745315074921 0.62809032201766968 0.18735016882419586
0.095265753567218781 0.62918597459793091 0.19041700661182404
0.14273490011692047 0.62930560111999512 0.19106602668762207
0.20822258293628693 0.62844675779342651 0.18908779323101044
0.290129154920578 0.62744009494781494 0.1870100200176239
0.38292157649993896 0.62780869007110596 0.18654602766036987
0.4784264862537384 0.62938547134399414 0.18868124485015869
0.56719660758972168 0.63053721189498901 0.18975444138050079
0.64435040950775146 0.63072717189788818 0.18873144686222076
0.7104640007019043 0.63011050224304199 0.18610785901546478
0.76670092344284058 0.62917661666870117 0.18372687697410583
0.81446653604507446 0.62885534763336182 0.18085387349128723
0.85514706373214722 0.62787717580795288 0.17864011228084564
0.064348690211772919 0.69712835550308228 0.18615506589412689
0.097041547298431396 0.69887924194335938 0.18762390315532684
0.14296920597553253 0.69908088445663452 0.18888449668884277
0.20898036658763885 0.69798523187637329 0.18997323513031006
0.29192212224006653 0.69664120674133301 0.18973754346370697
0.3834785521030426 0.6964605450630188 0.18929751217365265
0.4774327278137207 0.69683182239532471 0.19019982218742371
0.56596416234970093 0.69762015342712402 0.19018404185771942
0.64377319812774658 0.69877147674560547 0.18791601061820984
0.71033746004104614 0.69854837656021118 0.18492519855499268
0.76729243993759155 0.69689100980758667 0.18327400088310242
0.81520092487335205 0.695587158203125 0.18138894438743591
0.85686510801315308 0.69325578212738037 0.18012680113315582
0.062076836824417114 0.75718897581100464 0.18368141353130341
0.094322726130485535 0.75887531042098999 0.18446369469165802
0.14075487852096558 0.75894606113433838 0.18635976314544678
0.20711381733417511 0.75858122110366821 0.18887951970100403
0.28971007466316223 0.75738269090652466 0.19080263376235962
0.38110435009002686 0.75713455677032471 0.19104981422424316
0.47528278827667236 0.75666958093643188 0.19161964952945709
0.56458401679992676 0.75707638263702393 0.19057318568229675
0.64339935779571533 0.75803732872009277 0.18749517202377319
0.71079844236373901 0.75814193487167358 0.18457263708114624
0.76819473505020142 0.75669169425964355 0.18305325508117676
0.8160635232925415 0.75502282381057739 0.18212969601154327
0.85872089862823486 0.75249069929122925 0.18127790093421936
0.061883531510829926 0.80774736404418945 0.18572244048118591
0.093795403838157654 0.80935275554656982 0.18502563238143921
0.13989554345607758 0.80894261598587036 0.18573148548603058
0.20400770008563995 0.8079410195350647 0.18779881298542023
0.2856605052947998 0.80765938758850098 0.19030162692070007
0.37750428915023804 0.80800515413284302 0.19186021387577057
0.4729863703250885 0.80732202529907227 0.19253057241439819
0.56427192687988281 0.80724471807479858 0.19148001074790955
0.64456653594970703 0.80725812911987305 0.1889568418264389
0.71231704950332642 0.80727559328079224 0.18619956076145172
0.76923179626464844 0.80713504552841187 0.18449650704860687
0.81647765636444092 0.80648326873779297 0.18332357704639435
0.85824596881866455 0.80445277690887451 0.18233798444271088
0.064290545880794525 0.85165584087371826 0.19068093597888947
0.09656919538974762 0.85222643613815308 0.1883600652217865
0.14031502604484558 0.85123521089553833 0.18721325695514679
0.20296239852905273 0.85122549533843994 0.18755105137825012
0.28441426157951355 0.85122549533843994 0.1899624764919281
0.37605428695678711 0.85122549533843994 0.19200432300567627
0.47242629528045654 0.85122549533843994 0.1926470547914505
0.56420016288757324 0.85066163539886475 0.19247961044311523
0.64463639259338379 0.85082322359085083 0.19061240553855896
0.71211022138595581 0.8510323166847229 0.18794545531272888
0.76873219013214111 0.85058087110519409 0.18620935082435608
0.81555581092834473 0.85088711977005005 0.18493810296058655
0.85514706373214722 0.84970897436141968 0.18326407670974731
0.055235378444194794 0.055694341659545898 0.2409956306219101
0.09303264319896698 0.06281617283821106 0.24220344424247742
0.14320425689220428 0.069466397166252136 0.24360199272632599
0.20926490426063538 0.072666898369789124 0.24443431198596954
0.29113650321960449 0.072248391807079315 0.24332533776760101
0.38388481736183167 0.070986248552799225 0.2396853119134903
0.47694084048271179 0.070368796586990356 0.23794740438461304
0.56495100259780884 0.071019507944583893 0.23923541605472565
0.64436274766921997 0.071981571614742279 0.24113446474075317
0.71245366334915161 0.072647064924240112 0.24161361157894135
0.76896399259567261 0.072671569883823395 0.24112553894519806
0.81493628025054932 0.072310425341129303 0.24085505306720734
0.85631507635116577 0.069078840315341949 0.24283356964588165
0.057207547128200531 0.11531301587820053 0.24110725522041321
0.093750640749931335 0.11959720402956009 0.24304337799549103
0.14382463693618774 0.12236747145652771 0.24475988745689392
0.21038791537284851 0.12206823378801346 0.24580535292625427
0.29139542579650879 0.1202075406908989 0.24415069818496704
0.38355749845504761 0.11844784766435623 0.24200640618801117
0.47605755925178528 0.11943938583135605 0.24098116159439087
0.56460756063461304 0.120186947286129 0.23957927525043488
0.64341992139816284 0.12059009075164795 0.23787377774715424
0.71119004487991333 0.12016167491674423 0.23625701665878296
0.76970970630645752 0.11996277421712875 0.2387755960226059
0.81859034299850464 0.11945267021656036 0.24332685768604279
0.85906845331192017 0.11952034384012222 0.24639865756034851
0.058992482721805573 0.1843816339969635 0.23996719717979431
0.095158487558364868 0.18605810403823853 0.24225696921348572
0.14524459838867188 0.18475212156772614 0.24476747214794159
0.21170660853385925 0.18185831606388092 0.24608929455280304
0.29198938608169556 0.1791502982378006 0.24448771774768829
0.38260349631309509 0.17808796465396881 0.24262014031410217
0.47515195608139038 0.179258793592453 0.24181962013244629
0.56300586462020874 0.17915882170200348 0.23957008123397827
0.64183133840560913 0.17869752645492554 0.23606039583683014
0.7094460129737854 0.1776125431060791 0.23362059891223907
0.7692415714263916 0.1772531121969223 0.23720601201057434
0.81897366046905518 0.17739741504192352 0.24400527775287628
0.85906863212585449 0.17881649732589722 0.24871437251567841
0.060883000493049622 0.25815954804420471 0.23784264922142029
0.096152558922767639 0.2585427463054657 0.24013373255729675
0.14481934905052185 0.25488060712814331 0.24287766218185425
0.21065577864646912 0.25110161304473877 0.24416549503803253
0.29147565364837646 0.24829448759555817 0.24360328912734985
0.38217994570732117 0.24789135158061981 0.24203296005725861
0.4751008152961731 0.24807572364807129 0.24077589809894562
0.56367248296737671 0.2477312833070755 0.23872783780097961
0.64321458339691162 0.24741528928279877 0.23634032905101776
0.71130144596099854 0.24681144952774048 0.23490731418132782
0.76912945508956909 0.24587549269199371 0.23672734200954437
0.8179667592048645 0.24593649804592133 0.24202200770378113
0.85906863212585449 0.24745391309261322 0.24764937162399292
0.061767235398292542 0.33085447549819946 0.23525823652744293
0.09674341231584549 0.33163464069366455 0.23755057156085968
0.14342871308326721 0.32875946164131165 0.24019075930118561
0.20877303183078766 0.32511124014854431 0.24171727895736694
0.2909558117389679 0.32401961088180542 0.24187165498733521
0.38328486680984497 0.32328325510025024 0.24074412882328033
0.47629949450492859 0.32229942083358765 0.23965737223625183
0.56530660390853882 0.32151418924331665 0.23888984322547913
0.64444714784622192 0.32099780440330505 0.23751924932003021
0.71234863996505737 0.32041147351264954 0.23603011667728424
0.76899832487106323 0.32010763883590698 0.23589514195919037
0.81618714332580566 0.32019287347793579 0.23916170001029968
0.85826748609542847 0.32137322425842285 0.24409425258636475
0.061183899641036987 0.40417748689651489 0.23334632813930511
0.094107590615749359 0.40524625778198242 0.23569506406784058
0.14251609146595001 0.40466031432151794 0.23824155330657959
0.20796699821949005 0.40178215503692627 0.23961219191551208
0.29055371880531311 0.40122547745704651 0.23982653021812439
0.38388481736183167 0.40062347054481506 0.23960594832897186
0.4785500168800354 0.39885440468788147 0.2394573986530304
0.56718450784683228 0.3982490599155426 0.23949961364269257
0.6463085412979126 0.39843654632568359 0.23893652856349945
0.71245795488357544 0.39932426810264587 0.2373761385679245
0.76897346973419189 0.39957520365715027 0.23630274832248688
0.81545686721801758 0.39945775270462036 0.23739495873451233
0.85527992248535156 0.39949628710746765 0.23970957100391388
0.058872882276773453 0.47919857501983643 0.23279581964015961
0.093080498278141022 0.48117831349372864 0.23552076518535614
0.14086814224720001 0.48151609301567078 0.23761022090911865
0.20770321786403656 0.48020988702774048 0.23790271580219269
0.2895343005657196 0.47873726487159729 0.23690454661846161
0.38388481736183167 0.47848764061927795 0.23661437630653381
0.47913166880607605 0.47828680276870728 0.23760016262531281
0.56834161281585693 0.47779816389083862 0.23937562108039856
0.64643484354019165 0.47802707552909851 0.23960822820663452
0.71237742900848389 0.47842249274253845 0.23879528045654297
0.76831895112991333 0.47843137383460999 0.23725859820842743
0.81501924991607666 0.47851002216339111 0.23600435256958008
0.85514706373214722 0.47869497537612915 0.23560155928134918
0.060081034898757935 0.55579149723052979 0.23511131107807159
0.093312926590442657 0.55749422311782837 0.23722900450229645
0.1414371132850647 0.55824786424636841 0.23839740455150604
0.2077241837978363 0.55759775638580322 0.23716448247432709
0.28953894972801208 0.55672258138656616 0.23517961800098419
0.38388481736183167 0.5564119815826416 0.23469151556491852
0.47976180911064148 0.55581498146057129 0.23722577095031738
0.56897205114364624 0.55563724040985107 0.24027961492538452
0.64647328853607178 0.55564582347869873 0.24086548388004303
0.71238619089126587 0.55573993921279907 0.23970255255699158
0.76839905977249146 0.55563724040985107 0.23810908198356628
0.81506514549255371 0.55572158098220825 0.2356611043214798
0.85514706373214722 0.55588126182556152 0.23400735855102539
0.063026264309883118 0.63060617446899414 0.23725977540016174
0.095855489373207092 0.63169026374816895 0.23872187733650208
0.14308834075927734 0.63181102275848389 0.2389092892408371
0.20870316028594971 0.63156872987747192 0.23744666576385498
0.29136371612548828 0.63119328022003174 0.23592741787433624
0.38395026326179504 0.63097482919692993 0.23650127649307251
0.4804241955280304 0.63073301315307617 0.24030877649784088
0.57012456655502319 0.6307600736618042 0.24370686709880829
0.64720755815505981 0.63084065914154053 0.2427307516336441
0.71312648057937622 0.63074541091918945 0.24129499495029449
0.76929175853729248 0.62966823577880859 0.23839162290096283
0.81579840183258057 0.62916666269302368 0.23735533654689789
0.85514706373214722 0.62838625907897949 0.23427753150463104
0.063856862485408783 0.69887995719909668 0.23748405277729034
0.097181372344493866 0.69981616735458374 0.23765113949775696
0.14393758773803711 0.69981616735458374 0.23759707808494568
0.21039426326751709 0.69972896575927734 0.23735001683235168
0.29278188943862915 0.69939839839935303 0.23728059232234955
0.38466161489486694 0.6990547776222229 0.23835363984107971
0.48049080371856689 0.69775527715682983 0.2426770031452179
0.5700950026512146 0.69721138477325439 0.24568244814872742
0.64787834882736206 0.69793760776519775 0.24311269819736481
0.71471208333969116 0.69743579626083374 0.24155116081237793
0.77071362733840942 0.69615077972412109 0.23825426399707794
0.81698489189147949 0.69587093591690063 0.23792892694473267
0.85791695117950439 0.69465798139572144 0.23753978312015533
0.063056215643882751 0.75814926624298096 0.23707325756549835
0.096863463521003723 0.75894391536712646 0.23601366579532623
0.14325425028800964 0.75894606113433838 0.23594877123832703
0.2082672119140625 0.75894433259963989 0.23715981841087341
0.29034847021102905 0.75858980417251587 0.2383694052696228
0.3829079270362854 0.75816023349761963 0.23981960117816925
0.47830319404602051 0.75717443227767944 0.24286957085132599
0.56856906414031982 0.75622755289077759 0.24402940273284912
0.64763599634170532 0.75686699151992798 0.24209234118461609
0.71532964706420898 0.75655174255371094 0.23928295075893402
0.77165228128433228 0.75539290904998779 0.23792825639247894
0.81825250387191772 0.7550349235534668 0.23790818452835083
0.85904723405838013 0.75398349761962891 0.23792892694473267
0.062377691268920898 0.80843204259872437 0.23867185413837433
0.09599660336971283 0.80958819389343262 0.23671460151672363
0.14126811921596527 0.80907398462295532 0.23574118316173553
0.20511120557785034 0.80869847536087036 0.23682765662670135
0.28645199537277222 0.80824244022369385 0.23926863074302673
0.3791956901550293 0.80730670690536499 0.24147148430347443
0.47558915615081787 0.80685925483703613 0.24332581460475922
0.56690162420272827 0.80640089511871338 0.2432650625705719
0.64770865440368652 0.80669653415679932 0.24114513397216797
0.71561998128890991 0.80666154623031616 0.23837757110595703
0.77164727449417114 0.80634814500808716 0.23668408393859863
0.81815159320831299 0.80606555938720703 0.2362007200717926
0.85904997587203979 0.80529963970184326 0.23702225089073181
0.062174465507268906 0.85311460494995117 0.24230015277862549
0.096462175250053406 0.85342884063720703 0.23948304355144501
0.14129358530044556 0.85174185037612915 0.23651494085788727
0.2045702189207077 0.85122549533843994 0.23647624254226685
0.28513795137405396 0.85122549533843994 0.23948663473129272
0.37623399496078491 0.85099601745605469 0.24186396598815918
0.47254902124404907 0.85051411390304565 0.24320541322231293
0.56511342525482178 0.85039299726486206 0.24258333444595337
0.64619159698486328 0.85056793689727783 0.2406475692987442
0.7140008807182312 0.85061317682266235 0.23763188719749451
0.77008277177810669 0.85049057006835938 0.23501090705394745
0.81643587350845337 0.85071384906768799 0.23509098589420319
0.85645312070846558 0.85029304027557373 0.2357553094625473
0.061973720788955688 0.056033700704574585 0.2946465015411377
0.096914015710353851 0.063997991383075714 0.29411429166793823
0.14397977292537689 0.070889368653297424 0.29415121674537659
0.21012803912162781 0.073251493275165558 0.29495963454246521
0.29159483313560486 0.072405137121677399 0.29578301310539246
0.38381505012512207 0.071862161159515381 0.2958417534828186
0.47641080617904663 0.071993045508861542 0.2959233820438385
0.56511586904525757 0.072766892611980438 0.29678624868392944
0.64493191242218018 0.073133789002895355 0.29662954807281494
0.7134966254234314 0.072387844324111938 0.29578688740730286
0.76962763071060181 0.070707090198993683 0.29557383060455322
0.81631010770797729 0.069049134850502014 0.29585081338882446
0.85787439346313477 0.067165642976760864 0.29636678099632263
0.064165450632572174 0.1140919104218483 0.29503583908081055
0.097513593733310699 0.11907722800970078 0.29487952589988708
0.14599405229091644 0.12116061896085739 0.2963140606880188
0.21175220608711243 0.12170873582363129 0.29728800058364868
0.29202732443809509 0.12110945582389832 0.29720458388328552
0.3835718035697937 0.12088116258382797 0.29715192317962646
0.47620230913162231 0.12131842970848083 0.29852157831192017
0.56492084264755249 0.12196443974971771 0.29598549008369446
0.6437496542930603 0.12210473418235779 0.29300349950790405
0.71152669191360474 0.1213623508810997 0.29036363959312439
0.76943415403366089 0.12033054232597351 0.29212939739227295
0.81824684143066406 0.11818581074476242 0.29589042067527771
0.85900050401687622 0.11798997968435287 0.29769882559776306
0.063843593001365662 0.18398040533065796 0.29445123672485352
0.097893491387367249 0.18552638590335846 0.29530543088912964
0.14716775715351105 0.18334425985813141 0.29776731133460999
0.21290937066078186 0.18074274063110352 0.29841130971908569
0.29289215803146362 0.17956477403640747 0.29832729697227478
0.38344186544418335 0.17947258055210114 0.29869014024734497
0.47589680552482605 0.17982721328735352 0.2991851270198822
0.56434792280197144 0.18027323484420776 0.29548561573028564
0.64266955852508545 0.18056491017341614 0.29061165452003479
0.7098081111907959 0.18027982115745544 0.28799092769622803
0.76838386058807373 0.1795114129781723 0.28985092043876648
0.81732892990112305 0.17811734974384308 0.29509910941123962
0.85840779542922974 0.17826573550701141 0.29846689105033875
0.062914766371250153 0.25913667678833008 0.29241284728050232
0.097696118056774139 0.25924336910247803 0.29384070634841919
0.14691494405269623 0.25472539663314819 0.29633352160453796
0.21240392327308655 0.2505551278591156 0.29771178960800171
0.29285231232643127 0.24805529415607452 0.29755896329879761
0.38329952955245972 0.24758166074752808 0.29682233929634094
0.47577059268951416 0.24720561504364014 0.29615890979766846
0.56454455852508545 0.24721761047840118 0.29429236054420471
0.64333987236022949 0.24802228808403015 0.29079064726829529
0.71121758222579956 0.24875764548778534 0.28812879323959351
0.76861995458602905 0.24822360277175903 0.28928324580192566
0.81620323657989502 0.24676874279975891 0.29369065165519714
0.85723495483398438 0.24671600759029388 0.29781118035316467
0.062627591192722321 0.33209717273712158 0.29060843586921692
0.097193397581577301 0.33270519971847534 0.29183760285377502
0.14519003033638 0.32933047413825989 0.29379811882972717
0.21108874678611755 0.32583039999008179 0.29524534940719604
0.29165104031562805 0.32380932569503784 0.29533439874649048
0.38354450464248657 0.32053655385971069 0.29481202363967896
0.47629231214523315 0.31982490420341492 0.29428309202194214
