assets/lut/others nostalgic.cube
# Created by: G'MIC (https://gmic.eu)
TITLE "nostalgic"
# LUT size
LUT_3D_SIZE 7
# Data domain
DOMAIN_MIN 0.0 0.0 0.0
DOMAIN_MAX 1.0 1.0 1.0
# LUT data points
0.1592702716588974 0.026398992165923119 0.14039114117622375
0.25076696276664734 0.029231306165456772 0.14207917451858521
0.37889081239700317 0.028939146548509598 0.14043527841567993
0.57952731847763062 0.028178824111819267 0.14150352776050568
0.82291775941848755 0.026142479851841927 0.14131917059421539
0.96426832675933838 0.026071270927786827 0.14138743281364441
1 0.028409875929355621 0.14285941421985626
0.16207221150398254 0.14447599649429321 0.13925015926361084
0.2518896758556366 0.15254378318786621 0.14213888347148895
0.38575762510299683 0.15128077566623688 0.14349646866321564
0.56215381622314453 0.13434591889381409 0.1413581371307373
0.82086879014968872 0.13971088826656342 0.14269062876701355
0.97371578216552734 0.14106841385364532 0.14182139933109283
0.9986223578453064 0.13908863067626953 0.14328806102275848
0.17060106992721558 0.3402552604675293 0.14811500906944275
0.25285285711288452 0.3355553150177002 0.14317883551120758
0.37536287307739258 0.33132538199424744 0.14121212065219879
0.56670749187469482 0.32831498980522156 0.14498205482959747
0.81769222021102905 0.33355456590652466 0.14808505773544312
0.9741518497467041 0.3341062068939209 0.144176185131073
0.99827522039413452 0.35514736175537109 0.14337922632694244
0.16298715770244598 0.5806577205657959 0.14791300892829895
0.25609579682350159 0.57361435890197754 0.15237970650196075
0.38424351811408997 0.57182019948959351 0.14837953448295593
0.55944275856018066 0.57440811395645142 0.14492884278297424
0.80933326482772827 0.56759285926818848 0.14818534255027771
0.97455888986587524 0.57715171575546265 0.14534738659858704
0.99971508979797363 0.57856446504592896 0.14203095436096191
0.15898711979389191 0.75721174478530884 0.14375326037406921
0.2568412721157074 0.75935548543930054 0.1500956267118454
0.38081711530685425 0.76130253076553345 0.14434099197387695
0.56629246473312378 0.75792783498764038 0.15262514352798462
0.81126290559768677 0.76360785961151123 0.15391704440116882
0.97597533464431763 0.77408379316329956 0.1497434675693512
0.99849849939346313 0.76313704252243042 0.14469523727893829
0.16276964545249939 0.86693209409713745 0.15108934044837952
0.25525003671646118 0.87480455636978149 0.15190044045448303
0.38778278231620789 0.88343268632888794 0.14521917700767517
0.5791391134262085 0.87878823280334473 0.15027761459350586
0.82510966062545776 0.8885309100151062 0.14582543075084686
0.97620916366577148 0.88673073053359985 0.15513046085834503
0.99585568904876709 0.88314735889434814 0.14449301362037659
0.15940172970294952 0.95404452085494995 0.14584572613239288
0.25947624444961548 0.9496685266494751 0.15125484764575958
0.38826733827590942 0.9566609263420105 0.14435255527496338
0.59098827838897705 0.96017390489578247 0.14755381643772125
0.83230853080749512 0.96145182847976685 0.15053179860115051
0.97321659326553345 0.95641744136810303 0.14437003433704376
0.98603832721710205 0.94785594940185547 0.14871424436569214
0.16676144301891327 0.030444486066699028 0.21504756808280945
0.25337028503417969 0.030664840713143349 0.21767005324363708
0.39047655463218689 0.0321945920586586 0.21517005562782288
0.57890862226486206 0.026841422542929649 0.20707927644252777
0.81782454252243042 0.025741292163729668 0.20639142394065857
0.96908366680145264 0.024798315018415451 0.2069639265537262
0.99819201231002808 0.024474289268255234 0.20702771842479706
0.1635938435792923 0.14195717871189117 0.21139006316661835
0.2559514045715332 0.15603688359260559 0.21536117792129517
0.3849671483039856 0.15196463465690613 0.21579945087432861
0.57863456010818481 0.14676286280155182 0.21006029844284058
0.82601499557495117 0.1416194885969162 0.21263636648654938
0.96403807401657104 0.14081290364265442 0.21149022877216339
0.99801462888717651 0.13895590603351593 0.20813107490539551
0.16212241351604462 0.34320864081382751 0.2134014368057251
0.25346285104751587 0.34967374801635742 0.21745938062667847
0.38499566912651062 0.34332719445228577 0.21491673588752747
0.58664214611053467 0.36338436603546143 0.21687138080596924
0.82769417762756348 0.35733127593994141 0.2158166915178299
0.97478914260864258 0.33963093161582947 0.2094101756811142
0.99853503704071045 0.35714402794837952 0.20959581434726715
0.16089870035648346 0.6007809042930603 0.21474425494670868
0.25148710608482361 0.60792320966720581 0.22288011014461517
0.39028063416481018 0.60015225410461426 0.21695707738399506
0.59254938364028931 0.60181981325149536 0.21567977964878082
0.83259230852127075 0.59831780195236206 0.21178853511810303
0.97236520051956177 0.60040473937988281 0.21451407670974731
0.9989362359046936 0.58607941865921021 0.2092815637588501
0.16130255162715912 0.78269261121749878 0.22257958352565765
0.25171282887458801 0.76577818393707275 0.22217147052288055
0.38591101765632629 0.76491528749465942 0.21497222781181335
0.59324508905410767 0.77611690759658813 0.21769201755523682
0.82295173406600952 0.77493619918823242 0.21302007138729095
0.97252398729324341 0.77561461925506592 0.21396945416927338
0.99934673309326172 0.77230513095855713 0.21106584370136261
0.16453102231025696 0.8830375075340271 0.22396625578403473
0.25371941924095154 0.88329672813415527 0.2282203733921051
0.39401739835739136 0.88759273290634155 0.21660290658473969
0.59396135807037354 0.89576959609985352 0.21607394516468048
0.83506673574447632 0.89483475685119629 0.21481546759605408
0.97285217046737671 0.88784629106521606 0.21423253417015076
0.99654358625411987 0.88614106178283691 0.21106408536434174
0.16138128936290741 0.95511424541473389 0.22239114344120026
0.25981390476226807 0.95162928104400635 0.23612275719642639
0.39003843069076538 0.95654177665710449 0.22678466141223907
0.58526992797851562 0.95913517475128174 0.21341182291507721
0.83040481805801392 0.96117520332336426 0.2168196439743042
0.95917564630508423 0.95207959413528442 0.2180429995059967
0.99516415596008301 0.95483726263046265 0.21070541441440582
0.16092361509799957 0.024922538548707962 0.35209140181541443
0.25662052631378174 0.030980877578258514 0.35014957189559937
0.3965994119644165 0.033167116343975067 0.35323134064674377
0.59537243843078613 0.02770569734275341 0.35481250286102295
0.83902192115783691 0.026618104428052902 0.35609123110771179
0.97680556774139404 0.026744363829493523 0.34082704782485962
1 0.025347346439957619 0.33839631080627441
0.1615309864282608 0.15353840589523315 0.36335018277168274
0.25306490063667297 0.1501767635345459 0.34908494353294373
0.39930650591850281 0.15385574102401733 0.36255398392677307
0.59116494655609131 0.15180633962154388 0.35156610608100891
0.83403682708740234 0.15162265300750732 0.35594463348388672
0.97486674785614014 0.14442630112171173 0.34481638669967651
0.9986419677734375 0.145557701587677 0.34551683068275452
0.16270200908184052 0.36746838688850403 0.36124679446220398
0.25542399287223816 0.36385127902030945 0.36502957344055176
0.39816012978553772 0.36517202854156494 0.36735320091247559
0.60400491952896118 0.36762624979019165 0.36006492376327515
0.83748620748519897 0.36676767468452454 0.35702565312385559
0.97372990846633911 0.35761538147926331 0.34610763192176819
0.99953526258468628 0.35082253813743591 0.34281381964683533
0.16321834921836853 0.61427366733551025 0.36390829086303711
0.25575694441795349 0.61391592025756836 0.36873221397399902
0.40140077471733093 0.61266964673995972 0.36505919694900513
0.60800939798355103 0.61619836091995239 0.36182734370231628
0.8356325626373291 0.61407899856567383 0.35522907972335815
0.9805757999420166 0.60577338933944702 0.35628098249435425
0.99976640939712524 0.60556411743164062 0.3487095832824707
0.16161002218723297 0.78438878059387207 0.36150041222572327
0.25854995846748352 0.79048490524291992 0.37190660834312439
0.39295762777328491 0.78835576772689819 0.36964190006256104
0.6027451753616333 0.78729128837585449 0.36294752359390259
0.83903896808624268 0.78841066360473633 0.36237272620201111
0.97368764877319336 0.78429156541824341 0.35714101791381836
1 0.77779042720794678 0.3478248119354248
0.16367585957050323 0.89866268634796143 0.37310969829559326
0.25822114944458008 0.8929450511932373 0.36369752883911133
0.40027657151222229 0.89557057619094849 0.37328124046325684
0.60331934690475464 0.89494478702545166 0.3637143075466156
0.84132355451583862 0.89735662937164307 0.36157909035682678
0.97818964719772339 0.89274615049362183 0.35835349559783936
0.99955016374588013 0.8887939453125 0.34987148642539978
0.1606573760509491 0.96424984931945801 0.37498408555984497
0.25723013281822205 0.95587664842605591 0.36925297975540161
0.39001739025115967 0.9643247127532959 0.35765409469604492
0.60623157024383545 0.96583396196365356 0.37163048982620239
0.83361822366714478 0.96403020620346069 0.36492332816123962
0.97862786054611206 0.96221351623535156 0.35731151700019836
0.99999135732650757 0.96055954694747925 0.35520976781845093
0.16227389872074127 0.031557314097881317 0.55686122179031372
0.26298126578330994 0.032720975577831268 0.55743962526321411
0.40181922912597656 0.029006075114011765 0.54749876260757446
0.61274081468582153 0.029946645721793175 0.54559183120727539
0.83493590354919434 0.033464618027210236 0.54545801877975464
0.97396177053451538 0.032428622245788574 0.54329109191894531
0.99985760450363159 0.032539039850234985 0.53620797395706177
0.16297805309295654 0.15324679017066956 0.55779087543487549
0.25975725054740906 0.16039746999740601 0.56366986036300659
0.4014800488948822 0.15202033519744873 0.5445486307144165
0.60714608430862427 0.15505751967430115 0.54527246952056885
0.84278684854507446 0.15180577337741852 0.54412239789962769
0.98052912950515747 0.15193638205528259 0.53975039720535278
0.99992620944976807 0.1459709107875824 0.53183507919311523
0.161953404545784 0.37307223677635193 0.55528837442398071
0.25637590885162354 0.37385973334312439 0.55417424440383911
0.40045091509819031 0.37388262152671814 0.55919921398162842
0.6133912205696106 0.36915111541748047 0.54688495397567749
0.84137767553329468 0.38287302851676941 0.54807794094085693
0.98104310035705566 0.36788854002952576 0.54127931594848633
0.99997740983963013 0.36527323722839355 0.53428918123245239
0.15981625020503998 0.61325877904891968 0.55161517858505249
0.25912722945213318 0.62108570337295532 0.55843049287796021
0.39890044927597046 0.61319267749786377 0.55350029468536377
0.60606598854064941 0.62348788976669312 0.55098795890808105
0.84129738807678223 0.61813521385192871 0.54536896944046021
0.98003792762756348 0.60997390747070312 0.53759908676147461
0.99994450807571411 0.61217713356018066 0.53795367479324341
0.16236463189125061 0.78655081987380981 0.55269914865493774
0.2585957944393158 0.79630738496780396 0.55823701620101929
0.39690503478050232 0.78878086805343628 0.55737137794494629
0.61741071939468384 0.79184150695800781 0.55593103170394897
0.84086257219314575 0.79594272375106812 0.55047774314880371
0.97739547491073608 0.7857435941696167 0.53751391172409058
0.99928867816925049 0.78381943702697754 0.53801846504211426
0.16682706773281097 0.89755505323410034 0.55728232860565186
0.2588881254196167 0.90067088603973389 0.56704437732696533
0.40661463141441345 0.89965593814849854 0.56256794929504395
0.60830473899841309 0.89942371845245361 0.55201327800750732
0.84602206945419312 0.89806169271469116 0.54843020439147949
0.98198336362838745 0.89915567636489868 0.53973186016082764
0.99972426891326904 0.89511710405349731 0.53701996803283691
0.16074864566326141 0.96596163511276245 0.55656766891479492
0.25481042265892029 0.96512520313262939 0.55271297693252563
0.4022311270236969 0.96733307838439941 0.54866749048233032
0.60392051935195923 0.96712440252304077 0.54609793424606323
0.84394007921218872 0.96671313047409058 0.54336380958557129
0.98085087537765503 0.96338462829589844 0.54147541522979736
0.99880039691925049 0.95980584621429443 0.54353237152099609
0.16696146130561829 0.030595801770687103 0.68868339061737061
0.25596946477890015 0.031989797949790955 0.68101924657821655
0.4047664999961853 0.03360341489315033 0.69494658708572388
0.59781038761138916 0.02745208702981472 0.68149161338806152
0.84001803398132324 0.030289085581898689 0.69233739376068115
0.97410786151885986 0.037795450538396835 0.69983994960784912
0.99843859672546387 0.033554524183273315 0.68439078330993652
0.16436772048473358 0.15405675768852234 0.6906089186668396
0.25668814778327942 0.15546156466007233 0.68189859390258789
0.39630943536758423 0.15215398371219635 0.6891750693321228
0.61438030004501343 0.15035796165466309 0.69041621685028076
0.84279423952102661 0.1623113751411438 0.69478374719619751
0.97194689512252808 0.15345446765422821 0.6848863959312439
0.99843919277191162 0.15525057911872864 0.68324220180511475
0.15968456864356995 0.35552358627319336 0.68528264760971069
0.25435486435890198 0.36070844531059265 0.68742561340332031
0.40025666356086731 0.37206950783729553 0.69137614965438843
0.60667961835861206 0.37169867753982544 0.68791604042053223
0.84359896183013916 0.37383195757865906 0.6905369758605957
0.97786915302276611 0.36911743879318237 0.68522173166275024
1 0.3626914918422699 0.67657387256622314
0.1596544086933136 0.61761248111724854 0.69055068492889404
0.25460579991340637 0.60350519418716431 0.68672424554824829
0.39153999090194702 0.611674964427948 0.68933510780334473
0.60709458589553833 0.61839216947555542 0.69011193513870239
0.84274190664291382 0.62461888790130615 0.68886291980743408
0.97907829284667969 0.61712539196014404 0.68693971633911133
0.99905818700790405 0.61866635084152222 0.68594610691070557
0.16526144742965698 0.79672330617904663 0.68939501047134399
0.25345441699028015 0.78682851791381836 0.68814843893051147
0.40308544039726257 0.79243206977844238 0.69725692272186279
0.60577034950256348 0.78924012184143066 0.68831676244735718
0.84266883134841919 0.78955090045928955 0.68969666957855225
0.97394651174545288 0.79476743936538696 0.6919671893119812
0.99874973297119141 0.78884446620941162 0.68269187211990356
0.16311278939247131 0.89816361665725708 0.68493688106536865
0.25063866376876831 0.89208972454071045 0.67998093366622925
0.39139476418495178 0.89486253261566162 0.68491566181182861
0.61100798845291138 0.89679008722305298 0.69033151865005493
0.84592032432556152 0.89678311347961426 0.69456446170806885
0.97361326217651367 0.89756357669830322 0.69129675626754761
0.99508035182952881 0.89301764965057373 0.67525982856750488
0.16349704563617706 0.96449697017669678 0.68192285299301147
0.25881114602088928 0.96408760547637939 0.69150042533874512
0.395253986120224 0.96207988262176514 0.68554049730300903
0.60255247354507446 0.96210193634033203 0.68353921175003052
0.83188402652740479 0.96209979057312012 0.69272500276565552
0.96521681547164917 0.95833700895309448 0.68484759330749512
0.99186491966247559 0.95806998014450073 0.68328714370727539
0.16561245918273926 0.030297089368104935 0.77370387315750122
0.25450077652931213 0.033290863037109375 0.77403819561004639
0.39258116483688354 0.029152350500226021 0.77254211902618408
0.59020411968231201 0.030730633065104485 0.77490639686584473
0.83514070510864258 0.030027501285076141 0.78064215183258057
0.9680330753326416 0.032118838280439377 0.77559190988540649
0.99539637565612793 0.030071796849370003 0.77397453784942627
0.16285958886146545 0.1460639089345932 0.76696228981018066
0.25279092788696289 0.1436956524848938 0.76934736967086792
0.38929519057273865 0.14247319102287292 0.76949131488800049
0.58765232563018799 0.1449199765920639 0.77049726247787476
0.82346659898757935 0.15051276981830597 0.77917575836181641
0.96931570768356323 0.13973654806613922 0.7745857834815979
0.99716126918792725 0.15298052132129669 0.78330796957015991
0.15911160409450531 0.36047020554542542 0.77488094568252563
0.25436598062515259 0.36016857624053955 0.7774965763092041
0.39182990789413452 0.35767987370491028 0.77512973546981812
0.5821036696434021 0.34788379073143005 0.77427858114242554
0.8290637731552124 0.35343009233474731 0.77843761444091797
0.9751732349395752 0.34564369916915894 0.772449791431427
0.99860507249832153 0.33954691886901855 0.7719988226890564
0.16037812829017639 0.59177654981613159 0.76955604553222656
0.25324809551239014 0.59826314449310303 0.775856614112854
0.39017102122306824 0.58492058515548706 0.77224504947662354
0.58726960420608521 0.60144424438476562 0.77693051099777222
0.82473528385162354 0.60421419143676758 0.77832800149917603
0.97650778293609619 0.60917270183563232 0.77640092372894287
0.99904578924179077 0.59969460964202881 0.77645933628082275
0.16498072445392609 0.77404642105102539 0.77423346042633057
0.25582492351531982 0.77567547559738159 0.77685695886611938
0.38183310627937317 0.76183372735977173 0.76943528652191162
0.58801454305648804 0.78174006938934326 0.77897489070892334
0.82217502593994141 0.76812946796417236 0.77749115228652954
0.97084742784500122 0.76345169544219971 0.76842480897903442
0.99558204412460327 0.76829046010971069 0.78102570772171021
0.15859079360961914 0.88815343379974365 0.77528828382492065
0.25138160586357117 0.88298672437667847 0.77174824476242065
0.38466563820838928 0.88388931751251221 0.76637870073318481
0.58781355619430542 0.8885197639465332 0.77039557695388794
0.82238686084747314 0.88981336355209351 0.77007794380187988
0.97653508186340332 0.889720618724823 0.77628648281097412
0.99174612760543823 0.88735193014144897 0.78072673082351685
0.15759605169296265 0.95813572406768799 0.7674487829208374
0.25081437826156616 0.95635545253753662 0.76888597011566162
0.3921450674533844 0.95500993728637695 0.76619315147399902
0.58012908697128296 0.94826203584671021 0.76599222421646118
0.8122137188911438 0.95568597316741943 0.77703171968460083
0.95285451412200928 0.95692121982574463 0.77458244562149048
0.98660540580749512 0.95344936847686768 0.77711635828018188
0.16018408536911011 0.032335497438907623 0.88756769895553589
0.25494152307510376 0.035165347158908844 0.88547980785369873
0.38722744584083557 0.028850091621279716 0.88434529304504395
0.58113551139831543 0.026124691590666771 0.8855101466178894
0.81359148025512695 0.02402038499712944 0.88921910524368286
0.96995079517364502 0.022737825289368629 0.88874214887619019
0.99697047472000122 0.025561584159731865 0.89023762941360474
0.16207385063171387 0.15214221179485321 0.87711679935455322
0.25564384460449219 0.14240109920501709 0.88840490579605103
0.38770973682403564 0.14422756433486938 0.88437491655349731
0.57563155889511108 0.13932232558727264 0.88515853881835938
0.81220114231109619 0.14555816352367401 0.8830488920211792
0.97148185968399048 0.13313230872154236 0.89003980159759521
0.99984544515609741 0.14461237192153931 0.8849373459815979
0.16172577440738678 0.33324983716011047 0.8849373459815979
0.25029602646827698 0.33498677611351013 0.88531482219696045
0.37911328673362732 0.32621994614601135 0.8820222020149231
0.56932896375656128 0.33193123340606689 0.87908202409744263
0.81074231863021851 0.33722102642059326 0.87966340780258179
0.9741966724395752 0.32753574848175049 0.88464701175689697
0.99931490421295166 0.32762014865875244 0.88760018348693848
0.15833145380020142 0.56455451250076294 0.88686573505401611
0.24976149201393127 0.5713469386100769 0.88901859521865845
0.37738093733787537 0.56775158643722534 0.88202619552612305
0.55984055995941162 0.5653654932975769 0.88229262828826904
0.80946487188339233 0.5735095739364624 0.88860338926315308
0.96972298622131348 0.56199485063552856 0.88378739356994629
0.99978405237197876 0.56643205881118774 0.87765306234359741
0.15851882100105286 0.76128458976745605 0.88894170522689819
0.24680611491203308 0.76364004611968994 0.89004755020141602
0.37579998373985291 0.76270598173141479 0.88991832733154297
0.56741029024124146 0.75595253705978394 0.88844990730285645
0.81463664770126343 0.7541317343711853 0.88866037130355835
0.96482712030410767 0.75673121213912964 0.88559627532958984
0.99659460783004761 0.75597137212753296 0.88532203435897827
0.1576823890209198 0.88483870029449463 0.88941007852554321
0.24975702166557312 0.88252764940261841 0.88882768154144287
0.38666361570358276 0.87814426422119141 0.88384884595870972
0.57239031791687012 0.88393169641494751 0.88855165243148804
0.80669885873794556 0.8789832592010498 0.88221055269241333
0.96211928129196167 0.87836122512817383 0.88169640302658081
0.98880302906036377 0.8768312931060791 0.87978941202163696
0.15766662359237671 0.95841461420059204 0.88932669162750244
0.25155827403068542 0.95454102754592896 0.88373637199401855
0.38980582356452942 0.9547540545463562 0.88340860605239868
0.56098908185958862 0.95909804105758667 0.88971763849258423
0.81417346000671387 0.95960742235183716 0.88722491264343262
0.97000610828399658 0.95646971464157104 0.88924169540405273
0.99530190229415894 0.95537543296813965 0.89011073112487793
