assets/lut/others light blown.cube
# Created by: G'MIC (https://gmic.eu)
TITLE "light_blown"
# LUT size
LUT_3D_SIZE 7
# Data domain
DOMAIN_MIN 0.0 0.0 0.0
DOMAIN_MAX 1.0 1.0 1.0
# LUT data points
0.019482690840959549 0.013766524381935596 0.0036229901015758514
0.15216436982154846 0.0029840955976396799 0.0069962595589458942
0.31211581826210022 2.5850184101727791e-05 0.035395123064517975
0.49951872229576111 0.0076325060799717903 0.090207554399967194
0.60446822643280029 0.001514928531832993 0.118247389793396
0.58499026298522949 0 0.095814317464828491
0.56687545776367188 0 0.082717970013618469
0.078103460371494293 0.19661054015159607 0.066310226917266846
0.18607296049594879 0.1569201797246933 0.061721920967102051
0.34095844626426697 0.13278518617153168 0.088416337966918945
0.52213931083679199 0.13146558403968811 0.13471424579620361
0.66167068481445312 0.13181304931640625 0.1783769279718399
0.64626115560531616 0.086910814046859741 0.14304661750793457
0.6251869797706604 0.058860793709754944 0.12389469891786575
0.18790222704410553 0.42046001553535461 0.16934184730052948
0.26798903942108154 0.38184553384780884 0.17162115871906281
0.43281251192092896 0.36864954233169556 0.21047015488147736
0.60454565286636353 0.37273693084716797 0.25561469793319702
0.76376277208328247 0.35812845826148987 0.29045137763023376
0.80228471755981445 0.31603586673736572 0.27587237954139709
0.76866042613983154 0.28372162580490112 0.25913551449775696
0.34167912602424622 0.66123497486114502 0.3011576235294342
0.36739477515220642 0.61423289775848389 0.29805943369865417
0.50291979312896729 0.58862489461898804 0.32095092535018921
0.67695605754852295 0.58220034837722778 0.35511091351509094
0.85178285837173462 0.56833159923553467 0.39344781637191772
0.94888848066329956 0.54635155200958252 0.40831518173217773
0.93029528856277466 0.51007413864135742 0.38899075984954834
0.52316272258758545 0.89710283279418945 0.43431505560874939
0.50774925947189331 0.84783583879470825 0.42047643661499023
0.57924437522888184 0.81684046983718872 0.42544093728065491
0.74509656429290771 0.80608284473419189 0.45618665218353271
0.92034280300140381 0.78359401226043701 0.48979687690734863
1 0.78066766262054443 0.5027165412902832
0.99996107816696167 0.75122237205505371 0.48775976896286011
0.65850287675857544 1 0.53367257118225098
0.63599342107772827 0.99396753311157227 0.5240357518196106
0.6572069525718689 0.9925229549407959 0.52262932062149048
0.80909430980682373 0.99069541692733765 0.55605721473693848
0.96778565645217896 0.9727063775062561 0.58633387088775635
0.99932634830474854 0.98772221803665161 0.60771363973617554
0.99818921089172363 0.97687458992004395 0.61785948276519775
0.687247633934021 1 0.57303094863891602
0.66632628440856934 1 0.56531113386154175
0.67892658710479736 1 0.57178473472595215
0.82366818189620972 0.99997079372406006 0.61890780925750732
0.98501050472259521 0.99284780025482178 0.69870591163635254
0.99977535009384155 0.99463427066802979 0.79407292604446411
0.99550431966781616 0.99624508619308472 0.85579031705856323
0.026313662528991699 0.051457617431879044 0.094131842255592346
0.17008678615093231 0.034299887716770172 0.10248221457004547
0.34690213203430176 0.03784777969121933 0.14177198708057404
0.54940617084503174 0.079331405460834503 0.19491550326347351
0.63648569583892822 0.065263785421848297 0.20010921359062195
0.60547548532485962 0.024146884679794312 0.16422127187252045
0.58076053857803345 0.0025835672859102488 0.14337216317653656
0.092667587101459503 0.24328066408634186 0.15793567895889282
0.19844268262386322 0.19961355626583099 0.14519353210926056
0.36630350351333618 0.18056818842887878 0.16824328899383545
0.53600519895553589 0.1584046483039856 0.18880090117454529
0.65008664131164551 0.13534475862979889 0.19648803770542145
0.63748067617416382 0.097828015685081482 0.16753596067428589
0.61526733636856079 0.062601350247859955 0.14437608420848846
0.21156807243824005 0.44764161109924316 0.2338583916425705
0.27482312917709351 0.3971790075302124 0.21092700958251953
0.43372556567192078 0.37486165761947632 0.23567375540733337
0.59392088651657104 0.36407294869422913 0.2679503858089447
0.74368798732757568 0.35312619805335999 0.29138040542602539
0.77753186225891113 0.31523969769477844 0.27061790227890015
0.75494003295898438 0.27393749356269836 0.24570238590240479
0.36274629831314087 0.65242362022399902 0.32695186138153076
0.35275951027870178 0.59392046928405762 0.29416802525520325
0.47044321894645691 0.56831640005111694 0.30719253420829773
0.64443999528884888 0.56250977516174316 0.33914783596992493
0.80827540159225464 0.55215311050415039 0.37453004717826843
0.93515866994857788 0.53726619482040405 0.39609840512275696
0.91327345371246338 0.49701985716819763 0.36560291051864624
0.524605393409729 0.87092787027359009 0.43257632851600647
0.47532016038894653 0.81588143110275269 0.39893606305122375
0.53474080562591553 0.78565257787704468 0.39956378936767578
0.70734649896621704 0.77470701932907104 0.43265044689178467
0.88284945487976074 0.76172775030136108 0.46650832891464233
0.99786186218261719 0.76456600427627563 0.48843368887901306
0.9934278130531311 0.7353893518447876 0.46823054552078247
0.64305180311203003 0.99793022871017456 0.51283085346221924
0.61177021265029907 0.98481923341751099 0.50062781572341919
0.64013117551803589 0.99081939458847046 0.51152092218399048
0.78642910718917847 0.98543912172317505 0.54331839084625244
0.94928491115570068 0.97611212730407715 0.57176095247268677
1 0.98366421461105347 0.60387700796127319
0.99469858407974243 0.9534798264503479 0.61687493324279785
0.67420363426208496 1 0.54568767547607422
0.63874369859695435 1 0.52765476703643799
0.63646477460861206 1 0.5308271050453186
0.78552520275115967 0.99963498115539551 0.57984060049057007
0.97662276029586792 0.99151581525802612 0.67355799674987793
1 0.99760639667510986 0.78044456243515015
0.99422180652618408 0.9908948540687561 0.84834879636764526
0.065390072762966156 0.12612912058830261 0.21859546005725861
0.21455775201320648 0.10924160480499268 0.23170147836208344
0.40396943688392639 0.13454511761665344 0.2772696316242218
0.59269624948501587 0.15881329774856567 0.32007768750190735
0.68019258975982666 0.16133832931518555 0.33342853188514709
0.66666829586029053 0.13997592031955719 0.30909883975982666
0.63981008529663086 0.10521236062049866 0.27982643246650696
0.14162769913673401 0.307109534740448 0.28466337919235229
0.23663496971130371 0.26099511981010437 0.27020201086997986
0.39963984489440918 0.23926924169063568 0.28209856152534485
0.57668352127075195 0.2235470712184906 0.30634799599647522
0.69186311960220337 0.19900311529636383 0.31703969836235046
0.68178790807723999 0.16444660723209381 0.29661750793457031
0.65504473447799683 0.12689946591854095 0.26079431176185608
0.27520161867141724 0.50188320875167847 0.35149982571601868
0.30592185258865356 0.45288684964179993 0.3239503800868988
0.44316491484642029 0.42474761605262756 0.3285258412361145
0.61982822418212891 0.40989428758621216 0.35760730504989624
0.77763432264328003 0.40416893362998962 0.39169761538505554
0.81768214702606201 0.36334207653999329 0.37027734518051147
0.7805715799331665 0.2962343692779541 0.31659606099128723
0.41369450092315674 0.69570237398147583 0.41568800806999207
0.38801670074462891 0.63537460565567017 0.37583565711975098
0.48590445518493652 0.60686331987380981 0.37656387686729431
0.66146892309188843 0.59833806753158569 0.40484055876731873
0.82811135053634644 0.5812218189239502 0.44197243452072144
0.94529628753662109 0.55761295557022095 0.44637706875801086
0.91823285818099976 0.50029093027114868 0.39834356307983398
0.54587090015411377 0.90350621938705444 0.49345013499259949
0.49931582808494568 0.84215539693832397 0.45187750458717346
0.5523180365562439 0.81058412790298462 0.44625669717788696
0.70764172077178955 0.79503560066223145 0.4678560197353363
0.87369590997695923 0.77053439617156982 0.49197322130203247
0.99676334857940674 0.76550555229187012 0.50555402040481567
0.99095076322555542 0.71170872449874878 0.48090222477912903
0.64720678329467773 0.99939000606536865 0.54892563819885254
0.60794395208358765 0.98393577337265015 0.52044796943664551
0.62547999620437622 0.98660033941268921 0.51525551080703735
0.77091699838638306 0.97968059778213501 0.54550927877426147
0.93518906831741333 0.95323848724365234 0.56470698118209839
1 0.96788555383682251 0.58119243383407593
0.99810630083084106 0.93349212408065796 0.59171336889266968
0.67939102649688721 1 0.56710141897201538
0.63585841655731201 0.99949103593826294 0.52959001064300537
0.63111943006515503 1 0.51806515455245972
0.7628437876701355 1 0.5508347749710083
0.94409811496734619 0.998879075050354 0.61276233196258545
0.99988329410552979 0.99991226196289062 0.70076489448547363
0.9969252347946167 0.99705642461776733 0.77848237752914429
0.09178490936756134 0.18071137368679047 0.32383942604064941
0.26016288995742798 0.18945059180259705 0.36185041069984436
0.45105338096618652 0.2207304984331131 0.41618204116821289
0.62078768014907837 0.23170652985572815 0.44615957140922546
0.73795270919799805 0.24046444892883301 0.47397658228874207
0.73748350143432617 0.24150338768959045 0.45537954568862915
0.71104210615158081 0.22285850346088409 0.43509101867675781
0.18179003894329071 0.36908748745918274 0.40673881769180298
0.28261402249336243 0.34141865372657776 0.4106290340423584
0.4346066415309906 0.31096148490905762 0.41584682464599609
0.60220527648925781 0.29159566760063171 0.43601298332214355
0.73456275463104248 0.2745545506477356 0.45456543564796448
0.73907750844955444 0.24246147274971008 0.42934340238571167
0.70980358123779297 0.20500132441520691 0.39623242616653442
0.32948288321495056 0.57120335102081299 0.48642313480377197
0.34195965528488159 0.53109276294708252 0.45965051651000977
0.47402215003967285 0.5042763352394104 0.45953065156936646
0.65037530660629272 0.4883582592010498 0.4905630350112915
0.81952106952667236 0.473396897315979 0.51881980895996094
0.86947035789489746 0.42290350794792175 0.49264442920684814
0.82291001081466675 0.35292139649391174 0.43711793422698975
0.4579768180847168 0.77753740549087524 0.54863077402114868
0.42399194836616516 0.71494388580322266 0.50761443376541138
0.51303738355636597 0.6901049017906189 0.50324815511703491
0.68562465906143188 0.68385964632034302 0.53075551986694336
0.87385672330856323 0.66148918867111206 0.56431156396865845
0.98098999261856079 0.61826157569885254 0.56223678588867188
0.94810134172439575 0.55870205163955688 0.50538653135299683
0.58290666341781616 0.96160119771957397 0.61642825603485107
0.54105383157730103 0.92298406362533569 0.57238173484802246
0.57170909643173218 0.89907443523406982 0.55307430028915405
0.71948337554931641 0.88257664442062378 0.56816250085830688
0.90573620796203613 0.85119467973709106 0.59637713432312012
0.99999284744262695 0.82378298044204712 0.60890883207321167
0.99801033735275269 0.768443763256073 0.56855809688568115
0.7333604097366333 1 0.71585524082183838
0.67307835817337036 0.99997484683990479 0.65303641557693481
0.65798389911651611 0.99998116493225098 0.62112373113632202
0.80580872297286987 0.9990571141242981 0.64895439147949219
0.97451245784759521 0.97641664743423462 0.67489814758300781
1 0.97921454906463623 0.68916934728622437
1 0.95619136095046997 0.65922087430953979
0.73711901903152466 1 0.69198250770568848
0.68253016471862793 0.99976533651351929 0.63349682092666626
0.65862971544265747 1 0.60645550489425659
0.79941332340240479 0.99853372573852539 0.64788925647735596
0.97415298223495483 0.99687892198562622 0.70945948362350464
0.99883955717086792 0.99993783235549927 0.78703850507736206
0.99998599290847778 1 0.82889533042907715
0.10648945719003677 0.20197269320487976 0.35808423161506653
0.26663202047348022 0.20446445047855377 0.39924293756484985
0.46096113324165344 0.24896472692489624 0.47058683633804321
0.64153575897216797 0.2808748185634613 0.51720637083053589
0.78189408779144287 0.29271292686462402 0.55376565456390381
0.78186750411987305 0.28885582089424133 0.54924196004867554
0.7524712085723877 0.28103217482566833 0.54332482814788818
0.19895625114440918 0.40725049376487732 0.47173008322715759
0.30779916048049927 0.38929226994514465 0.49109533429145813
0.47182479500770569 0.37081035971641541 0.51567286252975464
0.62662631273269653 0.35167920589447021 0.53335940837860107
0.77451163530349731 0.3444976806640625 0.55933761596679688
0.78069919347763062 0.31333816051483154 0.53782057762145996
0.7458343505859375 0.27322560548782349 0.5084068775177002
0.35907718539237976 0.62466776371002197 0.59028452634811401
0.38345414400100708 0.5885578989982605 0.56286150217056274
0.51996564865112305 0.56608003377914429 0.57602512836456299
0.68493026494979858 0.55983060598373413 0.60812729597091675
0.84296530485153198 0.53839963674545288 0.62904316186904907
0.90097558498382568 0.49065986275672913 0.6087719202041626
0.85459744930267334 0.4272426962852478 0.56379234790802002
0.50143980979919434 0.84581774473190308 0.67894017696380615
0.47773575782775879 0.79025453329086304 0.63797086477279663
0.56470531225204468 0.77018356323242188 0.63797926902770996
0.72816210985183716 0.76803851127624512 0.661854088306427
0.90184265375137329 0.73975241184234619 0.68620127439498901
0.99831801652908325 0.69209760427474976 0.68142205476760864
0.97116506099700928 0.63941407203674316 0.6430051326751709
0.61098980903625488 0.99107754230499268 0.73551160097122192
0.58815991878509521 0.97188723087310791 0.70733416080474854
0.60855114459991455 0.95258086919784546 0.67348849773406982
0.76119399070739746 0.94929057359695435 0.69158250093460083
0.93616336584091187 0.9324832558631897 0.71605128049850464
1 0.91105347871780396 0.73359274864196777
0.9998738169670105 0.85106313228607178 0.70167338848114014
0.81550532579421997 0.99875807762145996 0.8819282054901123
0.77915066480636597 0.99999898672103882 0.82972514629364014
0.7151033878326416 1 0.75096309185028076
0.85128849744796753 1 0.77488613128662109
0.98890584707260132 0.99997484683990479 0.79078936576843262
1 1 0.84375941753387451
0.99725651741027832 0.98527032136917114 0.83172035217285156
0.83735078573226929 0.99832838773727417 0.86116421222686768
0.80244886875152588 0.99847757816314697 0.82084113359451294
0.76954597234725952 1 0.7936701774597168
0.88797074556350708 0.99933093786239624 0.83020424842834473
0.99349945783615112 0.99780654907226562 0.91312319040298462
0.99682521820068359 0.99832499027252197 0.97245281934738159
0.99832594394683838 0.99720829725265503 0.9954906702041626
0.1218932643532753 0.1905718594789505 0.35936164855957031
0.24345995485782623 0.19639426469802856 0.39327314496040344
0.44773343205451965 0.24218104779720306 0.45869237184524536
0.63770246505737305 0.27089604735374451 0.51076686382293701
0.77648937702178955 0.28461199998855591 0.54848462343215942
0.76931488513946533 0.2618865966796875 0.54948770999908447
0.74059939384460449 0.24518662691116333 0.548206627368927
0.19807656109333038 0.39753380417823792 0.46795237064361572
0.27431765198707581 0.3585018515586853 0.46884915232658386
0.43655046820640564 0.33014091849327087 0.49331608414649963
0.60711085796356201 0.32362845540046692 0.52703863382339478
0.76404613256454468 0.33426713943481445 0.56540876626968384
0.77331185340881348 0.30900990962982178 0.55810564756393433
0.75330984592437744 0.28251689672470093 0.54444617033004761
0.35577785968780518 0.63577556610107422 0.60019111633300781
0.37418380379676819 0.58687859773635864 0.57908129692077637
0.5068853497505188 0.55975306034088135 0.59939730167388916
0.68904191255569458 0.55942600965499878 0.63695341348648071
0.86273097991943359 0.55702406167984009 0.67660295963287354
0.92224431037902832 0.52858555316925049 0.67535972595214844
0.86942929029464722 0.46687933802604675 0.64293569326400757
0.51501333713531494 0.87965387105941772 0.71857494115829468
0.49584025144577026 0.82717812061309814 0.69874149560928345
0.58109718561172485 0.80671977996826172 0.70963460206985474
0.75474947690963745 0.79811602830886841 0.73720347881317139
0.92618978023529053 0.76979213953018188 0.76877719163894653
1 0.74228745698928833 0.77110517024993896
0.97981059551239014 0.68773770332336426 0.75392007827758789
0.66918081045150757 1 0.83947455883026123
0.62955677509307861 0.99839401245117188 0.81611639261245728
0.64250677824020386 0.99227595329284668 0.79306572675704956
0.82049012184143066 0.98476123809814453 0.81486088037490845
0.97409594058990479 0.96687006950378418 0.83236134052276611
1 0.95872658491134644 0.84574544429779053
0.99900692701339722 0.92162758111953735 0.83736222982406616
0.88967245817184448 0.99977570772171021 0.9961121678352356
0.85807323455810547 1 0.98358398675918579
0.79357397556304932 0.99643349647521973 0.93228375911712646
0.93053901195526123 0.99997162818908691 0.94652664661407471
0.99726486206054688 1 0.95882135629653931
1 0.99975371360778809 0.98336881399154663
0.99706768989562988 0.99490475654602051 0.97512328624725342
0.95323848724365234 0.99607342481613159 0.98906916379928589
0.9339601993560791 0.9996182918548584 0.97615522146224976
0.90240806341171265 1 0.97409874200820923
0.95193648338317871 0.99661105871200562 0.99169313907623291
0.98891359567642212 0.99180155992507935 1
0.99053490161895752 0.98696887493133545 1
0.99215298891067505 0.98456782102584839 1
0.099442258477210999 0.17997333407402039 0.35404184460639954
0.22091077268123627 0.18784603476524353 0.38272368907928467
0.42045500874519348 0.21934889256954193 0.43884259462356567
0.60436439514160156 0.24370256066322327 0.49121266603469849
0.74224787950515747 0.25414308905601501 0.52779430150985718
0.74750995635986328 0.228908970952034 0.53185433149337769
0.722969651222229 0.2083551436662674 0.54042655229568481
0.19170080125331879 0.3797127902507782 0.45587003231048584
0.25615042448043823 0.34363949298858643 0.45359203219413757
0.4141085147857666 0.31221342086791992 0.47621852159500122
0.58850598335266113 0.3091529905796051 0.51678919792175293
0.75649893283843994 0.32467976212501526 0.55588364601135254
0.76255649328231812 0.29552409052848816 0.55033576488494873
0.7520909309387207 0.27956494688987732 0.5592581033706665
0.35335353016853333 0.6200181245803833 0.58408123254776001
0.35207745432853699 0.56978428363800049 0.56508153676986694
0.47272410988807678 0.52714252471923828 0.57929271459579468
0.6653059720993042 0.52159208059310913 0.62039005756378174
0.85074412822723389 0.52965480089187622 0.65902674198150635
0.91160327196121216 0.51027870178222656 0.66589140892028809
0.86891758441925049 0.46946948766708374 0.66273146867752075
0.50920242071151733 0.850902259349823 0.69783365726470947
0.47338628768920898 0.81364923715591431 0.67709159851074219
0.55582576990127563 0.77629220485687256 0.69131529331207275
0.74887150526046753 0.7663567066192627 0.73592847585678101
0.93088263273239136 0.75785142183303833 0.77453899383544922
0.99814099073410034 0.74479228258132935 0.78889739513397217
0.96659141778945923 0.70690029859542847 0.78938686847686768
0.68131989240646362 0.9850730299949646 0.8206486701965332
0.61421877145767212 0.99464809894561768 0.79162895679473877
0.62846368551254272 0.97694456577301025 0.7847902774810791
0.8144301176071167 0.97779995203018188 0.83371305465698242
0.96963411569595337 0.95659488439559937 0.87246030569076538
1 0.95003122091293335 0.90481668710708618
0.99082225561141968 0.93110853433609009 0.9197922945022583
0.91653043031692505 0.99219399690628052 0.97039204835891724
0.85530310869216919 0.99635279178619385 0.94837296009063721
0.8038908839225769 1 0.93639218807220459
0.94540560245513916 1 0.96593940258026123
0.99912375211715698 0.99944806098937988 0.99335354566574097
1 0.98908722400665283 1
0.99603986740112305 0.98367655277252197 1
0.9967041015625 0.99103790521621704 1
0.99245607852935791 0.9993445873260498 1
0.98439246416091919 1 0.99848371744155884
0.99828612804412842 0.99686163663864136 1
0.99948054552078247 0.987865149974823 1
0.99573063850402832 0.9789125919342041 1
0.98839020729064941 0.97296261787414551 1
