assets/lut/others color rich.cube
# Created by: G'MIC (https://gmic.eu)
TITLE "color_rich"
# LUT size
LUT_3D_SIZE 7
# Data domain
DOMAIN_MIN 0.0 0.0 0.0
DOMAIN_MAX 1.0 1.0 1.0
# LUT data points
0.024070918560028076 0.029417179524898529 0.072009727358818054
0.15743167698383331 0.032034225761890411 0.069864906370639801
0.31313243508338928 0.030224459245800972 0.069724857807159424
0.50638782978057861 0.026757963001728058 0.071329273283481598
0.72677195072174072 0.024674119427800179 0.069510288536548615
0.89905977249145508 0.020109288394451141 0.066470727324485779
0.97372716665267944 0.018892265856266022 0.065821580588817596
0.020383348688483238 0.18048399686813354 0.070594966411590576
0.1533472090959549 0.17746268212795258 0.064789563417434692
0.30351364612579346 0.17194586992263794 0.067426972091197968
0.48881217837333679 0.16960784792900085 0.067512571811676025
0.71072053909301758 0.1653209775686264 0.063718147575855255
0.89403218030929565 0.15994186699390411 0.062831968069076538
0.97928899526596069 0.15783107280731201 0.064351744949817657
0.016221065074205399 0.34062054753303528 0.062005285173654556
0.14355573058128357 0.33957254886627197 0.060114543884992599
0.29231613874435425 0.33662319183349609 0.063976779580116272
0.47518321871757507 0.33258336782455444 0.060449831187725067
0.69045108556747437 0.32748889923095703 0.054052673280239105
0.89014959335327148 0.31985777616500854 0.057886593043804169
0.98311501741409302 0.31785562634468079 0.06518961489200592
0.014365042559802532 0.51508963108062744 0.062244430184364319
0.13282550871372223 0.51207458972930908 0.061973512172698975
0.27810707688331604 0.51111316680908203 0.064402513206005096
0.45608532428741455 0.50359445810317993 0.055793687701225281
0.66917026042938232 0.4974941611289978 0.049778718501329422
0.88276225328445435 0.49113079905509949 0.052266288548707962
0.97680330276489258 0.49021241068840027 0.059582788497209549
0.013343766331672668 0.68483859300613403 0.056068778038024902
0.12744362652301788 0.68063366413116455 0.05732433870434761
0.27522587776184082 0.67990279197692871 0.062696807086467743
0.44263777136802673 0.67870938777923584 0.063048012554645538
0.65400844812393188 0.67505735158920288 0.062043298035860062
0.87450593709945679 0.66578269004821777 0.057514999061822891
0.97943729162216187 0.66329044103622437 0.057270199060440063
0.019352467730641365 0.84151113033294678 0.05007503554224968
0.13066692650318146 0.84070289134979248 0.055258672684431076
0.26766505837440491 0.83700114488601685 0.058913782238960266
0.43533161282539368 0.83364468812942505 0.058039974421262741
0.63022953271865845 0.83300304412841797 0.055242963135242462
0.86157602071762085 0.82982200384140015 0.057266473770141602
0.98690694570541382 0.82621777057647705 0.053622812032699585
0.020576640963554382 0.97394150495529175 0.056856162846088409
0.12711432576179504 0.97061026096343994 0.046808294951915741
0.25581413507461548 0.96828663349151611 0.052603133022785187
0.41986843943595886 0.96920496225357056 0.057806260883808136
0.61007040739059448 0.96839779615402222 0.056509625166654587
0.84672403335571289 0.96704858541488647 0.054886147379875183
0.98774313926696777 0.96612560749053955 0.054229989647865295
0.024683903902769089 0.028022032231092453 0.22450980544090271
0.15650483965873718 0.027987461537122726 0.22353997826576233
0.31318831443786621 0.02569134347140789 0.22180256247520447
0.50655066967010498 0.024447616189718246 0.21646599471569061
0.72035509347915649 0.021959731355309486 0.21252726018428802
0.89295405149459839 0.023161765187978745 0.20873139798641205
0.98144292831420898 0.023590775206685066 0.20741166174411774
0.023161765187978745 0.18163071572780609 0.21880994737148285
0.14907220005989075 0.17724543809890747 0.21058818697929382
0.2995084822177887 0.17155702412128448 0.20665310323238373
0.48942902684211731 0.16597075760364532 0.20122842490673065
0.70470821857452393 0.16117757558822632 0.19789963960647583
0.89105963706970215 0.15939377248287201 0.19835464656352997
0.98746329545974731 0.157148078083992 0.19554957747459412
0.01921406202018261 0.34555420279502869 0.20331872999668121
0.13889758288860321 0.34262999892234802 0.19994300603866577
0.28791409730911255 0.33756253123283386 0.19549538195133209
0.47295588254928589 0.33026623725891113 0.18618118762969971
0.69090753793716431 0.32549798488616943 0.18327583372592926
0.89252173900604248 0.31851539015769958 0.18923318386077881
0.98674339056015015 0.31416690349578857 0.19020141661167145
0.012832192704081535 0.51662129163742065 0.19318872690200806
0.12863451242446899 0.51531141996383667 0.1914798766374588
0.27726182341575623 0.5114554762840271 0.18976274132728577
0.45428156852722168 0.50280225276947021 0.17985324561595917
0.66848313808441162 0.49643361568450928 0.17567655444145203
0.8833959698677063 0.48839190602302551 0.18032017350196838
0.98495393991470337 0.48628538846969604 0.17725458741188049
0.012129735201597214 0.68591207265853882 0.18402138352394104
0.1223950982093811 0.68476563692092896 0.18057049810886383
0.26984414458274841 0.68328249454498291 0.18247176706790924
0.4390987753868103 0.67939293384552002 0.18486714363098145
0.65082871913909912 0.67507028579711914 0.17908838391304016
0.87429219484329224 0.66424787044525146 0.17667208611965179
0.98448640108108521 0.6618693470954895 0.17373131215572357
0.019602233543992043 0.84556657075881958 0.17620930075645447
0.12329927086830139 0.84130585193634033 0.1708243191242218
0.25725960731506348 0.8410230278968811 0.17333288490772247
0.425883948802948 0.8394935131072998 0.17474651336669922
0.63045918941497803 0.836963951587677 0.16225014626979828
0.86302328109741211 0.82700842618942261 0.1593116819858551
0.9839169979095459 0.82668197154998779 0.16055922210216522
0.01740398071706295 0.98068737983703613 0.17781765758991241
0.11720731854438782 0.97062677145004272 0.16193990409374237
0.24961254000663757 0.96578139066696167 0.16634263098239899
0.41865062713623047 0.97616410255432129 0.16148827970027924
0.61600583791732788 0.97491133213043213 0.15474386513233185
0.85127562284469604 0.96938002109527588 0.15784309804439545
0.98734718561172485 0.96906137466430664 0.16015496850013733
0.024797551333904266 0.027720732614398003 0.37568360567092896
0.15802505612373352 0.021642154082655907 0.37164145708084106
0.31565409898757935 0.021813530474901199 0.37248989939689636
0.50448626279830933 0.024348046630620956 0.36653268337249756
0.71383422613143921 0.023390287533402443 0.36452075839042664
0.8830987811088562 0.02004394493997097 0.36163651943206787
0.97869598865509033 0.023369463160634041 0.3614286482334137
0.0219865832477808 0.17896728217601776 0.37049758434295654
0.14589871466159821 0.17833489179611206 0.36554047465324402
0.30426108837127686 0.17073936760425568 0.36059370636940002
0.49159026145935059 0.16539204120635986 0.35404101014137268
0.7032361626625061 0.16179487109184265 0.35487282276153564
0.88867062330245972 0.15788412094116211 0.3559533953666687
0.98343765735626221 0.15900364518165588 0.35072299838066101
0.019921425729990005 0.3410981297492981 0.35546717047691345
0.14479617774486542 0.33839768171310425 0.35356816649436951
0.29676404595375061 0.33213219046592712 0.34683096408843994
0.47625869512557983 0.32555258274078369 0.33802255988121033
0.6942792534828186 0.32317924499511719 0.34415200352668762
0.89878910779953003 0.31718358397483826 0.35441648960113525
0.98254024982452393 0.32007774710655212 0.34021323919296265
0.013068284839391708 0.51144301891326904 0.34431871771812439
0.13169847428798676 0.50891542434692383 0.34399509429931641
0.28447425365447998 0.50342214107513428 0.34154412150382996
0.45969483256340027 0.49837833642959595 0.33314424753189087
0.67132115364074707 0.49617817997932434 0.33417761325836182
0.88283419609069824 0.48976674675941467 0.338765949010849
0.98493146896362305 0.48817539215087891 0.33204951882362366
0.010592113249003887 0.68428552150726318 0.33957836031913757
0.12211721390485764 0.68129515647888184 0.33914896845817566
0.27755054831504822 0.67497080564498901 0.33851921558380127
0.4479985237121582 0.67254340648651123 0.33529502153396606
0.65482854843139648 0.67105662822723389 0.33095350861549377
0.87014120817184448 0.66691750288009644 0.33123579621315002
0.98048776388168335 0.66549229621887207 0.33146589994430542
0.019663417711853981 0.84191322326660156 0.33221355080604553
0.12755776941776276 0.83860701322555542 0.32599344849586487
0.26466211676597595 0.83810317516326904 0.32582476735115051
0.43311473727226257 0.83508002758026123 0.32266631722450256
0.64098876714706421 0.83275341987609863 0.31558018922805786
0.86012595891952515 0.82944357395172119 0.31577473878860474
0.98563116788864136 0.82530325651168823 0.31750541925430298
0.018560521304607391 0.97575253248214722 0.32322207093238831
0.11695721000432968 0.96914434432983398 0.31698703765869141
0.25081801414489746 0.96953165531158447 0.31462961435317993
0.41608765721321106 0.97564983367919922 0.30751857161521912
0.62121987342834473 0.97481042146682739 0.30079632997512817
0.85133332014083862 0.97072899341583252 0.3043709397315979
0.98740798234939575 0.96689403057098389 0.30467313528060913
0.023223802447319031 0.030430018901824951 0.52602380514144897
0.15766017138957977 0.024392416700720787 0.5215686559677124
0.32060903310775757 0.021218826994299889 0.52367132902145386
0.49882137775421143 0.023770606145262718 0.51829427480697632
0.71571534872055054 0.023928115144371986 0.51738816499710083
0.89700150489807129 0.019887138158082962 0.51551991701126099
0.98702692985534668 0.023712128400802612 0.51510882377624512
0.01839396171271801 0.17540831863880157 0.5219576358795166
0.14729836583137512 0.17384116351604462 0.51556980609893799
0.30791142582893372 0.16967049241065979 0.51449131965637207
0.48995974659919739 0.16958378255367279 0.51200783252716064
0.69909507036209106 0.16510656476020813 0.51358747482299805
0.89401698112487793 0.15572221577167511 0.50980466604232788
0.98733943700790405 0.15842577815055847 0.50610232353210449
0.018377998843789101 0.33623763918876648 0.50526529550552368
0.14600147306919098 0.33238956332206726 0.5026174783706665
0.29890176653862 0.32721281051635742 0.50088351964950562
0.473655104637146 0.32458621263504028 0.49669823050498962
0.68756228685379028 0.32577168941497803 0.50242382287979126
0.89089137315750122 0.31948059797286987 0.50307583808898926
0.98056519031524658 0.31645599007606506 0.49639153480529785
0.016997437924146652 0.50703442096710205 0.49804791808128357
0.13542239367961884 0.50177085399627686 0.49734401702880859
0.28641602396965027 0.49607783555984497 0.4958203136920929
0.45876872539520264 0.49517256021499634 0.49034634232521057
0.66484278440475464 0.49738785624504089 0.4901033341884613
0.88096129894256592 0.48934677243232727 0.49015602469444275
0.98014873266220093 0.48507225513458252 0.48286476731300354
0.013678457587957382 0.68105959892272949 0.49346628785133362
0.12414605915546417 0.67522436380386353 0.49370506405830383
0.27863499522209167 0.66951000690460205 0.49421113729476929
0.44776135683059692 0.66949212551116943 0.48589065670967102
0.64827102422714233 0.66959553956985474 0.48262852430343628
0.86314594745635986 0.66395926475524902 0.48575237393379211
0.98070597648620605 0.65957802534103394 0.48084342479705811
0.017539948225021362 0.83996379375457764 0.48413905501365662
0.12186403572559357 0.83765596151351929 0.48212876915931702
0.26363760232925415 0.83790957927703857 0.48220226168632507
0.43150535225868225 0.83424079418182373 0.47272378206253052
0.63345372676849365 0.83038520812988281 0.46885013580322266
0.85257953405380249 0.82611292600631714 0.46964815258979797
0.98583739995956421 0.81983429193496704 0.46455302834510803
0.016436588019132614 0.96641069650650024 0.47308003902435303
0.11615751683712006 0.96852213144302368 0.47175315022468567
0.25159600377082825 0.97085994482040405 0.46855053305625916
0.40925338864326477 0.97473990917205811 0.46245831251144409
0.604653000831604 0.97238171100616455 0.45725023746490479
0.82807856798171997 0.96874499320983887 0.45882353186607361
0.98276644945144653 0.96551167964935303 0.456257164478302
0.023623133078217506 0.030881006270647049 0.68161606788635254
0.15337824821472168 0.02810179814696312 0.67862766981124878
0.31487223505973816 0.026087099686264992 0.68169283866882324
0.49769741296768188 0.026900587603449821 0.67502075433731079
0.71310663223266602 0.023333022370934486 0.66747897863388062
0.89976292848587036 0.022423762828111649 0.6673508882522583
0.98796594142913818 0.024940416216850281 0.66571903228759766
0.018544066697359085 0.1759314239025116 0.67450243234634399
0.14313280582427979 0.17355893552303314 0.66647040843963623
0.30275928974151611 0.16961143910884857 0.67231321334838867
0.48654833436012268 0.16913893818855286 0.66985976696014404
0.70232969522476196 0.16203410923480988 0.66249221563339233
0.9001808762550354 0.15790177881717682 0.66004264354705811
0.98801618814468384 0.15901410579681396 0.65742141008377075
0.024205645546317101 0.33258426189422607 0.65614843368530273
0.14339916408061981 0.3288433849811554 0.65252470970153809
0.29430314898490906 0.32530638575553894 0.65850991010665894
0.47364747524261475 0.32626146078109741 0.66073358058929443
0.69194698333740234 0.32553237676620483 0.65813541412353516
0.89066034555435181 0.32094848155975342 0.65134823322296143
0.97812336683273315 0.3140905499458313 0.64798539876937866
0.024019308388233185 0.5043521523475647 0.65354233980178833
0.13677354156970978 0.49891886115074158 0.64841467142105103
0.2815190851688385 0.49526551365852356 0.65157628059387207
0.45626667141914368 0.49622079730033875 0.65125119686126709
0.67264872789382935 0.49643638730049133 0.64612597227096558
0.88736617565155029 0.48994877934455872 0.63738662004470825
0.97852933406829834 0.48456498980522156 0.63343620300292969
0.023068640381097794 0.6779472827911377 0.64708912372589111
0.12435148656368256 0.67614024877548218 0.64000940322875977
0.2667917013168335 0.67301225662231445 0.64531701803207397
0.44056233763694763 0.67002201080322266 0.64090055227279663
0.64719885587692261 0.66828423738479614 0.63622540235519409
0.86582690477371216 0.66212886571884155 0.63449102640151978
0.98115366697311401 0.65797722339630127 0.63140666484832764
0.019100593402981758 0.83809542655944824 0.63482356071472168
0.11654789000749588 0.84130889177322388 0.63072961568832397
0.25633636116981506 0.8378063440322876 0.63221526145935059
0.42762580513954163 0.83166766166687012 0.62624055147171021
0.62541311979293823 0.83039218187332153 0.62484562397003174
0.84514403343200684 0.82418036460876465 0.62516337633132935
0.98814284801483154 0.81800127029418945 0.62012410163879395
0.018023787066340446 0.96899509429931641 0.62378215789794922
0.11353104561567307 0.97038108110427856 0.62192898988723755
0.24958142638206482 0.96920472383499146 0.62021505832672119
0.41125357151031494 0.97145479917526245 0.61664503812789917
0.60354292392730713 0.97138482332229614 0.61179983615875244
0.8309594988822937 0.96822482347488403 0.61339884996414185
0.99090749025344849 0.96404886245727539 0.61246377229690552
0.027933187782764435 0.029029412195086479 0.83142542839050293
0.15434706211090088 0.030332976952195168 0.83468455076217651
0.30942901968955994 0.029595917090773582 0.83419042825698853
0.49722710251808167 0.028636572882533073 0.82645952701568604
0.71516925096511841 0.023663509637117386 0.82894748449325562
0.90125507116317749 0.024549072608351707 0.82117795944213867
0.98267817497253418 0.024782696738839149 0.81438374519348145
0.023166177794337273 0.18020026385784149 0.8228459358215332
0.14439982175827026 0.17369134724140167 0.82282477617263794
0.29771146178245544 0.16962732374668121 0.82588917016983032
0.48431229591369629 0.16642396152019501 0.82217371463775635
0.70726758241653442 0.15970772504806519 0.82023900747299194
0.90368366241455078 0.15917195379734039 0.81944650411605835
0.98766845464706421 0.15719664096832275 0.81350433826446533
0.025469791144132614 0.33736920356750488 0.81616401672363281
0.14334948360919952 0.33017271757125854 0.81053239107131958
0.28941929340362549 0.32610294222831726 0.81024128198623657
0.4691811203956604 0.32588052749633789 0.81326830387115479
0.69054263830184937 0.32238757610321045 0.8114439845085144
0.89325863122940063 0.31692224740982056 0.80223202705383301
0.9854857325553894 0.31180784106254578 0.79655647277832031
0.02076243981719017 0.50831955671310425 0.81431031227111816
0.13290560245513916 0.50109279155731201 0.80236178636550903
0.27633672952651978 0.49687433242797852 0.80271720886230469
0.44871652126312256 0.49760442972183228 0.80684912204742432
0.66376340389251709 0.49545928835868835 0.80270934104919434
0.88609820604324341 0.48794904351234436 0.78936153650283813
0.98393452167510986 0.48462334275245667 0.784717857837677
0.01393591146916151 0.68328917026519775 0.79827094078063965
0.121437668800354 0.67713123559951782 0.79304683208465576
0.26511973142623901 0.67252832651138306 0.80022269487380981
0.43566343188285828 0.6701958179473877 0.79742324352264404
0.63476252555847168 0.66920763254165649 0.78969955444335938
0.86918157339096069 0.65994942188262939 0.78534674644470215
0.98770761489868164 0.655853271484375 0.78271007537841797
0.014222074300050735 0.84003835916519165 0.78711652755737305
0.11555041372776031 0.83999127149581909 0.78117555379867554
0.25899621844291687 0.83376586437225342 0.78435248136520386
0.43169096112251282 0.82755005359649658 0.77978825569152832
0.62867265939712524 0.82912039756774902 0.77731406688690186
0.85590845346450806 0.82396960258483887 0.7759556770324707
0.99456721544265747 0.81768733263015747 0.77451926469802856
0.016553722321987152 0.96900910139083862 0.77841216325759888
0.11445291340351105 0.96909207105636597 0.77198052406311035
0.25229892134666443 0.96847116947174072 0.77212285995483398
0.41344252228736877 0.96888834238052368 0.77212631702423096
0.60586369037628174 0.96970278024673462 0.76788246631622314
0.82592868804931641 0.9687197208404541 0.76750200986862183
0.98419606685638428 0.96499514579772949 0.76584315299987793
0.020082855597138405 0.029284758493304253 0.92968994379043579
0.14859341084957123 0.031740196049213409 0.93158167600631714
0.30832961201667786 0.022792575880885124 0.93352538347244263
0.50106924772262573 0.021414110437035561 0.92998862266540527
0.71926528215408325 0.024891797453165054 0.93659102916717529
0.90289211273193359 0.026343192905187607 0.93801730871200562
0.97889184951782227 0.023070152848958969 0.93810617923736572
0.021511660888791084 0.17813299596309662 0.92946732044219971
0.14266100525856018 0.1732383519411087 0.93182504177093506
0.29871085286140442 0.16645081341266632 0.93399190902709961
0.48308157920837402 0.16231770813465118 0.9294314980506897
0.69902235269546509 0.16147592663764954 0.93318802118301392
0.89171236753463745 0.16266468167304993 0.94228136539459229
0.98402923345565796 0.15695174038410187 0.9446747899055481
0.022107981145381927 0.33608213067054749 0.92853200435638428
0.14147482812404633 0.32939437031745911 0.92734032869338989
0.28896334767341614 0.32422360777854919 0.92429429292678833
0.46569845080375671 0.32199102640151978 0.92542874813079834
0.68045443296432495 0.32086366415023804 0.92917358875274658
0.87943953275680542 0.31651049852371216 0.92738169431686401
0.98131519556045532 0.31299260258674622 0.92453080415725708
0.016629401594400406 0.50664657354354858 0.93765205144882202
0.12940919399261475 0.50159549713134766 0.92607104778289795
0.27694618701934814 0.49755862355232239 0.92511832714080811
0.44757282733917236 0.49548178911209106 0.93247675895690918
0.65708822011947632 0.49275362491607666 0.93347340822219849
0.87108683586120605 0.48634225130081177 0.93210279941558838
0.97769057750701904 0.48547184467315674 0.92727875709533691
0.016208963468670845 0.67736232280731201 0.92701977491378784
0.12073621898889542 0.67496734857559204 0.92672860622406006
0.26574569940567017 0.67253696918487549 0.93977892398834229
0.43361803889274597 0.67153126001358032 0.9416089653968811
0.6381683349609375 0.6672065258026123 0.92923349142074585
0.85478532314300537 0.66139763593673706 0.93067747354507446
0.98042416572570801 0.65515059232711792 0.92950493097305298
0.015330908820033073 0.83820313215255737 0.92442244291305542
0.12005730718374252 0.83479362726211548 0.9210084080696106
0.25813496112823486 0.83074259757995605 0.92969310283660889
0.42328232526779175 0.82983839511871338 0.93275797367095947
0.62886041402816772 0.82810139656066895 0.92362594604492188
0.85454946756362915 0.82646006345748901 0.91574257612228394
0.99186694622039795 0.81834661960601807 0.91757148504257202
0.014890034683048725 0.97358900308609009 0.92349576950073242
0.11345516890287399 0.96912527084350586 0.91838616132736206
0.24882686138153076 0.96654784679412842 0.91755920648574829
0.40697917342185974 0.96671098470687866 0.92169898748397827
0.60287392139434814 0.9668082594871521 0.91571325063705444
0.82419544458389282 0.96675342321395874 0.91548168659210205
0.97077637910842896 0.963733971118927 0.91596502065658569
