assets/lut/others mute shift.cube
# Created by: G'MIC (https://gmic.eu)
TITLE "mute_shift"
# LUT size
LUT_3D_SIZE 5
# Data domain
DOMAIN_MIN 0.0 0.0 0.0
DOMAIN_MAX 1.0 1.0 1.0
# LUT data points
0.044081129133701324 0.038784429430961609 0.065112203359603882
0.19294975697994232 0.13854207098484039 0.26666852831840515
0.35575857758522034 0.33931148052215576 0.49505600333213806
0.52182292938232422 0.49229750037193298 0.72859847545623779
0.67255163192749023 0.64765340089797974 0.95778465270996094
0.05156257376074791 0.2632308304309845 0.061462104320526123
0.27617678046226501 0.21603463590145111 0.20633800327777863
0.47339475154876709 0.36426427960395813 0.47920802235603333
0.65537810325622559 0.52719020843505859 0.73150390386581421
0.81286627054214478 0.68060892820358276 0.95580554008483887
0.05866534635424614 0.4949226975440979 0.055879600346088409
0.46201962232589722 0.47740012407302856 0.19833280146121979
0.5174286961555481 0.38011687994003296 0.37057045102119446
0.71892774105072021 0.52306485176086426 0.65404915809631348
0.93314152956008911 0.68605548143386841 0.94057857990264893
0.070766165852546692 0.72622197866439819 0.052598107606172562
0.5309520959854126 0.71734052896499634 0.20454953610897064
0.72096890211105347 0.61348044872283936 0.36577495932579041
0.74444961547851562 0.54186040163040161 0.53159052133560181
0.95202231407165527 0.67845863103866577 0.81599026918411255
0.063117802143096924 0.9526599645614624 0.040504936128854752
0.57949209213256836 0.94993376731872559 0.20543694496154785
0.93271100521087646 0.93980050086975098 0.36340931057929993
0.94214951992034912 0.73844873905181885 0.53060054779052734
0.95154529809951782 0.67859375476837158 0.68771326541900635
0.046849552541971207 0.038280099630355835 0.26500368118286133
0.23832106590270996 0.059737786650657654 0.28949326276779175
0.35775601863861084 0.19951304793357849 0.49940764904022217
0.48985835909843445 0.35886856913566589 0.72378146648406982
0.63114768266677856 0.51355385780334473 0.95077133178710938
0.047678060829639435 0.26436325907707214 0.26156961917877197
0.26599529385566711 0.26734647154808044 0.28402429819107056
0.43469160795211792 0.39430716633796692 0.49736815690994263
0.58796638250350952 0.56293767690658569 0.72331744432449341
0.74555349349975586 0.72627758979797363 0.95499956607818604
0.042959205806255341 0.49533313512802124 0.26481196284294128
0.28163468837738037 0.4951528012752533 0.27714493870735168
0.51597350835800171 0.45443743467330933 0.43904998898506165
0.70561915636062622 0.59001266956329346 0.70792120695114136
0.87753009796142578 0.74710071086883545 0.95036047697067261
0.038759686052799225 0.72963219881057739 0.2668575644493103
0.27655902504920959 0.72110497951507568 0.26867955923080444
0.70038414001464844 0.71311026811599731 0.43112277984619141
0.74407684803009033 0.61128461360931396 0.60195940732955933
0.95101070404052734 0.74718040227890015 0.88462990522384644
0.037393160164356232 0.94550830125808716 0.26238372921943665
0.28787308931350708 0.94837349653244019 0.2769627571105957
0.77138650417327881 0.9521680474281311 0.42637878656387329
0.95427936315536499 0.84260350465774536 0.58929330110549927
0.978596031665802 0.76752704381942749 0.76567238569259644
0.03376496210694313 0.035790015012025833 0.49620833992958069
0.26531249284744263 0.036492906510829926 0.49852862954139709
0.47498047351837158 0.058234736323356628 0.52614599466323853
0.56020510196685791 0.2045244574546814 0.72623294591903687
0.66086053848266602 0.35430848598480225 0.94708931446075439
0.036710686981678009 0.26105144619941711 0.49038571119308472
0.25700283050537109 0.2634335458278656 0.49437245726585388
0.47706085443496704 0.27623617649078369 0.52239573001861572
0.5872916579246521 0.43079623579978943 0.72774338722229004
0.71675783395767212 0.58751577138900757 0.95535624027252197
0.041147898882627487 0.49408730864524841 0.49152490496635437
0.25869780778884888 0.49580851197242737 0.49313262104988098
0.49503239989280701 0.49774584174156189 0.5067330002784729
0.66490286588668823 0.63301247358322144 0.72348034381866455
0.81942629814147949 0.79131507873535156 0.95096176862716675
0.034910045564174652 0.72396951913833618 0.48671978712081909
0.25991174578666687 0.72906827926635742 0.48770996928215027
0.52246922254562378 0.72334432601928711 0.51606470346450806
0.74707221984863281 0.68209308385848999 0.67122155427932739
0.93999534845352173 0.81840211153030396 0.9363400936126709
0.041869670152664185 0.94908523559570312 0.50004559755325317
0.27087342739105225 0.94840049743652344 0.48683130741119385
0.5271371603012085 0.94543558359146118 0.50754094123840332
0.92219215631484985 0.93690669536590576 0.66151714324951172
0.97104150056838989 0.83488649129867554 0.83236426115036011
0.034814048558473587 0.050617009401321411 0.72511166334152222
0.26715373992919922 0.037732172757387161 0.72928804159164429
0.49011754989624023 0.04381975531578064 0.72244393825531006
0.70663321018218994 0.054813999682664871 0.75391173362731934
0.77020901441574097 0.19505289196968079 0.95192909240722656
0.039098970592021942 0.26464682817459106 0.72267180681228638
0.25964009761810303 0.26223629713058472 0.72878491878509521
0.48924729228019714 0.26599633693695068 0.72543567419052124
0.70729202032089233 0.28224217891693115 0.75352346897125244
0.78586041927337646 0.43029090762138367 0.95455020666122437
0.035533320158720016 0.48866468667984009 0.72575896978378296
0.25437751412391663 0.49326902627944946 0.72890764474868774
0.48688873648643494 0.49394327402114868 0.72247815132141113
0.70291322469711304 0.5109744668006897 0.74641168117523193
0.81824320554733276 0.6600690484046936 0.9551653265953064
0.037296339869499207 0.72258633375167847 0.7214512825012207
0.25207999348640442 0.72735530138015747 0.72494995594024658
0.50002318620681763 0.72664374113082886 0.72661048173904419
0.72021043300628662 0.73011529445648193 0.74213314056396484
0.89276880025863647 0.86424404382705688 0.95344030857086182
0.037317521870136261 0.94818317890167236 0.73100882768630981
0.26166757941246033 0.95536720752716064 0.71875745058059692
0.49329987168312073 0.95580184459686279 0.72501564025878906
0.74441814422607422 0.94421571493148804 0.73755985498428345
0.96441465616226196 0.90338671207427979 0.91355663537979126
0.02809358574450016 0.038730740547180176 0.95207029581069946
0.25418731570243835 0.036804679781198502 0.95041418075561523
0.49616196751594543 0.034809187054634094 0.95561271905899048
0.72813820838928223 0.039015166461467743 0.95797455310821533
0.92844301462173462 0.045878630131483078 0.96307528018951416
0.042371261864900589 0.26935189962387085 0.95744574069976807
0.26444360613822937 0.26983186602592468 0.94678342342376709
0.48772192001342773 0.26260939240455627 0.95335018634796143
0.7227213978767395 0.26178109645843506 0.9591640830039978
0.93773186206817627 0.28054752945899963 0.97470074892044067
0.040880870074033737 0.49820947647094727 0.95601546764373779
0.26638424396514893 0.49527961015701294 0.95426881313323975
0.48726889491081238 0.4994569718837738 0.95356303453445435
0.72815144062042236 0.49497205018997192 0.95834314823150635
0.93797141313552856 0.503490149974823 0.96569597721099854
0.042362570762634277 0.72121483087539673 0.95103830099105835
0.26210871338844299 0.72555142641067505 0.95388501882553101
0.48991602659225464 0.72438204288482666 0.95506918430328369
0.71499311923980713 0.72063571214675903 0.94819504022598267
0.93499410152435303 0.74350559711456299 0.97931456565856934
0.037444498389959335 0.95480811595916748 0.95984822511672974
0.26249316334724426 0.95589554309844971 0.95256751775741577
0.49098673462867737 0.95464396476745605 0.95648694038391113
0.72447246313095093 0.95262604951858521 0.95181906223297119
0.96246564388275146 0.95738345384597778 0.97203296422958374
