assets/lut/others purple.cube
# Created by: G'MIC (https://gmic.eu)
TITLE "purple"
# LUT size
LUT_3D_SIZE 5
# Data domain
DOMAIN_MIN 0.0 0.0 0.0
DOMAIN_MAX 1.0 1.0 1.0
# LUT data points
0.12283093482255936 0.12271367758512497 0.12482739984989166
0.22707384824752808 0.11721710860729218 0.12567977607250214
0.41178703308105469 0.10472892224788666 0.13324210047721863
0.71349221467971802 0.01447734422981739 0.12738910317420959
0.98711854219436646 0.00069403555244207382 0.10799875855445862
0.11739014089107513 0.22773748636245728 0.13710540533065796
0.23568619787693024 0.23575948178768158 0.13136467337608337
0.42610353231430054 0.2397674173116684 0.13528852164745331
0.71760368347167969 0.24478630721569061 0.12216131389141083
0.98972749710083008 0.2407117635011673 0.09774056077003479
0.052697081118822098 0.43069681525230408 0.16688191890716553
0.2216947078704834 0.43287461996078491 0.13355989754199982
0.49168756604194641 0.48547914624214172 0.099006295204162598
0.75644874572753906 0.50445210933685303 0.079764500260353088
0.98784351348876953 0.49872308969497681 0.062873095273971558
0 0.73076736927032471 0.16395993530750275
0.1532360315322876 0.74138337373733521 0.039619609713554382
0.49374121427536011 0.75055229663848877 0.023755660280585289
0.82085394859313965 0.8163764476776123 0.0057532219216227531
0.99719089269638062 0.7709808349609375 0.065093725919723511
0 0.9907602071762085 0.019267765805125237
0.039592068642377853 0.9896923303604126 0.0033190858084708452
0.46773791313171387 0.98433023691177368 0.005941473413258791
0.75178372859954834 0.98701900243759155 0.0049820845015347004
0.98475134372711182 0.99122655391693115 0.09314563125371933
0.033673860132694244 0.12581780552864075 0.2935231626033783
0.23442739248275757 0.11776712536811829 0.28012889623641968
0.43156307935714722 0.059262190014123917 0.29906842112541199
0.72986257076263428 0 0.31772467494010925
0.98709970712661743 0 0.29599955677986145
0.074567548930644989 0.25812163949012756 0.2931097149848938
0.22180090844631195 0.234527587890625 0.28794854879379272
0.43946850299835205 0.21307247877120972 0.29860368371009827
0.73651564121246338 0.14996415376663208 0.29816806316375732
0.99031686782836914 0.16360770165920258 0.29503533244132996
0.026186954230070114 0.43278375267982483 0.32454672455787659
0.20639076828956604 0.43694254755973816 0.31062433123588562
0.47268480062484741 0.46743679046630859 0.28891411423683167
0.75237929821014404 0.4728996753692627 0.29487040638923645
0.98810327053070068 0.48215225338935852 0.29336062073707581
0 0.7340511679649353 0.37453654408454895
0.094916172325611115 0.74851328134536743 0.33369949460029602
0.4653816819190979 0.75283503532409668 0.28772228956222534
0.81480962038040161 0.80850988626480103 0.30104309320449829
0.99578177928924561 0.76552629470825195 0.33086660504341125
0 0.98615437746047974 0.3663337230682373
0.084602817893028259 0.98638290166854858 0.3090042769908905
0.45393946766853333 0.98533749580383301 0.27366062998771667
0.75197082757949829 0.98988372087478638 0.29093343019485474
0.9890897274017334 0.98911261558532715 0.36301887035369873
0.00028635660419240594 0.13432970643043518 0.61796200275421143
0.17682681977748871 0.088089913129806519 0.60681641101837158
0.47409045696258545 0.0072804470546543598 0.57785815000534058
0.74619007110595703 9.3706919869873673e-05 0.60439139604568481
0.98902660608291626 0 0.58437007665634155
0 0.34229081869125366 0.62520593404769897
0.066547974944114685 0.25141686201095581 0.61907446384429932
0.46446958184242249 0.19394597411155701 0.59197497367858887
0.74840474128723145 0.087597310543060303 0.6032179594039917
0.98707312345504761 0.11655163019895554 0.57779502868652344
0 0.54529780149459839 0.63000130653381348
0.070453822612762451 0.53481048345565796 0.62973666191101074
0.43536689877510071 0.46474036574363708 0.6087537407875061
0.75674033164978027 0.44646221399307251 0.59216785430908203
0.98889189958572388 0.50860095024108887 0.59168392419815063
0 0.75539827346801758 0.65359532833099365
0.068948470056056976 0.759807288646698 0.64717644453048706
0.44852951169013977 0.7598450779914856 0.61748462915420532
0.79357826709747314 0.78890722990036011 0.62425327301025391
0.9899565577507019 0.77233380079269409 0.62653905153274536
0 0.98712748289108276 0.65184730291366577
0.11026262491941452 0.98586004972457886 0.63145095109939575
0.49361908435821533 0.98744946718215942 0.60634398460388184
0.76965463161468506 0.98697865009307861 0.61472660303115845
0.98664349317550659 0.98367685079574585 0.68321830034255981
0 0.15081104636192322 0.89763283729553223
0.018852069973945618 0.11420536786317825 0.89292091131210327
0.42885741591453552 0.013185508549213409 0.88366580009460449
0.73127502202987671 0.00028708964237011969 0.87295007705688477
0.98765051364898682 0 0.88274133205413818
0 0.34961441159248352 0.90264123678207397
0.014570483006536961 0.27026337385177612 0.90094470977783203
0.40243208408355713 0.22040563821792603 0.89032787084579468
0.72627496719360352 0.1473952978849411 0.87357360124588013
0.98286288976669312 0.11982498317956924 0.87374722957611084
2.423454679956194e-05 0.62825202941894531 0.90690499544143677
0.098154492676258087 0.60823553800582886 0.90730905532836914
0.40681108832359314 0.51446688175201416 0.89633095264434814
0.73419523239135742 0.47243010997772217 0.87651371955871582
0.98464673757553101 0.48272514343261719 0.85438120365142822
0.0096739828586578369 0.79724490642547607 0.89923632144927979
0.18521587550640106 0.80133956670761108 0.90048706531524658
0.53213131427764893 0.81097161769866943 0.89728176593780518
0.78212213516235352 0.79412537813186646 0.88160616159439087
0.97666335105895996 0.7974962592124939 0.85834687948226929
0.032511722296476364 0.98805242776870728 0.91657912731170654
0.20829865336418152 0.98604458570480347 0.91126799583435059
0.53276222944259644 0.98853957653045654 0.89216142892837524
0.79611474275588989 0.98008590936660767 0.86692732572555542
0.9853706955909729 0.98259651660919189 0.89853876829147339
0 0.1756969690322876 0.99807101488113403
0.004573148675262928 0.16645961999893188 0.99746739864349365
0.24477821588516235 0.11650016903877258 0.99855023622512817
0.64509326219558716 0.0035186170134693384 0.99736684560775757
0.9273877739906311 0 0.9991564154624939
0 0.3297392725944519 0.99887967109680176
0.0035129173193126917 0.28531724214553833 0.99941384792327881
0.24031524360179901 0.26633515954017639 0.99858886003494263
0.64932930469512939 0.22569568455219269 0.99741625785827637
0.93279856443405151 0.18042773008346558 0.99970823526382446
0.23068627715110779 0.63668781518936157 0.99786245822906494
0.22850266098976135 0.60425657033920288 0.99861979484558105
0.35475242137908936 0.52310597896575928 0.99814438819885254
0.67477798461914062 0.51319718360900879 0.99778330326080322
0.94949740171432495 0.50304818153381348 0.99851667881011963
0.38907358050346375 0.82163149118423462 0.99945902824401855
0.49455741047859192 0.83345824480056763 0.99888437986373901
0.66690325736999512 0.84719336032867432 0.99791377782821655
0.78361213207244873 0.81034660339355469 0.99748635292053223
0.97274512052536011 0.78789025545120239 0.99669820070266724
0.46731993556022644 0.9363134503364563 0.9992903470993042
0.53230029344558716 0.93596655130386353 0.99909704923629761
0.69198566675186157 0.95054608583450317 0.99679279327392578
0.86634331941604614 0.9720885157585144 0.99743878841400146
0.99046033620834351 0.98844033479690552 0.99442899227142334
