assets/lut/others fade.cube
# Created by: G'MIC (https://gmic.eu)
TITLE "fade"
# LUT size
LUT_3D_SIZE 7
# Data domain
DOMAIN_MIN 0.0 0.0 0.0
DOMAIN_MAX 1.0 1.0 1.0
# LUT data points
0.24163973331451416 0.31874459981918335 0.35800516605377197
0.36515024304389954 0.35871642827987671 0.37999320030212402
0.44202005863189697 0.35023501515388489 0.38587036728858948
0.53650623559951782 0.35269895195960999 0.39456692337989807
0.66159689426422119 0.3582967221736908 0.40488108992576599
0.81285881996154785 0.37277513742446899 0.4157048761844635
0.98380130529403687 0.38453978300094604 0.42844077944755554
0.31272086501121521 0.51014930009841919 0.398092120885849
0.39312440156936646 0.49075651168823242 0.40429124236106873
0.46456137299537659 0.46452984213829041 0.40854832530021667
0.56831455230712891 0.48448601365089417 0.42083904147148132
0.70111864805221558 0.49615442752838135 0.43012145161628723
0.86054641008377075 0.51206284761428833 0.44224786758422852
0.99829369783401489 0.52514219284057617 0.45430704951286316
0.28595197200775146 0.58687424659729004 0.41026082634925842
0.39957180619239807 0.61153048276901245 0.42617127299308777
0.49357962608337402 0.62561953067779541 0.43762996792793274
0.60251235961914062 0.62796032428741455 0.44613218307495117
0.73897212743759155 0.62471878528594971 0.45349466800689697
0.89632517099380493 0.63745254278182983 0.46550583839416504
1 0.65465015172958374 0.47660893201828003
0.3083001971244812 0.68934738636016846 0.43223893642425537
0.41289237141609192 0.70721495151519775 0.44399330019950867
0.50710827112197876 0.71918183565139771 0.45478862524032593
0.62404471635818481 0.72852152585983276 0.4644453227519989
0.77087616920471191 0.73250389099121094 0.47298291325569153
0.92289400100708008 0.74206840991973877 0.48268568515777588
1 0.76677179336547852 0.49485200643539429
0.34953701496124268 0.81785660982131958 0.45660841464996338
0.43340831995010376 0.81744390726089478 0.46451103687286377
0.5249970555305481 0.82833033800125122 0.47477295994758606
0.65053105354309082 0.85182672739028931 0.48690503835678101
0.80342781543731689 0.86371195316314697 0.49473628401756287
0.95622313022613525 0.86121618747711182 0.50192517042160034
1 0.88947254419326782 0.51682651042938232
0.34326297044754028 0.95541948080062866 0.47368082404136658
0.45702090859413147 0.94570350646972656 0.48893335461616516
0.55051189661026001 0.96206974983215332 0.4975401759147644
0.6898539662361145 0.98367619514465332 0.51015371084213257
0.84602200984954834 0.99213302135467529 0.51843726634979248
0.98243319988250732 0.97635310888290405 0.5275530219078064
1 0.99403369426727295 0.54326575994491577
0.36283957958221436 1 0.49903383851051331
0.48964622616767883 0.99978047609329224 0.51867842674255371
0.59593814611434937 1 0.52367854118347168
0.74069982767105103 1 0.53185927867889404
0.90417361259460449 1 0.5433114767074585
0.99988138675689697 1 0.55409270524978638
1 1 0.56221854686737061
0.2650260329246521 0.3045450747013092 0.45207169651985168
0.36490753293037415 0.32099941372871399 0.46720930933952332
0.43556571006774902 0.31054756045341492 0.47075155377388
0.5386887788772583 0.35506916046142578 0.48629546165466309
0.66828471422195435 0.3749125599861145 0.49926525354385376
0.82241427898406982 0.37824705243110657 0.50814509391784668
0.98401105403900146 0.3752405047416687 0.51619583368301392
0.33556365966796875 0.50512564182281494 0.49387943744659424
0.39248427748680115 0.45872184634208679 0.48986580967903137
0.46230402588844299 0.42575770616531372 0.49031913280487061
0.57333248853683472 0.48143669962882996 0.50913155078887939
0.71433097124099731 0.52364987134933472 0.52581238746643066
0.87483441829681396 0.52460783720016479 0.53447842597961426
0.99948298931121826 0.52206915616989136 0.54203897714614868
0.30550327897071838 0.58870071172714233 0.50524532794952393
0.40194758772850037 0.59287190437316895 0.5136268138885498
0.49228563904762268 0.59405452013015747 0.52130186557769775
0.60476624965667725 0.61147403717041016 0.53273367881774902
0.75112712383270264 0.6320456862449646 0.54507350921630859
0.91668415069580078 0.64800965785980225 0.55618911981582642
1 0.66084414720535278 0.56587487459182739
0.31211408972740173 0.69705748558044434 0.52408319711685181
0.41283667087554932 0.70475935935974121 0.5337836742401123
0.50852936506271362 0.71006286144256592 0.54275614023208618
0.62555199861526489 0.72072321176528931 0.55224931240081787
0.77995812892913818 0.73425662517547607 0.56139063835144043
0.94627839326858521 0.74641603231430054 0.57130616903305054
1 0.77254301309585571 0.58385396003723145
0.31423383951187134 0.81799912452697754 0.54137617349624634
0.42540884017944336 0.82637780904769897 0.55351978540420532
0.52591216564178467 0.82517987489700317 0.56337434053421021
0.64808434247970581 0.84449869394302368 0.57256996631622314
0.80415046215057373 0.86520206928253174 0.58163952827453613
0.97201120853424072 0.86276447772979736 0.59254354238510132
1 0.89026302099227905 0.60587060451507568
0.3350902795791626 0.95475375652313232 0.56344270706176758
0.45934763550758362 0.95777761936187744 0.58071935176849365
0.55861574411392212 0.96300721168518066 0.58889853954315186
0.68813055753707886 0.98295599222183228 0.59550315141677856
0.84514957666397095 0.99319493770599365 0.60568100214004517
0.99327105283737183 0.97363471984863281 0.61745584011077881
1 0.99051815271377563 0.62991952896118164
0.4035506546497345 1 0.59808492660522461
0.5046687126159668 1 0.61065971851348877
0.60342025756835938 1 0.61435544490814209
0.7412756085395813 1 0.61818033456802368
0.90882384777069092 1 0.62892520427703857
1 1 0.6402243971824646
1 1 0.64841765165328979
0.28209581971168518 0.32853692770004272 0.54949450492858887
0.3651595413684845 0.34494200348854065 0.55991089344024658
0.44021749496459961 0.34551259875297546 0.56434351205825806
0.54043656587600708 0.35316681861877441 0.57246595621109009
0.673500657081604 0.37497541308403015 0.58442848920822144
0.83010309934616089 0.38767519593238831 0.59528326988220215
0.9836803674697876 0.38004705309867859 0.60260009765625
0.29468804597854614 0.49140289425849915 0.57511335611343384
0.38096541166305542 0.48950967192649841 0.58151710033416748
0.46779030561447144 0.48290297389030457 0.58684247732162476
0.57483446598052979 0.48118284344673157 0.59539216756820679
0.71966677904129028 0.50880777835845947 0.60791486501693726
0.88133007287979126 0.52654045820236206 0.61811560392379761
0.99721932411193848 0.52193593978881836 0.626994788646698
0.27915999293327332 0.59351611137390137 0.58921188116073608
0.40183880925178528 0.61594563722610474 0.6033974289894104
0.49792292714118958 0.62061387300491333 0.61168378591537476
0.60876888036727905 0.61762386560440063 0.61963403224945068
0.76139646768569946 0.63207739591598511 0.6291387677192688
0.92755258083343506 0.64837336540222168 0.63835030794143677
1 0.66194826364517212 0.65009719133377075
0.34437382221221924 0.70889449119567871 0.61368262767791748
0.4280342161655426 0.7230989933013916 0.62271702289581299
0.51582711935043335 0.72600769996643066 0.62950265407562256
0.63228940963745117 0.72946357727050781 0.63710016012191772
0.79117447137832642 0.74039232730865479 0.64540559053421021
0.95748168230056763 0.75323683023452759 0.65428823232650757
1 0.7794768214225769 0.66758435964584351
0.32895335555076599 0.81557279825210571 0.62760597467422485
0.43340954184532166 0.84398049116134644 0.63852214813232422
0.5326305627822876 0.85078758001327515 0.64662384986877441
0.65743708610534668 0.85628080368041992 0.65493857860565186
0.82084912061691284 0.86553311347961426 0.66384464502334595
0.97940844297409058 0.8690948486328125 0.67456245422363281
1 0.90135568380355835 0.68813753128051758
0.36399087309837341 0.94630622863769531 0.65262198448181152
0.46296554803848267 0.96616917848587036 0.6624646782875061
0.56152111291885376 0.97412848472595215 0.66922169923782349
0.69551384449005127 0.97476482391357422 0.67738360166549683
0.86179304122924805 0.97728461027145386 0.68688833713531494
0.99505627155303955 0.9723699688911438 0.69806790351867676
1 0.99596118927001953 0.70975220203399658
0.39017251133918762 1 0.67871451377868652
0.49682950973510742 1 0.68871855735778809
0.60000908374786377 1 0.69263976812362671
0.7408873438835144 0.99990218877792358 0.69924533367156982
0.91166985034942627 1 0.70952194929122925
1 1 0.71954178810119629
1 1 0.7278628945350647
0.25211390852928162 0.32795813679695129 0.62715768814086914
0.36311835050582886 0.34540650248527527 0.64181673526763916
0.4449923038482666 0.35243234038352966 0.64841979742050171
0.54220747947692871 0.3552386462688446 0.65593492984771729
0.67414122819900513 0.3702530562877655 0.66547322273254395
0.83428573608398438 0.39182397723197937 0.67689317464828491
0.98577916622161865 0.39951428771018982 0.68825912475585938
0.25300201773643494 0.47190016508102417 0.64822345972061157
0.37043589353561401 0.49342724680900574 0.66320550441741943
0.47030749917030334 0.50084793567657471 0.67299890518188477
0.57590055465698242 0.49199143052101135 0.67952221632003784
0.72056281566619873 0.50426369905471802 0.68816673755645752
0.88291579484939575 0.52867656946182251 0.69890958070755005
0.98791110515594482 0.53584140539169312 0.71303343772888184
0.3251042366027832 0.60626637935638428 0.67729872465133667
0.41160610318183899 0.62215673923492432 0.68787014484405518
0.49986577033996582 0.62684875726699829 0.69542622566223145
0.60902625322341919 0.62559765577316284 0.7028316855430603
0.76115876436233521 0.63323444128036499 0.71031945943832397
0.92922401428222656 0.64538657665252686 0.71835166215896606
1 0.66078442335128784 0.73162943124771118
0.35789352655410767 0.71358954906463623 0.69666075706481934
0.43268352746963501 0.72711771726608276 0.70465916395187378
0.51734691858291626 0.73108577728271484 0.70991247892379761
0.63372147083282471 0.73433417081832886 0.71778374910354614
0.78831571340560913 0.74430519342422485 0.72595244646072388
0.95507204532623291 0.75626695156097412 0.73395013809204102
1 0.78183245658874512 0.74816721677780151
0.33080536127090454 0.83046001195907593 0.70580518245697021
0.43762674927711487 0.85306650400161743 0.71734440326690674
0.53731989860534668 0.85650277137756348 0.7243468165397644
0.66265052556991577 0.86029493808746338 0.73308354616165161
0.825084388256073 0.87110918760299683 0.74176377058029175
0.97826462984085083 0.87971234321594238 0.75163727998733521
1 0.90879112482070923 0.76784718036651611
0.36709469556808472 0.96132606267929077 0.73117351531982422
0.46441495418548584 0.97355467081069946 0.73965364694595337
0.56848734617233276 0.97114628553390503 0.74783140420913696
0.70447909832000732 0.97386628389358521 0.75798124074935913
0.86783772706985474 0.98080909252166748 0.76436328887939453
0.9954228401184082 0.98386216163635254 0.77329391241073608
1 0.9989740252494812 0.78788304328918457
0.3627941906452179 0.99955719709396362 0.75039064884185791
0.4837062656879425 1 0.76221227645874023
0.60321223735809326 1 0.77099764347076416
0.75261735916137695 1 0.78184515237808228
0.91409730911254883 0.99967503547668457 0.78952723741531372
1 1 0.79651647806167603
1 1 0.80342507362365723
0.26908916234970093 0.33129662275314331 0.70717763900756836
0.37411531805992126 0.35163477063179016 0.72254526615142822
0.45171958208084106 0.35952508449554443 0.7312512993812561
0.54417687654495239 0.36089238524436951 0.73781752586364746
0.67449545860290527 0.36620789766311646 0.74390101432800293
0.83349144458770752 0.38187363743782043 0.75262349843978882
0.98871177434921265 0.39696395397186279 0.7625853419303894
0.25256383419036865 0.47864753007888794 0.72858870029449463
0.37998288869857788 0.49631324410438538 0.74331015348434448
0.47545772790908813 0.50608593225479126 0.75324547290802002
0.58024680614471436 0.50907641649246216 0.7613644003868103
0.721038818359375 0.50667798519134521 0.767525315284729
0.88695567846298218 0.51666891574859619 0.77491188049316406
0.99941062927246094 0.53075307607650757 0.78565341234207153
0.3180103600025177 0.61244869232177734 0.7584044337272644
0.41694125533103943 0.62051606178283691 0.76725786924362183
0.50304704904556274 0.62735044956207275 0.77306324243545532
0.6129797101020813 0.63768684864044189 0.78261971473693848
0.76254159212112427 0.64054125547409058 0.79048669338226318
0.93055617809295654 0.64276218414306641 0.79646390676498413
1 0.65723925828933716 0.80658739805221558
0.33847087621688843 0.71000903844833374 0.77359580993652344
0.42583358287811279 0.72091972827911377 0.7828947901725769
0.51860612630844116 0.72697633504867554 0.78720963001251221
0.63500750064849854 0.73867136240005493 0.79710561037063599
0.7861749529838562 0.75016635656356812 0.80605447292327881
0.95425951480865479 0.7558596134185791 0.81225764751434326
1 0.7803196907043457 0.82458430528640747
0.36250165104866028 0.83415478467941284 0.7878262996673584
0.44329330325126648 0.84987199306488037 0.79637306928634644
0.54051190614700317 0.84645068645477295 0.80043399333953857
0.6623191237449646 0.8579409122467041 0.81059086322784424
0.82340371608734131 0.88223510980606079 0.82145166397094727
0.98087197542190552 0.88686293363571167 0.82945168018341064
1 0.90912014245986938 0.84674715995788574
0.35009515285491943 0.95958763360977173 0.80883544683456421
0.46096879243850708 0.97008538246154785 0.81941938400268555
0.57108378410339355 0.96408390998840332 0.82511019706726074
0.70410686731338501 0.97422003746032715 0.83295857906341553
0.8637244701385498 0.99650019407272339 0.84194743633270264
0.99841314554214478 0.99699550867080688 0.84764516353607178
1 0.9996335506439209 0.8660738468170166
0.399984210729599 1 0.83227062225341797
0.4895988404750824 1 0.83894675970077515
0.61017423868179321 1 0.84619039297103882
0.76091545820236206 1 0.85561150312423706
0.91543382406234741 1 0.86452925205230713
1 1 0.86911028623580933
1 1 0.87310785055160522
0.26603567600250244 0.31701606512069702 0.78149032592773438
0.37884652614593506 0.35481461882591248 0.79966282844543457
0.45513719320297241 0.36410513520240784 0.8087151050567627
0.55068504810333252 0.36611044406890869 0.81473422050476074
0.68003195524215698 0.37062922120094299 0.82153820991516113
0.83720731735229492 0.38577589392662048 0.82978487014770508
0.99298346042633057 0.40616729855537415 0.83994632959365845
0.27885246276855469 0.49303606152534485 0.81090402603149414
0.3902302086353302 0.50146031379699707 0.82207101583480835
0.47883632779121399 0.51014000177383423 0.83052676916122437
0.58362001180648804 0.51543557643890381 0.83870166540145874
0.72117602825164795 0.50838661193847656 0.84499937295913696
0.89082437753677368 0.52629202604293823 0.85490113496780396
1 0.54771655797958374 0.8638419508934021
0.30700859427452087 0.61401140689849854 0.83488565683364868
0.41213130950927734 0.61953914165496826 0.8442041277885437
0.50160413980484009 0.62616026401519775 0.84974020719528198
0.61526209115982056 0.64064526557922363 0.86023473739624023
0.76825159788131714 0.64876025915145874 0.86819571256637573
0.93409466743469238 0.6531720757484436 0.87278157472610474
1 0.66798049211502075 0.87858259677886963
0.30958008766174316 0.70766532421112061 0.84819072484970093
0.42430916428565979 0.71968370676040649 0.86074709892272949
0.52125567197799683 0.72650504112243652 0.86812585592269897
0.64169865846633911 0.7407955527305603 0.87797969579696655
0.80550634860992432 0.75388365983963013 0.88157016038894653
0.96717900037765503 0.75807392597198486 0.88205206394195557
1 0.78497862815856934 0.88790583610534668
0.34060832858085632 0.83800512552261353 0.86258882284164429
0.44653207063674927 0.85146218538284302 0.87541073560714722
0.54262983798980713 0.85151499509811401 0.8823208212852478
0.66860240697860718 0.86210709810256958 0.89124274253845215
0.83750301599502563 0.88186216354370117 0.89825797080993652
0.98865967988967896 0.8813214898109436 0.90037906169891357
1 0.91317468881607056 0.90654122829437256
0.36154508590698242 0.96307277679443359 0.88154762983322144
0.47138229012489319 0.97234487533569336 0.89659130573272705
0.56945669651031494 0.97865408658981323 0.90106278657913208
0.70735448598861694 0.98349195718765259 0.9016299843788147
0.86653649806976318 0.99620270729064941 0.91687995195388794
0.99067234992980957 0.99874156713485718 0.92076778411865234
0.99979013204574585 1 0.92412322759628296
0.43560865521430969 1 0.90167093276977539
0.5133286714553833 1 0.9065399169921875
0.61948972940444946 1 0.90941411256790161
0.76780945062637329 1 0.91148233413696289
0.92515343427658081 1 0.91940641403198242
1 1 0.92260617017745972
1 1 0.92251002788543701
0.27272728085517883 0.33755895495414734 0.8609769344329834
0.38397204875946045 0.35546082258224487 0.87555038928985596
0.45533141493797302 0.36620938777923584 0.88165432214736938
0.55933701992034912 0.38098013401031494 0.88942450284957886
0.68500691652297974 0.38015460968017578 0.89827054738998413
0.83533161878585815 0.3779110312461853 0.9048149585723877
0.98988544940948486 0.40434932708740234 0.91572356224060059
0.32943558692932129 0.50649797916412354 0.89255189895629883
0.40538299083709717 0.50633019208908081 0.89922606945037842
0.4849058985710144 0.513202965259552 0.90549188852310181
0.59143269062042236 0.52047872543334961 0.91174173355102539
0.72561264038085938 0.51723957061767578 0.91875499486923218
0.88770788908004761 0.52867352962493896 0.92808759212493896
0.99999064207077026 0.54849189519882202 0.93502926826477051
0.31631529331207275 0.6139797568321228 0.90729397535324097
0.41504457592964172 0.62152695655822754 0.91860902309417725
0.50663191080093384 0.62932753562927246 0.92609471082687378
0.620433509349823 0.6362912654876709 0.93125432729721069
0.77357000112533569 0.64648842811584473 0.93265241384506226
0.93687194585800171 0.66120100021362305 0.93417876958847046
1 0.67671716213226318 0.93698060512542725
0.31017377972602844 0.71418070793151855 0.91630083322525024
0.43008065223693848 0.726246178150177 0.93099260330200195
0.52906060218811035 0.7351226806640625 0.93961304426193237
0.65324366092681885 0.74518299102783203 0.94373881816864014
0.81950986385345459 0.75518393516540527 0.93587249517440796
0.97267216444015503 0.76434016227722168 0.92591917514801025
1 0.79112297296524048 0.92824709415435791
0.32254382967948914 0.8496442437171936 0.92313468456268311
0.44628554582595825 0.85808360576629639 0.93369811773300171
0.55075860023498535 0.86321026086807251 0.93803268671035767
0.68196988105773926 0.87028086185455322 0.94315868616104126
0.85450470447540283 0.87538623809814453 0.93874406814575195
0.99251031875610352 0.87939393520355225 0.92861723899841309
1 0.91594779491424561 0.92880511283874512
0.34862706065177917 0.97299695014953613 0.93305867910385132
0.47383242845535278 0.97548782825469971 0.94027918577194214
0.57896721363067627 0.98658883571624756 0.93431085348129272
0.71348828077316284 0.99234992265701294 0.93403452634811401
0.8776623010635376 0.98426270484924316 0.94402658939361572
0.99134081602096558 0.98843371868133545 0.94229024648666382
0.99985784292221069 0.99990475177764893 0.93745297193527222
0.39768245816230774 0.99993431568145752 0.93374502658843994
0.52387022972106934 1 0.94183719158172607
0.62853670120239258 1 0.94063740968704224
0.76747018098831177 1 0.93942224979400635
0.9174574613571167 1 0.94489419460296631
0.99939483404159546 1 0.94679832458496094
1 1 0.94339442253112793
