assets/lut/others expired polaroid.cube
# Created by: G'MIC (https://gmic.eu)
TITLE "expired_polaroid"
# LUT size
LUT_3D_SIZE 13
# Data domain
DOMAIN_MIN 0.0 0.0 0.0
DOMAIN_MAX 1.0 1.0 1.0
# LUT data points
0.42800945043563843 0.26184657216072083 0.10062351822853088
0.46204888820648193 0.27292120456695557 0.10758234560489655
0.49425306916236877 0.28264158964157104 0.11350855976343155
0.52548044919967651 0.29116204380989075 0.11873984336853027
0.55650532245635986 0.29833132028579712 0.12410327792167664
0.58759146928787231 0.30397462844848633 0.13017621636390686
0.61908805370330811 0.30802181363105774 0.13828478753566742
0.65075278282165527 0.31130725145339966 0.14777225255966187
0.68259477615356445 0.31407493352890015 0.15740384161472321
0.71400803327560425 0.31718090176582336 0.16611066460609436
0.74502575397491455 0.32082667946815491 0.17286209762096405
0.77508103847503662 0.32484585046768188 0.17774590849876404
0.80414700508117676 0.32808423042297363 0.18118886649608612
0.4294283390045166 0.28850030899047852 0.10148562490940094
0.46326777338981628 0.29981300234794617 0.1086546778678894
0.49542364478111267 0.31015506386756897 0.11475116759538651
0.52698957920074463 0.31892043352127075 0.12034279108047485
0.55824315547943115 0.32626700401306152 0.12577269971370697
0.58961576223373413 0.33199682831764221 0.13195794820785522
0.62133127450942993 0.33652845025062561 0.13992594182491302
0.6533694863319397 0.34012371301651001 0.14922362565994263
0.68539422750473022 0.34361118078231812 0.15845160186290741
0.71714210510253906 0.34713056683540344 0.1671910434961319
0.74846911430358887 0.35128691792488098 0.1742836982011795
0.77897340059280396 0.35555025935173035 0.17954094707965851
0.80846703052520752 0.35916861891746521 0.18384185433387756
0.4288291335105896 0.31299495697021484 0.10108247399330139
0.46261021494865417 0.32426321506500244 0.10813212394714355
0.49507114291191101 0.33508890867233276 0.11451311409473419
0.5269399881362915 0.34443318843841553 0.12057948112487793
0.55871498584747314 0.35173290967941284 0.12629999220371246
0.59045910835266113 0.35760378837585449 0.13276338577270508
0.62248384952545166 0.36253723502159119 0.14046765863895416
0.65481042861938477 0.36691901087760925 0.14934001863002777
0.68700039386749268 0.37111982703208923 0.15825746953487396
0.71902751922607422 0.37553605437278748 0.1667918860912323
0.75055307149887085 0.38018530607223511 0.17421849071979523
0.78139698505401611 0.38467150926589966 0.18018561601638794
0.81119918823242188 0.38865157961845398 0.18493637442588806
0.42751729488372803 0.33685025572776794 0.099878288805484772
0.46119216084480286 0.34770053625106812 0.10657411813735962
0.49384596943855286 0.35842978954315186 0.11305589973926544
0.52607673406600952 0.36760234832763672 0.11925485730171204
0.55816632509231567 0.37506234645843506 0.12542393803596497
0.59034049510955811 0.38138243556022644 0.13220047950744629
0.6226000189781189 0.38694697618484497 0.1399075984954834
0.65511316061019897 0.39206811785697937 0.14839288592338562
0.68744444847106934 0.39708814024925232 0.15722453594207764
0.71947216987609863 0.40222141146659851 0.16563260555267334
0.7513156533241272 0.40733402967453003 0.1732802540063858
0.78239792585372925 0.41230905055999756 0.17963752150535583
0.81253790855407715 0.41652429103851318 0.18533121049404144
0.42604410648345947 0.36240306496620178 0.099020145833492279
0.4596284031867981 0.37199068069458008 0.10512297600507736
0.49248573184013367 0.38130250573158264 0.11095802485942841
0.524993896484375 0.38985088467597961 0.11708469688892365
0.55737721920013428 0.39722955226898193 0.12358222156763077
0.58963233232498169 0.40385708212852478 0.13051557540893555
0.62209451198577881 0.41004747152328491 0.1383792906999588
0.65455430746078491 0.41599786281585693 0.14682088792324066
0.6869472861289978 0.42165017127990723 0.1554955393075943
0.71922320127487183 0.42748233675956726 0.16398239135742188
0.75097435712814331 0.43316641449928284 0.17182967066764832
0.78226351737976074 0.43848687410354614 0.17879705131053925
0.81273108720779419 0.44323593378067017 0.18504743278026581
0.42523062229156494 0.39011034369468689 0.09938705712556839
0.45845717191696167 0.39748468995094299 0.10424128174781799
0.49158719182014465 0.40514987707138062 0.10930519551038742
0.52385574579238892 0.41242393851280212 0.11485344171524048
0.55636781454086304 0.41944468021392822 0.12130578607320786
0.58875030279159546 0.42613917589187622 0.12852871417999268
0.62110483646392822 0.4327201247215271 0.13636793196201324
0.65351772308349609 0.43904381990432739 0.14483900368213654
0.68592482805252075 0.44542694091796875 0.15342555940151215
0.71806788444519043 0.45176354050636292 0.16197392344474792
0.7500043511390686 0.4579189121723175 0.17020668089389801
0.78131532669067383 0.46366390585899353 0.17766965925693512
0.81182068586349487 0.46880072355270386 0.18430279195308685
0.42551532387733459 0.41918298602104187 0.10109930485486984
0.458566814661026 0.42480620741844177 0.10470365732908249
0.49158719182014465 0.43015372753143311 0.10855355113744736
0.52369982004165649 0.43608686327934265 0.11331562697887421
0.55586415529251099 0.44233536720275879 0.11958538740873337
0.58806884288787842 0.44884547591209412 0.12662686407566071
0.62016677856445312 0.45535504817962646 0.13440054655075073
0.65230530500411987 0.46208113431930542 0.14278410375118256
0.68451261520385742 0.4688265323638916 0.15130090713500977
0.71670562028884888 0.47556880116462708 0.16003359854221344
0.74849754571914673 0.48208582401275635 0.16841328144073486
0.77985823154449463 0.488311767578125 0.1763334721326828
0.81067264080047607 0.49379763007164001 0.18333061039447784
0.42749124765396118 0.44935232400894165 0.10430888831615448
0.46041345596313477 0.45339557528495789 0.10706942528486252
0.49265897274017334 0.45706936717033386 0.1096506342291832
0.52456486225128174 0.46132618188858032 0.11339633166790009
0.55611228942871094 0.46669432520866394 0.11898329854011536
0.58786231279373169 0.47252786159515381 0.12557333707809448
0.61928677558898926 0.47877472639083862 0.13288901746273041
0.65118211507797241 0.4853518009185791 0.14076985418796539
0.68316733837127686 0.49226963520050049 0.14923128485679626
0.71511960029602051 0.49930241703987122 0.15801368653774261
0.7469133734703064 0.50617563724517822 0.16670975089073181
0.77830386161804199 0.51274603605270386 0.17494678497314453
0.80901193618774414 0.51857727766036987 0.18240931630134583
0.43155518174171448 0.48024106025695801 0.10879966616630554
0.46410319209098816 0.48331573605537415 0.11109716445207596
0.49574047327041626 0.4859931468963623 0.11312788724899292
0.52668952941894531 0.48898130655288696 0.11595373600721359
0.55732107162475586 0.4926857054233551 0.12022361159324646
0.58791297674179077 0.49741929769515991 0.12560208141803741
0.61881965398788452 0.50297868251800537 0.13195699453353882
0.65015238523483276 0.50929886102676392 0.13933277130126953
0.68187838792800903 0.51617443561553955 0.14750990271568298
0.71370100975036621 0.52346253395080566 0.15620620548725128
0.74545764923095703 0.53054296970367432 0.1650329977273941
0.77681058645248413 0.5372505784034729 0.17361395061016083
0.80758798122406006 0.54340612888336182 0.18152628839015961
0.43695086240768433 0.51165962219238281 0.11431187391281128
0.46903219819068909 0.5146256685256958 0.11655930429697037
0.49998170137405396 0.51651489734649658 0.11815515905618668
0.52977406978607178 0.51812756061553955 0.11991599947214127
0.55913627147674561 0.52034264802932739 0.12257901579141617
0.58847266435623169 0.52361279726028442 0.12644551694393158
0.61870318651199341 0.52816355228424072 0.13156570494174957
0.6494261622428894 0.53395169973373413 0.13822835683822632
0.68088811635971069 0.54081422090530396 0.1460755467414856
0.71265238523483276 0.54807174205780029 0.15463352203369141
0.74428248405456543 0.55539780855178833 0.16368457674980164
0.7755933403968811 0.56231820583343506 0.17251147329807281
0.80648022890090942 0.56868672370910645 0.18057005107402802
0.44296008348464966 0.54357618093490601 0.11999336630105972
0.47484028339385986 0.54656875133514404 0.12237904965877533
0.50493764877319336 0.5477181077003479 0.12369625270366669
0.53341978788375854 0.5482221245765686 0.12418136745691299
0.561165452003479 0.54873979091644287 0.12535229325294495
0.58934253454208374 0.55057781934738159 0.1276300847530365
0.61847317218780518 0.55417591333389282 0.13169270753860474
0.64888781309127808 0.55966365337371826 0.13759626448154449
0.68021023273468018 0.56630617380142212 0.14498478174209595
0.71191787719726562 0.57350671291351318 0.15345697104930878
0.74381065368652344 0.5809590220451355 0.16244561970233917
0.77495479583740234 0.58803254365921021 0.17130216956138611
0.80553179979324341 0.59433114528656006 0.1795484870672226
0.44828066229820251 0.57514756917953491 0.12506484985351562
0.48027306795120239 0.57836413383483887 0.12759007513523102
0.5097728967666626 0.57952100038528442 0.12856362760066986
0.53690642118453979 0.57870948314666748 0.12807530164718628
0.56329238414764404 0.57764548063278198 0.1277277022600174
0.59019172191619873 0.57816058397293091 0.12883034348487854
0.618458092212677 0.5808941125869751 0.13201192021369934
0.64861047267913818 0.58591508865356445 0.1373632550239563
0.67996227741241455 0.59245604276657104 0.14433124661445618
0.7116086483001709 0.59984755516052246 0.15251719951629639
0.74357384443283081 0.6073727011680603 0.1614023745059967
0.77490425109863281 0.61450660228729248 0.1701391190290451
0.80526578426361084 0.62085729837417603 0.17822836339473724
0.45210906863212585 0.60551166534423828 0.12833860516548157
0.48391982913017273 0.60896623134613037 0.13101591169834137
0.51290899515151978 0.60988712310791016 0.13164719939231873
0.53937393426895142 0.60841876268386841 0.13085256516933441
0.56496894359588623 0.60674619674682617 0.12994171679019928
0.59105318784713745 0.60634291172027588 0.13030058145523071
0.61923134326934814 0.6085171103477478 0.13255858421325684
0.64876258373260498 0.61328792572021484 0.13745115697383881
0.68001830577850342 0.6196405291557312 0.14417126774787903
0.71157830953598022 0.62677609920501709 0.15195412933826447
0.74340701103210449 0.63417637348175049 0.16049826145172119
0.77473992109298706 0.64126127958297729 0.16895551979541779
0.80507874488830566 0.64754015207290649 0.17687894403934479
0.43486270308494568 0.26906505227088928 0.13312992453575134
0.46924474835395813 0.28003779053688049 0.14045105874538422
0.50180447101593018 0.28969895839691162 0.14669243991374969
0.53355515003204346 0.29837042093276978 0.15267476439476013
0.56509870290756226 0.30548709630966187 0.15868653357028961
0.59655886888504028 0.31154003739356995 0.1656380295753479
0.62856978178024292 0.31634390354156494 0.17407017946243286
0.66065770387649536 0.3202761709690094 0.18361349403858185
0.69268918037414551 0.32377800345420837 0.19358164072036743
0.72462195158004761 0.32766836881637573 0.20256456732749939
0.75606304407119751 0.33232316374778748 0.20934996008872986
0.78665393590927124 0.33704361319541931 0.21437826752662659
0.81604897975921631 0.34087511897087097 0.21808493137359619
0.43633908033370972 0.29618915915489197 0.13434357941150665
0.47031992673873901 0.30700325965881348 0.14158393442630768
0.50323647260665894 0.31713199615478516 0.1480509340763092
0.53487151861190796 0.32590708136558533 0.15408709645271301
0.56642210483551025 0.33341461420059204 0.16011008620262146
0.59823232889175415 0.33946934342384338 0.16700582206249237
0.63041102886199951 0.34446552395820618 0.17525708675384521
0.66289502382278442 0.34879353642463684 0.18456406891345978
0.69527131319046021 0.35298347473144531 0.19422289729118347
0.72763592004776001 0.35760065913200378 0.20340190827846527
0.75932008028030396 0.36248177289962769 0.21061260998249054
0.79026955366134644 0.36742949485778809 0.2162223756313324
0.82008033990859985 0.37163183093070984 0.22042831778526306
0.43568477034568787 0.32123616337776184 0.13388766348361969
0.46952813863754272 0.33180004358291626 0.14098231494426727
0.50227385759353638 0.34195071458816528 0.14771178364753723
0.53435850143432617 0.35101026296615601 0.15396818518638611
0.56636089086532593 0.35861697793006897 0.1602989137172699
0.5986754298210144 0.36482855677604675 0.1672966331243515
0.63115781545639038 0.37036988139152527 0.17555646598339081
0.66363829374313354 0.37543132901191711 0.18455834686756134
0.69640499353408813 0.3803432285785675 0.19393962621688843
0.72896873950958252 0.38553288578987122 0.2027096301317215
0.76106667518615723 0.39096343517303467 0.21021705865859985
0.79231220483779907 0.39618837833404541 0.21652813255786896
0.82248246669769287 0.40076005458831787 0.2213100790977478
0.43406510353088379 0.34554454684257507 0.13280904293060303
0.46772059798240662 0.35550764203071594 0.13955247402191162
0.50070458650588989 0.36533704400062561 0.14610949158668518
0.53318238258361816 0.37420719861984253 0.15255706012248993
0.56560498476028442 0.38182532787322998 0.15927602350711823
0.59813201427459717 0.38851863145828247 0.16653323173522949
0.63082218170166016 0.39447718858718872 0.17460513114929199
0.66360366344451904 0.40028423070907593 0.18349900841712952
0.69645994901657104 0.40607282519340515 0.1925080269575119
0.72910887002944946 0.41185301542282104 0.20122949779033661
0.76152348518371582 0.41775244474411011 0.2090480625629425
0.79278993606567383 0.42336443066596985 0.21583262085914612
0.82327556610107422 0.42815747857093811 0.22128279507160187
0.43225336074829102 0.37092378735542297 0.13210536539554596
0.46579104661941528 0.37966057658195496 0.13791798055171967
0.49885350465774536 0.38834568858146667 0.14418213069438934
0.53160423040390015 0.39658597111701965 0.15058675408363342
0.56426763534545898 0.40397286415100098 0.15739855170249939
0.59698927402496338 0.4109291136264801 0.16480971872806549
0.62985354661941528 0.41743165254592896 0.172840416431427
0.66270738840103149 0.42384505271911621 0.18158881366252899
0.69558024406433105 0.43030419945716858 0.190545454621315
0.72828954458236694 0.43670880794525146 0.19930146634578705
0.76052182912826538 0.44309470057487488 0.20743870735168457
0.79238170385360718 0.4491068422794342 0.21469008922576904
0.82288181781768799 0.45438066124916077 0.22095432877540588
0.43108096718788147 0.39794322848320007 0.13203658163547516
0.46442335844039917 0.4050942063331604 0.13712364435195923
0.49746248126029968 0.41212427616119385 0.14252403378486633
0.53032761812210083 0.41912877559661865 0.14853468537330627
0.56303113698959351 0.42598354816436768 0.15519200265407562
0.59583145380020142 0.43294978141784668 0.16259793937206268
0.6285443902015686 0.43976399302482605 0.17066477239131927
0.66132950782775879 0.44665941596031189 0.17927554249763489
0.69415563344955444 0.45364713668823242 0.18820281326770782
0.72684329748153687 0.46061927080154419 0.19706274569034576
0.75923454761505127 0.46741712093353271 0.20557416975498199
0.79093462228775024 0.47382569313049316 0.21327091753482819
0.82197105884552002 0.47954124212265015 0.22024476528167725
0.43115988373756409 0.4264969527721405 0.13351313769817352
0.46433177590370178 0.43176054954528809 0.13761691749095917
0.49720269441604614 0.43711000680923462 0.14187748730182648
0.52995878458023071 0.44261565804481506 0.14737698435783386
0.56230276823043823 0.44876590371131897 0.1535608321428299
0.5946279764175415 0.45546844601631165 0.1607663482427597
0.62722408771514893 0.46225252747535706 0.16857689619064331
0.65983748435974121 0.46940243244171143 0.17701750993728638
0.69243568181991577 0.47654643654823303 0.18579015135765076
0.72504550218582153 0.48409315943717957 0.19475309550762177
0.7573167085647583 0.49128282070159912 0.20355421304702759
0.78918975591659546 0.49808481335639954 0.21178536117076874
0.82022935152053833 0.50413328409194946 0.21932683885097504
0.43334159255027771 0.45619332790374756 0.13681024312973022
0.46607133746147156 0.46003711223602295 0.14004725217819214
0.49850642681121826 0.46359187364578247 0.14345896244049072
0.53062582015991211 0.46776321530342102 0.14771638810634613
0.5624157190322876 0.47296416759490967 0.15313687920570374
0.59447377920150757 0.47884336113929749 0.15961636602878571
0.62657850980758667 0.48538944125175476 0.16682711243629456
0.65855932235717773 0.49242007732391357 0.17476543784141541
0.69089430570602417 0.49987074732780457 0.18346966803073883
0.72331136465072632 0.50751280784606934 0.19253365695476532
0.75552558898925781 0.51516371965408325 0.20163695514202118
0.78734374046325684 0.52227848768234253 0.21029040217399597
0.81853008270263672 0.52868974208831787 0.2182452529668808
0.43801206350326538 0.48683220148086548 0.14186745882034302
0.47007337212562561 0.48961946368217468 0.14448247849941254
0.50168776512145996 0.49208259582519531 0.14694690704345703
0.53282648324966431 0.49491158127784729 0.14996437728404999
0.56375789642333984 0.49869009852409363 0.15410959720611572
0.59465628862380981 0.50348186492919922 0.15924555063247681
0.62570321559906006 0.50950008630752563 0.16554096341133118
0.65749043226242065 0.51625436544418335 0.17295058071613312
0.68956881761550903 0.5238029956817627 0.18136106431484222
0.72176247835159302 0.53156173229217529 0.19046361744403839
0.75392943620681763 0.5393257737159729 0.19978462159633636
0.78569298982620239 0.54675078392028809 0.20894114673137665
0.81692647933959961 0.55344164371490479 0.21722793579101562
0.4444262683391571 0.51809018850326538 0.14809265732765198
0.47569382190704346 0.52058529853820801 0.1502804160118103
0.50646126270294189 0.52211856842041016 0.15194243192672729
0.53636676073074341 0.52376478910446167 0.15363772213459015
0.56577181816101074 0.52607822418212891 0.15617270767688751
0.59547775983810425 0.52957266569137573 0.15989373624324799
0.62584662437438965 0.53460824489593506 0.16486433148384094
0.6569288969039917 0.54085475206375122 0.17155766487121582
0.68863040208816528 0.54836243391036987 0.17953865230083466
0.7207527756690979 0.55625694990158081 0.18879261612892151
0.75280535221099854 0.56425058841705322 0.19828483462333679
0.78456372022628784 0.57183659076690674 0.20763547718524933
0.815773606300354 0.57872170209884644 0.21625065803527832
0.45093372464179993 0.55009454488754272 0.15442875027656555
0.48222082853317261 0.55218261480331421 0.15632909536361694
0.51187145709991455 0.55335372686386108 0.15714974701404572
0.54046875238418579 0.55377709865570068 0.15763625502586365
0.56845539808273315 0.55465161800384521 0.15845352411270142
0.59681802988052368 0.55676555633544922 0.16078129410743713
0.62620663642883301 0.56084698438644409 0.16463878750801086
0.65659451484680176 0.56652641296386719 0.17061074078083038
0.68824106454849243 0.5739322304725647 0.17824508249759674
0.72028255462646484 0.58185750246047974 0.18718107044696808
0.75223219394683838 0.58991992473602295 0.19696986675262451
0.78420364856719971 0.59770166873931885 0.20654325187206268
0.81526190042495728 0.60469985008239746 0.21532592177391052
0.45714634656906128 0.58168786764144897 0.15972834825515747
0.48817646503448486 0.58407759666442871 0.16156148910522461
0.5171017050743103 0.58460092544555664 0.1618494987487793
0.54447752237319946 0.58414626121520996 0.16132907569408417
0.57114112377166748 0.58373522758483887 0.16101449728012085
0.59831917285919189 0.58475935459136963 0.16186149418354034
0.62695097923278809 0.58799749612808228 0.16480401158332825
0.65690481662750244 0.59341096878051758 0.16980427503585815
0.68822932243347168 0.60020405054092407 0.17749373614788055
0.72025978565216064 0.6082690954208374 0.18641713261604309
0.75225245952606201 0.61644995212554932 0.19596192240715027
0.78430473804473877 0.62427031993865967 0.2054968923330307
0.81527012586593628 0.63129252195358276 0.21444454789161682
0.46177050471305847 0.61236792802810669 0.16325530409812927
0.49261245131492615 0.61476820707321167 0.1650804877281189
0.52113604545593262 0.61525183916091919 0.16509914398193359
0.54764717817306519 0.61440569162368774 0.16379421949386597
0.57355117797851562 0.61341398954391479 0.16258975863456726
0.59989023208618164 0.61363542079925537 0.16290456056594849
0.62778341770172119 0.61610704660415649 0.16551773250102997
0.65773749351501465 0.62109851837158203 0.17019206285476685
0.68871694803237915 0.62777763605117798 0.17738494277000427
0.72047716379165649 0.63547587394714355 0.18573325872421265
0.7524951696395874 0.64338064193725586 0.19507704675197601
0.78436541557312012 0.65126663446426392 0.20443950593471527
0.81516134738922119 0.65808999538421631 0.213048055768013
0.4401659369468689 0.27515941858291626 0.16438120603561401
0.47478041052818298 0.28590366244316101 0.17197285592556
0.5079846978187561 0.29531550407409668 0.17876346409320831
0.540241539478302 0.30380734801292419 0.18539156019687653
0.5723833441734314 0.31119969487190247 0.19230109453201294
0.6045534610748291 0.31767719984054565 0.19984801113605499
0.63685649633407593 0.32322525978088379 0.20857891440391541
0.66943168640136719 0.32818752527236938 0.2181200236082077
0.70203149318695068 0.33311313390731812 0.22778749465942383
0.7342907190322876 0.33810007572174072 0.23665037751197815
0.76629650592803955 0.34356850385665894 0.24386286735534668
0.79723018407821655 0.34893041849136353 0.24935252964496613
0.82665008306503296 0.35310769081115723 0.25316071510314941
0.44172084331512451 0.3028753399848938 0.16583311557769775
0.47599643468856812 0.31311336159706116 0.17329241335391998
0.50897014141082764 0.32272830605506897 0.18015354871749878
0.54179757833480835 0.33124864101409912 0.18666483461856842
0.5738832950592041 0.33873477578163147 0.1934363842010498
0.60605734586715698 0.3453163206577301 0.20111151039600372
0.63856267929077148 0.35119867324829102 0.2098882645368576
0.67142224311828613 0.35655638575553894 0.21929682791233063
0.70431631803512573 0.36188554763793945 0.22875013947486877
0.73703926801681519 0.36740851402282715 0.2376539558172226
0.7691349983215332 0.3733532726764679 0.24526795744895935
0.80047523975372314 0.37894189357757568 0.25115177035331726
0.83076918125152588 0.3836120069026947 0.25572288036346436
0.44125649333000183 0.32867935299873352 0.16605766117572784
0.47518548369407654 0.33856308460235596 0.17290505766868591
0.50828057527542114 0.34790828824043274 0.17989064753055573
0.54085850715637207 0.3563876748085022 0.18665149807929993
0.5735662579536438 0.36406499147415161 0.19351370632648468
0.6061214804649353 0.37077963352203369 0.20123422145843506
0.63883906602859497 0.37709930539131165 0.20977672934532166
0.67196619510650635 0.38294336199760437 0.21885372698307037
0.70505452156066895 0.38890007138252258 0.22824506461620331
0.738028883934021 0.39500284194946289 0.23725923895835876
0.77052026987075806 0.40120124816894531 0.24504955112934113
0.80218464136123657 0.40707781910896301 0.25151905417442322
0.83248305320739746 0.41213679313659668 0.25672462582588196
0.43963226675987244 0.3538849949836731 0.16501745581626892
0.47336435317993164 0.36284777522087097 0.1718093603849411
0.50656938552856445 0.37166008353233337 0.17853341996669769
0.53949344158172607 0.38000354170799255 0.18532155454158783
0.57227027416229248 0.38752654194831848 0.19253695011138916
0.60513627529144287 0.39446887373924255 0.20019961893558502
0.63827013969421387 0.40114358067512512 0.20863524079322815
0.67148435115814209 0.40762460231781006 0.21764816343784332
0.7047041654586792 0.4141467809677124 0.22689840197563171
0.73778963088989258 0.42082178592681885 0.23579570651054382
0.77037835121154785 0.4274689257144928 0.24382205307483673
0.80232828855514526 0.43371850252151489 0.25080448389053345
0.83322083950042725 0.43909016251564026 0.25673690438270569
0.43769371509552002 0.37929302453994751 0.16452297568321228
0.47119256854057312 0.38714620471000671 0.17049688100814819
0.50448095798492432 0.39499413967132568 0.17686587572097778
0.53755027055740356 0.40262490510940552 0.18355272710323334
0.57058620452880859 0.40991997718811035 0.19079902768135071
0.60373032093048096 0.41705125570297241 0.1985122412443161
0.63687872886657715 0.42398282885551453 0.20684802532196045
0.67008596658706665 0.43108439445495605 0.21572616696357727
0.70336270332336426 0.43806189298629761 0.22481755912303925
