assets/lut/others fade.cube
# Created by: G'MIC (https://gmic.eu)
TITLE "fade"
# LUT size
LUT_3D_SIZE 13
# Data domain
DOMAIN_MIN 0.0 0.0 0.0
DOMAIN_MAX 1.0 1.0 1.0
# LUT data points
0.24163973331451416 0.31874459981918335 0.35800516605377197
0.31237858533859253 0.34523522853851318 0.37142148613929749
0.36515024304389954 0.35871642827987671 0.37999320030212402
0.40413370728492737 0.35493007302284241 0.38349047303199768
0.44202005863189697 0.35023501515388489 0.38587036728858948
0.48651206493377686 0.3566536009311676 0.39083763957023621
0.53650623559951782 0.35269895195960999 0.39456692337989807
0.59476691484451294 0.3501647412776947 0.39905336499214172
0.66159689426422119 0.3582967221736908 0.40488108992576599
0.73396950960159302 0.36683455109596252 0.41047203540802002
0.81285881996154785 0.37277513742446899 0.4157048761844635
0.89879226684570312 0.37788450717926025 0.42157819867134094
0.98380130529403687 0.38453978300094604 0.42844077944755554
0.25774762034416199 0.38528728485107422 0.37177541851997375
0.32722550630569458 0.4122544527053833 0.38362163305282593
0.3764072060585022 0.41574084758758545 0.39004629850387573
0.41133242845535278 0.39447188377380371 0.39090210199356079
0.44756871461868286 0.37670868635177612 0.39171645045280457
0.49506071209907532 0.39764249324798584 0.39968770742416382
0.54846745729446411 0.405069500207901 0.40562599897384644
0.61042511463165283 0.4099600613117218 0.41116517782211304
0.67998820543289185 0.42376810312271118 0.41731855273246765
0.75507587194442749 0.43401014804840088 0.42290014028549194
0.83637934923171997 0.44135063886642456 0.42878776788711548
0.92198336124420166 0.44762519001960754 0.43511739373207092
0.99274975061416626 0.45357313752174377 0.44128963351249695
0.31272086501121521 0.51014930009841919 0.398092120885849
0.35595470666885376 0.50294125080108643 0.40186893939971924
0.39312440156936646 0.49075651168823242 0.40429124236106873
0.42595896124839783 0.47189420461654663 0.40572404861450195
0.46456137299537659 0.46452984213829041 0.40854832530021667
0.51284021139144897 0.47784975171089172 0.41506648063659668
0.56831455230712891 0.48448601365089417 0.42083904147148132
0.63099843263626099 0.48858538269996643 0.42541384696960449
0.70111864805221558 0.49615442752838135 0.43012145161628723
0.77768981456756592 0.50374782085418701 0.43558138608932495
0.86054641008377075 0.51206284761428833 0.44224786758422852
0.94462698698043823 0.51945018768310547 0.44868159294128418
0.99829369783401489 0.52514219284057617 0.45430704951286316
0.30858057737350464 0.56084036827087402 0.40689536929130554
0.35793235898017883 0.56241190433502197 0.41265758872032166
0.40015006065368652 0.55863845348358154 0.41688328981399536
0.43894141912460327 0.55430120229721069 0.42057698965072632
0.48206052184104919 0.55784016847610474 0.42564117908477783
0.53198111057281494 0.56629329919815063 0.43131235241889954
0.58784008026123047 0.56512004137039185 0.43516942858695984
0.65074789524078369 0.5630192756652832 0.43844908475875854
0.72107267379760742 0.56462341547012329 0.44246336817741394
0.79807215929031372 0.57023483514785767 0.44789102673530579
0.88063430786132812 0.57901269197463989 0.45491984486579895
0.96216493844985962 0.58766329288482666 0.46123227477073669
0.99994868040084839 0.59384036064147949 0.46647527813911438
0.28595197200775146 0.58687424659729004 0.41026082634925842
0.34636017680168152 0.60112780332565308 0.41898936033248901
0.39957180619239807 0.61153048276901245 0.42617127299308777
0.44645008444786072 0.61806589365005493 0.43201342225074768
0.49357962608337402 0.62561953067779541 0.43762996792793274
0.54512292146682739 0.63043540716171265 0.44277790188789368
0.60251235961914062 0.62796032428741455 0.44613218307495117
0.6671748161315918 0.62426728010177612 0.44921186566352844
0.73897212743759155 0.62471878528594971 0.45349466800689697
0.81646353006362915 0.62965238094329834 0.45920050144195557
0.89632517099380493 0.63745254278182983 0.46550583839416504
0.97091621160507202 0.64627963304519653 0.47140064835548401
1 0.65465015172958374 0.47660893201828003
0.28799068927764893 0.63188207149505615 0.41936248540878296
0.34717682003974915 0.64530503749847412 0.42736074328422546
0.40280389785766602 0.65847450494766235 0.43456745147705078
0.45223891735076904 0.66794943809509277 0.44086983799934387
0.5008702278137207 0.67473626136779785 0.44659072160720825
0.5538831353187561 0.67865204811096191 0.45146682858467102
0.61371469497680664 0.67853385210037231 0.45517429709434509
0.68100070953369141 0.67703831195831299 0.45867109298706055
0.75541597604751587 0.67830699682235718 0.46316671371459961
0.83342385292053223 0.68259137868881226 0.46858465671539307
0.90940231084823608 0.68953132629394531 0.47412905097007751
0.97537487745285034 0.69831967353820801 0.47973489761352539
1 0.70979505777359009 0.48551586270332336
0.3083001971244812 0.68934738636016846 0.43223893642425537
0.36216676235198975 0.69792073965072632 0.43821704387664795
0.41289237141609192 0.70721495151519775 0.44399330019950867
0.45952555537223816 0.71408742666244507 0.44931486248970032
0.50710827112197876 0.71918183565139771 0.45478862524032593
0.56162726879119873 0.72456973791122437 0.4598744809627533
0.62404471635818481 0.72852152585983276 0.4644453227519989
0.69417822360992432 0.7307315468788147 0.46868562698364258
0.77087616920471191 0.73250389099121094 0.47298291325569153
0.84979128837585449 0.73582690954208374 0.47764062881469727
0.92289400100708008 0.74206840991973877 0.48268568515777588
0.98122316598892212 0.75218570232391357 0.48832198977470398
1 0.76677179336547852 0.49485200643539429
0.33464619517326355 0.75129646062850952 0.44574746489524841
0.38098454475402832 0.75546848773956299 0.45001208782196045
0.42467078566551208 0.75996369123458862 0.45404654741287231
0.46796604990959167 0.76403474807739258 0.45868793129920959
0.51507037878036499 0.76909708976745605 0.46405729651451111
0.57105088233947754 0.77694809436798096 0.46978291869163513
0.63587802648544312 0.78563636541366577 0.47516605257987976
0.70807522535324097 0.79094207286834717 0.47963154315948486
0.78636151552200317 0.79245102405548096 0.4836137592792511
0.86677968502044678 0.79429870843887329 0.48742347955703735
0.93866336345672607 0.79900038242340088 0.49192202091217041
0.98930990695953369 0.80999428033828735 0.49785712361335754
1 0.82728081941604614 0.50524067878723145
0.34953701496124268 0.81785660982131958 0.45660841464996338
0.39319482445716858 0.8178907036781311 0.46075284481048584
0.43340831995010376 0.81744390726089478 0.46451103687286377
0.47590941190719604 0.82097858190536499 0.46923333406448364
0.5249970555305481 0.82833033800125122 0.47477295994758606
0.58348435163497925 0.83930015563964844 0.48099040985107422
0.65053105354309082 0.85182672739028931 0.48690503835678101
0.72433984279632568 0.86057430505752563 0.49139058589935303
0.80342781543731689 0.86371195316314697 0.49473628401756287
0.88457858562469482 0.86159461736679077 0.49791532754898071
0.95622313022613525 0.86121618747711182 0.50192517042160034
0.99647557735443115 0.86967873573303223 0.50825434923171997
1 0.88947254419326782 0.51682651042938232
0.34634965658187866 0.88890421390533447 0.46458446979522705
0.39893242716789246 0.8864898681640625 0.47039446234703064
0.44183409214019775 0.88094401359558105 0.4755043089389801
0.48552423715591431 0.88496643304824829 0.48055019974708557
0.53655427694320679 0.89549243450164795 0.48595172166824341
0.59817934036254883 0.90849828720092773 0.49256470799446106
0.66859722137451172 0.92275130748748779 0.49899443984031677
0.74384778738021851 0.93348419666290283 0.50333982706069946
0.82254225015640259 0.93746548891067505 0.50620138645172119
0.90247857570648193 0.9329717755317688 0.50928205251693726
0.97107231616973877 0.92488062381744385 0.51351511478424072
0.99961358308792114 0.92952585220336914 0.52037906646728516
1 0.9500771164894104 0.53001230955123901
0.34326297044754028 0.95541948080062866 0.47368082404136658
0.40883544087409973 0.9537169337272644 0.48227068781852722
0.45702090859413147 0.94570350646972656 0.48893335461616516
0.49982777237892151 0.94919669628143311 0.49347072839736938
0.55051189661026001 0.96206974983215332 0.4975401759147644
0.61547267436981201 0.97388380765914917 0.50360280275344849
0.6898539662361145 0.98367619514465332 0.51015371084213257
0.76708310842514038 0.98977285623550415 0.51500117778778076
0.84602200984954834 0.99213302135467529 0.51843726634979248
0.92211103439331055 0.98769247531890869 0.52232629060745239
0.98243319988250732 0.97635310888290405 0.5275530219078064
0.9999508261680603 0.9793926477432251 0.5347476601600647
1 0.99403369426727295 0.54326575994491577
0.34900125861167908 0.99614512920379639 0.48621851205825806
0.42033541202545166 0.99405097961425781 0.4967772364616394
0.47423496842384338 0.98827260732650757 0.50448715686798096
0.51888018846511841 0.99288159608840942 0.50799238681793213
0.57036030292510986 0.99877506494522095 0.51025855541229248
0.63715630769729614 1 0.5150330662727356
0.71394878625869751 1 0.52086621522903442
0.79487752914428711 1 0.52642607688903809
0.87552422285079956 1 0.53134655952453613
0.94870185852050781 0.99999409914016724 0.53623563051223755
0.99485397338867188 0.99915146827697754 0.54190009832382202
1 0.99969983100891113 0.54798954725265503
1 1 0.55421715974807739
0.36283957958221436 1 0.49903383851051331
0.4314233660697937 0.99997431039810181 0.5106462836265564
0.48964622616767883 0.99978047609329224 0.51867842674255371
0.54041451215744019 1 0.5219835638999939
0.59593814611434937 1 0.52367854118347168
0.66352170705795288 1 0.52709311246871948
0.74069982767105103 1 0.53185927867889404
0.82284820079803467 1 0.53739207983016968
0.90417361259460449 1 0.5433114767074585
0.97462743520736694 1 0.548911452293396
0.99988138675689697 1 0.55409270524978638
1 1 0.55861508846282959
1 1 0.56221854686737061
0.2520739734172821 0.3100731372833252 0.40496987104415894
0.31425142288208008 0.31970652937889099 0.41471248865127563
0.3605591356754303 0.31686550378799438 0.41980022192001343
0.39632061123847961 0.29928869009017944 0.42018023133277893
0.43436077237129211 0.29593116044998169 0.42228919267654419
0.48168537020683289 0.32360035181045532 0.43092453479766846
0.53567236661911011 0.34476035833358765 0.43932452797889709
0.5960010290145874 0.3546392023563385 0.44622445106506348
0.66349589824676514 0.36370640993118286 0.45235386490821838
0.73719280958175659 0.37001228332519531 0.4575006365776062
0.81713217496871948 0.373310387134552 0.46225905418395996
0.90348118543624878 0.37556403875350952 0.46735894680023193
0.98468858003616333 0.37904885411262512 0.47311323881149292
0.24363882839679718 0.37500149011611938 0.41514813899993896
0.31783688068389893 0.3858148455619812 0.42470809817314148
0.36988598108291626 0.37353640794754028 0.42832407355308533
0.40399909019470215 0.33557906746864319 0.42565721273422241
0.44136369228363037 0.31953322887420654 0.42639195919036865
0.49109578132629395 0.35731235146522522 0.43744644522666931
0.55026918649673462 0.39939737319946289 0.44979825615882874
0.61573272943496704 0.42811593413352966 0.45983365178108215
0.68535143136978149 0.43999165296554565 0.46613249182701111
0.76036059856414795 0.44320851564407349 0.47087103128433228
0.84206181764602661 0.44538629055023193 0.47559791803359985
0.92795699834823608 0.44697001576423645 0.48063907027244568
0.99447059631347656 0.4495340883731842 0.48587837815284729
0.29341819882392883 0.48387923836708069 0.43880435824394226
0.34698790311813354 0.47430583834648132 0.44255435466766357
0.38715675473213196 0.45131531357765198 0.44269666075706482
0.42010486125946045 0.41899797320365906 0.44078129529953003
0.45875263214111328 0.40858355164527893 0.44303205609321594
0.50900018215179443 0.43655931949615479 0.45250016450881958
0.56926202774047852 0.47281882166862488 0.46352463960647583
0.63612979650497437 0.49969139695167542 0.47270160913467407
0.70707911252975464 0.51125478744506836 0.47894227504730225
0.78382331132888794 0.51516485214233398 0.48418435454368591
0.86763280630111694 0.51879167556762695 0.48953264951705933
0.95247697830200195 0.52195149660110474 0.49463737010955811
0.99937993288040161 0.52368295192718506 0.49922886490821838
0.31047278642654419 0.54188108444213867 0.4508819580078125
0.35670766234397888 0.53925317525863647 0.45489189028739929
0.39650586247444153 0.52717632055282593 0.45690175890922546
0.43454086780548096 0.51444762945175171 0.45830965042114258
0.47735753655433655 0.51473712921142578 0.46248775720596313
0.52833253145217896 0.53100073337554932 0.46981352567672729
0.58744555711746216 0.54906374216079712 0.47721958160400391
0.65378189086914062 0.56330257654190063 0.48409956693649292
0.72607636451721191 0.57260137796401978 0.49019116163253784
0.80419677495956421 0.57974475622177124 0.49661651253700256
0.88917601108551025 0.58653384447097778 0.50246208906173706
0.97172766923904419 0.59265279769897461 0.50750291347503662
1 0.59610837697982788 0.51191437244415283
0.29473194479942322 0.58006542921066284 0.45672953128814697
0.3484252393245697 0.58694660663604736 0.46294304728507996
0.39771866798400879 0.59013372659683228 0.46807590126991272
0.44335538148880005 0.59156042337417603 0.47235533595085144
0.49044585227966309 0.59682965278625488 0.47748640179634094
0.54273658990859985 0.60599988698959351 0.48333045840263367
0.60225385427474976 0.61382591724395752 0.48877301812171936
0.66940915584564209 0.62033677101135254 0.49414438009262085
0.7437739372253418 0.62724030017852783 0.49996021389961243
0.82364898920059204 0.63511914014816284 0.50636899471282959
0.90676307678222656 0.64330375194549561 0.51217269897460938
0.98132151365280151 0.65128636360168457 0.51748806238174438
1 0.65812265872955322 0.52227485179901123
0.2891642153263092 0.62873506546020508 0.46510469913482666
0.34637254476547241 0.6372721791267395 0.47189587354660034
0.40047842264175415 0.64531815052032471 0.47793954610824585
0.44962698221206665 0.65138512849807739 0.48329821228981018
0.49865943193435669 0.65706229209899902 0.48854309320449829
0.55239391326904297 0.66296589374542236 0.49357721209526062
0.61354005336761475 0.66804063320159912 0.49850079417228699
0.68297439813613892 0.67252027988433838 0.50335627794265747
0.7602531909942627 0.67805939912796021 0.50861829519271851
0.84185945987701416 0.68472540378570557 0.5141938328742981
0.92163354158401489 0.69271290302276611 0.51979613304138184
0.98676830530166626 0.70208781957626343 0.52532243728637695
1 0.71337407827377319 0.53102982044219971
0.29832112789154053 0.68817567825317383 0.47648704051971436
0.35558143258094788 0.694011390209198 0.48254939913749695
0.40825864672660828 0.69978064298629761 0.48796173930168152
0.45669633150100708 0.70439392328262329 0.49302452802658081
0.50582683086395264 0.70856755971908569 0.4982074499130249
0.56028538942337036 0.71410089731216431 0.50308871269226074
0.62316620349884033 0.72052079439163208 0.5079958438873291
0.69498777389526367 0.72610920667648315 0.51271867752075195
0.77472209930419922 0.731162428855896 0.51757389307022095
0.85792666673660278 0.73616260290145874 0.5225035548210144
0.93533122539520264 0.74300217628479004 0.52773690223693848
0.9916691780090332 0.75379997491836548 0.53355532884597778
1 0.76891779899597168 0.54009014368057251
0.31290721893310547 0.75152438879013062 0.48839020729064941
0.36832010746002197 0.75460326671600342 0.49373719096183777
0.41804930567741394 0.75718969106674194 0.49830374121665955
0.46462932229042053 0.75844180583953857 0.50313574075698853
0.51369893550872803 0.76193678379058838 0.50821918249130249
0.56976556777954102 0.76863962411880493 0.51355254650115967
0.63401156663894653 0.7784578800201416 0.51866716146469116
0.70736527442932129 0.78722590208053589 0.5232466459274292
0.78835123777389526 0.7922016978263855 0.5275687575340271
0.87352514266967773 0.79469329118728638 0.53206944465637207
0.95010435581207275 0.79881906509399414 0.53716611862182617
0.99641013145446777 0.80998474359512329 0.54328644275665283
1 0.82808381319046021 0.55041408538818359
0.32483145594596863 0.81835019588470459 0.49832236766815186
0.37875929474830627 0.8199583888053894 0.50397872924804688
0.42714536190032959 0.8194887638092041 0.50895249843597412
0.47371065616607666 0.81945741176605225 0.51404547691345215
0.52386033535003662 0.82168066501617432 0.51929670572280884
0.58168995380401611 0.82988107204437256 0.52474713325500488
0.64765161275863647 0.84475147724151611 0.53006875514984131
0.72170817852020264 0.85791283845901489 0.53452455997467041
0.80356615781784058 0.86401408910751343 0.53863799571990967
0.89020842313766479 0.86227655410766602 0.54290467500686646
0.96640443801879883 0.8603661060333252 0.54803884029388428
0.99955374002456665 0.86845558881759644 0.55444425344467163
1 0.88842445611953735 0.56219172477722168
0.32930034399032593 0.89015966653823853 0.50724798440933228
0.38922172784805298 0.8914380669593811 0.51453167200088501
0.43999132513999939 0.88801747560501099 0.52103769779205322
0.48640221357345581 0.8868718147277832 0.52652472257614136
0.53748548030853271 0.88988333940505981 0.53146052360534668
0.59725832939147949 0.89941608905792236 0.53664439916610718
0.66550594568252563 0.91718447208404541 0.5418466329574585
0.7406201958656311 0.93256187438964844 0.5465846061706543
0.82218247652053833 0.93886405229568481 0.55034589767456055
0.90750765800476074 0.93276870250701904 0.5547640323638916
0.97960138320922852 0.92356032133102417 0.5602487325668335
1 0.92793774604797363 0.5670238733291626
1 0.94692897796630859 0.57499808073043823
0.34191665053367615 0.95902281999588013 0.51932162046432495
0.40904834866523743 0.96068942546844482 0.52824974060058594
0.46033167839050293 0.95394539833068848 0.53581982851028442
0.50461137294769287 0.95274239778518677 0.54132932424545288
0.55513256788253784 0.96045708656311035 0.54465436935424805
0.61688739061355591 0.97224247455596924 0.54850739240646362
0.6880682110786438 0.98322153091430664 0.55343049764633179
0.76489818096160889 0.99039697647094727 0.55833178758621216
0.84640920162200928 0.99281966686248779 0.56278306245803833
0.92856401205062866 0.98634511232376099 0.56756854057312012
0.99008721113204956 0.97495818138122559 0.57350373268127441
1 0.97716242074966431 0.58026635646820068
1 0.99137669801712036 0.58752405643463135
0.36548030376434326 0.99817883968353271 0.53514391183853149
0.43150621652603149 0.99829238653182983 0.54478299617767334
0.48225647211074829 0.9952768087387085 0.55240732431411743
0.52642267942428589 0.99525153636932373 0.55698013305664062
0.57688480615615845 0.99876433610916138 0.55846607685089111
0.64030247926712036 1 0.56067162752151489
0.71429455280303955 1 0.56488144397735596
0.79482698440551758 1 0.570046067237854
0.87800866365432739 1 0.57527637481689453
0.9562002420425415 0.99996840953826904 0.58089554309844971
0.9985077977180481 0.99838060140609741 0.58660620450973511
1 0.9993404746055603 0.59271174669265747
1 1 0.5983811616897583
0.3838036060333252 1 0.54932290315628052
0.44678977131843567 1 0.55936866998672485
0.499481201171875 1 0.56621253490447998
0.54755634069442749 1 0.56967806816101074
0.60110026597976685 1 0.57077938318252563
0.66610538959503174 1 0.57242226600646973
0.74196815490722656 1 0.5760796070098877
0.82442688941955566 1 0.58113449811935425
0.90775072574615479 1 0.58686345815658569
0.97955918312072754 1 0.59273862838745117
1 1 0.59823822975158691
1 1 0.60295504331588745
1 1 0.60653853416442871
0.2650260329246521 0.3045450747013092 0.45207169651985168
0.32449811697006226 0.32041400671005249 0.46249464154243469
0.36490753293037415 0.32099941372871399 0.46720930933952332
0.3971271812915802 0.30971494317054749 0.46811351180076599
0.43556571006774902 0.31054756045341492 0.47075155377388
0.48344200849533081 0.33321908116340637 0.47802487015724182
0.5386887788772583 0.35506916046142578 0.48629546165466309
0.60014098882675171 0.36732712388038635 0.49347445368766785
0.66828471422195435 0.3749125599861145 0.49926525354385376
0.74265104532241821 0.37828347086906433 0.50392526388168335
0.82241427898406982 0.37824705243110657 0.50814509391784668
0.90635699033737183 0.37624049186706543 0.51218390464782715
0.98401105403900146 0.3752405047416687 0.51619583368301392
0.27001732587814331 0.38905620574951172 0.46606600284576416
0.331581711769104 0.39471331238746643 0.47400996088981628
0.37430039048194885 0.38227882981300354 0.47599750757217407
0.40687435865402222 0.35708072781562805 0.47487559914588928
0.44509869813919067 0.35068053007125854 0.47701993584632874
0.49489015340805054 0.37649700045585632 0.48578745126724243
0.5547066330909729 0.41453397274017334 0.49707216024398804
0.62198340892791748 0.44627869129180908 0.50732594728469849
0.69191211462020874 0.45511329174041748 0.51333391666412354
0.76711577177047729 0.45334923267364502 0.51729226112365723
0.84845387935638428 0.45085108280181885 0.52102643251419067
0.93186300992965698 0.44732043147087097 0.52452224493026733
0.99513167142868042 0.44484573602676392 0.52832329273223877
0.33556365966796875 0.50512564182281494 0.49387943744659424
0.36419963836669922 0.48478269577026367 0.49238565564155579
0.39248427748680115 0.45872184634208679 0.48986580967903137
0.42339947819709778 0.43293827772140503 0.48807999491691589
0.46230402588844299 0.42575770616531372 0.49031913280487061
0.51244854927062988 0.44646847248077393 0.49840551614761353
0.57333248853683472 0.48143669962882996 0.50913155078887939
0.64192885160446167 0.51229250431060791 0.51937341690063477
0.71433097124099731 0.52364987134933472 0.52581238746643066
0.7918400764465332 0.52464240789413452 0.53039467334747314
0.87483441829681396 0.52460783720016479 0.53447842597961426
0.9567139744758606 0.52300304174423218 0.53826004266738892
0.99948298931121826 0.52206915616989136 0.54203897714614868
0.32763445377349854 0.55151271820068359 0.50097751617431641
0.3661397397518158 0.54531681537628174 0.50288736820220947
0.40079072117805481 0.53087109327316284 0.50275510549545288
0.43722200393676758 0.51799672842025757 0.50346451997756958
0.47953462600708008 0.51615768671035767 0.50682878494262695
0.53037154674530029 0.52868026494979858 0.51330453157424927
0.59053909778594971 0.54913491010665894 0.52155876159667969
0.6588904857635498 0.56860834360122681 0.52943307161331177
0.73343759775161743 0.58052730560302734 0.53620821237564087
0.81345671415328979 0.58716356754302979 0.54197865724563599
0.89746475219726562 0.59205847978591919 0.54677760601043701
0.97560125589370728 0.59557783603668213 0.55112969875335693
1 0.59704947471618652 0.55522942543029785
0.30550327897071838 0.58870071172714233 0.50524532794952393
0.35582888126373291 0.59283936023712158 0.51026070117950439
0.40194758772850037 0.59287190437316895 0.5136268138885498
0.44601604342460632 0.59185731410980225 0.51703298091888428
0.49228563904762268 0.59405452013015747 0.52130186557769775
0.5443541407585144 0.60119593143463135 0.52663183212280273
0.60476624965667725 0.61147403717041016 0.53273367881774902
0.6741335391998291 0.62234604358673096 0.53895330429077148
0.75112712383270264 0.6320456862449646 0.54507350921630859
0.8334423303604126 0.6403878927230835 0.55095511674880981
0.91668415069580078 0.64800965785980225 0.55618911981582642
0.98665553331375122 0.65520507097244263 0.56113231182098389
1 0.66084414720535278 0.56587487459182739
0.2999914288520813 0.63815796375274658 0.51275306940078735
0.35493600368499756 0.64425182342529297 0.51875030994415283
0.40546238422393799 0.64903491735458374 0.52369743585586548
0.45294377207756042 0.65250629186630249 0.52816271781921387
0.5010683536529541 0.65583950281143188 0.53265506029129028
0.55447685718536377 0.66041189432144165 0.53760844469070435
0.6160351037979126 0.66685527563095093 0.54262983798980713
0.68715906143188477 0.67413133382797241 0.54774349927902222
0.76689541339874268 0.68157970905303955 0.55308789014816284
0.8513559103012085 0.68894803524017334 0.55837488174438477
0.93297338485717773 0.69673174619674683 0.56354469060897827
0.99298346042633057 0.70622867345809937 0.56894040107727051
1 0.71712571382522583 0.57494848966598511
0.31211408972740173 0.69705748558044434 0.52408319711685181
0.36400288343429565 0.70110398530960083 0.52919745445251465
