assets/lut/others warm highlight.cube
# Created by: G'MIC (https://gmic.eu)
TITLE "warm_highlight"
# LUT size
LUT_3D_SIZE 13
# Data domain
DOMAIN_MIN 0.0 0.0 0.0
DOMAIN_MAX 1.0 1.0 1.0
# LUT data points
0.12566430866718292 0.11110697686672211 0.079275481402873993
0.16447222232818604 0.11089716851711273 0.079212918877601624
0.20576359331607819 0.10878439247608185 0.078630067408084869
0.32105448842048645 0.11263524740934372 0.083261601626873016
0.48199960589408875 0.11907707899808884 0.085827186703681946
0.64357805252075195 0.11567781865596771 0.081074044108390808
0.77178913354873657 0.11259240657091141 0.078446395695209503
0.86323726177215576 0.11278541386127472 0.077202051877975464
0.92306333780288696 0.11304955929517746 0.079135909676551819
0.96055799722671509 0.1080324798822403 0.078510671854019165
0.98402363061904907 0.11116397380828857 0.079793728888034821
0.99706888198852539 0.12011831253767014 0.085684724152088165
1 0.12534190714359283 0.091153584420681
0.12010651826858521 0.13081975281238556 0.077017799019813538
0.1586797684431076 0.13243599236011505 0.077516324818134308
0.18884384632110596 0.12687474489212036 0.071561284363269806
0.31041631102561951 0.13527315855026245 0.078022748231887817
0.47295546531677246 0.13285300135612488 0.075595647096633911
0.62762999534606934 0.12664520740509033 0.068356893956661224
0.76377350091934204 0.13082553446292877 0.071064531803131104
0.85917407274246216 0.13074006140232086 0.070127390325069427
0.92232143878936768 0.13846671581268311 0.0765267014503479
0.95889437198638916 0.12420646846294403 0.06856931746006012
0.98445767164230347 0.124815933406353 0.068758226931095123
0.99770593643188477 0.12647829949855804 0.06923288106918335
1 0.12932541966438293 0.070983350276947021
0.13876669108867645 0.20778627693653107 0.092948973178863525
0.18540322780609131 0.20668643712997437 0.092631354928016663
0.22443939745426178 0.19870765507221222 0.085734620690345764
0.3403010368347168 0.20676206052303314 0.091352976858615875
0.50612533092498779 0.20848304033279419 0.093048200011253357
0.64564919471740723 0.20441417396068573 0.089590452611446381
0.77778172492980957 0.20460078120231628 0.089809626340866089
0.8590773344039917 0.18050184845924377 0.072800658643245697
0.92068272829055786 0.1905466616153717 0.079221583902835846
0.95933127403259277 0.18087346851825714 0.073110081255435944
0.98396879434585571 0.16990520060062408 0.064511723816394806
0.99635928869247437 0.16884523630142212 0.064856588840484619
1 0.18369072675704956 0.076493822038173676
0.11225476861000061 0.2606658935546875 0.072150975465774536
0.15496480464935303 0.27160090208053589 0.078287802636623383
0.19222274422645569 0.26396077871322632 0.071742050349712372
0.30567416548728943 0.26770839095115662 0.073797114193439484
0.47342574596405029 0.27602449059486389 0.078481115400791168
0.63963782787322998 0.27759197354316711 0.082678057253360748
0.76726365089416504 0.27504277229309082 0.079828627407550812
0.86828106641769409 0.28292050957679749 0.083475656807422638
0.92330491542816162 0.27552264928817749 0.076926089823246002
0.96001946926116943 0.27039802074432373 0.073616936802864075
0.98392164707183838 0.26580223441123962 0.072924688458442688
0.99678850173950195 0.26673692464828491 0.073729664087295532
1 0.26896470785140991 0.073895655572414398
0.13580001890659332 0.41833704710006714 0.087919034063816071
0.17388488352298737 0.42177248001098633 0.08903726190328598
0.21112379431724548 0.40950685739517212 0.08283107727766037
0.32345259189605713 0.41012275218963623 0.084458582103252411
0.4757722020149231 0.4027022123336792 0.080612421035766602
0.63384407758712769 0.40945056080818176 0.085504613816738129
0.77156490087509155 0.40721392631530762 0.083978436887264252
0.87075525522232056 0.41461342573165894 0.088557146489620209
0.92399615049362183 0.40320888161659241 0.081884421408176422
0.96115446090698242 0.3998265266418457 0.079312555491924286
0.98521620035171509 0.39734047651290894 0.078771181404590607
0.99773585796356201 0.39915114641189575 0.082281045615673065
1 0.39558953046798706 0.078754588961601257
0.13400526344776154 0.54409652948379517 0.089202612638473511
0.17649750411510468 0.54618501663208008 0.091045275330543518
0.22222772240638733 0.54942649602890015 0.088298529386520386
0.3351101279258728 0.55074512958526611 0.089754574000835419
0.4904683530330658 0.55267751216888428 0.090302743017673492
0.64503741264343262 0.55487143993377686 0.092691041529178619
0.76814836263656616 0.53948867321014404 0.082166202366352081
0.86720681190490723 0.55061310529708862 0.092496208846569061
0.92598849534988403 0.55383592844009399 0.094939224421977997
0.9633643627166748 0.56320250034332275 0.096516281366348267
0.98528438806533813 0.55142688751220703 0.092528216540813446
0.99814528226852417 0.56334930658340454 0.098220676183700562
1 0.55819922685623169 0.099011048674583435
0.10654543340206146 0.63589197397232056 0.067251048982143402
0.14989681541919708 0.63899326324462891 0.068532414734363556
0.19175544381141663 0.6394532322883606 0.068138062953948975
0.30706515908241272 0.64470446109771729 0.07095809280872345
0.47438988089561462 0.65304630994796753 0.07737421989440918
0.61651313304901123 0.64198297262191772 0.06964372843503952
0.74861139059066772 0.63318389654159546 0.068117253482341766
0.85483384132385254 0.63402938842773438 0.070133060216903687
0.92069095373153687 0.64530158042907715 0.077435165643692017
0.95805680751800537 0.63705909252166748 0.070222504436969757
0.98443174362182617 0.63251060247421265 0.070879347622394562
0.99756497144699097 0.63288915157318115 0.074318155646324158
1 0.63001775741577148 0.076492175459861755
0.13565297424793243 0.77990967035293579 0.087010793387889862
0.1863374263048172 0.78551071882247925 0.093299061059951782
0.2296159565448761 0.77758055925369263 0.084883622825145721
0.35006484389305115 0.78827273845672607 0.09265405684709549
0.51943886280059814 0.79317969083786011 0.095665037631988525
0.64674896001815796 0.78784841299057007 0.092769026756286621
0.77670162916183472 0.77671569585800171 0.087574809789657593
0.85987073183059692 0.77069604396820068 0.087293438613414764
0.9205818772315979 0.77224618196487427 0.085053086280822754
0.95755720138549805 0.76603913307189941 0.077779076993465424
0.98288857936859131 0.76431238651275635 0.081658639013767242
0.99734723567962646 0.76780134439468384 0.087992601096630096
1 0.76983743906021118 0.09729873389005661
0.11706617474555969 0.85659325122833252 0.071077205240726471
0.15363845229148865 0.86083060503005981 0.077899038791656494
0.20471599698066711 0.86563527584075928 0.078440360724925995
0.31339085102081299 0.86571317911148071 0.08102358877658844
0.49863484501838684 0.8708730936050415 0.087966874241828918
0.63374698162078857 0.86244004964828491 0.081270016729831696
0.76621562242507935 0.86582005023956299 0.08583514392375946
0.85803908109664917 0.86146432161331177 0.082838915288448334
0.91363811492919922 0.84761393070220947 0.071291588246822357
0.95673847198486328 0.84610980749130249 0.074626713991165161
0.98098009824752808 0.83941614627838135 0.062272105365991592
0.99621152877807617 0.84858554601669312 0.075779736042022705
0.99999064207077026 0.86359483003616333 0.084917478263378143
0.11460483074188232 0.92903953790664673 0.072893314063549042
0.15576787292957306 0.93180942535400391 0.083455853164196014
0.20064565539360046 0.93042337894439697 0.075469523668289185
0.31917622685432434 0.93252855539321899 0.082441456615924835
0.46899539232254028 0.93068999052047729 0.077952727675437927
0.62859988212585449 0.92849773168563843 0.081915400922298431
0.76309019327163696 0.92548763751983643 0.086057879030704498
0.85847598314285278 0.92320817708969116 0.080664359033107758
0.9136999249458313 0.91992515325546265 0.067871049046516418
0.95718121528625488 0.91864931583404541 0.069355174899101257
0.97899925708770752 0.91455966234207153 0.067693807184696198
0.99424350261688232 0.92226481437683105 0.07953912764787674
0.99979698657989502 0.92719626426696777 0.086809135973453522
0.13415525853633881 0.9705880880355835 0.086817905306816101
0.1729903370141983 0.97116750478744507 0.088618427515029907
0.23566068708896637 0.97036373615264893 0.089088186621665955
0.35790115594863892 0.97276049852371216 0.098227739334106445
0.51236963272094727 0.97299730777740479 0.097716160118579865
0.64165842533111572 0.97148662805557251 0.087059423327445984
0.76235681772232056 0.96944040060043335 0.088235087692737579
0.86113113164901733 0.96874123811721802 0.078962273895740509
0.92155569791793823 0.97018831968307495 0.083483047783374786
0.95700442790985107 0.96394205093383789 0.068884924054145813
0.98211437463760376 0.96922600269317627 0.085260964930057526
0.99443840980529785 0.96950411796569824 0.090253807604312897
1 0.97251540422439575 0.10203142464160919
0.12125040590763092 0.99532902240753174 0.078895702958106995
0.14732919633388519 0.99430555105209351 0.073018155992031097
0.19726480543613434 0.99404251575469971 0.07413184642791748
0.32450753450393677 0.99434155225753784 0.077784441411495209
0.49809065461158752 0.99496597051620483 0.080180317163467407
0.62887018918991089 0.99463695287704468 0.076652243733406067
0.75525516271591187 0.99399429559707642 0.075926490128040314
0.85346341133117676 0.99425458908081055 0.059640996158123016
0.91388416290283203 0.99462306499481201 0.062158815562725067
0.9581294059753418 0.99253469705581665 0.076137721538543701
0.97901362180709839 0.99284195899963379 0.059766478836536407
0.9926338791847229 0.99409967660903931 0.067928597331047058
0.99964702129364014 0.99602591991424561 0.096981972455978394
0.1306401789188385 0.99985766410827637 0.08941815048456192
0.18428005278110504 1 0.10011230409145355
0.22305154800415039 1 0.091012142598628998
0.34608662128448486 1 0.09108416736125946
0.50076478719711304 1 0.090020738542079926
0.63833224773406982 0.99994397163391113 0.085208803415298462
0.75459408760070801 0.99973046779632568 0.074144415557384491
0.84473854303359985 0.99943476915359497 0.063138879835605621
0.90883874893188477 0.99952375888824463 0.077018827199935913
0.95616239309310913 0.99975943565368652 0.082321137189865112
0.97793960571289062 0.99868166446685791 0.0592498779296875
0.98895758390426636 0.998912513256073 0.067060388624668121
0.99770969152450562 0.99937456846237183 0.071718402206897736
0.12958447635173798 0.11451292037963867 0.1065872460603714
0.16973483562469482 0.11287849396467209 0.10622459650039673
0.22295807301998138 0.11366438120603561 0.10698971897363663
0.33708500862121582 0.11642567068338394 0.11226402968168259
0.51241189241409302 0.12471281737089157 0.11986197531223297
0.65945816040039062 0.1143772229552269 0.11026658862829208
0.78516966104507446 0.11868435889482498 0.11221706867218018
0.86457931995391846 0.11286816745996475 0.1058027520775795
0.92886298894882202 0.12366717308759689 0.11364937573671341
0.96074563264846802 0.12239466607570648 0.11383819580078125
0.98261803388595581 0.11938735097646713 0.11172714084386826
0.99487018585205078 0.12019051611423492 0.11423572897911072
0.9996941089630127 0.1333240270614624 0.1311815083026886
0.1259113997220993 0.14193388819694519 0.10150397568941116
0.16102220118045807 0.13905994594097137 0.099520862102508545
0.21632061898708344 0.1426408439874649 0.10239499807357788
0.34504365921020508 0.15471503138542175 0.11252354830503464
0.49194648861885071 0.15108704566955566 0.10959196090698242
0.64697360992431641 0.14286854863166809 0.1054844856262207
0.78468137979507446 0.15054811537265778 0.11096798628568649
0.86890244483947754 0.14696002006530762 0.10514575988054276
0.92809391021728516 0.15424561500549316 0.10850457847118378
0.96083354949951172 0.15100215375423431 0.10651556402444839
0.98415571451187134 0.14542165398597717 0.10508668422698975
0.99616777896881104 0.14360684156417847 0.1025078147649765
0.99999803304672241 0.13945825397968292 0.10166487097740173
0.13188609480857849 0.20556434988975525 0.10588740557432175
0.1724826842546463 0.20484106242656708 0.1060306653380394
0.22959460318088531 0.20618049800395966 0.10819049924612045
0.34961900115013123 0.21785023808479309 0.1171228438615799
0.51035398244857788 0.21884940564632416 0.11667580902576447
0.65865492820739746 0.22513662278652191 0.12385468184947968
0.78786402940750122 0.22843344509601593 0.12652325630187988
0.8728218674659729 0.22251257300376892 0.12065520882606506
0.93061602115631104 0.22163799405097961 0.11755014955997467
0.96295797824859619 0.22400456666946411 0.12007170915603638
0.98444855213165283 0.21063229441642761 0.11042493581771851
0.99670583009719849 0.20828936994075775 0.10962685942649841
1 0.20722368359565735 0.1113860160112381
0.12960149347782135 0.28340035676956177 0.10690684616565704
0.16645997762680054 0.2828347384929657 0.10384639352560043
0.20919507741928101 0.2820141613483429 0.10564471781253815
0.33178386092185974 0.28819069266319275 0.10692907869815826
0.50303930044174194 0.29128807783126831 0.11223355680704117
0.64612275362014771 0.29729104042053223 0.11664198338985443
0.77676260471343994 0.29795295000076294 0.11486990004777908
0.87318515777587891 0.30072367191314697 0.11477874964475632
0.92707151174545288 0.29534426331520081 0.10732490569353104
0.96267294883728027 0.2964596152305603 0.10841363668441772
0.98512214422225952 0.29041644930839539 0.10893826931715012
0.99753391742706299 0.29197236895561218 0.10742504894733429
1 0.29968506097793579 0.11502121388912201
0.14541375637054443 0.43822816014289856 0.12168339639902115
0.18236790597438812 0.4373469352722168 0.11781059950590134
0.22717243432998657 0.4333101212978363 0.11900191754102707
0.35252910852432251 0.42924216389656067 0.11759411543607712
0.50103950500488281 0.41805234551429749 0.11442282050848007
0.64407086372375488 0.42170229554176331 0.11452708393335342
0.77157855033874512 0.41791394352912903 0.11185326427221298
0.86747431755065918 0.42294758558273315 0.11423341184854507
0.92953360080718994 0.43098351359367371 0.11657518893480301
0.96401584148406982 0.4360293447971344 0.11756334453821182
0.98540025949478149 0.41343724727630615 0.10698361694812775
0.99803417921066284 0.42449560761451721 0.1147768646478653
1 0.41505616903305054 0.10918112099170685
0.14788909256458282 0.56030493974685669 0.11814754456281662
0.18821993470191956 0.55683225393295288 0.11829046905040741
0.23184129595756531 0.55362176895141602 0.11449472606182098
0.35986173152923584 0.57352614402770996 0.12499038130044937
0.50323283672332764 0.56203615665435791 0.11999188363552094
0.64092487096786499 0.54710662364959717 0.11233245581388474
0.76975041627883911 0.55101662874221802 0.11475218087434769
0.86615961790084839 0.55759727954864502 0.11938819289207458
0.92911195755004883 0.56372910737991333 0.12131141126155853
0.96399801969528198 0.5658450722694397 0.11797484010457993
0.98612701892852783 0.56345951557159424 0.11597967892885208
0.99809163808822632 0.56522244215011597 0.1209712028503418
1 0.56724840402603149 0.12448637932538986
0.11986897885799408 0.64827477931976318 0.094953902065753937
0.16016729176044464 0.64935958385467529 0.096699550747871399
0.22004678845405579 0.65989339351654053 0.10238849371671677
0.33138200640678406 0.66849613189697266 0.10704447329044342
0.48419862985610962 0.6620061993598938 0.10489458590745926
0.63243216276168823 0.65835171937942505 0.10223302245140076
0.7570386528968811 0.65876245498657227 0.10196000337600708
0.85819745063781738 0.66024565696716309 0.10553383827209473
0.92630183696746826 0.66264826059341431 0.1069873720407486
0.95978891849517822 0.65573930740356445 0.09898599237203598
0.98478591442108154 0.65137630701065063 0.097239337861537933
0.99772471189498901 0.64720243215560913 0.097515299916267395
1 0.64818823337554932 0.097013793885707855
0.14452245831489563 0.78125268220901489 0.11819854378700256
0.18934623897075653 0.78099912405014038 0.12104173749685287
0.2490101158618927 0.78200805187225342 0.1195220947265625
0.35329219698905945 0.78164911270141602 0.12174306809902191
0.50122964382171631 0.77700662612915039 0.11437863856554031
0.65511685609817505 0.78179812431335449 0.1184714213013649
0.78193187713623047 0.78308194875717163 0.11822819709777832
0.86708950996398926 0.78832757472991943 0.12117744982242584
0.92493909597396851 0.78362858295440674 0.11940775811672211
0.95803111791610718 0.76556694507598877 0.09895922988653183
0.98199093341827393 0.76936084032058716 0.10832842439413071
0.99548345804214478 0.77289146184921265 0.11716706305742264
0.99982678890228271 0.77234029769897461 0.11222086846828461
0.11746557056903839 0.8624652624130249 0.093136712908744812
0.17407515645027161 0.87341862916946411 0.11058394610881805
0.22173084318637848 0.8701598048210144 0.10832389444112778
0.32955226302146912 0.86445140838623047 0.10576325654983521
0.49467819929122925 0.87426936626434326 0.11248285323381424
0.65231817960739136 0.87945073843002319 0.11844361573457718
0.78196239471435547 0.8760492205619812 0.11578584462404251
0.86486756801605225 0.86923456192016602 0.11110954731702805
0.91825836896896362 0.85536962747573853 0.10503445565700531
0.95664775371551514 0.84745270013809204 0.096212156116962433
0.98121219873428345 0.84955263137817383 0.094964392483234406
0.99375104904174805 0.8583604097366333 0.11022643744945526
0.99967145919799805 0.85959279537200928 0.10664565116167068
0.10904762148857117 0.92247205972671509 0.087298914790153503
0.15359315276145935 0.92650526762008667 0.097172051668167114
0.21253673732280731 0.92545139789581299 0.099442742764949799
0.34082433581352234 0.93157804012298584 0.11174476146697998
0.49250274896621704 0.92955714464187622 0.10528377443552017
0.64058810472488403 0.93234765529632568 0.11574850976467133
0.77261120080947876 0.93413913249969482 0.11969204992055893
0.86041259765625 0.92796802520751953 0.10609373450279236
0.9177355170249939 0.91986632347106934 0.094789974391460419
0.95646250247955322 0.91694635152816772 0.092080466449260712
0.97880685329437256 0.9141954779624939 0.098003998398780823
0.99277424812316895 0.92349404096603394 0.10734768956899643
1 0.92395085096359253 0.097258396446704865
0.12596060335636139 0.96622568368911743 0.10168926417827606
0.17079687118530273 0.96792376041412354 0.11216514557600021
0.23937886953353882 0.96895128488540649 0.11711092293262482
0.34796923398971558 0.96782320737838745 0.11422557383775711
0.49832364916801453 0.96621829271316528 0.10997622460126877
0.64128071069717407 0.9691881537437439 0.11757685244083405
0.76785033941268921 0.97150462865829468 0.11414914578199387
0.85953140258789062 0.96753555536270142 0.10294855386018753
0.91713231801986694 0.9643176794052124 0.099389709532260895
0.95589995384216309 0.96244913339614868 0.094213314354419708
0.97783505916595459 0.965187668800354 0.10061497241258621
0.99381864070892334 0.96610665321350098 0.094159252941608429
1 0.96401107311248779 0.092640861868858337
0.12001203745603561 0.99353748559951782 0.098187163472175598
0.1540088951587677 0.99273931980133057 0.099405311048030853
0.21116198599338531 0.99265801906585693 0.10226456820964813
0.33394059538841248 0.99170821905136108 0.1051347628235817
0.49622222781181335 0.99132454395294189 0.10688741505146027
0.63571619987487793 0.99250262975692749 0.10712175816297531
0.77187991142272949 0.99449175596237183 0.11547097563743591
0.86660075187683105 0.99456989765167236 0.11105174571275711
0.91634917259216309 0.99240362644195557 0.10015878081321716
0.95587480068206787 0.99170386791229248 0.093426167964935303
0.97667062282562256 0.99204576015472412 0.092285677790641785
0.99475979804992676 0.99400144815444946 0.087624736130237579
0.99954122304916382 0.99282026290893555 0.094358079135417938
0.12121381610631943 0.99641603231430054 0.098329581320285797
0.18163828551769257 0.99844300746917725 0.12217636406421661
0.22914673388004303 0.99932408332824707 0.12062762677669525
0.35510510206222534 0.9991268515586853 0.12508946657180786
0.50355559587478638 0.99915874004364014 0.12073365598917007
0.64056175947189331 0.99881356954574585 0.11419140547513962
0.76205229759216309 0.99977225065231323 0.11635864526033401
0.85987371206283569 0.99971634149551392 0.1100563183426857
0.91583883762359619 0.99838155508041382 0.10361615568399429
0.95185524225234985 0.99682539701461792 0.098351545631885529
0.97534984350204468 0.99680089950561523 0.094042174518108368
0.99100214242935181 0.99609768390655518 0.091150514781475067
0.99776995182037354 0.99608761072158813 0.090622939169406891
0.1285371333360672 0.10623297840356827 0.12973202764987946
0.16512282192707062 0.10744751244783401 0.1332848072052002
0.22242821753025055 0.11255559325218201 0.1368473619222641
0.34432271122932434 0.11536030471324921 0.14614573121070862
0.50049525499343872 0.11609940230846405 0.14570851624011993
0.66020292043685913 0.12191742658615112 0.15095120668411255
0.788654625415802 0.12511877715587616 0.15570762753486633
0.870341956615448 0.12864245474338531 0.1610940545797348
0.92845100164413452 0.13448429107666016 0.16490496695041656
0.96174955368041992 0.13314922153949738 0.16459734737873077
0.98354864120483398 0.12809810042381287 0.15586790442466736
0.99342173337936401 0.12528130412101746 0.1554378867149353
0.99842673540115356 0.12487100064754486 0.16387152671813965
0.13379664719104767 0.14193692803382874 0.12927097082138062
0.16660313308238983 0.14461816847324371 0.13591846823692322
0.21790526807308197 0.14456039667129517 0.13166190683841705
0.34606209397315979 0.15026627480983734 0.14119656383991241
0.49754190444946289 0.15269182622432709 0.14575374126434326
0.6590997576713562 0.15966764092445374 0.15256676077842712
0.78942191600799561 0.16369186341762543 0.16537703573703766
0.87324541807174683 0.16470150649547577 0.15618200600147247
0.93158620595932007 0.16812069714069366 0.15017694234848022
0.96022564172744751 0.16894292831420898 0.15820105373859406
0.9849541187286377 0.15535733103752136 0.14049983024597168
0.99469006061553955 0.14933647215366364 0.13476306200027466
0.99900573492050171 0.14315442740917206 0.1296551525592804
0.14055518805980682 0.21263326704502106 0.1379115879535675
0.17355084419250488 0.21037738025188446 0.1396719366312027
0.22332912683486938 0.20597068965435028 0.13620127737522125
0.34834924340248108 0.21250130236148834 0.14401459693908691
0.50004035234451294 0.21348990499973297 0.14938813447952271
0.65711671113967896 0.22166429460048676 0.15654297173023224
0.78959149122238159 0.22437915205955505 0.17073796689510345
0.87385064363479614 0.23429647088050842 0.16431409120559692
0.93176364898681641 0.24124740064144135 0.160061314702034
0.96364039182662964 0.23870845139026642 0.1651693731546402
0.98528391122817993 0.22554604709148407 0.15239050984382629
0.99648791551589966 0.21663574874401093 0.14254936575889587
0.99986803531646729 0.21274302899837494 0.1390250027179718
0.14765182137489319 0.30077794194221497 0.14639486372470856
0.18028728663921356 0.29576236009597778 0.14230898022651672
0.22364553809165955 0.29469487071037292 0.14306566119194031
0.34454348683357239 0.29778063297271729 0.14447781443595886
0.50145846605300903 0.29870504140853882 0.14809425175189972
0.64981138706207275 0.3056146502494812 0.15018558502197266
0.77879297733306885 0.31103137135505676 0.15571610629558563
0.86917883157730103 0.31436222791671753 0.1537306159734726
0.92618197202682495 0.31662824749946594 0.14897617697715759
0.96301531791687012 0.3122391402721405 0.14732515811920166
0.98552244901657104 0.30197873711585999 0.14025422930717468
0.99812597036361694 0.30156305432319641 0.1371227502822876
1 0.31067481637001038 0.14315250515937805
0.14766018092632294 0.42108175158500671 0.14739999175071716
0.18374016880989075 0.42048010230064392 0.1466096043586731
0.22963601350784302 0.4189113974571228 0.14922045171260834
0.34626501798629761 0.42108240723609924 0.15073511004447937
0.51675945520401001 0.42440304160118103 0.14881347119808197
0.6584135890007019 0.42646962404251099 0.15667316317558289
0.77946776151657104 0.43191260099411011 0.16135400533676147
0.86323803663253784 0.43579903244972229 0.16309596598148346
0.92488682270050049 0.43949398398399353 0.15431632101535797
0.96241980791091919 0.43998968601226807 0.15186573565006256
0.98563939332962036 0.42722871899604797 0.13956618309020996
0.99821287393569946 0.42447978258132935 0.13818240165710449
