assets/lut/others summer alt.cube
# Created by: G'MIC (https://gmic.eu)
TITLE "summer_alt"
# LUT size
LUT_3D_SIZE 7
# Data domain
DOMAIN_MIN 0.0 0.0 0.0
DOMAIN_MAX 1.0 1.0 1.0
# LUT data points
0.043161399662494659 0.022163135930895805 0.23835371434688568
0.24018557369709015 0.02402191236615181 0.23727087676525116
0.42457497119903564 0.024820230901241302 0.23767927289009094
0.58874702453613281 0.025475027039647102 0.24042777717113495
0.72861522436141968 0.026297325268387794 0.24016445875167847
0.85297077894210815 0.0268707275390625 0.23897059261798859
0.96899509429931641 0.025518201291561127 0.2396240234375
0.046037293970584869 0.1512254923582077 0.23980662226676941
0.24335901439189911 0.15211355686187744 0.23886196315288544
0.42605105042457581 0.15206681191921234 0.23755151033401489
0.58809763193130493 0.15383155643939972 0.23817986249923706
0.72717684507369995 0.15560212731361389 0.23780995607376099
0.85190033912658691 0.15554942190647125 0.23783932626247406
0.96906894445419312 0.15429720282554626 0.23897059261798859
0.046184703707695007 0.28886234760284424 0.2409660816192627
0.23957571387290955 0.28713890910148621 0.23964093625545502
0.4235902726650238 0.28632178902626038 0.23674696683883667
0.58389270305633545 0.28948143124580383 0.23659022152423859
0.72323018312454224 0.29124116897583008 0.23730860650539398
0.8502923846244812 0.29028409719467163 0.23829610645771027
0.97239547967910767 0.28842711448669434 0.24000264704227448
0.042684458196163177 0.43529412150382996 0.2415902316570282
0.23851069808006287 0.43529412150382996 0.24119614064693451
0.41959360241889954 0.43566739559173584 0.23863767087459564
0.58006292581558228 0.43921568989753723 0.23828525841236115
0.72072672843933105 0.43921568989753723 0.24016556143760681
0.85017174482345581 0.43722772598266602 0.2411980926990509
0.97299134731292725 0.43529412150382996 0.24108918011188507
0.042524509131908417 0.59592628479003906 0.24135515093803406
0.2383418083190918 0.59677338600158691 0.24139271676540375
0.41922590136528015 0.59959667921066284 0.2394881546497345
0.57956206798553467 0.6018221378326416 0.23887266218662262
0.71945542097091675 0.60057634115219116 0.24296504259109497
0.84968477487564087 0.59867364168167114 0.24253198504447937
0.97224050760269165 0.59753382205963135 0.23949176073074341
0.044783707708120346 0.76810634136199951 0.23773974180221558
0.2394607812166214 0.76935094594955444 0.24050244688987732
0.42193946242332458 0.77147984504699707 0.23777669668197632
0.58343654870986938 0.77279412746429443 0.23778274655342102
0.72366714477539062 0.77268189191818237 0.24208974838256836
0.85147637128829956 0.7709496021270752 0.24174164235591888
0.96909546852111816 0.77055472135543823 0.23731696605682373
0.045632008463144302 0.94748812913894653 0.23643697798252106
0.23917762935161591 0.94803923368453979 0.24116483330726624
0.42193472385406494 0.94863289594650269 0.23817402124404907
0.58758902549743652 0.94877451658248901 0.24062244594097137
0.72880536317825317 0.94877451658248901 0.24250437319278717
0.85496598482131958 0.94809287786483765 0.24251584708690643
0.97007691860198975 0.94813024997711182 0.24105106294155121
0.043263349682092667 0.024555161595344543 0.32245075702667236
0.23947012424468994 0.02647419273853302 0.32281482219696045
0.42471981048583984 0.026248259469866753 0.32376128435134888
0.58847355842590332 0.025490196421742439 0.32572859525680542
0.72951847314834595 0.025515088811516762 0.32572063803672791
0.85318702459335327 0.025490196421742439 0.32363030314445496
0.96899509429931641 0.024246141314506531 0.32276150584220886
0.044046889990568161 0.1556093841791153 0.32401144504547119
0.23837225139141083 0.15612690150737762 0.3243563175201416
0.42550045251846313 0.1534045934677124 0.32319760322570801
0.58879822492599487 0.15329228341579437 0.32447043061256409
0.72952008247375488 0.15384933352470398 0.32495406270027161
0.85318624973297119 0.15335956215858459 0.32370603084564209
0.96951067447662354 0.15202672779560089 0.3234521746635437
0.041722614318132401 0.2923831045627594 0.32408842444419861
0.23553556203842163 0.29116755723953247 0.32416784763336182
0.42355415225028992 0.28778010606765747 0.3217720091342926
0.58739513158798218 0.28981629014015198 0.32155072689056396
0.72718316316604614 0.29056373238563538 0.32280236482620239
0.8535149097442627 0.28877970576286316 0.32444572448730469
0.97302865982055664 0.28688725829124451 0.32550299167633057
0.041697602719068527 0.43806061148643494 0.32819482684135437
0.23604351282119751 0.4354378879070282 0.32700380682945251
0.42239660024642944 0.43662670254707336 0.32347723841667175
0.5842519998550415 0.43921568989753723 0.32171350717544556
0.72525322437286377 0.43921568989753723 0.32356560230255127
0.85511714220046997 0.43529412150382996 0.32505396008491516
0.97683608531951904 0.43529412150382996 0.32697421312332153
0.040536783635616302 0.59836733341217041 0.33107510209083557
0.2394607812166214 0.59766411781311035 0.32900732755661011
0.42367514967918396 0.59856140613555908 0.32606953382492065
0.58363515138626099 0.60051089525222778 0.32455599308013916
0.72177499532699585 0.60072195529937744 0.32411924004554749
0.85452866554260254 0.59673702716827393 0.32611542940139771
0.97746819257736206 0.59433895349502563 0.32833686470985413
0.041070945560932159 0.77330696582794189 0.32590296864509583
0.2394607812166214 0.77093851566314697 0.32726866006851196
0.42444902658462524 0.77066564559936523 0.3256479799747467
0.58342820405960083 0.77225595712661743 0.32475915551185608
0.72061657905578613 0.77277231216430664 0.32442981004714966
0.85199546813964844 0.76941084861755371 0.32633751630783081
0.97463607788085938 0.76722651720046997 0.32842671871185303
0.042991861701011658 0.94795984029769897 0.32626691460609436
0.2394607812166214 0.94818282127380371 0.32744055986404419
0.42320135235786438 0.94803923368453979 0.32497859001159668
0.58728301525115967 0.94873017072677612 0.32554388046264648
0.7264290452003479 0.94924533367156982 0.32595729827880859
0.85278165340423584 0.94803923368453979 0.32618659734725952
0.97291666269302368 0.9472426176071167 0.32908868789672852
0.040651328861713409 0.026104526594281197 0.40820306539535522
0.23553921282291412 0.027022058144211769 0.41073423624038696
0.42098453640937805 0.025728426873683929 0.4110947847366333
0.58493882417678833 0.025190122425556183 0.41215628385543823
0.72606837749481201 0.024743413552641869 0.41278177499771118
0.85119855403900146 0.025474637746810913 0.41212072968482971
0.96899509429931641 0.024659205228090286 0.41236698627471924
0.03863665834069252 0.15747782588005066 0.40882167220115662
0.23528286814689636 0.15712353587150574 0.41098454594612122
0.42446425557136536 0.15273648500442505 0.41088593006134033
0.58823531866073608 0.15195710957050323 0.41237437725067139
0.72874605655670166 0.15184585750102997 0.41403186321258545
0.85318624973297119 0.15254013240337372 0.41243872046470642
0.97209280729293823 0.15202206373214722 0.41130638122558594
0.038602940738201141 0.29401567578315735 0.40751472115516663
0.23477211594581604 0.29145252704620361 0.40882265567779541
0.42666876316070557 0.28659802675247192 0.40686711668968201
0.58903288841247559 0.28965345025062561 0.40786468982696533
0.72937244176864624 0.29000848531723022 0.41061371564865112
0.85468393564224243 0.28937014937400818 0.41176679730415344
0.97292286157608032 0.28768381476402283 0.41194853186607361
0.040281992405653 0.43803244829177856 0.41133889555931091
0.23905976116657257 0.43539738655090332 0.41028004884719849
0.42694142460823059 0.43625697493553162 0.40695053339004517
0.58880883455276489 0.44176474213600159 0.40558180212974548
0.72920137643814087 0.43921568989753723 0.40804165601730347
0.8567885160446167 0.43683323264122009 0.41097071766853333
0.97614812850952148 0.43529412150382996 0.4137166440486908
0.042511284351348877 0.59771758317947388 0.41425380110740662
0.2394607812166214 0.59715938568115234 0.41325932741165161
0.42920961976051331 0.59683442115783691 0.41141876578330994
0.59113746881484985 0.59883153438568115 0.41041132807731628
0.72597485780715942 0.60001593828201294 0.40843492746353149
0.85849440097808838 0.5958322286605835 0.41097515821456909
0.97809851169586182 0.59435999393463135 0.41721203923225403
0.040876530110836029 0.77785539627075195 0.40758001804351807
0.2394607812166214 0.77192288637161255 0.41137287020683289
0.42654046416282654 0.76896530389785767 0.41162025928497314
0.58648586273193359 0.77039176225662231 0.41119259595870972
0.72046065330505371 0.77232140302658081 0.40923246741294861
0.85452854633331299 0.76823097467422485 0.41287660598754883
0.97661018371582031 0.7666822075843811 0.41989883780479431
0.042524509131908417 0.95505625009536743 0.41149735450744629
0.23738887906074524 0.94975578784942627 0.41176632046699524
0.4211861789226532 0.94803923368453979 0.40977039933204651
0.58431375026702881 0.94931697845458984 0.41080424189567566
0.72493737936019897 0.94956487417221069 0.41155120730400085
0.85149729251861572 0.94803923368453979 0.41229707002639771
0.97236013412475586 0.94803923368453979 0.41718602180480957
0.038643870502710342 0.024342017248272896 0.49859994649887085
0.23533384501934052 0.025490196421742439 0.49745482206344604
0.419557124376297 0.025490196421742439 0.49813148379325867
0.58347278833389282 0.024686627089977264 0.49889054894447327
0.72433185577392578 0.024532603099942207 0.49939653277397156
0.84893536567687988 0.024946056306362152 0.4996890127658844
0.96899509429931641 0.025346091017127037 0.5
0.03972930833697319 0.15622510015964508 0.49714204668998718
0.23941490054130554 0.15536083281040192 0.49972477555274963
0.42636075615882874 0.1526503711938858 0.5009351372718811
0.58885860443115234 0.15096314251422882 0.50139665603637695
0.72914958000183105 0.15077878534793854 0.50274062156677246
0.85318624973297119 0.15201039612293243 0.50082731246948242
0.97288417816162109 0.15202206373214722 0.49852120876312256
0.039716295897960663 0.29457589983940125 0.49399378895759583
0.24066102504730225 0.29077765345573425 0.49722704291343689
0.42988252639770508 0.28731882572174072 0.49703148007392883
0.59178453683853149 0.28857883810997009 0.49764713644981384
0.73074620962142944 0.28976714611053467 0.49991828203201294
0.8532029390335083 0.29006025195121765 0.50077986717224121
0.97291666269302368 0.28941938281059265 0.49888154864311218
0.039574716240167618 0.43829667568206787 0.49575057625770569
0.23949578404426575 0.43551778793334961 0.49633562564849854
0.42990195751190186 0.43536224961280823 0.49340817332267761
0.59214663505554199 0.43921568989753723 0.49328285455703735
0.73161870241165161 0.43921568989753723 0.49662727117538452
0.85318624973297119 0.43921568989753723 0.50065594911575317
0.96934592723846436 0.43811884522438049 0.50042492151260376
0.041737083345651627 0.59589296579360962 0.50060427188873291
0.23937578499317169 0.59766429662704468 0.49949806928634644
0.42948928475379944 0.59773796796798706 0.49494493007659912
0.59356123208999634 0.59858369827270508 0.49395266175270081
0.73421728610992432 0.59782058000564575 0.49504244327545166
0.8570563793182373 0.59555530548095703 0.49989983439445496
0.96525019407272339 0.59683150053024292 0.5020868182182312
0.040977656841278076 0.77488148212432861 0.49718040227890015
0.23929080367088318 0.7720634937286377 0.49833887815475464
0.42622086405754089 0.76938563585281372 0.49625208973884583
0.59131205081939697 0.76887255907058716 0.4945063591003418
0.73311805725097656 0.76816838979721069 0.49475601315498352
0.85881853103637695 0.766670823097229 0.49868014454841614
0.97178167104721069 0.7681770920753479 0.50194460153579712
0.042538512498140335 0.95527267456054688 0.49646270275115967
0.23928673565387726 0.95045477151870728 0.49745434522628784
0.42177498340606689 0.94767338037490845 0.49606987833976746
0.5869629979133606 0.94733673334121704 0.49730128049850464
0.72933995723724365 0.94763082265853882 0.49880737066268921
0.85316294431686401 0.94732069969177246 0.49860593676567078
0.96899509429931641 0.94802403450012207 0.50048542022705078
0.042524509131908417 0.023161765187978745 0.5794907808303833
0.23550616204738617 0.025473471730947495 0.58022493124008179
0.41955709457397461 0.02541707269847393 0.58411067724227905
0.58437871932983398 0.024338321760296822 0.58488678932189941
0.72662055492401123 0.023910282179713249 0.58453148603439331
0.85122793912887573 0.024705296382308006 0.58497971296310425
0.96899509429931641 0.02470296248793602 0.58362424373626709
0.042463444173336029 0.14983722567558289 0.58190572261810303
0.23948830366134644 0.15434791147708893 0.58543109893798828
0.42511314153671265 0.15377868711948395 0.58925157785415649
0.58843070268630981 0.1513439267873764 0.58963215351104736
0.73102688789367676 0.14969225227832794 0.58990383148193359
0.85529452562332153 0.15165995061397552 0.58733224868774414
0.97291666269302368 0.15153062343597412 0.58330631256103516
0.039609033614397049 0.29241207242012024 0.58116722106933594
0.23920994997024536 0.29158982634544373 0.58605366945266724
0.42654293775558472 0.2902279794216156 0.58748263120651245
0.59048658609390259 0.28931111097335815 0.58744275569915771
0.73088234663009644 0.28943616151809692 0.58788102865219116
0.8534887433052063 0.28976714611053467 0.5870211124420166
0.97282475233078003 0.2895415723323822 0.58364057540893555
0.038644228130578995 0.43921568989753723 0.58391165733337402
0.23892933130264282 0.43921568989753723 0.5844455361366272
0.42725729942321777 0.43921568989753723 0.58155101537704468
0.59035980701446533 0.43921568989753723 0.58225947618484497
0.73083829879760742 0.43921568989753723 0.58483105897903442
0.85318624973297119 0.43923267722129822 0.58698707818984985
0.96897250413894653 0.43921568989753723 0.58370828628540039
0.038602940738201141 0.59935581684112549 0.58911269903182983
0.23722642660140991 0.60083377361297607 0.58683240413665771
0.42681446671485901 0.59983354806900024 0.58024328947067261
0.58908849954605103 0.59986251592636108 0.5797005295753479
0.73366087675094604 0.59795469045639038 0.58192312717437744
0.85575199127197266 0.59851920604705811 0.58573704957962036
0.96708303689956665 0.59945160150527954 0.5834190845489502
0.038602940738201141 0.77710402011871338 0.58403652906417847
0.23553921282291412 0.77362591028213501 0.58479458093643188
0.42306563258171082 0.77197074890136719 0.58194339275360107
0.58624577522277832 0.77066481113433838 0.57946431636810303
0.73308825492858887 0.76837605237960815 0.58009606599807739
0.85247123241424561 0.77309936285018921 0.58268988132476807
0.97009718418121338 0.77267533540725708 0.58003854751586914
0.042592186480760574 0.95233923196792603 0.58189499378204346
0.23925302922725677 0.94984006881713867 0.58345264196395874
0.42126160860061646 0.94805729389190674 0.58220511674880981
0.58418089151382446 0.94485294818878174 0.58237713575363159
0.72550374269485474 0.9462016224861145 0.58238023519515991
0.84932756423950195 0.94912731647491455 0.58238548040390015
0.96910476684570312 0.94870525598526001 0.5819428563117981
0.042519453912973404 0.025176119059324265 0.66943347454071045
0.23558893799781799 0.025490196421742439 0.67013895511627197
0.42174124717712402 0.025490196421742439 0.67103207111358643
0.58640354871749878 0.025203928351402283 0.66935747861862183
0.72835260629653931 0.025052238255739212 0.66889500617980957
0.85306727886199951 0.025490196421742439 0.6707535982131958
0.96986520290374756 0.025490196421742439 0.66869771480560303
0.041358739137649536 0.15359720587730408 0.67032438516616821
0.23553921282291412 0.15529564023017883 0.67410957813262939
0.42160725593566895 0.15534095466136932 0.67688894271850586
0.58813464641571045 0.15400250256061554 0.6756780743598938
0.73234796524047852 0.15295867621898651 0.67326903343200684
0.85710781812667847 0.15316620469093323 0.67297792434692383
0.97291666269302368 0.15323454141616821 0.67083293199539185
0.038101166486740112 0.29158982634544373 0.66768783330917358
0.23197788000106812 0.29161432385444641 0.67406988143920898
0.41972082853317261 0.29169657826423645 0.67656761407852173
0.58569467067718506 0.29104435443878174 0.67515206336975098
0.72999566793441772 0.29019245505332947 0.67243736982345581
0.85443353652954102 0.28930449485778809 0.67093676328659058
0.97291666269302368 0.28927695751190186 0.66903573274612427
0.038602940738201141 0.43924251198768616 0.66935491561889648
0.23542235791683197 0.43921568989753723 0.67332154512405396
0.42137566208839417 0.43921568989753723 0.67315483093261719
0.58456587791442871 0.43921568989753723 0.67263346910476685
0.72726434469223022 0.43921568989753723 0.67096728086471558
0.85269856452941895 0.43842887878417969 0.66855418682098389
0.96901774406433105 0.43693387508392334 0.66663205623626709
0.038602940738201141 0.60330438613891602 0.67213791608810425
0.23853388428688049 0.60202205181121826 0.67472457885742188
0.42329347133636475 0.60271316766738892 0.67279613018035889
0.58316624164581299 0.60230296850204468 0.67091965675354004
0.72863513231277466 0.59893512725830078 0.67170339822769165
0.85318624973297119 0.59937393665313721 0.67088443040847778
0.96901184320449829 0.59942305088043213 0.66819232702255249
0.038117982447147369 0.77656489610671997 0.6644631028175354
0.23553098738193512 0.77391457557678223 0.66928160190582275
0.42219045758247375 0.77499997615814209 0.67122852802276611
0.58148062229156494 0.77470868825912476 0.66918832063674927
0.73094040155410767 0.76952838897705078 0.67178541421890259
0.85301810503005981 0.77334010601043701 0.67130500078201294
0.97081977128982544 0.77341020107269287 0.66816633939743042
0.042524509131908417 0.94877451658248901 0.66487473249435425
0.23553921282291412 0.94877451658248901 0.66666090488433838
0.42122083902359009 0.94918680191040039 0.66805797815322876
0.58457797765731812 0.94829696416854858 0.66766107082366943
0.7248120903968811 0.94860517978668213 0.66862928867340088
0.84972578287124634 0.95187675952911377 0.66882848739624023
0.9711308479309082 0.95137715339660645 0.66774505376815796
0.04580586776137352 0.026665586978197098 0.75142908096313477
0.2432403564453125 0.026996776461601257 0.75612854957580566
0.42796996235847473 0.026225490495562553 0.75714749097824097
0.58622187376022339 0.025490196421742439 0.75527596473693848
0.72617489099502563 0.025490196421742439 0.75473743677139282
0.85190778970718384 0.025490196421742439 0.75648635625839233
0.96980583667755127 0.02564208023250103 0.75167697668075562
0.042861729860305786 0.16001921892166138 0.75924825668334961
0.2373204380273819 0.15856221318244934 0.7625502347946167
0.42058268189430237 0.15749342739582062 0.7638322114944458
0.58368432521820068 0.15726049244403839 0.76169157028198242
0.72887343168258667 0.15617233514785767 0.75803881883621216
0.854866623878479 0.1551373302936554 0.75826925039291382
0.97291666269302368 0.15467409789562225 0.75832509994506836
0.039925370365381241 0.29153537750244141 0.75560778379440308
0.23161764442920685 0.29259216785430908 0.76206505298614502
0.41460129618644714 0.29397255182266235 0.76423388719558716
0.57975929975509644 0.29385370016098022 0.76248574256896973
0.72536325454711914 0.29205873608589172 0.75716710090637207
0.85280966758728027 0.2903292179107666 0.7547459602355957
0.97291666269302368 0.28987711668014526 0.7550044059753418
0.042483579367399216 0.4334244430065155 0.75349628925323486
0.23316089808940887 0.43776801228523254 0.76035749912261963
0.41486147046089172 0.44056043028831482 0.76296776533126831
0.57832157611846924 0.44225463271141052 0.76209414005279541
0.72204083204269409 0.43921568989753723 0.75629121065139771
0.84927231073379517 0.43595737218856812 0.75165247917175293
0.9716755747795105 0.435506671667099 0.75169873237609863
0.042524509131908417 0.59434187412261963 0.75569802522659302
0.23572608828544617 0.59853959083557129 0.7606436014175415
0.41652822494506836 0.60263735055923462 0.76109641790390015
0.57967007160186768 0.60343986749649048 0.76158708333969116
0.72364842891693115 0.60139316320419312 0.75937896966934204
0.84948432445526123 0.60072201490402222 0.75679308176040649
0.97089844942092896 0.59828191995620728 0.75646072626113892
0.041789215058088303 0.76857554912567139 0.75030726194381714
0.23553921282291412 0.77073973417282104 0.75457262992858887
0.41918137669563293 0.77482205629348755 0.75692498683929443
0.58370304107666016 0.77659916877746582 0.75788170099258423
0.72838515043258667 0.77490609884262085 0.75960427522659302
0.85309684276580811 0.77480065822601318 0.75936394929885864
0.97291666269302368 0.77126169204711914 0.75819605588912964
0.042524509131908417 0.94818389415740967 0.75040900707244873
0.23869165778160095 0.94835406541824341 0.75135743618011475
0.42134332656860352 0.95132362842559814 0.75387006998062134
0.58753734827041626 0.9541662335395813 0.75470751523971558
0.72786897420883179 0.95387876033782959 0.75567227602005005
0.85284632444381714 0.95346933603286743 0.7552453875541687
0.97291666269302368 0.95092421770095825 0.75252878665924072
