assets/lut/others golden mono.cube
# Created by: G'MIC (https://gmic.eu)
TITLE "golden_mono"
# LUT size
LUT_3D_SIZE 5
# Data domain
DOMAIN_MIN 0.0 0.0 0.0
DOMAIN_MAX 1.0 1.0 1.0
# LUT data points
0.027832420542836189 0.019622743129730225 0.010231242515146732
0.058456931263208389 0.045072503387928009 0.020876431837677956
0.14473249018192291 0.10918676108121872 0.056505929678678513
0.30705457925796509 0.21751298010349274 0.1191534623503685
0.45011869072914124 0.31011962890625 0.1777031272649765
0.10021521151065826 0.070792466402053833 0.035796325653791428
0.15467570722103119 0.10424448549747467 0.057756893336772919
0.22568009793758392 0.1577458381652832 0.087654814124107361
0.38282901048660278 0.26190951466560364 0.14713160693645477
0.54216164350509644 0.38190421462059021 0.21333611011505127
0.26432415843009949 0.18317770957946777 0.10231583565473557
0.32451561093330383 0.22579903900623322 0.12683923542499542
0.31238076090812683 0.21519209444522858 0.11722196638584137
0.3514922559261322 0.25218960642814636 0.13811418414115906
0.51558732986450195 0.35889610648155212 0.20160990953445435
0.46894800662994385 0.32679969072341919 0.18036907911300659
0.51903557777404785 0.36477020382881165 0.20539487898349762
0.52309113740921021 0.35927411913871765 0.20135892927646637
0.48604172468185425 0.34080979228019714 0.18902772665023804
0.52417129278182983 0.36795055866241455 0.2003924697637558
0.6790277361869812 0.47824233770370483 0.26379856467247009
0.74536246061325073 0.52009546756744385 0.28406995534896851
0.72430163621902466 0.49827098846435547 0.284035325050354
0.73172503709793091 0.5023084282875061 0.28239902853965759
0.71757328510284424 0.50620865821838379 0.2779916524887085
0.17524951696395874 0.1276223212480545 0.075570665299892426
0.22963054478168488 0.15769791603088379 0.08878779411315918
0.22271935641765594 0.15646170079708099 0.084166370332241058
0.33797231316566467 0.23465137183666229 0.12983736395835876
0.50030249357223511 0.34809920191764832 0.19599360227584839
0.18326185643672943 0.1342519223690033 0.071877241134643555
0.34193876385688782 0.24079893529415131 0.13222372531890869
0.4236200749874115 0.29218393564224243 0.16758832335472107
0.54835730791091919 0.38142457604408264 0.21254613995552063
0.73985934257507324 0.51493412256240845 0.29229569435119629
0.28317505121231079 0.19679567217826843 0.10904224216938019
0.43947279453277588 0.31032887101173401 0.17248675227165222
0.58922773599624634 0.40970182418823242 0.22839438915252686
0.67294955253601074 0.46917372941970825 0.26781201362609863
0.88074630498886108 0.60770255327224731 0.33948099613189697
0.47247046232223511 0.33220508694648743 0.18474535644054413
0.66731232404708862 0.46415272355079651 0.26449304819107056
0.81296473741531372 0.55903410911560059 0.31482431292533875
0.86331349611282349 0.58497947454452515 0.32918795943260193
0.88615685701370239 0.60314959287643433 0.33741730451583862
0.72785705327987671 0.50282847881317139 0.28047481179237366
0.88733696937561035 0.59969156980514526 0.33752408623695374
0.98964947462081909 0.71278548240661621 0.40050461888313293
0.99771541357040405 0.74323421716690063 0.41491690278053284
0.98773884773254395 0.73147940635681152 0.40705946087837219
0.45309412479400635 0.32391789555549622 0.18304824829101562
0.50517058372497559 0.35741746425628662 0.19917973875999451
0.48685270547866821 0.34575819969177246 0.19271412491798401
0.48740851879119873 0.34284403920173645 0.19022879004478455
0.52312153577804565 0.36720550060272217 0.20714272558689117
0.4751436710357666 0.34119471907615662 0.18748445808887482
0.6519395112991333 0.46000862121582031 0.25361776351928711
0.73548990488052368 0.51262801885604858 0.2869393527507782
0.70011121034622192 0.48246684670448303 0.26980692148208618
0.72002285718917847 0.49760651588439941 0.27559322118759155
0.46185031533241272 0.32655972242355347 0.18069113790988922
0.62338423728942871 0.43486931920051575 0.2446364164352417
0.82815182209014893 0.56691431999206543 0.31353703141212463
0.91918909549713135 0.63257431983947754 0.35623779892921448
0.94223654270172119 0.66397535800933838 0.37527614831924438
0.49693596363067627 0.34544128179550171 0.18900121748447418
0.65565556287765503 0.45686432719230652 0.25514349341392517
0.84443789720535278 0.57504439353942871 0.32178786396980286
0.99708729982376099 0.70684444904327393 0.39992064237594604
0.99991005659103394 0.81107741594314575 0.45658817887306213
0.64426428079605103 0.45876625180244446 0.25235456228256226
0.84036314487457275 0.58052819967269897 0.32414081692695618
0.99003332853317261 0.70339149236679077 0.39403849840164185
0.98728901147842407 0.83424979448318481 0.46798798441886902
0.99454766511917114 0.92284524440765381 0.51193833351135254
0.79031217098236084 0.54826784133911133 0.31050205230712891
0.82904666662216187 0.57306426763534546 0.32128936052322388
0.86001241207122803 0.57243698835372925 0.31603279709815979
0.84932595491409302 0.57492756843566895 0.31607559323310852
0.8202204704284668 0.57389742136001587 0.32134410738945007
0.85122990608215332 0.57576876878738403 0.32381027936935425
0.98596543073654175 0.69933581352233887 0.39055290818214417
0.99631118774414062 0.73166185617446899 0.4103761613368988
0.99882268905639648 0.73574745655059814 0.40792456269264221
0.99911952018737793 0.73753148317337036 0.41033533215522766
0.83509677648544312 0.56624108552932739 0.31984436511993408
0.98145747184753418 0.6910330057144165 0.38805830478668213
0.99999487400054932 0.79850459098815918 0.44965633749961853
0.99988251924514771 0.8898124098777771 0.49491193890571594
1 0.90752315521240234 0.50068163871765137
0.84909319877624512 0.55671697854995728 0.31212463974952698
0.98402100801467896 0.69001919031143188 0.38757497072219849
0.99998182058334351 0.7935912013053894 0.44291895627975464
0.99162250757217407 0.90191078186035156 0.50483465194702148
0.99652630090713501 0.9888991117477417 0.55564314126968384
0.82888245582580566 0.56586337089538574 0.31219208240509033
0.97139519453048706 0.67954897880554199 0.38383716344833374
1 0.80807238817214966 0.44863599538803101
0.99403327703475952 0.91953897476196289 0.50897055864334106
0.997081458568573 0.99996119737625122 0.57889962196350098
0.97059911489486694 0.7722240686416626 0.42878782749176025
0.99932169914245605 0.80237782001495361 0.45251014828681946
0.99748408794403076 0.79015249013900757 0.43999436497688293
0.99981546401977539 0.80170267820358276 0.45324057340621948
0.99816423654556274 0.78863435983657837 0.44314095377922058
0.9990348219871521 0.79824346303939819 0.44691005349159241
1 0.89937132596969604 0.50067740678787231
0.9961434006690979 0.94143056869506836 0.5216984748840332
0.99954915046691895 0.93937051296234131 0.5202643871307373
1 0.93263930082321167 0.52287036180496216
0.99899458885192871 0.79319220781326294 0.44428515434265137
0.99576425552368164 0.90782421827316284 0.50824165344238281
0.99405336380004883 0.99469649791717529 0.56254130601882935
0.98675572872161865 1 0.58311372995376587
0.98842930793762207 0.99998599290847778 0.58897799253463745
1 0.79628539085388184 0.44720184803009033
1 0.91199415922164917 0.50949156284332275
0.99922829866409302 0.99564957618713379 0.56381011009216309
0.99595928192138672 0.99603921175003052 0.60241365432739258
0.99222135543823242 0.99895685911178589 0.63195317983627319
1 0.79652076959609985 0.44641730189323425
0.99828934669494629 0.90045708417892456 0.50385183095932007
0.99964076280593872 0.9781113862991333 0.55924397706985474
0.99761027097702026 0.99688833951950073 0.5986405611038208
1 1 0.64981186389923096
