assets/lut/others solarized color.cube
# Created by: G'MIC (https://gmic.eu)
TITLE "solarized_color"
# LUT size
LUT_3D_SIZE 13
# Data domain
DOMAIN_MIN 0.0 0.0 0.0
DOMAIN_MAX 1.0 1.0 1.0
# LUT data points
0.069312229752540588 0.13010910153388977 0.048287007957696915
0.19816018640995026 0.12521468102931976 0.043252892792224884
0.25263094902038574 0.12526646256446838 0.040052540600299835
0.25310859084129333 0.14269180595874786 0.040373258292675018
0.24882723391056061 0.14010326564311981 0.042160514742136002
0.30073240399360657 0.13882878422737122 0.04508788138628006
0.44201570749282837 0.12165551632642746 0.046432703733444214
0.61705559492111206 0.12787166237831116 0.047219131141901016
0.74559646844863892 0.13853631913661957 0.039095140993595123
0.79474979639053345 0.13055068254470825 0.039356023073196411
0.82359778881072998 0.12946908175945282 0.03958771750330925
0.87318134307861328 0.13385847210884094 0.03652171790599823
0.94717788696289062 0.13983239233493805 0.038284048438072205
0.080238595604896545 0.38750994205474854 0.047621380537748337
0.19280004501342773 0.37766531109809875 0.040057029575109482
0.23945528268814087 0.36907503008842468 0.041968699544668198
0.24738034605979919 0.37593826651573181 0.048470143228769302
0.25618478655815125 0.39553371071815491 0.05017128586769104
0.31532195210456848 0.39434036612510681 0.045514065772294998
0.45141869783401489 0.37247124314308167 0.045091036707162857
0.61710166931152344 0.37137609720230103 0.045938082039356232
0.74191194772720337 0.38823074102401733 0.044374518096446991
0.79828310012817383 0.38510489463806152 0.042645547538995743
0.83235305547714233 0.38268217444419861 0.041613902896642685
0.87542235851287842 0.3915039598941803 0.038962509483098984
0.94295477867126465 0.3871205747127533 0.042734991759061813
0.078321985900402069 0.52804994583129883 0.038444370031356812
0.19119316339492798 0.51501882076263428 0.043167099356651306
0.24373537302017212 0.51094317436218262 0.043505351990461349
0.25292181968688965 0.51583880186080933 0.050081111490726471
0.25766450166702271 0.51978892087936401 0.050589811056852341
0.3216097354888916 0.5205875039100647 0.043534852564334869
0.44494637846946716 0.5249706506729126 0.042046863585710526
0.62309873104095459 0.51795637607574463 0.042828146368265152
0.74293375015258789 0.52514934539794922 0.039631474763154984
0.80120730400085449 0.52598029375076294 0.040725588798522949
0.83670288324356079 0.51722288131713867 0.045502934604883194
0.88076317310333252 0.52502387762069702 0.041920110583305359
0.94328987598419189 0.52411162853240967 0.03889567032456398
0.069073908030986786 0.5675244927406311 0.033657312393188477
0.18716326355934143 0.56757283210754395 0.038993746042251587
0.24786882102489471 0.56775707006454468 0.042324859648942947
0.25389644503593445 0.56076085567474365 0.042754095047712326
0.25304314494132996 0.56210219860076904 0.041023794561624527
0.30344358086585999 0.56605821847915649 0.040101535618305206
0.44723525643348694 0.56383568048477173 0.046721842139959335
0.62457191944122314 0.56531375646591187 0.046433810144662857
0.7376437783241272 0.56725150346755981 0.040619179606437683
0.79668760299682617 0.56741297245025635 0.040352571755647659
0.83523106575012207 0.56492900848388672 0.044019989669322968
0.87943315505981445 0.56441062688827515 0.044981144368648529
0.94399386644363403 0.56652945280075073 0.045255266129970551
0.070399656891822815 0.55140441656112671 0.039310663938522339
0.19156451523303986 0.54592585563659668 0.038110367953777313
0.25078287720680237 0.54540157318115234 0.042336467653512955
0.25544601678848267 0.55043113231658936 0.042667899280786514
0.25813591480255127 0.54515570402145386 0.046466603875160217
0.29886165261268616 0.54771757125854492 0.045330196619033813
0.44205993413925171 0.54741054773330688 0.045920487493276596
0.62099874019622803 0.54578089714050293 0.0464324951171875
0.73141908645629883 0.55189794301986694 0.051300603896379471
0.79007554054260254 0.55618298053741455 0.049743622541427612
0.83299046754837036 0.54725581407546997 0.042463637888431549
0.8790888786315918 0.53829926252365112 0.042730368673801422
0.94894111156463623 0.54632329940795898 0.044989194720983505
0.075226038694381714 0.50671052932739258 0.043508194386959076
0.19610084593296051 0.50994861125946045 0.042525362223386765
0.25492444634437561 0.51603275537490845 0.044308338314294815
0.26041164994239807 0.51486706733703613 0.05925261601805687
0.25993269681930542 0.51052165031433105 0.060195744037628174
0.30743497610092163 0.50614219903945923 0.04676341637969017
0.44809910655021667 0.50503498315811157 0.041261352598667145
0.63317430019378662 0.50554043054580688 0.053411625325679779
0.73173874616622925 0.51138108968734741 0.056219663470983505
0.78658872842788696 0.51554995775222778 0.070422649383544922
0.82887750864028931 0.51387590169906616 0.060320191085338593
0.8782050609588623 0.51378333568572998 0.044558282941579819
0.95318114757537842 0.5182565450668335 0.045639578253030777
0.074643693864345551 0.49007627367973328 0.037602890282869339
0.19228127598762512 0.49628725647926331 0.040631044656038284
0.25176408886909485 0.51282447576522827 0.047800339758396149
0.25727576017379761 0.49914279580116272 0.05287729948759079
0.26240319013595581 0.5007394552230835 0.057061709463596344
0.31470611691474915 0.50223475694656372 0.045211087912321091
0.4512898325920105 0.49944794178009033 0.040422789752483368
0.62983882427215576 0.4902280867099762 0.048887800425291061
0.73863226175308228 0.49859783053398132 0.048030957579612732
0.78965502977371216 0.50170719623565674 0.057649902999401093
0.83159178495407104 0.50073379278182983 0.060297422111034393
0.88225442171096802 0.50308740139007568 0.057698030024766922
0.94879817962646484 0.49679252505302429 0.049545243382453918
0.075814083218574524 0.58112829923629761 0.038310389965772629
0.19724480807781219 0.58268111944198608 0.041707400232553482
0.25649091601371765 0.57472509145736694 0.041527975350618362
0.25875741243362427 0.57197380065917969 0.042467109858989716
0.25009641051292419 0.56610214710235596 0.042242985218763351
0.31955453753471375 0.57502448558807373 0.038967430591583252
0.45768511295318604 0.57609981298446655 0.041547812521457672
0.62620270252227783 0.58404135704040527 0.044178713113069534
0.74305093288421631 0.59553903341293335 0.045581653714179993
0.79541695117950439 0.59802794456481934 0.045151922851800919
0.83300328254699707 0.58269608020782471 0.050843797624111176
0.88222843408584595 0.58061474561691284 0.060873638838529587
0.95101284980773926 0.57916665077209473 0.047578323632478714
0.086465500295162201 0.79689007997512817 0.039843987673521042
0.20210252702236176 0.79407435655593872 0.044614303857088089
0.25535890460014343 0.7863202691078186 0.042938023805618286
0.25820031762123108 0.78473246097564697 0.045509278774261475
0.25729808211326599 0.78201889991760254 0.040258876979351044
0.31807422637939453 0.78356897830963135 0.041123215109109879
0.44221532344818115 0.78150588274002075 0.045149169862270355
0.61454111337661743 0.78830605745315552 0.039885114878416061
0.73922914266586304 0.79265403747558594 0.039256568998098373
0.79369223117828369 0.8017268180847168 0.042025323957204819
0.82761502265930176 0.79694509506225586 0.042194589972496033
0.87839877605438232 0.78884989023208618 0.048139683902263641
0.94918912649154663 0.79944676160812378 0.045367609709501266
0.092760644853115082 0.82085400819778442 0.047876782715320587
0.20482338964939117 0.82580554485321045 0.041320815682411194
0.25382581353187561 0.82252335548400879 0.049321506172418594
0.25650358200073242 0.8273012638092041 0.054054290056228638
0.26279622316360474 0.83209061622619629 0.050524290651082993
0.31991177797317505 0.82808268070220947 0.044054396450519562
0.44536140561103821 0.81582236289978027 0.039841655641794205
0.61309319734573364 0.8247755765914917 0.042272649705410004
0.73764288425445557 0.82036006450653076 0.040332794189453125
0.79302549362182617 0.8103213906288147 0.038825463503599167
0.82592648267745972 0.82005167007446289 0.048952873796224594
0.87829118967056274 0.83025336265563965 0.048417199403047562
0.9462968111038208 0.83193910121917725 0.044574841856956482
0.072928711771965027 0.82429987192153931 0.046148952096700668
0.19267450273036957 0.8198203444480896 0.046277005225419998
0.24883396923542023 0.81219154596328735 0.050179053097963333
0.253122478723526 0.81929647922515869 0.048109631985425949
0.26182261109352112 0.81659811735153198 0.050124254077672958
0.32204154133796692 0.81699448823928833 0.052853275090456009
0.44883188605308533 0.82269638776779175 0.044594917446374893
0.62360078096389771 0.8184848427772522 0.049644708633422852
0.74275511503219604 0.81393939256668091 0.050118554383516312
0.79323643445968628 0.82327091693878174 0.055855844169855118
0.82595843076705933 0.82796704769134521 0.060241237282752991
0.88069075345993042 0.82919770479202271 0.051669340580701828
0.94915330410003662 0.81896036863327026 0.039186589419841766
0.0648484006524086 0.88028961420059204 0.05710875615477562
0.18299277126789093 0.876659095287323 0.046350948512554169
0.23920297622680664 0.87071579694747925 0.042675990611314774
0.25358119606971741 0.86909419298171997 0.04130249097943306
0.25702029466629028 0.87157177925109863 0.047273196280002594
0.30989986658096313 0.87801390886306763 0.046229343861341476
0.44681000709533691 0.88360583782196045 0.0486716628074646
0.62412726879119873 0.88495087623596191 0.052193660289049149
0.73848140239715576 0.87552285194396973 0.047570053488016129
0.79034918546676636 0.87681615352630615 0.055664524435997009
0.82325035333633423 0.88464409112930298 0.04699249193072319
0.87906068563461304 0.88674533367156982 0.042894653975963593
0.95318984985351562 0.88265395164489746 0.038567561656236649
0.073502637445926666 0.95473784208297729 0.04562174528837204
0.18518121540546417 0.94769942760467529 0.044339600950479507
0.23538967967033386 0.94182640314102173 0.047490078955888748
0.25529217720031738 0.94687348604202271 0.039219126105308533
0.2555840015411377 0.94773244857788086 0.038814723491668701
0.29632246494293213 0.94766849279403687 0.038316089659929276
0.43298012018203735 0.95453768968582153 0.042728543281555176
0.61221444606781006 0.9525001049041748 0.05360737070441246
0.73385536670684814 0.9444844126701355 0.042128201574087143
0.79152137041091919 0.94707632064819336 0.045751068741083145
0.82368594408035278 0.95235985517501831 0.042352594435214996
0.87676471471786499 0.9484938383102417 0.039289645850658417
0.94620174169540405 0.948944091796875 0.03630371019244194
0.083708055317401886 0.13453350961208344 0.11440597474575043
0.19785527884960175 0.12710504233837128 0.11567965894937515
0.24684146046638489 0.13432897627353668 0.11723565310239792
0.25237211585044861 0.14314918220043182 0.11391953378915787
0.25177982449531555 0.13306055963039398 0.11402542889118195
0.30787855386734009 0.14170891046524048 0.11541666090488434
0.44037845730781555 0.13422577083110809 0.11875688284635544
0.62467938661575317 0.13768768310546875 0.11293189972639084
0.7444453239440918 0.14204126596450806 0.11255782097578049
0.7968103289604187 0.12515327334403992 0.11218438297510147
0.82546889781951904 0.12653665244579315 0.11390794068574905
0.87632381916046143 0.12519636750221252 0.11640682071447372
0.93951284885406494 0.13223697245121002 0.11152420192956924
0.093549080193042755 0.393829345703125 0.11736971139907837
0.19759698212146759 0.38134467601776123 0.11350946128368378
0.23378948867321014 0.37284421920776367 0.11775292456150055
0.24693581461906433 0.38039827346801758 0.11957153677940369
0.25944310426712036 0.38913771510124207 0.11770953238010406
0.3080543577671051 0.38499313592910767 0.11656676977872849
0.44950059056282043 0.38155105710029602 0.12027768790721893
0.61051517724990845 0.38431653380393982 0.117414690554142
0.74207586050033569 0.39626988768577576 0.11404819786548615
0.79754447937011719 0.38519620895385742 0.11929865926504135
0.83285045623779297 0.37416011095046997 0.11852638423442841
0.87965714931488037 0.37029984593391418 0.11264898627996445
0.94115597009658813 0.37069204449653625 0.11439879238605499
0.075828447937965393 0.53167301416397095 0.11123514920473099
0.1911453902721405 0.525096595287323 0.11788985133171082
0.23161190748214722 0.51218730211257935 0.12314598262310028
0.24742871522903442 0.51029360294342041 0.12160465121269226
0.25278443098068237 0.5198131799697876 0.11595883965492249
0.32231289148330688 0.51723837852478027 0.11601696908473969
0.45960235595703125 0.52412766218185425 0.11715490370988846
0.61979228258132935 0.52165895700454712 0.1164756640791893
0.74659550189971924 0.52474689483642578 0.1150481104850769
0.79972130060195923 0.52567195892333984 0.11940578371286392
0.83837425708770752 0.51347064971923828 0.11943753063678741
0.88059920072555542 0.51540422439575195 0.11183822900056839
0.93758690357208252 0.51670819520950317 0.1083836555480957
0.067116744816303253 0.5672447681427002 0.11117108166217804
0.18745867908000946 0.56613844633102417 0.11468030512332916
0.23944495618343353 0.56208431720733643 0.11949881911277771
0.25206646323204041 0.56258279085159302 0.11971296370029449
0.25041770935058594 0.56488144397735596 0.11549852788448334
0.31533163785934448 0.56372499465942383 0.1135125532746315
0.45311358571052551 0.56257051229476929 0.11280070245265961
0.62118613719940186 0.56529706716537476 0.11565252393484116
0.73866671323776245 0.56423860788345337 0.12189105153083801
0.79747337102890015 0.56120514869689941 0.12101331353187561
0.83847141265869141 0.55639463663101196 0.11965750902891159
0.88568222522735596 0.5516170859336853 0.11588490754365921
0.95487803220748901 0.56157135963439941 0.11060377955436707
0.071241088211536407 0.5525202751159668 0.11393819749355316
0.19323605298995972 0.55210953950881958 0.11452298611402512
0.24649249017238617 0.55150192975997925 0.11608105897903442
0.25652012228965759 0.54528266191482544 0.1194392666220665
0.26011773943901062 0.53935253620147705 0.12029140442609787
0.30926057696342468 0.54257923364639282 0.11360331624746323
0.44580903649330139 0.54356426000595093 0.11092405021190643
0.61861640214920044 0.54218012094497681 0.11606825143098831
0.7359616756439209 0.55304491519927979 0.12689393758773804
0.79391956329345703 0.55218797922134399 0.1283387690782547
0.83587747812271118 0.54093265533447266 0.1209576353430748
0.88672471046447754 0.53581660985946655 0.11729498207569122
0.9495047926902771 0.54423630237579346 0.11580735445022583
0.07851099967956543 0.50530517101287842 0.11940357089042664
0.2008550763130188 0.51002472639083862 0.12129554152488708
0.25521829724311829 0.51418745517730713 0.11555985361337662
0.26290017366409302 0.51295369863510132 0.12067902833223343
0.2609308660030365 0.50696462392807007 0.12486197054386139
0.30558681488037109 0.50342381000518799 0.11385414004325867
0.45268937945365906 0.50603914260864258 0.10941307246685028
0.63586807250976562 0.50651609897613525 0.11215293407440186
0.73676913976669312 0.51306033134460449 0.12157974392175674
0.78973096609115601 0.51906591653823853 0.12901885807514191
0.82981365919113159 0.51473754644393921 0.12553770840167999
0.88136297464370728 0.51476752758026123 0.12054397165775299
0.94626182317733765 0.51876199245452881 0.1219198927283287
0.069188304245471954 0.48765438795089722 0.11524590849876404
0.19013720750808716 0.49274265766143799 0.11979805678129196
0.25420969724655151 0.50089973211288452 0.11263003200292587
0.26027789711952209 0.50096273422241211 0.11770730465650558
0.26164549589157104 0.49800330400466919 0.12191184610128403
0.30948606133460999 0.49766674637794495 0.11026044189929962
0.44889837503433228 0.50005084276199341 0.11010552197694778
0.62690895795822144 0.49410012364387512 0.10899493843317032
0.74448418617248535 0.49316078424453735 0.11152461916208267
0.79086828231811523 0.49863249063491821 0.11740776151418686
0.82907795906066895 0.50571370124816895 0.11925828456878662
0.87870442867279053 0.50737136602401733 0.12345878779888153
0.94865602254867554 0.49902760982513428 0.12648726999759674
0.071741320192813873 0.56835222244262695 0.10922791808843613
0.18717347085475922 0.5893433690071106 0.11294417828321457
0.25303119421005249 0.5776439905166626 0.10919848829507828
0.25717923045158386 0.57426458597183228 0.11361139267683029
0.25634118914604187 0.56860166788101196 0.11753015220165253
0.3073456883430481 0.58600246906280518 0.11064744740724564
0.44698867201805115 0.58705490827560425 0.11354365944862366
0.61025476455688477 0.58329671621322632 0.11238181591033936
0.74510759115219116 0.58106201887130737 0.11550008505582809
0.79344111680984497 0.59358119964599609 0.11805913597345352
0.82997649908065796 0.5857844352722168 0.11378937959671021
0.87705934047698975 0.58020192384719849 0.11938712745904922
0.94937878847122192 0.57601749897003174 0.12170986086130142
0.074233919382095337 0.7935900092124939 0.11305022984743118
0.19212846457958221 0.80168610811233521 0.11484450101852417
0.25122392177581787 0.79077434539794922 0.11890263110399246
0.25493624806404114 0.78532779216766357 0.11785922944545746
0.25519022345542908 0.78793007135391235 0.11575844138860703
0.30989006161689758 0.78046226501464844 0.11312655359506607
0.44864651560783386 0.77936851978302002 0.11817782372236252
0.61490428447723389 0.79452705383300781 0.11524786800146103
0.73890310525894165 0.79067152738571167 0.11414802074432373
0.78890335559844971 0.79738777875900269 0.11845816671848297
0.82264441251754761 0.78834629058837891 0.11388701200485229
0.87662738561630249 0.78526616096496582 0.11884735524654388
0.94969809055328369 0.78857958316802979 0.11948373913764954
0.074185103178024292 0.82097882032394409 0.11737070977687836
0.19566318392753601 0.82490170001983643 0.115054652094841
0.24814422428607941 0.82057327032089233 0.119123674929142
0.25307208299636841 0.82303279638290405 0.12362313270568848
0.26060029864311218 0.83107972145080566 0.11980669945478439
0.31593471765518188 0.82745867967605591 0.11354883015155792
0.44011330604553223 0.82924693822860718 0.11320875585079193
0.60920184850692749 0.83155363798141479 0.11582440882921219
0.73275017738342285 0.82284998893737793 0.11581940203905106
0.78967010974884033 0.81333315372467041 0.12108695507049561
0.82577049732208252 0.82095444202423096 0.11638660728931427
0.87850689888000488 0.82552438974380493 0.11707825213670731
0.94444757699966431 0.83599632978439331 0.11737606674432755
0.074328340590000153 0.82390284538269043 0.12161687016487122
0.18586133420467377 0.81634640693664551 0.11620890349149704
0.24340921640396118 0.81083595752716064 0.11506614089012146
0.2507300078868866 0.81421208381652832 0.12341579049825668
0.26199877262115479 0.82168585062026978 0.12019569426774979
0.31102418899536133 0.81877672672271729 0.11764119565486908
0.43543514609336853 0.81597095727920532 0.11844860762357712
0.60168516635894775 0.81828212738037109 0.12256996333599091
0.7373620867729187 0.81036585569381714 0.11818178743124008
0.79083758592605591 0.81933599710464478 0.12283862382173538
0.82549399137496948 0.82648324966430664 0.11742034554481506
0.88081145286560059 0.82417982816696167 0.11339407414197922
0.94230771064758301 0.82716745138168335 0.11338602751493454
0.06814797967672348 0.88633888959884644 0.11941440403461456
0.17737415432929993 0.88296294212341309 0.1141071543097496
0.23634177446365356 0.87553435564041138 0.11471375077962875
0.24792797863483429 0.87223362922668457 0.1162843257188797
0.25403633713722229 0.87614256143569946 0.11079360544681549
0.298288494348526 0.87811815738677979 0.11578406393527985
0.43459784984588623 0.87650758028030396 0.12724833190441132
0.61377346515655518 0.88044673204421997 0.12687742710113525
0.73251521587371826 0.87355607748031616 0.1221906915307045
0.78370779752731323 0.87189686298370361 0.11900817602872849
0.81876677274703979 0.87591290473937988 0.11194233596324921
0.87895113229751587 0.87691009044647217 0.11138812452554703
0.95385050773620605 0.87910228967666626 0.111924909055233
0.071209549903869629 0.9567573070526123 0.11411543935537338
0.17414020001888275 0.95589464902877808 0.11218330264091492
0.23465119302272797 0.94936782121658325 0.11307878792285919
0.2499559074640274 0.94335293769836426 0.11387205123901367
0.25422894954681396 0.9384009838104248 0.10977135598659515
0.29959273338317871 0.93914729356765747 0.1085776686668396
0.43369764089584351 0.94695335626602173 0.11670925468206406
0.61337661743164062 0.94836074113845825 0.11956945806741714
0.73207461833953857 0.93037009239196777 0.11808373034000397
0.78831654787063599 0.93506735563278198 0.11756157875061035
0.8257821798324585 0.94521170854568481 0.11862181127071381
0.87910598516464233 0.9522775411605835 0.11789042502641678
0.95216840505599976 0.95213985443115234 0.11934825032949448
0.070130094885826111 0.1527862548828125 0.18725328147411346
0.19495390355587006 0.14136415719985962 0.19020159542560577
0.24570630490779877 0.14808668196201324 0.19350031018257141
0.25303134322166443 0.14867888391017914 0.19236825406551361
0.25525727868080139 0.13534848392009735 0.191934734582901
0.30218914151191711 0.14223514497280121 0.19234071671962738
0.44048616290092468 0.14039449393749237 0.19385921955108643
0.62324267625808716 0.14091210067272186 0.19241985678672791
0.74245309829711914 0.14324915409088135 0.19316302239894867
0.79712474346160889 0.12859399616718292 0.19100441038608551
0.82650208473205566 0.12037591636180878 0.19278176128864288
0.87659710645675659 0.12198794633150101 0.19265902042388916
0.93299269676208496 0.13416248559951782 0.18799535930156708
0.071830287575721741 0.40801095962524414 0.18720526993274689
0.19482272863388062 0.40500181913375854 0.19019234180450439
0.24190561473369598 0.40073981881141663 0.19251181185245514
0.25107753276824951 0.3970227837562561 0.19551984965801239
0.25638860464096069 0.39680778980255127 0.19401688873767853
0.30543535947799683 0.39036545157432556 0.19100643694400787
0.44914823770523071 0.39588138461112976 0.19190150499343872
0.6113923192024231 0.39594316482543945 0.19216980040073395
0.73554074764251709 0.40029612183570862 0.19106899201869965
0.79754060506820679 0.38983464241027832 0.19003111124038696
0.82948583364486694 0.3805733323097229 0.1940203458070755
0.8801581859588623 0.36436685919761658 0.19224309921264648
0.93554782867431641 0.373788982629776 0.1885962188243866
0.069405905902385712 0.52967947721481323 0.19442969560623169
0.18937312066555023 0.53120434284210205 0.19657431542873383
0.23631551861763 0.52498817443847656 0.1966773122549057
0.25259894132614136 0.5216754674911499 0.19826753437519073
0.25477701425552368 0.52434611320495605 0.1927369087934494
0.30584794282913208 0.52425140142440796 0.18792742490768433
0.44657284021377563 0.5287051796913147 0.19102846086025238
0.61336821317672729 0.52624285221099854 0.19322335720062256
0.73014777898788452 0.53067672252655029 0.19336864352226257
0.79691725969314575 0.53156310319900513 0.19147743284702301
0.83657217025756836 0.52364116907119751 0.19534698128700256
0.8795967698097229 0.52348858118057251 0.19269579648971558
0.94713675975799561 0.52015846967697144 0.18940752744674683
0.068564154207706451 0.56615519523620605 0.19001504778862
0.18689838051795959 0.56461769342422485 0.19560626149177551
0.23707512021064758 0.56474733352661133 0.19808277487754822
0.25753375887870789 0.56597518920898438 0.19765399396419525
0.25952568650245667 0.56128609180450439 0.1931438148021698
0.31738007068634033 0.56069427728652954 0.19023707509040833
0.43764078617095947 0.56593793630599976 0.19146452844142914
0.61345803737640381 0.56266778707504272 0.19314651191234589
0.73221796751022339 0.56496930122375488 0.19868560135364532
0.7966989278793335 0.56111449003219604 0.19740524888038635
0.84031796455383301 0.55322462320327759 0.19655050337314606
0.8855704665184021 0.55356508493423462 0.19548666477203369
0.95402580499649048 0.55971610546112061 0.19095507264137268
0.071867428719997406 0.55152523517608643 0.18703685700893402
0.19067178666591644 0.55128329992294312 0.18980471789836884
0.24571223556995392 0.54864871501922607 0.1931612491607666
0.25687149167060852 0.54351264238357544 0.19743701815605164
0.26357525587081909 0.53791147470474243 0.19638866186141968
0.31576955318450928 0.53870493173599243 0.19093038141727448
