assets/lut/others natural vivid.cube
# Created by: G'MIC (https://gmic.eu)
TITLE "natural_vivid"
# LUT size
LUT_3D_SIZE 7
# Data domain
DOMAIN_MIN 0.0 0.0 0.0
DOMAIN_MAX 1.0 1.0 1.0
# LUT data points
0.048474524170160294 0.055370539426803589 0.18709363043308258
0.14196003973484039 0.067483149468898773 0.19249337911605835
0.2895471453666687 0.072379857301712036 0.19294543564319611
0.47633504867553711 0.068918205797672272 0.18225492537021637
0.64393043518066406 0.071101963520050049 0.18841607868671417
0.76933133602142334 0.072406113147735596 0.19061420857906342
0.85531973838806152 0.066857360303401947 0.19016128778457642
0.053700599819421768 0.18252857029438019 0.1859680563211441
0.14260558784008026 0.18476311862468719 0.19203539192676544
0.29111292958259583 0.17964443564414978 0.19282680749893188
0.47384253144264221 0.17917004227638245 0.18694527447223663
0.64095085859298706 0.17836259305477142 0.18550337851047516
0.76978898048400879 0.17728306353092194 0.18830467760562897
0.85906863212585449 0.17995533347129822 0.19678469002246857
0.061530362814664841 0.32660326361656189 0.18183021247386932
0.1428554356098175 0.32621416449546814 0.18767200410366058
0.28962355852127075 0.32401961088180542 0.18973168730735779
0.47526469826698303 0.32506182789802551 0.18670748174190521
0.6440354585647583 0.32401961088180542 0.18659035861492157
0.76872855424880981 0.32339957356452942 0.18725895881652832
0.85878205299377441 0.32409292459487915 0.19358876347541809
0.057977326214313507 0.47587108612060547 0.18138252198696136
0.13996309041976929 0.4784088134765625 0.18749737739562988
0.28942793607711792 0.47578203678131104 0.18766501545906067
0.47900295257568359 0.47821629047393799 0.18916602432727814
0.64455580711364746 0.47843137383460999 0.18806000053882599
0.76672381162643433 0.47843137383460999 0.18484413623809814
0.85514706373214722 0.48196756839752197 0.18117727339267731
0.063818745315074921 0.62809032201766968 0.18735016882419586
0.14273490011692047 0.62930560111999512 0.19106602668762207
0.290129154920578 0.62744009494781494 0.1870100200176239
0.4784264862537384 0.62938547134399414 0.18868124485015869
0.64435040950775146 0.63072717189788818 0.18873144686222076
0.76670092344284058 0.62917661666870117 0.18372687697410583
0.85514706373214722 0.62787717580795288 0.17864011228084564
0.062076836824417114 0.75718897581100464 0.18368141353130341
0.14075487852096558 0.75894606113433838 0.18635976314544678
0.28971007466316223 0.75738269090652466 0.19080263376235962
0.47528278827667236 0.75666958093643188 0.19161964952945709
0.64339935779571533 0.75803732872009277 0.18749517202377319
0.76819473505020142 0.75669169425964355 0.18305325508117676
0.85872089862823486 0.75249069929122925 0.18127790093421936
0.064290545880794525 0.85165584087371826 0.19068093597888947
0.14031502604484558 0.85123521089553833 0.18721325695514679
0.28441426157951355 0.85122549533843994 0.1899624764919281
0.47242629528045654 0.85122549533843994 0.1926470547914505
0.64463639259338379 0.85082322359085083 0.19061240553855896
0.76873219013214111 0.85058087110519409 0.18620935082435608
0.85514706373214722 0.84970897436141968 0.18326407670974731
0.061973720788955688 0.056033700704574585 0.2946465015411377
0.14397977292537689 0.070889368653297424 0.29415121674537659
0.29159483313560486 0.072405137121677399 0.29578301310539246
0.47641080617904663 0.071993045508861542 0.2959233820438385
0.64493191242218018 0.073133789002895355 0.29662954807281494
0.76962763071060181 0.070707090198993683 0.29557383060455322
0.85787439346313477 0.067165642976760864 0.29636678099632263
0.063843593001365662 0.18398040533065796 0.29445123672485352
0.14716775715351105 0.18334425985813141 0.29776731133460999
0.29289215803146362 0.17956477403640747 0.29832729697227478
0.47589680552482605 0.17982721328735352 0.2991851270198822
0.64266955852508545 0.18056491017341614 0.29061165452003479
0.76838386058807373 0.1795114129781723 0.28985092043876648
0.85840779542922974 0.17826573550701141 0.29846689105033875
0.062627591192722321 0.33209717273712158 0.29060843586921692
0.14519003033638 0.32933047413825989 0.29379811882972717
0.29165104031562805 0.32380932569503784 0.29533439874649048
0.47629231214523315 0.31982490420341492 0.29428309202194214
0.64468169212341309 0.32007268071174622 0.2917669415473938
0.76899510622024536 0.32152527570724487 0.28990957140922546
0.85538357496261597 0.3200995922088623 0.29664519429206848
0.060576241463422775 0.48137062788009644 0.28711691498756409
0.14285996556282043 0.48235294222831726 0.29007071256637573
0.28950861096382141 0.48092412948608398 0.28910061717033386
0.47736692428588867 0.47700554132461548 0.28864303231239319
0.64649790525436401 0.47550076246261597 0.29302731156349182
0.76888656616210938 0.47842490673065186 0.29199561476707458
0.85514706373214722 0.47544097900390625 0.29253217577934265
0.062301456928253174 0.63102167844772339 0.2896333634853363
0.14317712187767029 0.63404661417007446 0.29022824764251709
0.29159930348396301 0.63413965702056885 0.28837913274765015
0.48045805096626282 0.63117581605911255 0.29382479190826416
0.6474534273147583 0.63081282377243042 0.29796063899993896
0.77027291059494019 0.62909328937530518 0.29583331942558289
0.85514706373214722 0.62752002477645874 0.29341977834701538
0.063357844948768616 0.75782591104507446 0.29197728633880615
0.14387767016887665 0.75881576538085938 0.28991785645484924
0.28996533155441284 0.76047372817993164 0.2918393611907959
0.47889968752861023 0.75675755739212036 0.29637080430984497
0.64876234531402588 0.75493836402893066 0.29804167151451111
0.77291667461395264 0.75410276651382446 0.29572916030883789
0.85769867897033691 0.7546502947807312 0.29550924897193909
0.063011676073074341 0.85296040773391724 0.29466360807418823
0.14409521222114563 0.85368502140045166 0.29053744673728943
0.28670606017112732 0.85147130489349365 0.29250895977020264
0.47283139824867249 0.84928762912750244 0.29413565993309021
0.64586538076400757 0.85046994686126709 0.29321455955505371
0.77022802829742432 0.85049021244049072 0.28940239548683167
0.85901886224746704 0.85038655996322632 0.29108777642250061
0.063807271420955658 0.065219566226005554 0.40172639489173889
0.13946770131587982 0.07051888108253479 0.39649590849876404
0.29011809825897217 0.069590188562870026 0.4018685519695282
0.47723311185836792 0.07067050039768219 0.40589791536331177
0.64747840166091919 0.073533542454242706 0.40591484308242798
0.77228438854217529 0.06419595330953598 0.4064120352268219
0.85906863212585449 0.062087114900350571 0.4054221510887146
0.066919438540935516 0.18095134198665619 0.40349319577217102
0.14265628159046173 0.17969819903373718 0.39864510297775269
0.29065492749214172 0.17863057553768158 0.40286344289779663
0.47478827834129333 0.17741726338863373 0.40349531173706055
0.64418518543243408 0.18135406076908112 0.40016892552375793
0.7690238356590271 0.18210059404373169 0.40093544125556946
0.85514706373214722 0.17975655198097229 0.40276819467544556
0.064017489552497864 0.32476148009300232 0.40233215689659119
0.14217677712440491 0.32706370949745178 0.4013671875
0.28973820805549622 0.32382598519325256 0.40337082743644714
0.47472161054611206 0.31911665201187134 0.40236043930053711
0.64453643560409546 0.32024967670440674 0.40230438113212585
0.76956158876419067 0.32545387744903564 0.40379014611244202
0.85514706373214722 0.32426348328590393 0.40537258982658386
0.060560952872037888 0.47752523422241211 0.39927536249160767
0.13954177498817444 0.47914204001426697 0.40151879191398621
0.28746283054351807 0.47857570648193359 0.40130558609962463
0.47602012753486633 0.47577318549156189 0.40001243352890015
0.64689093828201294 0.47445249557495117 0.40378165245056152
0.77119892835617065 0.47689124941825867 0.40664947032928467
0.85886377096176147 0.47480979561805725 0.40511545538902283
0.061651609838008881 0.62756061553955078 0.40131410956382751
0.13997526466846466 0.63165241479873657 0.40379902720451355
0.28845623135566711 0.63447904586791992 0.40220636129379272
0.47610104084014893 0.63318377733230591 0.40187567472457886
0.64456593990325928 0.63248193264007568 0.40535828471183777
0.77031368017196655 0.6305612325668335 0.40727254748344421
0.85904216766357422 0.62694311141967773 0.40705087780952454
0.06081535667181015 0.75533086061477661 0.40440914034843445
0.13907718658447266 0.757160484790802 0.40331929922103882
0.28553420305252075 0.76281476020812988 0.40479442477226257
0.47526827454566956 0.75886416435241699 0.40460509061813354
0.64523446559906006 0.75625944137573242 0.40532788634300232
0.77036744356155396 0.75659662485122681 0.40484476089477539
0.85613167285919189 0.75719797611236572 0.40567037463188171
0.064722724258899689 0.85062795877456665 0.4030458927154541
0.14428232610225677 0.85490912199020386 0.4025406539440155
0.28648126125335693 0.85503941774368286 0.40366676449775696
0.47352665662765503 0.85115820169448853 0.39990803599357605
0.64361727237701416 0.85279089212417603 0.40197336673736572
0.76969927549362183 0.85242074728012085 0.40192416310310364
0.86032205820083618 0.85093611478805542 0.40195938944816589
0.066338934004306793 0.068835161626338959 0.50839293003082275
0.14358082413673401 0.070060014724731445 0.50337696075439453
0.28999981284141541 0.063127718865871429 0.50734466314315796
0.47634583711624146 0.064953133463859558 0.50845396518707275
0.64471042156219482 0.070205867290496826 0.50513255596160889
0.76943314075469971 0.066074013710021973 0.50756227970123291
0.85787409543991089 0.067523941397666931 0.50972330570220947
0.070942044258117676 0.18281768262386322 0.51211202144622803
0.14623917639255524 0.18329395353794098 0.50483113527297974
0.28988915681838989 0.17925499379634857 0.50659322738647461
0.47240543365478516 0.17657855153083801 0.50497227907180786
0.64366966485977173 0.17705495655536652 0.50236481428146362
0.76899510622024536 0.17899470031261444 0.50484424829483032
0.85514706373214722 0.17971628904342651 0.50654155015945435
0.063313774764537811 0.3269660472869873 0.50727885961532593
0.13918717205524445 0.32916304469108582 0.50259172916412354
0.28739985823631287 0.32579326629638672 0.50569134950637817
0.47212210297584534 0.32241123914718628 0.50474268198013306
0.64441359043121338 0.31886473298072815 0.50580167770385742
0.77166473865509033 0.32189479470252991 0.50919091701507568
0.85821700096130371 0.32814517617225647 0.50942540168762207
0.061974260956048965 0.47837302088737488 0.50506103038787842
0.13958773016929626 0.47843030095100403 0.50714892148971558
0.28704330325126648 0.47843137383460999 0.50800496339797974
0.47388562560081482 0.47806531190872192 0.50506836175918579
0.64699798822402954 0.4748593270778656 0.50697475671768188
0.77383577823638916 0.47497421503067017 0.51078623533248901
0.86279022693634033 0.47855040431022644 0.50769549608230591
0.06547439843416214 0.62672185897827148 0.51035022735595703
0.14192458987236023 0.62807208299636841 0.51322287321090698
0.2890927791595459 0.63243454694747925 0.51050764322280884
0.47542402148246765 0.6319463849067688 0.50668185949325562
0.64478051662445068 0.62847310304641724 0.50664037466049194
0.77315437793731689 0.62713718414306641 0.51009559631347656
0.86299020051956177 0.62516689300537109 0.51085925102233887
0.058911267668008804 0.75352334976196289 0.50702226161956787
0.13812696933746338 0.75923383235931396 0.50679415464401245
0.28716671466827393 0.76284819841384888 0.51141172647476196
0.47566375136375427 0.75994563102722168 0.50969487428665161
0.64449304342269897 0.75517290830612183 0.50704658031463623
0.77018618583679199 0.75536370277404785 0.50714731216430664
0.85906416177749634 0.75586003065109253 0.50915855169296265
0.059745099395513535 0.84997189044952393 0.51066046953201294
0.14011354744434357 0.85123717784881592 0.51029002666473389
0.28568556904792786 0.85444921255111694 0.51121515035629272
0.47220462560653687 0.85445201396942139 0.50869345664978027
0.64232790470123291 0.85480976104736328 0.50739389657974243
0.76820182800292969 0.85590296983718872 0.50646001100540161
0.85910606384277344 0.85647571086883545 0.50708544254302979
0.065616980195045471 0.058575425297021866 0.60513144731521606
0.14401917159557343 0.069602608680725098 0.60406219959259033
0.28854414820671082 0.067681603133678436 0.60671329498291016
0.47446253895759583 0.068928003311157227 0.60864025354385376
0.64364629983901978 0.07014794647693634 0.6048704981803894
0.76887208223342896 0.071698226034641266 0.60602247714996338
0.8537859320640564 0.06988157331943512 0.60722202062606812
0.065232716500759125 0.18108180165290833 0.6033250093460083
0.14144562184810638 0.18420040607452393 0.5995793342590332
0.28598213195800781 0.17876861989498138 0.60449314117431641
0.47241690754890442 0.17852336168289185 0.60741204023361206
0.64356774091720581 0.17658373713493347 0.60622704029083252
0.76994413137435913 0.17951615154743195 0.60631877183914185
0.85823816061019897 0.17912369966506958 0.604408860206604
0.061370234936475754 0.32697516679763794 0.60030519962310791
0.14022701978683472 0.32816305756568909 0.59653037786483765
0.28812283277511597 0.32303622364997864 0.60092157125473022
0.47258821129798889 0.31979140639305115 0.60207116603851318
0.64432621002197266 0.31760528683662415 0.6034095287322998
0.77159684896469116 0.32411783933639526 0.6051209568977356
0.85887354612350464 0.33042585849761963 0.60451561212539673
0.062711797654628754 0.48235371708869934 0.59859669208526611
0.14301326870918274 0.47861561179161072 0.60084259510040283
0.29100173711776733 0.47452822327613831 0.60321235656738281
0.47579857707023621 0.47382655739784241 0.60138958692550659
0.64710265398025513 0.47411671280860901 0.60276556015014648
0.77216988801956177 0.48004999756813049 0.60551333427429199
0.85906863212585449 0.48232224583625793 0.60337615013122559
0.06666092574596405 0.63437426090240479 0.60552626848220825
0.14356060326099396 0.63137686252593994 0.60916078090667725
0.29048275947570801 0.62926292419433594 0.60833567380905151
0.47611048817634583 0.62669229507446289 0.60536360740661621
0.64687544107437134 0.62427151203155518 0.60543924570083618
0.77139198780059814 0.6292194128036499 0.6081622838973999
0.85906863212585449 0.62755441665649414 0.60620856285095215
0.063081108033657074 0.76084792613983154 0.60522478818893433
0.14035002887248993 0.76018047332763672 0.60746413469314575
0.2890256941318512 0.76013481616973877 0.60985440015792847
0.47741714119911194 0.75784975290298462 0.60870206356048584
0.64738661050796509 0.75514703989028931 0.60797524452209473
0.76952743530273438 0.75514703989028931 0.60812020301818848
0.85543698072433472 0.75525319576263428 0.60821080207824707
0.061764705926179886 0.85327392816543579 0.60278427600860596
0.14078953862190247 0.85125386714935303 0.60644429922103882
0.287281334400177 0.85078144073486328 0.60806584358215332
0.47346547245979309 0.85165798664093018 0.60773158073425293
0.64340370893478394 0.85510784387588501 0.60729825496673584
0.76752060651779175 0.85758846998214722 0.60637396574020386
0.8580012321472168 0.85983383655548096 0.60748344659805298
0.05594075471162796 0.066270641982555389 0.69735527038574219
0.1402740478515625 0.072484873235225677 0.6977655291557312
0.28805416822433472 0.07263539731502533 0.69828218221664429
0.4758535623550415 0.071344457566738129 0.7001185417175293
0.64764916896820068 0.072600193321704865 0.7002982497215271
0.7718997597694397 0.072670489549636841 0.70091742277145386
0.85631680488586426 0.06276625394821167 0.69981616735458374
0.058013360947370529 0.18307504057884216 0.69526547193527222
0.13803799450397491 0.18411639332771301 0.69359683990478516
0.28400006890296936 0.18024958670139313 0.69731730222702026
0.47254902124404907 0.17838951945304871 0.69901293516159058
0.64491039514541626 0.17897716164588928 0.6993597149848938
0.770477294921875 0.18130576610565186 0.69926911592483521
0.85772955417633057 0.18041853606700897 0.69887715578079224
0.06115640327334404 0.32337701320648193 0.69612139463424683
0.14189872145652771 0.32444745302200317 0.69245368242263794
0.28874298930168152 0.32208532094955444 0.69334566593170166
0.47551625967025757 0.31770667433738708 0.69317573308944702
0.64550215005874634 0.3183378279209137 0.6940232515335083
0.76998591423034668 0.32512447237968445 0.6930508017539978
0.85362428426742554 0.33159130811691284 0.69366741180419922
0.061481744050979614 0.47614270448684692 0.69657039642333984
0.14301469922065735 0.47448256611824036 0.69394528865814209
0.29112517833709717 0.47438853979110718 0.69266748428344727
0.47705483436584473 0.47277593612670898 0.69150060415267944
0.64791715145111084 0.47439366579055786 0.69504529237747192
0.77138477563858032 0.48108187317848206 0.69390028715133667
0.85707771778106689 0.48202526569366455 0.69353753328323364
0.061848331242799759 0.6338200569152832 0.69797587394714355
0.13981318473815918 0.62906366586685181 0.69763243198394775
0.28654289245605469 0.62721437215805054 0.69724220037460327
0.47638064622879028 0.62707781791687012 0.6981576681137085
0.64804869890213013 0.62697196006774902 0.7014232873916626
0.77318781614303589 0.6288335919380188 0.69824624061584473
0.8591802716255188 0.62748461961746216 0.6983712911605835
0.061314661055803299 0.76201099157333374 0.69657456874847412
0.13669821619987488 0.75772726535797119 0.69585412740707397
0.2819492518901825 0.75472968816757202 0.69787895679473877
0.47611641883850098 0.75506818294525146 0.69946146011352539
0.64787417650222778 0.75683170557022095 0.70166546106338501
0.77307653427124023 0.75514703989028931 0.70105338096618652
0.86058145761489868 0.75438356399536133 0.70308679342269897
0.058298986405134201 0.85505139827728271 0.69358211755752563
0.1357538253068924 0.85376459360122681 0.69691258668899536
0.28335994482040405 0.85038083791732788 0.69796591997146606
0.47247433662414551 0.85006475448608398 0.69673758745193481
0.64420998096466064 0.8562546968460083 0.69676965475082397
0.77061837911605835 0.85782516002655029 0.69828683137893677
0.86208951473236084 0.85597336292266846 0.70173561573028564
0.056154333055019379 0.069947004318237305 0.7861519455909729
0.14211679995059967 0.067220620810985565 0.7861519455909729
0.28844776749610901 0.073421463370323181 0.7861519455909729
0.47720259428024292 0.060878843069076538 0.78970742225646973
0.64652299880981445 0.067874342203140259 0.79007351398468018
0.77030783891677856 0.075158692896366119 0.79007351398468018
0.85600876808166504 0.071913503110408783 0.79083973169326782
0.059336822479963303 0.18173551559448242 0.78617721796035767
0.14131999015808105 0.17775219678878784 0.7861519455909729
0.28737601637840271 0.1813054084777832 0.78657728433609009
0.47614049911499023 0.1792716383934021 0.78683555126190186
0.64587843418121338 0.18297752737998962 0.78669881820678711
0.76943105459213257 0.18731792271137238 0.78770345449447632
0.85906863212585449 0.18455702066421509 0.79063737392425537
0.064713723957538605 0.32557955384254456 0.78760254383087158
0.14735160768032074 0.32427754998207092 0.7861519455909729
0.29128816723823547 0.32961899042129517 0.78604328632354736
0.47625273466110229 0.32642561197280884 0.78500014543533325
0.6468271017074585 0.32189643383026123 0.78469324111938477
0.76838833093643188 0.32593214511871338 0.78362536430358887
0.8563530445098877 0.32448253035545349 0.78612655401229858
0.062935635447502136 0.47733035683631897 0.78807491064071655
0.14616857469081879 0.47837555408477783 0.78389161825180054
0.29186606407165527 0.48212885856628418 0.78378307819366455
0.47751495242118835 0.47988486289978027 0.78431230783462524
0.64821118116378784 0.4771156907081604 0.78790593147277832
0.77076119184494019 0.48094990849494934 0.78251665830612183
0.85906863212585449 0.47542479634284973 0.78394603729248047
0.064890302717685699 0.63130342960357666 0.78536808490753174
0.14505843818187714 0.62913495302200317 0.7812381386756897
0.28894263505935669 0.6299101710319519 0.78832352161407471
0.4781794548034668 0.63052076101303101 0.79088234901428223
0.65120083093643188 0.62807077169418335 0.79458916187286377
0.77354085445404053 0.62989336252212524 0.78317064046859741
0.85917294025421143 0.62580424547195435 0.78442215919494629
0.067778989672660828 0.75983715057373047 0.784565269947052
0.14443732798099518 0.75521057844161987 0.78070849180221558
0.28803566098213196 0.75474971532821655 0.78442734479904175
0.47782760858535767 0.75864887237548828 0.78637295961380005
0.64839917421340942 0.75865769386291504 0.78780066967010498
0.77315723896026611 0.75505512952804565 0.78465408086776733
0.86045175790786743 0.75110435485839844 0.78734093904495239
0.065009132027626038 0.85275137424468994 0.78319418430328369
0.14251495897769928 0.85877925157546997 0.78841704130172729
0.2872978150844574 0.8539319634437561 0.78664237260818481
0.47249779105186462 0.85108190774917603 0.78216099739074707
0.64090389013290405 0.8570706844329834 0.78163623809814453
0.76742702722549438 0.85648387670516968 0.78238439559936523
0.85887181758880615 0.85250765085220337 0.7857699990272522
