assets/lut/others 60s.cube
# Created by: G'MIC (https://gmic.eu)
TITLE "60s"
# LUT size
LUT_3D_SIZE 7
# Data domain
DOMAIN_MIN 0.0 0.0 0.0
DOMAIN_MAX 1.0 1.0 1.0
# LUT data points
0.46053346991539001 0.12877112627029419 0.49975848197937012
0.45593589544296265 0.13263468444347382 0.49299103021621704
0.59309864044189453 0.1376909464597702 0.5080450177192688
0.76924949884414673 0.13917352259159088 0.4999639093875885
0.89287364482879639 0.13746084272861481 0.5122411847114563
0.92429095506668091 0.14494046568870544 0.50898832082748413
0.83661478757858276 0.15054984390735626 0.51188725233078003
0.44736272096633911 0.21393340826034546 0.49567592144012451
0.45692497491836548 0.22003068029880524 0.49947169423103333
0.59792399406433105 0.22117893397808075 0.49264156818389893
0.77430546283721924 0.23307788372039795 0.50187373161315918
0.8979526162147522 0.23945233225822449 0.50118786096572876
0.92175173759460449 0.24059565365314484 0.49668782949447632
0.86338841915130615 0.24770419299602509 0.50784748792648315
0.43820604681968689 0.46931794285774231 0.5089220404624939
0.43661674857139587 0.47070935368537903 0.50613516569137573
0.5857425332069397 0.44313928484916687 0.50153887271881104
0.77679526805877686 0.47053337097167969 0.50847285985946655
0.90037781000137329 0.48186275362968445 0.50655418634414673
0.93492543697357178 0.50307643413543701 0.51433807611465454
0.87803798913955688 0.51774543523788452 0.51452195644378662
0.42879810929298401 0.72219330072402954 0.49797070026397705
0.43835330009460449 0.73052495718002319 0.50861215591430664
0.61161386966705322 0.73036360740661621 0.50766003131866455
0.77729356288909912 0.72884052991867065 0.49544218182563782
0.89929258823394775 0.73513084650039673 0.49820905923843384
0.91947591304779053 0.73928308486938477 0.50376546382904053
0.88589096069335938 0.76629394292831421 0.521270751953125
0.41410309076309204 0.87843376398086548 0.51177883148193359
0.43592637777328491 0.89090210199356079 0.51316380500793457
0.60417884588241577 0.87362104654312134 0.51036131381988525
0.79184287786483765 0.88374888896942139 0.49720111489295959
0.89896762371063232 0.88469475507736206 0.49992090463638306
0.92592793703079224 0.8866005539894104 0.50443106889724731
0.90468335151672363 0.9043307900428772 0.51791059970855713
0.39264348149299622 0.95180231332778931 0.51114267110824585
0.44166955351829529 0.96136778593063354 0.51864469051361084
0.61877143383026123 0.95063430070877075 0.50459450483322144
0.79901832342147827 0.95127308368682861 0.50097978115081787
0.89784103631973267 0.95780384540557861 0.49527361989021301
0.93293112516403198 0.95790326595306396 0.50167101621627808
0.91465651988983154 0.97156298160552979 0.51826328039169312
0.40489262342453003 0.89565187692642212 0.5281253457069397
0.46115130186080933 0.9082368016242981 0.5291779637336731
0.66199427843093872 0.91978657245635986 0.53538471460342407
0.82426291704177856 0.90095514059066772 0.53420805931091309
0.93213051557540894 0.90629565715789795 0.5361514687538147
0.96540677547454834 0.90917700529098511 0.53142136335372925
0.93691080808639526 0.93631547689437866 0.54300165176391602
0.33950722217559814 0.15146292746067047 0.51989376544952393
0.38483646512031555 0.16313415765762329 0.53003621101379395
0.56319695711135864 0.17514678835868835 0.52656573057174683
0.75612384080886841 0.17644301056861877 0.53124183416366577
0.8784058690071106 0.17767176032066345 0.53614252805709839
0.93463444709777832 0.18372224271297455 0.54742288589477539
0.91209334135055542 0.18436938524246216 0.55874276161193848
0.3535802960395813 0.20176208019256592 0.54706192016601562
0.4204353392124176 0.2323162704706192 0.55860322713851929
0.60570722818374634 0.2437034398317337 0.57052475214004517
0.79069209098815918 0.23811003565788269 0.56603175401687622
0.91417115926742554 0.24195127189159393 0.57799625396728516
0.95426231622695923 0.24989016354084015 0.57584106922149658
0.94401019811630249 0.26105669140815735 0.58532619476318359
0.36439517140388489 0.44464004039764404 0.54115235805511475
0.41769906878471375 0.46750479936599731 0.56628096103668213
0.61260402202606201 0.46994435787200928 0.57790756225585938
0.79118198156356812 0.47981938719749451 0.57288146018981934
0.91335088014602661 0.503406822681427 0.5789259672164917
0.95314472913742065 0.50365787744522095 0.58837670087814331
0.929310142993927 0.55405980348587036 0.60414201021194458
0.36180964112281799 0.7124028205871582 0.54552417993545532
0.42398887872695923 0.73877096176147461 0.57473015785217285
0.60985898971557617 0.72816210985183716 0.58449852466583252
0.79113888740539551 0.74105733633041382 0.57623952627182007
0.90876978635787964 0.74585527181625366 0.57115602493286133
0.94602835178375244 0.75479090213775635 0.58036798238754272
0.95021665096282959 0.78261834383010864 0.59163355827331543
0.35443535447120667 0.8782690167427063 0.56027364730834961
0.42728537321090698 0.88937592506408691 0.57615065574645996
0.61747032403945923 0.88112145662307739 0.58118706941604614
0.7998775839805603 0.8873482346534729 0.57914501428604126
0.90198761224746704 0.88619709014892578 0.57954853773117065
0.95002347230911255 0.88586151599884033 0.5847434401512146
0.94502800703048706 0.91295087337493896 0.59744721651077271
0.3548542857170105 0.94633263349533081 0.55742233991622925
0.44280847907066345 0.96467769145965576 0.57795554399490356
0.6387937068939209 0.95848345756530762 0.57426911592483521
0.81081879138946533 0.9557986855506897 0.58388322591781616
0.90793466567993164 0.95685487985610962 0.57832664251327515
0.95797824859619141 0.95825159549713135 0.58220607042312622
0.93650645017623901 0.97286486625671387 0.59643906354904175
0.374675452709198 0.93546491861343384 0.59186339378356934
0.46028152108192444 0.9401240348815918 0.60595428943634033
0.68115699291229248 0.94425046443939209 0.61506503820419312
0.85201007127761841 0.94845181703567505 0.61324542760848999
0.94019401073455811 0.93363910913467407 0.62403923273086548
0.97585558891296387 0.94580268859863281 0.60250693559646606
0.95550620555877686 0.95067381858825684 0.618011474609375
0.32501611113548279 0.15067462623119354 0.64801084995269775
0.38141843676567078 0.17833714187145233 0.64217448234558105
0.57174956798553467 0.17507654428482056 0.65319132804870605
0.76258194446563721 0.17446938157081604 0.65839177370071411
0.87990444898605347 0.17639140784740448 0.65785598754882812
0.92998200654983521 0.17855705320835114 0.66689258813858032
0.9166988730430603 0.1814674586057663 0.69870907068252563
0.34428879618644714 0.19920980930328369 0.66289103031158447
0.40613499283790588 0.24129272997379303 0.68363660573959351
0.60795724391937256 0.23898135125637054 0.69148093461990356
0.78689491748809814 0.25229385495185852 0.68255418539047241
0.90451222658157349 0.25104957818984985 0.69676154851913452
0.94981074333190918 0.25952184200286865 0.70418727397918701
0.92833822965621948 0.26488685607910156 0.73372644186019897
0.35192102193832397 0.44791319966316223 0.66592621803283691
0.41641330718994141 0.47669315338134766 0.69572478532791138
0.61433738470077515 0.49798867106437683 0.71015775203704834
0.80175745487213135 0.4953799843788147 0.70398151874542236
0.92030411958694458 0.53067857027053833 0.71290940046310425
0.96131938695907593 0.53853505849838257 0.72584682703018188
0.94649100303649902 0.56604486703872681 0.74387383460998535
0.35447481274604797 0.72854113578796387 0.68112671375274658
0.41784548759460449 0.74633574485778809 0.69430899620056152
0.62862813472747803 0.74165803194046021 0.71035230159759521
0.80148220062255859 0.75740897655487061 0.71996188163757324
0.91650336980819702 0.75988256931304932 0.72079557180404663
0.96126508712768555 0.77288490533828735 0.72635966539382935
0.94549834728240967 0.79606372117996216 0.74406266212463379
0.36227947473526001 0.8779643177986145 0.69188410043716431
0.42641475796699524 0.88109368085861206 0.70920330286026001
0.63750642538070679 0.88814443349838257 0.70788002014160156
0.81289565563201904 0.89129042625427246 0.7135852575302124
0.91248524188995361 0.8906397819519043 0.71899914741516113
0.95811194181442261 0.89926260709762573 0.72866004705429077
0.94452625513076782 0.91842442750930786 0.74700528383255005
0.35834693908691406 0.9528312087059021 0.69989681243896484
0.43528673052787781 0.96084940433502197 0.71399152278900146
0.64612692594528198 0.95607501268386841 0.70785665512084961
0.81610381603240967 0.95676159858703613 0.71281248331069946
0.91717541217803955 0.95098072290420532 0.71788120269775391
0.95563048124313354 0.9572223424911499 0.7300795316696167
0.93299305438995361 0.97636061906814575 0.74451726675033569
0.38576173782348633 0.92842072248458862 0.74685132503509521
0.46590441465377808 0.9315674901008606 0.75767743587493896
0.68869096040725708 0.9350467324256897 0.7623666524887085
0.85744380950927734 0.93714326620101929 0.76593232154846191
0.93947023153305054 0.93659889698028564 0.75961893796920776
0.97605419158935547 0.92988312244415283 0.76611018180847168
0.95364677906036377 0.93297910690307617 0.77779048681259155
0.33409512042999268 0.17428356409072876 0.7921760082244873
0.39926359057426453 0.18021547794342041 0.80858105421066284
0.57973474264144897 0.17676499485969543 0.80396127700805664
0.76243680715560913 0.18217475712299347 0.79853922128677368
0.88512754440307617 0.17520056664943695 0.81329178810119629
0.93043231964111328 0.17534944415092468 0.81459599733352661
0.90992742776870728 0.1878264844417572 0.83398914337158203
0.34253296256065369 0.22249661386013031 0.8309701681137085
0.42994970083236694 0.23496979475021362 0.83865642547607422
0.61634665727615356 0.24036794900894165 0.83776938915252686
0.79207378625869751 0.24418611824512482 0.83583003282546997
0.90536600351333618 0.24990679323673248 0.84152233600616455
0.95525830984115601 0.26687911152839661 0.84634053707122803
0.92618757486343384 0.27173221111297607 0.86862277984619141
0.33871561288833618 0.47017961740493774 0.82196187973022461
0.41732743382453918 0.5019645094871521 0.83711481094360352
0.63211899995803833 0.51383262872695923 0.84287732839584351
0.80486786365509033 0.52381867170333862 0.85427749156951904
0.91645586490631104 0.52880233526229858 0.85283279418945312
0.96277123689651489 0.54396837949752808 0.85940885543823242
0.94020950794219971 0.56557756662368774 0.88158673048019409
0.35829636454582214 0.7216256856918335 0.8177715539932251
0.41759288311004639 0.7487945556640625 0.84265017509460449
0.64381963014602661 0.75816196203231812 0.84710693359375
0.8161846399307251 0.76183313131332397 0.85103410482406616
0.91644906997680664 0.76562666893005371 0.85685127973556519
0.96790283918380737 0.78272902965545654 0.86217719316482544
0.92728620767593384 0.81190758943557739 0.88892489671707153
0.35389113426208496 0.87854540348052979 0.83493340015411377
0.42360156774520874 0.88441258668899536 0.84679180383682251
0.63834476470947266 0.89315116405487061 0.84817957878112793
0.81879323720932007 0.90056169033050537 0.85409969091415405
0.91927754878997803 0.89977610111236572 0.85999214649200439
0.96703743934631348 0.90558373928070068 0.85885989665985107
0.94062596559524536 0.92461049556732178 0.88044488430023193
0.35905006527900696 0.9520077109336853 0.83679074048995972
0.42878443002700806 0.96304690837860107 0.85538357496261597
0.64711320400238037 0.95148986577987671 0.85201370716094971
0.81748825311660767 0.96326720714569092 0.8612293004989624
0.91783541440963745 0.95719468593597412 0.8678850531578064
0.96005922555923462 0.95664399862289429 0.86972033977508545
0.93244928121566772 0.97768121957778931 0.8820185661315918
0.38062819838523865 0.91624528169631958 0.87223434448242188
0.46818080544471741 0.91485375165939331 0.8900722861289978
0.69256365299224854 0.91699504852294922 0.90039259195327759
0.86201971769332886 0.9300844669342041 0.89645379781723022
0.94900965690612793 0.91907769441604614 0.90313398838043213
0.97709512710571289 0.91847246885299683 0.90284675359725952
0.95964688062667847 0.91911983489990234 0.90484786033630371
0.33301371335983276 0.1628631204366684 0.88982129096984863
0.39800873398780823 0.18126377463340759 0.90178471803665161
0.60636705160140991 0.17288529872894287 0.91160482168197632
0.77500814199447632 0.16695240139961243 0.90102499723434448
0.88755184412002563 0.17089274525642395 0.90284496545791626
0.9272117018699646 0.17908419668674469 0.89836597442626953
0.90939253568649292 0.17940337955951691 0.91836947202682495
0.36020666360855103 0.22164613008499146 0.9113692045211792
0.43340399861335754 0.2486567497253418 0.92322158813476562
0.62457734346389771 0.2485470175743103 0.92339837551116943
0.79884845018386841 0.24944636225700378 0.9230688214302063
0.91421586275100708 0.24685481190681458 0.92982935905456543
0.95857501029968262 0.25492590665817261 0.92927682399749756
0.91552102565765381 0.27154695987701416 0.95179849863052368
0.36110466718673706 0.4925960898399353 0.92450582981109619
0.42888358235359192 0.52317923307418823 0.93108361959457397
0.63773602247238159 0.52585834264755249 0.93007177114486694
0.81281846761703491 0.52606731653213501 0.93196284770965576
0.91718071699142456 0.52228313684463501 0.93227916955947876
0.96528053283691406 0.5299304723739624 0.93866848945617676
0.9278140664100647 0.57901495695114136 0.96054410934448242
0.36356860399246216 0.74610239267349243 0.92707479000091553
0.42887017130851746 0.75537663698196411 0.93174564838409424
0.64716589450836182 0.76326644420623779 0.93208914995193481
0.82334452867507935 0.76924675703048706 0.93356359004974365
0.91691368818283081 0.77688831090927124 0.93472385406494141
0.96476477384567261 0.78817909955978394 0.9392397403717041
0.94328230619430542 0.81041979789733887 0.95963782072067261
0.36285048723220825 0.88229334354400635 0.92143392562866211
0.42855742573738098 0.89182078838348389 0.93330925703048706
0.6336936354637146 0.89039653539657593 0.93421077728271484
0.80850678682327271 0.89782798290252686 0.93539559841156006
0.92198586463928223 0.90559685230255127 0.93968415260314941
0.96407115459442139 0.91235297918319702 0.94008362293243408
0.93126481771469116 0.93106204271316528 0.95639193058013916
0.36323726177215576 0.94984197616577148 0.9248540997505188
0.43595144152641296 0.95184338092803955 0.93615853786468506
0.6411212682723999 0.95827072858810425 0.94056171178817749
0.81994009017944336 0.95469927787780762 0.93693119287490845
0.92247331142425537 0.95134216547012329 0.9431578516960144
0.9554588794708252 0.96317148208618164 0.94386446475982666
0.9306175708770752 0.97826355695724487 0.95742142200469971
0.39189547300338745 0.91183674335479736 0.95212042331695557
0.45760953426361084 0.92657124996185303 0.95067250728607178
0.68037694692611694 0.91976505517959595 0.95627230405807495
0.85323750972747803 0.92620551586151123 0.95658499002456665
0.94819885492324829 0.92007642984390259 0.96178317070007324
0.97526836395263672 0.93298053741455078 0.95975190401077271
0.94068044424057007 0.93719744682312012 0.96844863891601562
0.34148672223091125 0.15527760982513428 0.93219649791717529
0.40827399492263794 0.17114488780498505 0.95402747392654419
0.61001384258270264 0.16846039891242981 0.95170170068740845
0.7828749418258667 0.18096330761909485 0.9484173059463501
0.89037090539932251 0.17329792678356171 0.9525410532951355
0.93730193376541138 0.16419215500354767 0.95553570985794067
0.91001600027084351 0.16953307390213013 0.959003746509552
0.36787441372871399 0.23411642014980316 0.96706628799438477
0.43479791283607483 0.25277656316757202 0.97436273097991943
0.63375389575958252 0.26996862888336182 0.97026968002319336
0.79635214805603027 0.26721209287643433 0.96764969825744629
0.9120175838470459 0.26442617177963257 0.97215646505355835
0.93985909223556519 0.26304176449775696 0.97612321376800537
0.94157630205154419 0.25572073459625244 0.97961044311523438
0.37707796692848206 0.49264112114906311 0.95726591348648071
0.4499795138835907 0.51566207408905029 0.97088229656219482
0.6576462984085083 0.54542618989944458 0.97988218069076538
0.81976175308227539 0.52952206134796143 0.97583329677581787
0.91672027111053467 0.5507509708404541 0.97362273931503296
0.95223432779312134 0.55363982915878296 0.97754442691802979
0.90850567817687988 0.56866157054901123 0.98603862524032593
0.38043233752250671 0.74879223108291626 0.96169805526733398
0.46319735050201416 0.76465940475463867 0.97442746162414551
0.65408015251159668 0.77920758724212646 0.97474128007888794
0.82553726434707642 0.77637290954589844 0.97830921411514282
0.91221004724502563 0.78247761726379395 0.97797673940658569
0.94006061553955078 0.7802010178565979 0.97861242294311523
0.93029344081878662 0.79673343896865845 0.98372340202331543
0.38819104433059692 0.88899058103561401 0.96651220321655273
0.44589653611183167 0.89543318748474121 0.97490715980529785
0.64740478992462158 0.88616454601287842 0.97305774688720703
0.8118593692779541 0.89429861307144165 0.97603112459182739
0.92003065347671509 0.90772312879562378 0.9799620509147644
0.9531065821647644 0.91271835565567017 0.98217648267745972
0.91186225414276123 0.92290818691253662 0.98574340343475342
0.40217509865760803 0.94436413049697876 0.9606366753578186
0.46873906254768372 0.95647674798965454 0.97513788938522339
0.64902406930923462 0.95459240674972534 0.97537952661514282
0.81580382585525513 0.95950895547866821 0.97575932741165161
0.92600560188293457 0.96559077501296997 0.98041397333145142
0.94251930713653564 0.96211749315261841 0.98354423046112061
0.89113688468933105 0.97840648889541626 0.98414868116378784
0.43984577059745789 0.89132648706436157 0.98013424873352051
0.4851115345954895 0.89460533857345581 0.98477804660797119
0.67909836769104004 0.88886767625808716 0.98548632860183716
0.84274435043334961 0.8983229398727417 0.98669707775115967
0.94140172004699707 0.88610023260116577 0.98866331577301025
0.96248817443847656 0.90557116270065308 0.98917853832244873
0.91039305925369263 0.90803033113479614 0.99119275808334351
0.42815089225769043 0.19458159804344177 0.9688878059387207
0.4423726499080658 0.20054638385772705 0.96838915348052979
0.6204572319984436 0.21573252975940704 0.97405886650085449
0.80055373907089233 0.19980902969837189 0.97939801216125488
0.89661955833435059 0.21390356123447418 0.96991646289825439
0.93204516172409058 0.21748270094394684 0.97633081674575806
0.88858848810195923 0.22462481260299683 0.97533661127090454
0.45001053810119629 0.24380584061145782 0.97872155904769897
0.50070619583129883 0.26583820581436157 0.98831307888031006
0.64874672889709473 0.27409210801124573 0.98928356170654297
0.80773937702178955 0.27159494161605835 0.99089890718460083
0.91329777240753174 0.27546349167823792 0.99210667610168457
0.93919628858566284 0.26502326130867004 0.9921034574508667
0.86830985546112061 0.28047278523445129 0.99274927377700806
0.47490993142127991 0.51851147413253784 0.98326599597930908
0.51024973392486572 0.52704828977584839 0.99142915010452271
0.64969450235366821 0.54669541120529175 0.99243050813674927
0.8140336275100708 0.53339672088623047 0.99201595783233643
0.91295129060745239 0.56034183502197266 0.99241739511489868
0.94055241346359253 0.55557101964950562 0.99160557985305786
0.88643074035644531 0.56491142511367798 0.99604111909866333
0.48611107468605042 0.76363790035247803 0.98655837774276733
0.49835151433944702 0.77385216951370239 0.99085831642150879
0.6539236307144165 0.77477836608886719 0.98729318380355835
0.82305538654327393 0.78715687990188599 0.99138420820236206
0.92043745517730713 0.78944641351699829 0.9912371039390564
0.92629116773605347 0.78635108470916748 0.99218171834945679
0.85528111457824707 0.79302525520324707 0.99586248397827148
0.49162143468856812 0.89436167478561401 0.98485583066940308
0.5107574462890625 0.88736814260482788 0.98774236440658569
0.6598743200302124 0.89210712909698486 0.98999315500259399
0.82003933191299438 0.90604019165039062 0.99287998676300049
0.91494280099868774 0.910084068775177 0.99284684658050537
0.92757248878479004 0.91385173797607422 0.99371981620788574
0.85903471708297729 0.91811221837997437 0.99527764320373535
0.5254063606262207 0.95375305414199829 0.98191988468170166
0.50894826650619507 0.95659083127975464 0.99002546072006226
0.66427743434906006 0.95575046539306641 0.9915931224822998
0.8099745512008667 0.96092134714126587 0.99215686321258545
0.91170245409011841 0.9635663628578186 0.99394965171813965
0.92628055810928345 0.97200584411621094 0.99370020627975464
0.84157794713973999 0.97641706466674805 0.99598497152328491
0.53944563865661621 0.97941404581069946 0.98559087514877319
0.50807911157608032 0.97740858793258667 0.98842251300811768
0.65913832187652588 0.98071390390396118 0.99106615781784058
0.81792694330215454 0.98496890068054199 0.99218606948852539
0.9179069995880127 0.97934728860855103 0.99258166551589966
0.92766350507736206 0.98495525121688843 0.99607843160629272
0.83056622743606567 0.99145251512527466 0.99565118551254272
