assets/lut/others faded extreme.cube
# Created by: G'MIC (https://gmic.eu)
TITLE "faded_extreme"
# LUT size
LUT_3D_SIZE 13
# Data domain
DOMAIN_MIN 0.0 0.0 0.0
DOMAIN_MAX 1.0 1.0 1.0
# LUT data points
0.013573904521763325 0.013444967567920685 0.011046316474676132
0.016031287610530853 0.014341885223984718 0.011488387361168861
0.018978223204612732 0.013501514680683613 0.009653652086853981
0.031334672123193741 0.020736858248710632 0.014978730119764805
0.027514379471540451 0.012288486585021019 0.0093788299709558487
0.0339827761054039 0.014984774403274059 0.013731967657804489
0.048139356076717377 0.023983361199498177 0.021715590730309486
0.054769508540630341 0.024207619950175285 0.02202911302447319
0.071782052516937256 0.023301636800169945 0.026833746582269669
0.097988024353981018 0.036574196070432663 0.044118829071521759
0.12244275957345963 0.050912387669086456 0.060487948358058929
0.14458219707012177 0.063201397657394409 0.075635500252246857
0.16838958859443665 0.08320511132478714 0.096660405397415161
0.014434590004384518 0.014834040775895119 0.012193492613732815
0.016405591741204262 0.015061576850712299 0.012512790039181709
0.018598698079586029 0.013358277268707752 0.0098695047199726105
0.038104277104139328 0.026559298858046532 0.01993294432759285
0.042715858668088913 0.024607250466942787 0.020591571927070618
0.059750933200120926 0.035150177776813507 0.031984530389308929
0.091787628829479218 0.057165063917636871 0.052988387644290924
0.13994286954402924 0.09725063294172287 0.092676602303981781
0.15435521304607391 0.099481858313083649 0.098003819584846497
0.19754104316234589 0.1340201199054718 0.13433745503425598
0.22013545036315918 0.14783212542533875 0.14937713742256165
0.26154756546020508 0.18133533000946045 0.18338982760906219
0.30521133542060852 0.21780030429363251 0.21968832612037659
0.057015273720026016 0.060911726206541061 0.047728281468153
0.063267156481742859 0.062589354813098907 0.054128251969814301
0.097845397889614105 0.090836465358734131 0.079002678394317627
0.12573312222957611 0.11307185888290405 0.097975514829158783
0.15109683573246002 0.12899249792098999 0.11434070020914078
0.18476876616477966 0.15365487337112427 0.13820238411426544
0.22016339004039764 0.18194381892681122 0.16652284562587738
0.25918146967887878 0.21294544637203217 0.19867062568664551
0.2915627658367157 0.23443369567394257 0.22270998358726501
0.33380097150802612 0.26864349842071533 0.25658401846885681
0.35322073101997375 0.28127065300941467 0.26986345648765564
0.38578975200653076 0.30813056230545044 0.29510289430618286
0.42756050825119019 0.3423277735710144 0.32932943105697632
0.15574862062931061 0.16033387184143066 0.13355500996112823
0.18614503741264343 0.18632237613201141 0.15912988781929016
0.222966268658638 0.21479526162147522 0.18714375793933868
0.25609895586967468 0.24085637927055359 0.2116447240114212
0.28523752093315125 0.26134341955184937 0.23187190294265747
0.33116808533668518 0.29864674806594849 0.26781812310218811
0.36574277281761169 0.32576724886894226 0.29572251439094543
0.38136464357376099 0.33250954747200012 0.30425292253494263
0.42244008183479309 0.36481240391731262 0.33705615997314453
0.43727314472198486 0.37190538644790649 0.34610149264335632
0.47803196310997009 0.40612488985061646 0.37965318560600281
0.51497030258178711 0.43909984827041626 0.4085862934589386
0.55771017074584961 0.47548127174377441 0.44353744387626648
0.28148895502090454 0.28974458575248718 0.24563315510749817
0.31956511735916138 0.32136732339859009 0.2766367495059967
0.37000799179077148 0.36184519529342651 0.31506922841072083
0.41685450077056885 0.40139356255531311 0.35251373052597046
0.44301888346672058 0.41942036151885986 0.37099018692970276
0.4831908643245697 0.45222941040992737 0.4037896990776062
0.50716936588287354 0.46650445461273193 0.4202234148979187
0.54245764017105103 0.49386188387870789 0.44760885834693909
0.59045261144638062 0.53644323348999023 0.48737552762031555
0.59785431623458862 0.53643798828125 0.48838710784912109
0.61701297760009766 0.54739511013031006 0.50046956539154053
0.66214996576309204 0.5865282416343689 0.53842264413833618
0.69793605804443359 0.61760252714157104 0.56719028949737549
0.42645376920700073 0.43584164977073669 0.37833377718925476
0.47905924916267395 0.48303589224815369 0.42140322923660278
0.51324856281280518 0.50844824314117432 0.44497635960578918
0.55155545473098755 0.5369688868522644 0.47442224621772766
0.58167600631713867 0.55815297365188599 0.49707230925559998
0.62548410892486572 0.59519368410110474 0.53144872188568115
0.64809197187423706 0.60964524745941162 0.54667234420776367
0.67453813552856445 0.62825340032577515 0.56582975387573242
0.70593184232711792 0.65417009592056274 0.5923723578453064
0.74233847856521606 0.68329298496246338 0.62075793743133545
0.76850253343582153 0.70045125484466553 0.63718974590301514
0.80767673254013062 0.73437291383743286 0.67103886604309082
0.85442608594894409 0.77670979499816895 0.71138674020767212
0.55032563209533691 0.56020826101303101 0.48500803112983704
0.58803880214691162 0.5919460654258728 0.51670330762863159
0.61633884906768799 0.61339563131332397 0.53496527671813965
0.67248255014419556 0.66084563732147217 0.58203929662704468
0.72061061859130859 0.70023936033248901 0.62179476022720337
0.75314712524414062 0.72386056184768677 0.64552754163742065
0.76413488388061523 0.72705554962158203 0.65036547183990479
0.79699242115020752 0.752754807472229 0.67616510391235352
0.82381457090377808 0.77352321147918701 0.6964070200920105
0.8608776330947876 0.80307453870773315 0.72606170177459717
0.89728564023971558 0.83292257785797119 0.75625139474868774
0.92674469947814941 0.86287897825241089 0.78518873453140259
0.95054084062576294 0.89166277647018433 0.81228816509246826
0.69561612606048584 0.70437663793563843 0.61387002468109131
0.72192484140396118 0.72573494911193848 0.63377285003662109
0.7423558235168457 0.74054604768753052 0.64622956514358521
0.78655868768692017 0.77795976400375366 0.68311113119125366
0.83059358596801758 0.81465774774551392 0.7197684645652771
0.8713269829750061 0.84593671560287476 0.75103646516799927
0.89587509632110596 0.8640710711479187 0.77109676599502563
0.9385828971862793 0.90230280160903931 0.80777180194854736
0.95286494493484497 0.91226249933242798 0.82165682315826416
0.97260034084320068 0.93305760622024536 0.84866714477539062
0.98388248682022095 0.95301914215087891 0.88139742612838745
0.98744231462478638 0.9694526195526123 0.90525954961776733
0.991627037525177 0.97792375087738037 0.92396485805511475
0.83256775140762329 0.84404522180557251 0.73886412382125854
0.85914027690887451 0.86709505319595337 0.76055502891540527
0.89428246021270752 0.89319503307342529 0.79079550504684448
0.92740225791931152 0.91967016458511353 0.81987202167510986
0.95082652568817139 0.9413570761680603 0.84352725744247437
0.97287929058074951 0.96140754222869873 0.87031370401382446
0.98783779144287109 0.97494012117385864 0.89885902404785156
0.98940032720565796 0.9766077995300293 0.91666555404663086
0.9900277853012085 0.98119330406188965 0.93027180433273315
0.99346387386322021 0.99088984727859497 0.9496997594833374
0.99225407838821411 0.98784869909286499 0.9641452431678772
0.99213582277297974 0.99094289541244507 0.97669190168380737
0.99384421110153198 0.99511206150054932 0.9884415864944458
0.95638227462768555 0.96504437923431396 0.86778342723846436
0.97222882509231567 0.97728437185287476 0.89349150657653809
0.98043227195739746 0.97969686985015869 0.91173744201660156
0.98557686805725098 0.98113328218460083 0.92840218544006348
0.99275851249694824 0.98802798986434937 0.95483922958374023
0.99202525615692139 0.98689776659011841 0.9616086483001709
0.99148839712142944 0.98658764362335205 0.96651768684387207
0.99218201637268066 0.98827654123306274 0.97883123159408569
0.99410074949264526 0.99103981256484985 0.97884923219680786
0.99277621507644653 0.99221944808959961 0.98032993078231812
0.99217075109481812 0.99215567111968994 0.98440992832183838
0.99275648593902588 0.99277472496032715 0.98729950189590454
0.99304378032684326 0.99444615840911865 0.99067485332489014
0.9961097240447998 0.99673342704772949 0.96098065376281738
0.99210572242736816 0.99224430322647095 0.97024095058441162
0.98791992664337158 0.98753052949905396 0.96902108192443848
0.99035078287124634 0.98898237943649292 0.9807429313659668
0.98905467987060547 0.98720705509185791 0.9840627908706665
0.9866410493850708 0.98445385694503784 0.98162561655044556
0.98631244897842407 0.98399406671524048 0.97926914691925049
0.98907738924026489 0.98688185214996338 0.98221534490585327
0.99228018522262573 0.9905247688293457 0.98499530553817749
0.99263238906860352 0.99215686321258545 0.9865792989730835
0.99212270975112915 0.99211442470550537 0.98798179626464844
0.99016058444976807 0.9902462363243103 0.98737287521362305
0.98957008123397827 0.99059438705444336 0.98888146877288818
0.99423611164093018 0.99426901340484619 0.98560601472854614
0.98435389995574951 0.98403841257095337 0.97999334335327148
0.98433601856231689 0.98360759019851685 0.98141473531723022
0.98694425821304321 0.98603886365890503 0.98382812738418579
0.98087668418884277 0.9802241325378418 0.97895562648773193
0.97688788175582886 0.97648340463638306 0.97504061460494995
0.98152846097946167 0.98067218065261841 0.97843837738037109
0.98639857769012451 0.98549896478652954 0.9827425479888916
0.99052935838699341 0.98947703838348389 0.98709458112716675
0.99302887916564941 0.99227547645568848 0.99025475978851318
0.99225336313247681 0.99190443754196167 0.99033361673355103
0.98203891515731812 0.98213708400726318 0.98245435953140259
0.97932440042495728 0.97976720333099365 0.98121726512908936
0.99280524253845215 0.99261796474456787 0.99066388607025146
0.98953896760940552 0.98827564716339111 0.98821920156478882
0.99285632371902466 0.99031394720077515 0.99201583862304688
0.99097472429275513 0.9887697696685791 0.98997431993484497
0.98084467649459839 0.98028403520584106 0.98042327165603638
0.97647058963775635 0.97647058963775635 0.97609639167785645
0.97968149185180664 0.97949308156967163 0.97871220111846924
0.98454457521438599 0.98437410593032837 0.98341888189315796
0.98915576934814453 0.98887753486633301 0.98794287443161011
0.99268287420272827 0.99258935451507568 0.99200284481048584
0.99209791421890259 0.99218893051147461 0.9922822117805481
0.97949385643005371 0.97949385643005371 0.98184674978256226
0.98014658689498901 0.98014658689498901 0.98357242345809937
0.014571470208466053 0.015521285124123096 0.011694470420479774
0.01356296893209219 0.013271257281303406 0.010706628672778606
0.013675106689333916 0.010354449972510338 0.0082509955391287804
0.020857088267803192 0.01395835168659687 0.010941972956061363
0.020360445603728294 0.010787813924252987 0.0091578466817736626
0.02957051619887352 0.013290121220052242 0.013408376835286617
0.048347190022468567 0.025765901431441307 0.025800697505474091
0.060721185058355331 0.027481453493237495 0.028606250882148743
0.084274753928184509 0.034803278744220734 0.040653888136148453
0.10972914099693298 0.04886959120631218 0.055703300982713699
0.1434602290391922 0.072667457163333893 0.07998841255903244
0.17412975430488586 0.09373156726360321 0.10452047735452652
0.19680072367191315 0.10949647426605225 0.12388621270656586
0.014305758289992809 0.015425678342580795 0.011222974397242069
0.015109118074178696 0.01489525567740202 0.012115358375012875
0.023651393130421638 0.020198088139295578 0.017652608454227448
0.049762170761823654 0.041412010788917542 0.034317180514335632
0.068916186690330505 0.051832340657711029 0.047026526182889938
0.08913007378578186 0.062035221606492996 0.059064317494630814
0.12456335872411728 0.088764011859893799 0.085715532302856445
0.15511432290077209 0.1099107638001442 0.10680220276117325
0.1851852685213089 0.12856890261173248 0.12770217657089233
0.23023438453674316 0.16642613708972931 0.16479325294494629
0.27482771873474121 0.20270930230617523 0.20124541223049164
0.30581080913543701 0.22640936076641083 0.22571662068367004
0.33272308111190796 0.2469455748796463 0.24623917043209076
0.082706555724143982 0.086258843541145325 0.072744674980640411
0.091129481792449951 0.091433145105838776 0.078649230301380157
0.12986612319946289 0.12431740760803223 0.10951617360115051
0.16820603609085083 0.15645873546600342 0.13873507082462311
0.1968451589345932 0.17645683884620667 0.1589706689119339
0.22565522789955139 0.19472433626651764 0.17819365859031677
0.26163682341575623 0.22384542226791382 0.20746569335460663
0.30253621935844421 0.25734716653823853 0.24187733232975006
0.32881385087966919 0.27258318662643433 0.25771555304527283
0.35997229814529419 0.29692173004150391 0.28225129842758179
0.38730517029762268 0.31615397334098816 0.30123817920684814
0.4305572509765625 0.35254368185997009 0.33719068765640259
0.45921188592910767 0.37605065107345581 0.35950174927711487
0.20406799018383026 0.21060705184936523 0.18153806030750275
0.23397615551948547 0.23541784286499023 0.20561203360557556
0.26195642352104187 0.25564897060394287 0.22489918768405914
0.28893604874610901 0.27441945672035217 0.24173246324062347
0.32261005043983459 0.30096888542175293 0.26786947250366211
0.35554420948028564 0.32439875602722168 0.29122734069824219
0.39138266444206238 0.35336735844612122 0.32040849328041077
0.4269503653049469 0.38204279541969299 0.34916898608207703
0.46618360280990601 0.4108034074306488 0.37868738174438477
0.47270229458808899 0.40969666838645935 0.3796021044254303
0.51032692193984985 0.44082167744636536 0.40940338373184204
0.55595463514328003 0.48101693391799927 0.44714275002479553
0.59660422801971436 0.51584470272064209 0.48108527064323425
0.33281031250953674 0.3412783145904541 0.29461053013801575
0.3716103732585907 0.37407124042510986 0.32745534181594849
0.41470983624458313 0.40916988253593445 0.35945180058479309
0.4384157657623291 0.42422479391098022 0.37359437346458435
0.46586158871650696 0.44463843107223511 0.39434176683425903
0.50497531890869141 0.47500494122505188 0.42471253871917725
0.53988516330718994 0.501534104347229 0.45218560099601746
0.56860065460205078 0.52225267887115479 0.47246435284614563
0.59369337558746338 0.54164505004882812 0.49364349246025085
0.61766374111175537 0.55767834186553955 0.51188886165618896
0.65618711709976196 0.58841019868850708 0.53907978534698486
0.69781792163848877 0.62444537878036499 0.57274144887924194
0.73772811889648438 0.65692603588104248 0.60494107007980347
0.47329926490783691 0.48183593153953552 0.42101457715034485
0.50776940584182739 0.51180511713027954 0.44966283440589905
0.54522764682769775 0.54151779413223267 0.4777473509311676
0.57433038949966431 0.56181758642196655 0.49648657441139221
0.60660749673843384 0.58631598949432373 0.52117455005645752
0.65329635143280029 0.62522369623184204 0.55949121713638306
0.66999197006225586 0.63484305143356323 0.56934744119644165
0.70383638143539429 0.65834337472915649 0.59453487396240234
0.72222375869750977 0.67203283309936523 0.60973930358886719
0.77270793914794922 0.71536898612976074 0.65226680040359497
0.8093448281288147 0.74244207143783569 0.67720884084701538
0.84525167942047119 0.77309268712997437 0.70762723684310913
0.89219391345977783 0.81458479166030884 0.7486264705657959
0.60342442989349365 0.61304426193237305 0.53526908159255981
0.62289935350418091 0.62614697217941284 0.54789179563522339
0.66300821304321289 0.659778892993927 0.57942920923233032
0.70048058032989502 0.68970948457717896 0.60969096422195435
0.74081236124038696 0.72146499156951904 0.64300805330276489
0.7585943341255188 0.73226237297058105 0.65412276983261108
0.78297275304794312 0.75052011013031006 0.67299467325210571
0.82796502113342285 0.78761261701583862 0.70957309007644653
0.86099153757095337 0.81403899192810059 0.73422080278396606
0.89041703939437866 0.83773022890090942 0.75686603784561157
0.93768870830535889 0.87812721729278564 0.79863345623016357
0.96196830272674561 0.90897858142852783 0.83198928833007812
0.97768372297286987 0.93177956342697144 0.86270099878311157
0.73134499788284302 0.74327319860458374 0.64826923608779907
0.76570987701416016 0.77056169509887695 0.67539650201797485
0.79477626085281372 0.79347407817840576 0.69613587856292725
0.83183050155639648 0.82350939512252808 0.7270771861076355
0.86522042751312256 0.84899687767028809 0.75432789325714111
0.88883006572723389 0.86958557367324829 0.77503108978271484
0.91471350193023682 0.89222496747970581 0.80187726020812988
0.95251190662384033 0.92373192310333252 0.8353581428527832
0.97656726837158203 0.94535213708877563 0.86576896905899048
0.98151868581771851 0.96070551872253418 0.88420355319976807
0.98918861150741577 0.96880596876144409 0.9060204029083252
0.98727792501449585 0.97333389520645142 0.92306673526763916
0.99527084827423096 0.98816674947738647 0.95790994167327881
0.87766700983047485 0.89174777269363403 0.78522962331771851
0.89482921361923218 0.90239101648330688 0.79838263988494873
0.92868548631668091 0.92693448066711426 0.8248361349105835
0.96322768926620483 0.95776110887527466 0.86585420370101929
0.97023499011993408 0.96218997240066528 0.87904012203216553
0.98489522933959961 0.97600626945495605 0.90046137571334839
0.98914808034896851 0.98064118623733521 0.93218803405761719
0.99260669946670532 0.98292654752731323 0.9490276575088501
0.99478697776794434 0.98978817462921143 0.96682298183441162
0.99596220254898071 0.99533373117446899 0.97642374038696289
0.9946901798248291 0.99193876981735229 0.97447633743286133
0.99343299865722656 0.99085760116577148 0.98156064748764038
0.99745213985443115 0.99619936943054199 0.9920727014541626
0.96876144409179688 0.9791141152381897 0.9038882851600647
0.98009389638900757 0.98271512985229492 0.91687166690826416
0.98718243837356567 0.98649841547012329 0.93525570631027222
0.99020016193389893 0.98845142126083374 0.95807373523712158
0.99282211065292358 0.98956042528152466 0.97155559062957764
0.99121129512786865 0.98716217279434204 0.96792757511138916
0.99100375175476074 0.98787766695022583 0.97922831773757935
0.99205690622329712 0.98919582366943359 0.98099243640899658
0.99484729766845703 0.99201816320419312 0.98285448551177979
0.9946780800819397 0.99433797597885132 0.9840201735496521
0.99535173177719116 0.99325764179229736 0.98387199640274048
0.99600827693939209 0.99389433860778809 0.98707515001296997
0.9969831109046936 0.99660611152648926 0.99447864294052124
0.99440109729766846 0.9953799843788147 0.98047500848770142
0.99166774749755859 0.9913061261177063 0.98049116134643555
0.98936688899993896 0.98850023746490479 0.98093724250793457
0.99217683076858521 0.99182796478271484 0.98684537410736084
0.98960155248641968 0.98786956071853638 0.98261290788650513
0.98433572053909302 0.98274141550064087 0.97661405801773071
0.98506218194961548 0.98360574245452881 0.97784018516540527
0.98765063285827637 0.98677355051040649 0.98122298717498779
0.99135410785675049 0.99037736654281616 0.9845510721206665
0.99224060773849487 0.99215686321258545 0.98683732748031616
0.99449354410171509 0.99375301599502563 0.98908597230911255
0.99596446752548218 0.99592918157577515 0.99265575408935547
0.99695628881454468 0.996876060962677 0.99562931060791016
0.9931148886680603 0.99274361133575439 0.98718959093093872
0.98543131351470947 0.98433774709701538 0.98099428415298462
0.98385101556777954 0.98217540979385376 0.98087716102600098
0.99128967523574829 0.99029302597045898 0.98936969041824341
0.98678880929946899 0.98618370294570923 0.98522734642028809
0.97944194078445435 0.97916281223297119 0.97772407531738281
0.98187136650085449 0.98178589344024658 0.97952729463577271
0.9861983060836792 0.98604130744934082 0.98395687341690063
0.99029892683029175 0.99012410640716553 0.98810005187988281
0.99214059114456177 0.99215686321258545 0.99060571193695068
0.99182689189910889 0.99180668592453003 0.99116921424865723
0.98987346887588501 0.98985755443572998 0.99007493257522583
0.98971593379974365 0.98978167772293091 0.99076002836227417
0.99084365367889404 0.99006140232086182 0.98710542917251587
0.98952436447143555 0.98766404390335083 0.98702937364578247
0.99123507738113403 0.98824524879455566 0.99006491899490356
0.99303650856018066 0.99150466918945312 0.99282276630401611
0.98598861694335938 0.98576396703720093 0.9857865571975708
0.97975027561187744 0.97966206073760986 0.97943007946014404
0.98244363069534302 0.98234504461288452 0.98179107904434204
0.98686319589614868 0.98665785789489746 0.9860999584197998
0.99104589223861694 0.99099361896514893 0.99047380685806274
0.99215686321258545 0.99215686321258545 0.99215686321258545
0.98890352249145508 0.98913854360580444 0.98932528495788574
0.98064035177230835 0.98072630167007446 0.98254114389419556
0.9807770848274231 0.9807770848274231 0.98303437232971191
0.019287873059511185 0.021423982456326485 0.014219067059457302
0.018153052777051926 0.01798667199909687 0.013558391481637955
0.013050602748990059 0.0098629221320152283 0.0087326802313327789
0.01515636034309864 0.0077200648374855518 0.0074247322045266628
0.02924276702105999 0.013575849123299122 0.014595854096114635
0.044666185975074768 0.017437160015106201 0.021059941500425339
0.054475236684083939 0.021187964826822281 0.025365643203258514
0.08706771582365036 0.043505501002073288 0.048111408948898315
0.11145270615816116 0.056561682373285294 0.06516806036233902
0.13541498780250549 0.072780072689056396 0.080132685601711273
0.17161098122596741 0.098831474781036377 0.10785528272390366
0.19901712238788605 0.1192455068230629 0.1299809068441391
0.22357259690761566 0.13632509112358093 0.14879050850868225
0.023393040522933006 0.025627031922340393 0.016937809064984322
0.033183589577674866 0.033146277070045471 0.026278700679540634
0.037000123411417007 0.033967260271310806 0.029718376696109772
0.059957273304462433 0.050548389554023743 0.044717364013195038
0.10120758414268494 0.077750787138938904 0.073806047439575195
0.12120578438043594 0.087899073958396912 0.085725195705890656
0.15283730626106262 0.11439036577939987 0.11161955446004868
0.2016446441411972 0.15562322735786438 0.15077619254589081
0.23090058565139771 0.17509517073631287 0.17224851250648499
0.26077646017074585 0.19705978035926819 0.19376219809055328
0.29586976766586304 0.22368203103542328 0.22068636119365692
0.32830232381820679 0.24981856346130371 0.24716383218765259
0.3607601523399353 0.27532666921615601 0.27335193753242493
0.096710473299026489 0.1014491394162178 0.084762498736381531
0.12762546539306641 0.1276358962059021 0.11090792715549469
0.16287833452224731 0.15772704780101776 0.14002326130867004
0.18623960018157959 0.17454798519611359 0.15644945204257965
0.22985231876373291 0.20849598944187164 0.18910506367683411
0.24820354580879211 0.21774500608444214 0.1996254175901413
0.28513672947883606 0.24810352921485901 0.231448695063591
0.33871716260910034 0.29317757487297058 0.27580943703651428
0.37435570359230042 0.31876280903816223 0.30126890540122986
0.39046567678451538 0.32560059428215027 0.30904203653335571
0.42310097813606262 0.3515281081199646 0.33300685882568359
0.46723148226737976 0.39044669270515442 0.36973509192466736
0.49961301684379578 0.41477134823799133 0.3963240385055542
0.217701256275177 0.22544057667255402 0.1952919065952301
0.24912033975124359 0.25161528587341309 0.22111122310161591
0.30200621485710144 0.29831418395042419 0.26578995585441589
0.32807329297065735 0.31526750326156616 0.28089031577110291
0.35076954960823059 0.33109563589096069 0.29467892646789551
0.3841874897480011 0.35488682985305786 0.31845897436141968
0.42154210805892944 0.38474628329277039 0.3491719663143158
0.46855616569519043 0.4235241711139679 0.38786700367927551
0.49728670716285706 0.44296294450759888 0.40827319025993347
0.51430290937423706 0.451346755027771 0.41838142275810242
0.55368387699127197 0.48434880375862122 0.44914603233337402
0.58966493606567383 0.51449942588806152 0.47701051831245422
0.62654072046279907 0.54398322105407715 0.50722992420196533
0.3623090386390686 0.37022432684898376 0.32223376631736755
0.38575693964958191 0.38933601975440979 0.3395860493183136
0.43754050135612488 0.43411168456077576 0.38305965065956116
0.46906861662864685 0.45752593874931335 0.40611705183982849
0.50200951099395752 0.48174959421157837 0.42887571454048157
0.54154294729232788 0.51451897621154785 0.45964488387107849
