assets/lut/others sutro fx.cube
# Created by: G'MIC (https://gmic.eu)
TITLE "sutro_fx"
# LUT size
LUT_3D_SIZE 5
# Data domain
DOMAIN_MIN 0.0 0.0 0.0
DOMAIN_MAX 1.0 1.0 1.0
# LUT data points
0.083872973918914795 0.031359266489744186 0.04268169030547142
0.39330899715423584 0.085137203335762024 0.11005932837724686
0.67122423648834229 0.17068411409854889 0.18992801010608673
0.84521430730819702 0.25366228818893433 0.27237340807914734
0.9757726788520813 0.37393015623092651 0.35817387700080872
0.27350291609764099 0.19366061687469482 0.15212884545326233
0.41363066434860229 0.21590180695056915 0.20056456327438354
0.65813153982162476 0.3586418628692627 0.27575904130935669
0.84624797105789185 0.51776629686355591 0.36032390594482422
0.97587841749191284 0.6466219425201416 0.44990509748458862
0.49080511927604675 0.48631560802459717 0.28772825002670288
0.59259110689163208 0.47555634379386902 0.33033847808837891
0.66114860773086548 0.48554635047912598 0.3828122615814209
0.84017336368560791 0.68866902589797974 0.46900230646133423
0.97698408365249634 0.82801371812820435 0.56607151031494141
0.63953661918640137 0.76356804370880127 0.41577345132827759
0.75624328851699829 0.76658362150192261 0.47023525834083557
0.81250697374343872 0.76171821355819702 0.53005564212799072
0.85348218679428101 0.78175389766693115 0.58736127614974976
0.97311848402023315 0.91455078125 0.68459963798522949
0.77795559167861938 0.96603888273239136 0.5754932165145874
0.85926258563995361 0.96507352590560913 0.62400472164154053
0.91620075702667236 0.96507352590560913 0.68573325872421265
0.94395112991333008 0.95342803001403809 0.74691319465637207
0.98142588138580322 0.97649562358856201 0.81371873617172241
0.35477331280708313 0.17692133784294128 0.21808776259422302
0.39922657608985901 0.093646496534347534 0.22866961359977722
0.65241903066635132 0.145859494805336 0.29947403073310852
0.8496595025062561 0.2487228661775589 0.39050090312957764
0.97753125429153442 0.35151168704032898 0.47655370831489563
0.39195549488067627 0.24710617959499359 0.23868492245674133
0.41162607073783875 0.2044270783662796 0.23381571471691132
0.6523205041885376 0.28503885865211487 0.30496013164520264
0.84879791736602783 0.4264494776725769 0.39450198411941528
0.97599202394485474 0.54999011754989624 0.48535498976707458
0.52701878547668457 0.46024546027183533 0.36901146173477173
0.57053279876708984 0.47373795509338379 0.35651323199272156
0.66475588083267212 0.48894017934799194 0.40543541312217712
0.84862416982650757 0.67181015014648438 0.49715578556060791
0.97671568393707275 0.78754317760467529 0.59372752904891968
0.68235093355178833 0.75418764352798462 0.52634209394454956
0.72279369831085205 0.77062100172042847 0.50275176763534546
0.7989732027053833 0.76849126815795898 0.55339199304580688
0.85044938325881958 0.77907192707061768 0.61727613210678101
0.97345137596130371 0.90762799978256226 0.7179144024848938
0.81259381771087646 0.96497845649719238 0.69891875982284546
0.83377742767333984 0.96507352590560913 0.66265428066253662
0.90440303087234497 0.96675962209701538 0.71263039112091064
0.95059961080551147 0.9636492133140564 0.78121256828308105
0.98229944705963135 0.97733807563781738 0.84831720590591431
0.66081434488296509 0.47866034507751465 0.43898671865463257
0.60376971960067749 0.31181633472442627 0.43950727581977844
0.66446495056152344 0.1619391143321991 0.43988883495330811
0.83942997455596924 0.23022304475307465 0.52224969863891602
0.97679156064987183 0.35538625717163086 0.62749439477920532
0.64011251926422119 0.47883933782577515 0.42776787281036377
0.65283346176147461 0.46876692771911621 0.4325137734413147
0.67038285732269287 0.31768298149108887 0.43685981631278992
0.83594471216201782 0.39536762237548828 0.52043157815933228
0.97637343406677246 0.53556418418884277 0.62119406461715698
0.60708081722259521 0.48892202973365784 0.43866905570030212
0.6377750039100647 0.49654626846313477 0.44100195169448853
0.67380249500274658 0.49225357174873352 0.44751822948455811
0.83490049839019775 0.59653067588806152 0.53443598747253418
0.97708982229232788 0.73095840215682983 0.64549833536148071
0.71688151359558105 0.72320586442947388 0.59601718187332153
0.75387740135192871 0.75607180595397949 0.60059481859207153
0.78014975786209106 0.76086258888244629 0.58567327260971069
0.84850537776947021 0.77144825458526611 0.64116454124450684
0.97512328624725342 0.88966280221939087 0.74272865056991577
0.84590190649032593 0.96155381202697754 0.81175452470779419
0.86618196964263916 0.96507352590560913 0.78858071565628052
0.88717561960220337 0.96708709001541138 0.76502913236618042
0.94090306758880615 0.96418720483779907 0.81051057577133179
0.98374539613723755 0.9801032543182373 0.88377243280410767
0.82981830835342407 0.74153023958206177 0.67413049936294556
0.78407812118530273 0.60555732250213623 0.68190485239028931
0.77738732099533081 0.4087812602519989 0.67804241180419922
0.84332376718521118 0.24853202700614929 0.67729634046554565
0.97061467170715332 0.33514255285263062 0.77596777677536011
0.829539954662323 0.75089132785797119 0.67710965871810913
0.84199148416519165 0.76297456026077271 0.68238240480422974
0.80045074224472046 0.59860032796859741 0.67567986249923706
0.84350383281707764 0.42218837141990662 0.6818506121635437
0.97398298978805542 0.52898240089416504 0.77641630172729492
0.7969970703125 0.72908467054367065 0.66884785890579224
0.8208196759223938 0.74222362041473389 0.66931694746017456
0.82649332284927368 0.72715955972671509 0.66613525152206421
0.84349274635314941 0.61455965042114258 0.67815804481506348
0.97335946559906006 0.70447391271591187 0.77825599908828735
0.79083716869354248 0.771465003490448 0.6830209493637085
0.81122630834579468 0.77070337533950806 0.68796324729919434
0.82868295907974243 0.76915717124938965 0.68061262369155884
0.8547203540802002 0.77755725383758545 0.68990635871887207
0.96498709917068481 0.84666132926940918 0.78858339786529541
0.87652719020843506 0.95908468961715698 0.88811343908309937
0.89477801322937012 0.96081686019897461 0.88285171985626221
0.91128605604171753 0.96052497625350952 0.87109661102294922
0.93416368961334229 0.95794713497161865 0.85593152046203613
0.98211055994033813 0.97604221105575562 0.90970122814178467
0.95756733417510986 0.94557201862335205 0.94265168905258179
0.92494475841522217 0.85250478982925415 0.94803160429000854
0.89780956506729126 0.71164911985397339 0.94803923368453979
0.91745376586914062 0.53048515319824219 0.94299584627151489
0.97795796394348145 0.37438002228736877 0.95433294773101807
0.96287065744400024 0.95542389154434204 0.9470670223236084
0.96912890672683716 0.95608562231063843 0.94725841283798218
0.92909795045852661 0.84938710927963257 0.94803571701049805
0.92648696899414062 0.70492875576019287 0.94611054658889771
0.98014658689498901 0.56359332799911499 0.95380008220672607
0.94469398260116577 0.93843477964401245 0.94562989473342896
0.96433109045028687 0.95568585395812988 0.94814562797546387
0.97091770172119141 0.96128416061401367 0.94827151298522949
0.93928128480911255 0.84676539897918701 0.94794553518295288
0.97807604074478149 0.73388391733169556 0.95604783296585083
0.9220660924911499 0.93576842546463013 0.92681550979614258
0.93948197364807129 0.93899077177047729 0.93935501575469971
0.96142292022705078 0.95799249410629272 0.94328069686889648
0.96890151500701904 0.95062685012817383 0.94383174180984497
0.98283427953720093 0.87258219718933105 0.95070922374725342
0.92373782396316528 0.98716366291046143 0.97537761926651001
0.9415898323059082 0.97974854707717896 0.96906310319900513
0.96042746305465698 0.98748183250427246 0.98105430603027344
0.97022348642349243 0.98093098402023315 0.96588152647018433
0.99451780319213867 0.99016314744949341 0.98907536268234253
