assets/lut/others warm.cube
# Created by: G'MIC (https://gmic.eu)
TITLE "warm"
# LUT size
LUT_3D_SIZE 13
# Data domain
DOMAIN_MIN 0.0 0.0 0.0
DOMAIN_MAX 1.0 1.0 1.0
# LUT data points
0.054775986820459366 0.02888203039765358 0.035486754029989243
0.12783530354499817 0.043577980250120163 0.051846012473106384
0.21662493050098419 0.067805588245391846 0.0788392573595047
0.31513935327529907 0.099794663488864899 0.11404852569103241
0.4101966917514801 0.13495162129402161 0.15147088468074799
0.49453255534172058 0.16986390948295593 0.18551187217235565
0.5739176869392395 0.20758511126041412 0.21757067739963531
0.64891821146011353 0.24616760015487671 0.24952971935272217
0.71852117776870728 0.28631171584129333 0.28112977743148804
0.78333908319473267 0.32943251729011536 0.31330174207687378
0.84619128704071045 0.37956488132476807 0.34725716710090637
0.90846472978591919 0.43389630317687988 0.38244730234146118
0.96896225214004517 0.48732250928878784 0.41741028428077698
0.085685372352600098 0.074966549873352051 0.054951194673776627
0.14878542721271515 0.08442949503660202 0.064772330224514008
0.22736530005931854 0.10320492833852768 0.085001476109027863
0.31634986400604248 0.13086313009262085 0.114395871758461
0.40671348571777344 0.16505154967308044 0.14868992567062378
0.49300482869148254 0.20377138257026672 0.18394288420677185
0.57469290494918823 0.24604646861553192 0.21826727688312531
0.65095144510269165 0.28940692543983459 0.25113919377326965
0.72059136629104614 0.33319839835166931 0.2827608585357666
0.78510558605194092 0.3795832097530365 0.31448125839233398
0.84796947240829468 0.43246030807495117 0.34872448444366455
0.90953701734542847 0.48786178231239319 0.38411667943000793
0.96888595819473267 0.54162102937698364 0.41874885559082031
0.13407178223133087 0.1345900297164917 0.087320022284984589
0.18692660331726074 0.13752682507038116 0.089083701372146606
0.25126788020133972 0.14819061756134033 0.099332801997661591
0.32518401741981506 0.16813415288925171 0.11919096112251282
0.40614521503448486 0.19877637922763824 0.14799503982067108
0.48995080590248108 0.23946619033813477 0.18220348656177521
0.57286828756332397 0.28705504536628723 0.21835809946060181
0.65049409866333008 0.33593565225601196 0.25226935744285583
0.72137469053268433 0.38500460982322693 0.28425306081771851
0.78683769702911377 0.43563064932823181 0.31646353006362915
0.84902489185333252 0.49013617634773254 0.35028687119483948
0.90950131416320801 0.54443728923797607 0.38520339131355286
0.96636277437210083 0.59695696830749512 0.4201410710811615
0.18803152441978455 0.20950306951999664 0.12351792305707932
0.2337164431810379 0.20550557971000671 0.11932217329740524
0.28433772921562195 0.20698739588260651 0.120341956615448
0.342254638671875 0.2171274870634079 0.12989978492259979
0.41024422645568848 0.24011483788490295 0.15037013590335846
0.48785567283630371 0.27900174260139465 0.18105120956897736
0.57031524181365967 0.33045929670333862 0.21762126684188843
0.64860546588897705 0.38443669676780701 0.25176703929901123
0.7206992506980896 0.43846610188484192 0.28395065665245056
0.78754580020904541 0.49348729848861694 0.3167223334312439
0.84954631328582764 0.54779523611068726 0.35076215863227844
0.90921711921691895 0.60106110572814941 0.38574793934822083
0.96507352590560913 0.65091031789779663 0.4209839403629303
0.2359013706445694 0.29544398188591003 0.15548238158226013
0.27722534537315369 0.28727608919143677 0.14904280006885529
0.31904226541519165 0.28138887882232666 0.14444638788700104
0.36509823799133301 0.28130567073822021 0.14580652117729187
0.42003166675567627 0.29293805360794067 0.1565408855676651
0.48811578750610352 0.32477873563766479 0.18039801716804504
0.56592464447021484 0.37474167346954346 0.21401351690292358
0.64373832941055298 0.43158495426177979 0.24742734432220459
0.71746146678924561 0.49075376987457275 0.28044450283050537
0.78641188144683838 0.54866498708724976 0.31466704607009888
0.84922146797180176 0.60287958383560181 0.34963908791542053
0.90806907415390015 0.65354061126708984 0.38499626517295837
0.96507352590560913 0.69995909929275513 0.42023774981498718
0.28066724538803101 0.39170545339584351 0.1859716922044754
0.31972840428352356 0.38206210732460022 0.17921395599842072
0.35682782530784607 0.37159734964370728 0.17215052247047424
0.39535826444625854 0.36418929696083069 0.16842204332351685
0.44030013680458069 0.36571547389030457 0.1716056764125824
0.49713093042373657 0.38588136434555054 0.18687668442726135
0.56594264507293701 0.42644193768501282 0.2124834805727005
0.63911646604537964 0.47997200489044189 0.24258622527122498
0.71263796091079712 0.53993165493011475 0.27559366822242737
0.78254520893096924 0.59878998994827271 0.31058090925216675
0.84725302457809448 0.65245515108108521 0.3467845618724823
0.90716910362243652 0.70097148418426514 0.38340389728546143
0.96507352590560913 0.74452751874923706 0.4192657470703125
0.32540962100028992 0.49542433023452759 0.21738971769809723
0.36379340291023254 0.48658961057662964 0.2111792266368866
0.39892339706420898 0.47523200511932373 0.20377330482006073
0.43382874131202698 0.46441477537155151 0.19802343845367432
0.47248008847236633 0.4597201943397522 0.19697690010070801
0.5192452073097229 0.46793293952941895 0.20402190089225769
0.57549589872360229 0.49331179261207581 0.21945935487747192
0.64055478572845459 0.53592503070831299 0.24264517426490784
0.70957303047180176 0.58991432189941406 0.27245357632637024
0.77785074710845947 0.64525556564331055 0.30654564499855042
0.84359246492385864 0.69735997915267944 0.3437124490737915
0.90655094385147095 0.74453473091125488 0.38177424669265747
0.96507352590560913 0.78464633226394653 0.41919165849685669
0.36917376518249512 0.59952026605606079 0.24899658560752869
0.40815770626068115 0.59359240531921387 0.24413570761680603
0.44354337453842163 0.58414191007614136 0.23791679739952087
0.47727569937705994 0.5732121467590332 0.23224081099033356
0.51213538646697998 0.56500273942947388 0.22892440855503082
0.55218446254730225 0.56510257720947266 0.23030196130275726
0.5983206033706665 0.57779359817504883 0.23750323057174683
0.65266966819763184 0.60667657852172852 0.25235247611999512
0.71313875913619995 0.64735579490661621 0.27552297711372375
0.77615225315093994 0.69317054748535156 0.30529963970184326
0.84075647592544556 0.74042707681655884 0.34103673696517944
0.90500646829605103 0.78551840782165527 0.38118872046470642
0.96507352590560913 0.82396924495697021 0.41988128423690796
0.41125625371932983 0.69750314950942993 0.28020218014717102
0.45151582360267639 0.69512844085693359 0.27703353762626648
0.48822379112243652 0.68919926881790161 0.27296605706214905
0.52233535051345825 0.68035262823104858 0.26853722333908081
0.55607742071151733 0.67145580053329468 0.26501142978668213
0.59200394153594971 0.66793221235275269 0.26369038224220276
0.6312519907951355 0.67340356111526489 0.26617550849914551
0.67614400386810303 0.68895381689071655 0.27367159724235535
0.72522962093353271 0.71290868520736694 0.28709942102432251
0.77905118465423584 0.74344593286514282 0.30821630358695984
0.83886772394180298 0.78132450580596924 0.33973467350006104
0.90291029214859009 0.82269817590713501 0.37955603003501892
0.96439200639724731 0.85807561874389648 0.41918459534645081
0.45220822095870972 0.78510499000549316 0.31199759244918823
0.49367561936378479 0.78500229120254517 0.31010693311691284
0.53158783912658691 0.78243893384933472 0.30819547176361084
0.56660234928131104 0.77656495571136475 0.30551058053970337
0.60053807497024536 0.76914584636688232 0.30353233218193054
0.63501995801925659 0.76551586389541626 0.30177509784698486
0.67035162448883057 0.76797765493392944 0.30210575461387634
0.70741260051727295 0.77450287342071533 0.30420976877212524
0.74554115533828735 0.78235059976577759 0.3080560564994812
0.78763335943222046 0.79495292901992798 0.31760245561599731
0.83863353729248047 0.81827884912490845 0.339459627866745
0.89899253845214844 0.85228711366653442 0.37558147311210632
0.96015405654907227 0.88535332679748535 0.41441184282302856
0.4932340681552887 0.85986244678497314 0.34552282094955444
0.53431731462478638 0.85920220613479614 0.34457689523696899
0.57246959209442139 0.85797959566116333 0.34362956881523132
0.60835546255111694 0.85511958599090576 0.34253576397895813
0.64357191324234009 0.85125452280044556 0.34240195155143738
0.67794489860534668 0.84980493783950806 0.34202224016189575
0.71125906705856323 0.85215097665786743 0.34201014041900635
0.74345779418945312 0.85442966222763062 0.3417934775352478
0.77390146255493164 0.85118937492370605 0.33898568153381348
0.80592155456542969 0.84930872917175293 0.33851611614227295
0.84696501493453979 0.85863089561462402 0.3491399884223938
0.90063750743865967 0.88275700807571411 0.37729862332344055
0.95808476209640503 0.91124463081359863 0.41145125031471252
0.53463143110275269 0.92080408334732056 0.38108831644058228
0.57413649559020996 0.91999989748001099 0.38100489974021912
0.61083674430847168 0.91881716251373291 0.38100489974021912
0.64632928371429443 0.91758352518081665 0.38100489974021912
0.68294638395309448 0.91669458150863647 0.38100489974021912
0.71765708923339844 0.91770648956298828 0.38100489974021912
0.7497786283493042 0.91882622241973877 0.3816826343536377
0.77955591678619385 0.91846448183059692 0.38066351413726807
0.80756086111068726 0.91331934928894043 0.37718972563743591
0.83639413118362427 0.90781986713409424 0.37402847409248352
0.87042820453643799 0.90945178270339966 0.37747988104820251
0.91365110874176025 0.92203813791275024 0.39264315366744995
0.96300011873245239 0.94197523593902588 0.416555255651474
0.57453089952468872 0.97115880250930786 0.41960784792900085
0.61154752969741821 0.97161519527435303 0.41955435276031494
0.64599287509918213 0.96988797187805176 0.41839742660522461
0.68104451894760132 0.96960902214050293 0.41878774762153625
0.71763384342193604 0.96965450048446655 0.41956818103790283
0.7524183988571167 0.97013860940933228 0.41960784792900085
0.78387159109115601 0.97046768665313721 0.41959384083747864
0.8132169246673584 0.96937000751495361 0.41899091005325317
0.84228837490081787 0.96719616651535034 0.41768524050712585
0.87136030197143555 0.96440601348876953 0.41563025116920471
0.90068858861923218 0.96263384819030762 0.41347008943557739
0.93464285135269165 0.96687233448028564 0.41755172610282898
0.9751591682434082 0.97819894552230835 0.4305260181427002
0.081349194049835205 0.042489700019359589 0.084393657743930817
0.14378246665000916 0.051898777484893799 0.093752779066562653
0.22262728214263916 0.070570163428783417 0.11455939710140228
0.31477814912796021 0.09876193106174469 0.14650692045688629
0.40843817591667175 0.13219612836837769 0.18401530385017395
0.49461838603019714 0.1677272617816925 0.21896965801715851
0.5763733983039856 0.20678679645061493 0.25152456760406494
0.65277516841888428 0.24640777707099915 0.28429004549980164
0.72294139862060547 0.28689047694206238 0.31725865602493286
0.78674834966659546 0.33021646738052368 0.35063967108726501
0.84764218330383301 0.37891963124275208 0.38494616746902466
0.90755826234817505 0.43331670761108398 0.41989287734031677
0.96655619144439697 0.48801177740097046 0.45486176013946533
0.097557559609413147 0.080286271870136261 0.091772310435771942
0.15216568112373352 0.085814215242862701 0.09791295975446701
0.22384324669837952 0.10041855275630951 0.11443300545215607
0.31036138534545898 0.1257544606924057 0.14262408018112183
0.40171703696250916 0.15977485477924347 0.17791806161403656
0.49089407920837402 0.19976736605167389 0.21462267637252808
0.57554709911346436 0.2435772716999054 0.25022801756858826
0.65353131294250488 0.28835499286651611 0.28472721576690674
0.72443705797195435 0.33345857262611389 0.31804534792900085
0.78860819339752197 0.38076657056808472 0.35154509544372559
0.84924972057342529 0.43275949358940125 0.38586738705635071
0.90934747457504272 0.48751261830329895 0.42122295498847961
0.96714103221893311 0.54206067323684692 0.45634052157402039
0.13402804732322693 0.13380052149295807 0.11534296721220016
0.18041184544563293 0.13259738683700562 0.11528680473566055
0.23984977602958679 0.13998612761497498 0.1236521378159523
0.31442159414291382 0.15966135263442993 0.14452242851257324
0.39872989058494568 0.19175736606121063 0.17507235705852509
0.48651674389839172 0.23418149352073669 0.21133910119533539
0.57286554574966431 0.28311499953269958 0.24882295727729797
0.65278977155685425 0.33352506160736084 0.28457054495811462
0.72402757406234741 0.3836396336555481 0.3185998797416687
0.78943651914596558 0.43524014949798584 0.35218745470046997
0.85037744045257568 0.49015828967094421 0.38689142465591431
0.91106235980987549 0.54463487863540649 0.42202726006507874
0.96578878164291382 0.5979728102684021 0.45650118589401245
0.18514586985111237 0.20641893148422241 0.15159325301647186
0.22352808713912964 0.19778753817081451 0.14444287121295929
0.27093991637229919 0.19715091586112976 0.14416158199310303
0.33094152808189392 0.2078678160905838 0.15532056987285614
0.40307319164276123 0.23337574303150177 0.17782367765903473
0.48460456728935242 0.27427959442138672 0.21006408333778381
0.56915730237960815 0.32592475414276123 0.24697642028331757
0.64897239208221436 0.38048538565635681 0.28322657942771912
0.72173440456390381 0.43531429767608643 0.31747943162918091
0.78876709938049316 0.49089384078979492 0.35186976194381714
0.8509717583656311 0.54780924320220947 0.38689064979553223
0.91102999448776245 0.60187113285064697 0.42180344462394714
0.96508055925369263 0.65311390161514282 0.45626041293144226
0.23159985244274139 0.28991842269897461 0.18407131731510162
0.26860338449478149 0.2796168327331543 0.17588457465171814
0.30894553661346436 0.27312633395195007 0.17121095955371857
0.35679978132247925 0.27458083629608154 0.17401759326457977
0.41557672619819641 0.28974360227584839 0.18732845783233643
0.48690557479858398 0.32332339882850647 0.21221336722373962
0.56548786163330078 0.37199705839157104 0.24509234726428986
0.64386260509490967 0.42834779620170593 0.27965971827507019
0.71755188703536987 0.48705589771270752 0.31426924467086792
0.78639668226242065 0.54598206281661987 0.34979593753814697
0.84962171316146851 0.60214871168136597 0.38557273149490356
0.90994268655776978 0.65472722053527832 0.42141664028167725
0.96507352590560913 0.70216554403305054 0.45665013790130615
0.27773365378379822 0.38751927018165588 0.21625511348247528
0.31488761305809021 0.37722006440162659 0.20898045599460602
0.35155573487281799 0.36732518672943115 0.20245109498500824
0.39129596948623657 0.36146384477615356 0.20008820295333862
0.43896454572677612 0.36600309610366821 0.20530731976032257
0.49734112620353699 0.38690328598022461 0.22087156772613525
0.56617242097854614 0.42608222365379333 0.24594038724899292
0.63950377702713013 0.4785473644733429 0.27623966336250305
0.71252000331878662 0.53742009401321411 0.30975246429443359
0.78198891878128052 0.59630393981933594 0.34573191404342651
0.8470911979675293 0.65165084600448608 0.38296875357627869
0.90716910362243652 0.70165115594863892 0.41981333494186401
0.96507352590560913 0.74556124210357666 0.45636835694313049
0.32539212703704834 0.49461826682090759 0.24995194375514984
0.36296126246452332 0.48617327213287354 0.24403177201747894
0.39795970916748047 0.47570648789405823 0.23766641318798065
0.43381854891777039 0.46617075800895691 0.23294790089130402
0.47296285629272461 0.4621422290802002 0.23248869180679321
0.51983153820037842 0.47011217474937439 0.23918332159519196
0.57638430595397949 0.49491292238235474 0.25429525971412659
0.6410021185874939 0.53661453723907471 0.27709272503852844
0.70928102731704712 0.58871972560882568 0.30646032094955444
0.77715826034545898 0.64340305328369141 0.34108066558837891
0.84274077415466309 0.69597417116165161 0.37900730967521667
0.90567499399185181 0.74393045902252197 0.41819965839385986
0.96507352590560913 0.78455883264541626 0.45509997010231018
0.37067744135856628 0.60163271427154541 0.28338432312011719
0.40963605046272278 0.59663254022598267 0.27932068705558777
0.44540154933929443 0.58839774131774902 0.27452585101127625
0.47939333319664001 0.57831192016601562 0.26952305436134338
0.51408946514129639 0.56964391469955444 0.26565536856651306
0.55315309762954712 0.56859099864959717 0.26604998111724854
0.59906822443008423 0.580574631690979 0.27245309948921204
0.65280783176422119 0.6072617769241333 0.28630879521369934
0.71197974681854248 0.64574909210205078 0.30830669403076172
0.77417367696762085 0.69011270999908447 0.33802202343940735
0.83838731050491333 0.73682248592376709 0.37495255470275879
0.90239518880844116 0.78226274251937866 0.4154183566570282
0.96446794271469116 0.82217144966125488 0.45497730374336243
0.41293510794639587 0.70040565729141235 0.31588247418403625
0.45379811525344849 0.69962227344512939 0.31374543905258179
0.49097895622253418 0.69504749774932861 0.31087121367454529
0.52502334117889404 0.68697196245193481 0.30676659941673279
0.55795496702194214 0.67725497484207153 0.30261528491973877
0.59258532524108887 0.6718066930770874 0.29984939098358154
0.63109862804412842 0.67517274618148804 0.300599604845047
0.67484587430953979 0.68789911270141602 0.30621224641799927
0.72271257638931274 0.70933914184570312 0.31834053993225098
0.7761075496673584 0.73858898878097534 0.33960446715354919
0.83530533313751221 0.77566909790039062 0.37188500165939331
0.89899915456771851 0.81647264957427979 0.41250231862068176
0.9614143967628479 0.8541303277015686 0.45393973588943481
0.45417851209640503 0.78761869668960571 0.34843176603317261
0.49568387866020203 0.78796565532684326 0.34764823317527771
0.53376966714859009 0.7872130274772644 0.34645366668701172
0.56861758232116699 0.78246128559112549 0.34412997961044312
0.60174298286437988 0.77461284399032593 0.34121862053871155
0.63519728183746338 0.76921719312667847 0.33825242519378662
0.66948455572128296 0.76848453283309937 0.33618003129959106
0.70526033639907837 0.77163076400756836 0.33619305491447449
0.74243730306625366 0.77770733833312988 0.33911234140396118
0.78498488664627075 0.79023611545562744 0.34972080588340759
0.83643990755081177 0.81429314613342285 0.37377062439918518
0.89622664451599121 0.8474237322807312 0.40978756546974182
0.95788204669952393 0.88134407997131348 0.45023459196090698
0.49535444378852844 0.85957533121109009 0.3824770450592041
0.53734105825424194 0.85988938808441162 0.38166588544845581
0.57412731647491455 0.86123871803283691 0.38166517019271851
0.60927712917327881 0.85931867361068726 0.38106486201286316
0.64350861310958862 0.85530579090118408 0.38085171580314636
0.67710632085800171 0.85233068466186523 0.37777313590049744
0.70963108539581299 0.85038274526596069 0.37628167867660522
0.74053490161895752 0.84936481714248657 0.37364628911018372
0.77064311504364014 0.84601378440856934 0.37068983912467957
0.80421215295791626 0.84594660997390747 0.37227475643157959
0.84651589393615723 0.85701262950897217 0.38579133152961731
0.89865553379058838 0.87969118356704712 0.41352030634880066
0.95683646202087402 0.9077339768409729 0.44714567065238953
0.53665643930435181 0.91945910453796387 0.41960784792900085
0.57622045278549194 0.91948676109313965 0.41960784792900085
0.61112684011459351 0.92068243026733398 0.41960784792900085
0.64599341154098511 0.92000377178192139 0.41960784792900085
0.68145149946212769 0.91894274950027466 0.41960784792900085
0.71611177921295166 0.91876262426376343 0.41847619414329529
0.74779403209686279 0.91759759187698364 0.4162827730178833
0.77678102254867554 0.91437625885009766 0.41419991850852966
0.80416971445083618 0.90871745347976685 0.40994614362716675
0.83304709196090698 0.9037359356880188 0.40754210948944092
0.86767482757568359 0.90613859891891479 0.41193422675132751
0.91018134355545044 0.91830915212631226 0.42750069499015808
0.95919811725616455 0.93725168704986572 0.45104622840881348
0.57545679807662964 0.97099000215530396 0.45821079611778259
0.61199736595153809 0.9715430736541748 0.45803168416023254
0.6453203558921814 0.97036820650100708 0.45657446980476379
0.67899316549301147 0.96985679864883423 0.45611843466758728
0.71540623903274536 0.96993398666381836 0.45733079314231873
0.75061976909637451 0.97023540735244751 0.4561639130115509
0.78248691558837891 0.96970081329345703 0.45491835474967957
0.81117492914199829 0.9674418568611145 0.45418375730514526
0.83863610029220581 0.96335244178771973 0.45136287808418274
0.86599540710449219 0.95908993482589722 0.44751071929931641
0.89514601230621338 0.95731860399246216 0.44539174437522888
0.92880427837371826 0.96092212200164795 0.44974327087402344
0.96891188621520996 0.97147268056869507 0.46221438050270081
0.12737569212913513 0.068161666393280029 0.14678743481636047
0.17636078596115112 0.070085532963275909 0.14685718715190887
0.23844428360462189 0.079826310276985168 0.15661010146141052
0.31585633754730225 0.099992789328098297 0.17919455468654633
0.40293148159980774 0.12956702709197998 0.21231687068939209
0.49071922898292542 0.16546329855918884 0.24739719927310944
0.57502955198287964 0.20553450286388397 0.28170597553253174
0.65288454294204712 0.24642236530780792 0.31627807021141052
0.72315084934234619 0.28740313649177551 0.35157114267349243
0.78698873519897461 0.33109211921691895 0.38683128356933594
0.84687560796737671 0.37893527746200562 0.42336198687553406
0.9067496657371521 0.43314331769943237 0.45876249670982361
0.96507352590560913 0.48846951127052307 0.49476572871208191
0.13143299520015717 0.099511303007602692 0.1449795663356781
0.17637114226818085 0.098846971988677979 0.14396257698535919
0.23460054397583008 0.10611799359321594 0.15231744945049286
0.31010749936103821 0.12581922113895416 0.17410361766815186
0.39706224203109741 0.15714153647422791 0.20639348030090332
0.48679560422897339 0.1969607025384903 0.24279391765594482
0.57419323921203613 0.2417738139629364 0.27960839867591858
0.65363192558288574 0.28775617480278015 0.31602993607521057
0.72517591714859009 0.33380734920501709 0.35198220610618591
0.78947216272354126 0.38191664218902588 0.38784906268119812
0.84926533699035645 0.43330159783363342 0.42361244559288025
0.90725052356719971 0.48712798953056335 0.46067908406257629
0.96507352590560913 0.54048210382461548 0.49638134241104126
0.14855249226093292 0.14106716215610504 0.15448874235153198
0.18971550464630127 0.1372404545545578 0.15194875001907349
0.24139322340488434 0.14031310379505157 0.15563453733921051
0.31146934628486633 0.1578456312417984 0.17422695457935333
0.39469829201698303 0.18878194689750671 0.20390740036964417
0.48358583450317383 0.23156549036502838 0.23976442217826843
0.57206684350967407 0.28130090236663818 0.27815881371498108
0.65336686372756958 0.33209004998207092 0.31562274694442749
0.72482240200042725 0.38302445411682129 0.35193642973899841
0.79001224040985107 0.43557280302047729 0.38822668790817261
0.85112470388412476 0.49010434746742249 0.42387977242469788
0.91043472290039062 0.5433880090713501 0.46096053719520569
0.96507352590560913 0.59444844722747803 0.4962649941444397
0.18331559002399445 0.2024199515581131 0.18107602000236511
0.22111508250236511 0.19453668594360352 0.17394092679023743
0.26651144027709961 0.19376154243946075 0.17344103753566742
0.32629412412643433 0.20497962832450867 0.18482816219329834
0.39951229095458984 0.23137369751930237 0.20770302414894104
0.48341616988182068 0.27356573939323425 0.24020078778266907
0.56967282295227051 0.32569003105163574 0.27737310528755188
0.64990562200546265 0.3798530101776123 0.31455683708190918
0.72207921743392944 0.4340280294418335 0.35098132491111755
0.78883939981460571 0.49030885100364685 0.38775494694709778
0.85164451599121094 0.54743540287017822 0.42376109957695007
0.91105002164840698 0.60065823793411255 0.46026149392127991
0.96532070636749268 0.6506994366645813 0.49497944116592407
0.2241036593914032 0.28138589859008789 0.21104301512241364
0.26181399822235107 0.2729678750038147 0.20380288362503052
0.30351933836936951 0.2684980034828186 0.20051270723342896
0.35309407114982605 0.27269735932350159 0.20484256744384766
0.41399788856506348 0.29012569785118103 0.21926853060722351
0.48768901824951172 0.32520830631256104 0.24460367858409882
0.56762874126434326 0.37455067038536072 0.27728348970413208
0.64536744356155396 0.42917394638061523 0.31246626377105713
