assets/lut/others rotate muted.cube
# Created by: G'MIC (https://gmic.eu)
TITLE "rotate_muted"
# LUT size
LUT_3D_SIZE 7
# Data domain
DOMAIN_MIN 0.0 0.0 0.0
DOMAIN_MAX 1.0 1.0 1.0
# LUT data points
0.037656102329492569 0.032562419772148132 0.036441609263420105
0.040154028683900833 0.059723872691392899 0.1341124027967453
0.036910410970449448 0.054210558533668518 0.27681106328964233
0.05929126963019371 0.072403818368911743 0.4047301709651947
0.13736476004123688 0.13292866945266724 0.54124385118484497
0.26141476631164551 0.26387512683868408 0.6672598123550415
0.37040379643440247 0.39335408806800842 0.78158724308013916
0.1250128298997879 0.041096288710832596 0.044386245310306549
0.17937277257442474 0.14222018420696259 0.18535305559635162
0.19320467114448547 0.13677500188350677 0.29674041271209717
0.1530112624168396 0.072854287922382355 0.38552713394165039
0.24531775712966919 0.15847772359848022 0.54206246137619019
0.3086124062538147 0.24080966413021088 0.6284792423248291
0.43073382973670959 0.36884650588035583 0.7704511284828186
0.21327340602874756 0.065824590623378754 0.067334331572055817
0.26048481464385986 0.17088252305984497 0.20001064240932465
0.35699141025543213 0.30264893174171448 0.35957467555999756
0.42593216896057129 0.38461339473724365 0.47537919878959656
0.41737136244773865 0.30820953845977783 0.56157618761062622
0.42782106995582581 0.32705897092819214 0.65427911281585693
0.51302969455718994 0.40174773335456848 0.76400536298751831
0.36258304119110107 0.18459367752075195 0.19152893126010895
0.35302457213401794 0.1955961287021637 0.23462249338626862
0.45329451560974121 0.38038438558578491 0.41832622885704041
0.54136085510253906 0.49335452914237976 0.54220718145370483
0.60197561979293823 0.55694913864135742 0.63634902238845825
0.62953650951385498 0.55828869342803955 0.73507732152938843
0.66752821207046509 0.5750880241394043 0.81855016946792603
0.50801604986190796 0.32801491022109985 0.32499384880065918
0.41332098841667175 0.23435747623443604 0.27481192350387573
0.5037766695022583 0.37199077010154724 0.42991739511489868
0.63228762149810791 0.56067299842834473 0.61103737354278564
0.66793721914291382 0.60975569486618042 0.67196714878082275
0.77345913648605347 0.71397608518600464 0.80106747150421143
0.83564972877502441 0.75885629653930664 0.9053381085395813
0.63844966888427734 0.46618309617042542 0.46242812275886536
0.59161251783370972 0.40859347581863403 0.44510066509246826
0.55752623081207275 0.39716485142707825 0.45271676778793335
0.68837654590606689 0.57167083024978638 0.63867205381393433
0.77646452188491821 0.69038331508636475 0.75842541456222534
0.82882976531982422 0.75079363584518433 0.82954645156860352
0.94113278388977051 0.86635887622833252 0.96222221851348877
0.73494356870651245 0.55586153268814087 0.55480343103408813
0.73432016372680664 0.54861807823181152 0.57793748378753662
0.59664952754974365 0.42080765962600708 0.4760536253452301
0.71094834804534912 0.55762839317321777 0.62782484292984009
0.87225168943405151 0.7580682635307312 0.83264857530593872
0.93143481016159058 0.8448907732963562 0.91748732328414917
0.96897447109222412 0.88367319107055664 0.97303217649459839
0.038527663797140121 0.08349483460187912 0.040672887116670609
0.065795913338661194 0.12275706231594086 0.13856345415115356
0.032993018627166748 0.10649310797452927 0.22317980229854584
0.05622902512550354 0.13670751452445984 0.36576420068740845
0.11227210611104965 0.1947442889213562 0.47748503088951111
0.22266864776611328 0.30125638842582703 0.62380772829055786
0.35591515898704529 0.42745402455329895 0.76500338315963745
0.16906806826591492 0.15956661105155945 0.067677788436412811
0.14924807846546173 0.14005178213119507 0.15056566894054413
0.1484905481338501 0.14138072729110718 0.29462862014770508
0.17483067512512207 0.16670404374599457 0.41308104991912842
0.25178277492523193 0.25790673494338989 0.55220550298690796
0.36339321732521057 0.3704274594783783 0.69545465707778931
0.47506493330001831 0.46919658780097961 0.81385886669158936
0.2469647079706192 0.1642727255821228 0.088979490101337433
0.27160781621932983 0.1959395706653595 0.19408527016639709
0.33147415518760681 0.30731165409088135 0.33674681186676025
0.37441489100456238 0.34074550867080688 0.458690345287323
0.3678182065486908 0.30215373635292053 0.55146342515945435
0.43391576409339905 0.36184105277061462 0.67196768522262573
0.51447033882141113 0.44209358096122742 0.77864211797714233
0.35034161806106567 0.23423385620117188 0.18329572677612305
0.35061806440353394 0.23791578412055969 0.23773376643657684
0.42825829982757568 0.34854978322982788 0.37823903560638428
0.52310013771057129 0.47824138402938843 0.51980364322662354
0.54990983009338379 0.49367964267730713 0.60916107892990112
0.60424149036407471 0.54074972867965698 0.72389978170394897
0.63880330324172974 0.5547526478767395 0.80421775579452515
0.43301668763160706 0.30134788155555725 0.25736874341964722
0.46368810534477234 0.329426109790802 0.3273182213306427
0.51428234577178955 0.39201214909553528 0.42427846789360046
0.6027953028678894 0.52709865570068359 0.56939888000488281
0.68157178163528442 0.62377268075942993 0.68829017877578735
0.77354872226715088 0.71933722496032715 0.8021196722984314
0.79990220069885254 0.7233431339263916 0.87306839227676392
0.57257723808288574 0.42845600843429565 0.39214372634887695
0.61525017023086548 0.46879446506500244 0.46819370985031128
0.59819889068603516 0.45516839623451233 0.48957455158233643
0.65307813882827759 0.54722803831100464 0.59216499328613281
0.78194820880889893 0.70837795734405518 0.75996750593185425
0.84257298707962036 0.7793891429901123 0.83774459362030029
0.91659986972808838 0.85011011362075806 0.93330472707748413
0.758281409740448 0.60240572690963745 0.57321012020111084
0.78076273202896118 0.63314962387084961 0.6330411434173584
0.74312037229537964 0.58972454071044922 0.62088000774383545
0.70413303375244141 0.56802773475646973 0.61713486909866333
0.83558005094528198 0.73571169376373291 0.79233652353286743
0.92256218194961548 0.84798175096511841 0.90591889619827271
0.96288669109344482 0.88943010568618774 0.96328580379486084
0.019681340083479881 0.11081115156412125 0.021259022876620293
0.026056461036205292 0.13967210054397583 0.081223189830780029
0.10658583045005798 0.200087770819664 0.20126424729824066
0.096885189414024353 0.18225964903831482 0.24973691999912262
0.12281504273414612 0.23100206255912781 0.36238303780555725
0.19643098115921021 0.31033229827880859 0.50729262828826904
0.30812394618988037 0.41340619325637817 0.66086035966873169
0.11963047832250595 0.20045420527458191 0.055241961032152176
0.13981306552886963 0.21174308657646179 0.12824898958206177
0.20486389100551605 0.25681817531585693 0.26709279417991638
0.20147104561328888 0.25664785504341125 0.34683084487915039
0.24906772375106812 0.31949496269226074 0.4962211549282074
0.35540539026260376 0.42606943845748901 0.66605758666992188
0.45150619745254517 0.5195736289024353 0.78491997718811035
0.30820462107658386 0.30882525444030762 0.17345587909221649
0.31350839138031006 0.31753095984458923 0.24444185197353363
0.33705151081085205 0.33645161986351013 0.33957335352897644
0.35727831721305847 0.34084382653236389 0.4402059018611908
0.37613752484321594 0.38398897647857666 0.5707165002822876
0.45342603325843811 0.45718139410018921 0.6960027813911438
0.54419422149658203 0.54380470514297485 0.81287139654159546
0.38575798273086548 0.32975584268569946 0.22768168151378632
0.40772360563278198 0.35558873414993286 0.29831928014755249
0.42565971612930298 0.37217399477958679 0.3645203709602356
0.49591857194900513 0.45627573132514954 0.48968130350112915
0.53188282251358032 0.48278516530990601 0.60608839988708496
0.54624950885772705 0.49066221714019775 0.6960638165473938
0.63017600774765015 0.57349580526351929 0.82861113548278809
0.43726968765258789 0.35084551572799683 0.2677953839302063
0.50253629684448242 0.4112122654914856 0.37014105916023254
0.53323394060134888 0.4464372992515564 0.44390565156936646
0.57712894678115845 0.5155642032623291 0.5333830714225769
0.67928344011306763 0.64073711633682251 0.68573117256164551
0.744037926197052 0.6924436092376709 0.78519183397293091
0.77210468053817749 0.70722240209579468 0.87109988927841187
0.50245749950408936 0.39731720089912415 0.32942885160446167
0.58961719274520874 0.48108845949172974 0.44348767399787903
0.63859307765960693 0.53060257434844971 0.52757710218429565
0.62221270799636841 0.52503591775894165 0.55249631404876709
0.77470415830612183 0.71022969484329224 0.74599939584732056
0.84014236927032471 0.79171645641326904 0.84136360883712769
0.91050475835800171 0.8534741997718811 0.93643647432327271
0.5750504732131958 0.45634257793426514 0.39513620734214783
0.73101961612701416 0.6119544506072998 0.57919293642044067
0.78284800052642822 0.66144347190856934 0.66124695539474487
0.75798177719116211 0.63928836584091187 0.66702377796173096
0.81537604331970215 0.72500735521316528 0.76920247077941895
0.92854875326156616 0.86398279666900635 0.91125631332397461
0.96752363443374634 0.91177600622177124 0.97217196226119995
0.020279932767152786 0.1397092193365097 0.016503129154443741
0.026553569361567497 0.16696016490459442 0.065024584531784058
0.087843276560306549 0.21143545210361481 0.16783434152603149
0.18106374144554138 0.28026461601257324 0.28122004866600037
0.17992787063121796 0.27360367774963379 0.30718454718589783
0.18377493321895599 0.28709837794303894 0.37559536099433899
0.24225828051567078 0.3544180691242218 0.49038985371589661
0.099527277052402496 0.21352601051330566 0.050480261445045471
0.11092674732208252 0.23598399758338928 0.10464198142290115
0.20688208937644958 0.30551806092262268 0.25302806496620178
0.27523055672645569 0.35021555423736572 0.34923690557479858
0.24658603966236115 0.31679964065551758 0.37335950136184692
0.31690910458564758 0.39576378464698792 0.5123710036277771
0.37594372034072876 0.46773877739906311 0.62189143896102905
0.32277914881706238 0.38073334097862244 0.21092136204242706
0.28815364837646484 0.35129055380821228 0.22855058312416077
0.32515469193458557 0.37832486629486084 0.32371088862419128
0.37967085838317871 0.41571182012557983 0.41789352893829346
0.40503811836242676 0.44754630327224731 0.52365028858184814
0.4467562735080719 0.49982365965843201 0.64339578151702881
0.55856788158416748 0.62074393033981323 0.82278621196746826
0.47030144929885864 0.47120857238769531 0.32958394289016724
0.46615570783615112 0.46698987483978271 0.37203213572502136
0.47110113501548767 0.46859383583068848 0.42152509093284607
0.49560332298278809 0.48750019073486328 0.4956931471824646
0.50842392444610596 0.50413709878921509 0.58070868253707886
0.57780963182449341 0.58568263053894043 0.73657739162445068
0.65079241991043091 0.64980274438858032 0.85243707895278931
0.55474865436553955 0.51750832796096802 0.39394193887710571
0.5363958477973938 0.4961487352848053 0.41330048441886902
0.56046211719512939 0.51812297105789185 0.47720646858215332
0.58822751045227051 0.54807883501052856 0.54324245452880859
0.64673244953155518 0.61240077018737793 0.65599894523620605
0.71638959646224976 0.68600833415985107 0.77508556842803955
0.75536239147186279 0.7133563756942749 0.87658786773681641
0.55826067924499512 0.49189350008964539 0.39029577374458313
0.57443833351135254 0.50823497772216797 0.43596664071083069
0.61163461208343506 0.54300600290298462 0.50801581144332886
0.65891486406326294 0.58896744251251221 0.58910673856735229
0.73448354005813599 0.67496991157531738 0.69895976781845093
0.81749832630157471 0.78450965881347656 0.82384175062179565
0.88267582654953003 0.83900541067123413 0.91494667530059814
0.596294105052948 0.51211971044540405 0.42236772179603577
0.63065099716186523 0.53589481115341187 0.48034876585006714
0.75102096796035767 0.65902602672576904 0.62963593006134033
0.75336569547653198 0.66692459583282471 0.66489517688751221
0.84251397848129272 0.76058709621429443 0.78454053401947021
0.90172994136810303 0.84999126195907593 0.88582992553710938
0.93831717967987061 0.89160549640655518 0.93932551145553589
0.029699541628360748 0.18518686294555664 0.025163045153021812
0.026978705078363419 0.18686980009078979 0.05843207985162735
0.062973901629447937 0.20451173186302185 0.1291278749704361
0.18047845363616943 0.29890307784080505 0.2694401741027832
0.29384347796440125 0.3950798511505127 0.3947453498840332
0.33557093143463135 0.42930039763450623 0.45234915614128113
0.20884209871292114 0.30881699919700623 0.36159089207649231
0.073924407362937927 0.21540118753910065 0.032883424311876297
0.099142767488956451 0.26347190141677856 0.098416179418563843
0.16817536950111389 0.31166842579841614 0.21212795376777649
0.27051439881324768 0.37314188480377197 0.33405542373657227
0.35762885212898254 0.43838712573051453 0.43912118673324585
0.38458916544914246 0.45821192860603333 0.48676976561546326
0.33660298585891724 0.41758790612220764 0.48061567544937134
0.24328728020191193 0.33825033903121948 0.14411914348602295
0.24075184762477875 0.35042300820350647 0.18814820051193237
0.29922765493392944 0.4018045961856842 0.2978842556476593
0.37247779965400696 0.44896870851516724 0.40281251072883606
0.42482879757881165 0.48128288984298706 0.48156541585922241
0.47637155652046204 0.53360825777053833 0.574576735496521
0.50549608469009399 0.57175564765930176 0.65756654739379883
0.49017238616943359 0.531818687915802 0.36934319138526917
0.45709556341171265 0.50643151998519897 0.37302675843238831
0.46297314763069153 0.50833320617675781 0.41721615195274353
0.47907423973083496 0.52143955230712891 0.47378990054130554
0.53272444009780884 0.56135058403015137 0.56407767534255981
0.55487173795700073 0.58682698011398315 0.64251810312271118
0.6591486930847168 0.70647507905960083 0.82795464992523193
0.59378606081008911 0.59598791599273682 0.45484650135040283
0.59693706035614014 0.59776562452316284 0.48390305042266846
0.60522663593292236 0.60524636507034302 0.52982050180435181
0.64121466875076294 0.63490563631057739 0.60016375780105591
0.65373384952545166 0.65005028247833252 0.65646129846572876
0.69731050729751587 0.69881057739257812 0.76275920867919922
0.73465806245803833 0.73889362812042236 0.84529012441635132
0.66356015205383301 0.6320873498916626 0.50662004947662354
0.65330910682678223 0.62088137865066528 0.52289587259292603
0.67044442892074585 0.6384350061416626 0.56938439607620239
0.73592329025268555 0.70177602767944336 0.6666114330291748
0.74316948652267456 0.71356850862503052 0.71397626399993896
0.80727559328079224 0.78503501415252686 0.8144608736038208
0.86889660358428955 0.84443384408950806 0.9132499098777771
0.69385772943496704 0.63841021060943604 0.52568864822387695
0.73348033428192139 0.67763632535934448 0.59134989976882935
0.75345855951309204 0.69935297966003418 0.64147710800170898
0.81656521558761597 0.75956225395202637 0.72722500562667847
0.81151455640792847 0.75759315490722656 0.75690114498138428
0.88291442394256592 0.84488731622695923 0.86645734310150146
0.95824205875396729 0.92713093757629395 0.96072691679000854
0.036508403718471527 0.24476815760135651 0.044098395854234695
0.04907594621181488 0.25283509492874146 0.078119672834873199
0.086804106831550598 0.25630444288253784 0.14495295286178589
0.12720717489719391 0.26809483766555786 0.20797273516654968
0.33621641993522644 0.45406255125999451 0.42961579561233521
0.39526727795600891 0.50214952230453491 0.50374442338943481
0.46897408366203308 0.56345659494400024 0.5820731520652771
0.06643155962228775 0.23586483299732208 0.031056063249707222
0.13879528641700745 0.31801572442054749 0.1355540007352829
0.1924842894077301 0.35189080238342285 0.220272496342659
0.24465391039848328 0.37087586522102356 0.30009427666664124
0.37686523795127869 0.4747137725353241 0.45155987143516541
0.4519517719745636 0.53966444730758667 0.54107344150543213
0.50146836042404175 0.58017361164093018 0.60054445266723633
0.19248044490814209 0.33683648705482483 0.10921332985162735
0.23340754210948944 0.37343183159828186 0.18389125168323517
0.30134239792823792 0.43933770060539246 0.29454407095909119
0.34720134735107422 0.46947145462036133 0.38175836205482483
0.45318603515625 0.53721910715103149 0.50745517015457153
0.50454235076904297 0.57034027576446533 0.57285720109939575
0.56108981370925903 0.62051212787628174 0.64451819658279419
0.39323145151138306 0.48991760611534119 0.26336085796356201
0.40897282958030701 0.49722042679786682 0.32304912805557251
0.42132088541984558 0.50772809982299805 0.37440255284309387
0.46699035167694092 0.55041062831878662 0.46451142430305481
0.55562698841094971 0.61407452821731567 0.58092725276947021
0.55953395366668701 0.60368043184280396 0.60602575540542603
0.63816243410110474 0.68289798498153687 0.71376711130142212
0.65485602617263794 0.68967056274414062 0.52782869338989258
0.61641043424606323 0.6520460844039917 0.51708388328552246
0.61042195558547974 0.64983111619949341 0.54238039255142212
0.63081413507461548 0.67031890153884888 0.59717082977294922
0.64327341318130493 0.67704766988754272 0.63945662975311279
0.68628370761871338 0.71028280258178711 0.71370202302932739
0.73565101623535156 0.76107394695281982 0.79592573642730713
0.74422669410705566 0.74453210830688477 0.59871041774749756
0.70701378583908081 0.7097468376159668 0.58939611911773682
0.75363755226135254 0.75515460968017578 0.66400015354156494
0.78728801012039185 0.78991734981536865 0.7247692346572876
0.77231287956237793 0.77488243579864502 0.74325495958328247
0.79965239763259888 0.79821991920471191 0.79945456981658936
0.85306715965270996 0.849476158618927 0.89963459968566895
0.86579662561416626 0.83966207504272461 0.71077257394790649
0.84107458591461182 0.81664341688156128 0.70487070083618164
0.84529519081115723 0.82371395826339722 0.73443073034286499
0.85188198089599609 0.82909440994262695 0.76844686269760132
0.85327428579330444 0.82815819978713989 0.801860511302948
0.90449637174606323 0.876922607421875 0.87663525342941284
0.96481668949127197 0.94466495513916016 0.96362060308456421
0.023600904271006584 0.25580930709838867 0.02746899239718914
0.042302358895540237 0.26913565397262573 0.07848627120256424
0.077638469636440277 0.2746487557888031 0.13545723259449005
0.099833503365516663 0.26915663480758667 0.17920099198818207
0.16086265444755554 0.29372298717498779 0.25015309453010559
0.47295820713043213 0.58930462598800659 0.57051986455917358
0.49277925491333008 0.60837233066558838 0.60630351305007935
0.07018202543258667 0.27215784788131714 0.038995407521724701
0.1718989759683609 0.36939775943756104 0.17211826145648956
0.19342203438282013 0.36496827006340027 0.2172820121049881
0.23543687164783478 0.37666741013526917 0.28336676955223083
0.28906571865081787 0.40491801500320435 0.36092963814735413
0.50234365463256836 0.60187387466430664 0.58306753635406494
0.56180369853973389 0.65471655130386353 0.65499639511108398
0.17251907289028168 0.34228551387786865 0.088973090052604675
0.22651186585426331 0.38350242376327515 0.18171598017215729
0.28365862369537354 0.42347991466522217 0.27109071612358093
0.34554430842399597 0.47007781267166138 0.37217292189598083
0.41615280508995056 0.51300489902496338 0.46486276388168335
0.53048670291900635 0.6118578314781189 0.59310853481292725
0.63270825147628784 0.70178520679473877 0.70334124565124512
0.36339899897575378 0.48283308744430542 0.24101726710796356
0.35704809427261353 0.47772198915481567 0.27450639009475708
0.38999569416046143 0.50200849771499634 0.34196782112121582
0.4532267153263092 0.5519135594367981 0.4422016441822052
0.5298042893409729 0.61314254999160767 0.55390715599060059
0.60257858037948608 0.665485680103302 0.64400166273117065
0.67056679725646973 0.72306841611862183 0.72164654731750488
0.58509105443954468 0.65015584230422974 0.45451599359512329
0.57024997472763062 0.63885378837585449 0.4698188304901123
0.5776403546333313 0.64572405815124512 0.50739508867263794
0.59329825639724731 0.66029727458953857 0.55199366807937622
0.64231562614440918 0.69964218139648438 0.63261955976486206
0.72939366102218628 0.77174586057662964 0.75024890899658203
0.72957807779312134 0.7695014476776123 0.76441073417663574
0.81409251689910889 0.84073412418365479 0.68194782733917236
0.79860156774520874 0.82847493886947632 0.69203811883926392
0.80014854669570923 0.82751142978668213 0.71801173686981201
0.7986181378364563 0.82354378700256348 0.73903918266296387
0.80402088165283203 0.8301207423210144 0.77272361516952515
0.81561994552612305 0.83502352237701416 0.81329351663589478
0.83861351013183594 0.85629308223724365 0.85892021656036377
0.89134079217910767 0.89108759164810181 0.73846727609634399
0.87167906761169434 0.87230968475341797 0.73580342531204224
0.91902399063110352 0.91769671440124512 0.81771963834762573
0.90363919734954834 0.90641731023788452 0.82706969976425171
0.88715112209320068 0.8888857364654541 0.84298336505889893
0.93248015642166138 0.93242132663726807 0.91091561317443848
0.94470852613449097 0.93874871730804443 0.94192373752593994
