assets/lut/others solarized color.cube
# Created by: G'MIC (https://gmic.eu)
TITLE "solarized_color"
# LUT size
LUT_3D_SIZE 7
# Data domain
DOMAIN_MIN 0.0 0.0 0.0
DOMAIN_MAX 1.0 1.0 1.0
# LUT data points
0.069312229752540588 0.13010910153388977 0.048287007957696915
0.25263094902038574 0.12526646256446838 0.040052540600299835
0.24882723391056061 0.14010326564311981 0.042160514742136002
0.44201570749282837 0.12165551632642746 0.046432703733444214
0.74559646844863892 0.13853631913661957 0.039095140993595123
0.82359778881072998 0.12946908175945282 0.03958771750330925
0.94717788696289062 0.13983239233493805 0.038284048438072205
0.078321985900402069 0.52804994583129883 0.038444370031356812
0.24373537302017212 0.51094317436218262 0.043505351990461349
0.25766450166702271 0.51978892087936401 0.050589811056852341
0.44494637846946716 0.5249706506729126 0.042046863585710526
0.74293375015258789 0.52514934539794922 0.039631474763154984
0.83670288324356079 0.51722288131713867 0.045502934604883194
0.94328987598419189 0.52411162853240967 0.03889567032456398
0.070399656891822815 0.55140441656112671 0.039310663938522339
0.25078287720680237 0.54540157318115234 0.042336467653512955
0.25813591480255127 0.54515570402145386 0.046466603875160217
0.44205993413925171 0.54741054773330688 0.045920487493276596
0.73141908645629883 0.55189794301986694 0.051300603896379471
0.83299046754837036 0.54725581407546997 0.042463637888431549
0.94894111156463623 0.54632329940795898 0.044989194720983505
0.074643693864345551 0.49007627367973328 0.037602890282869339
0.25176408886909485 0.51282447576522827 0.047800339758396149
0.26240319013595581 0.5007394552230835 0.057061709463596344
0.4512898325920105 0.49944794178009033 0.040422789752483368
0.73863226175308228 0.49859783053398132 0.048030957579612732
0.83159178495407104 0.50073379278182983 0.060297422111034393
0.94879817962646484 0.49679252505302429 0.049545243382453918
0.086465500295162201 0.79689007997512817 0.039843987673521042
0.25535890460014343 0.7863202691078186 0.042938023805618286
0.25729808211326599 0.78201889991760254 0.040258876979351044
0.44221532344818115 0.78150588274002075 0.045149169862270355
0.73922914266586304 0.79265403747558594 0.039256568998098373
0.82761502265930176 0.79694509506225586 0.042194589972496033
0.94918912649154663 0.79944676160812378 0.045367609709501266
0.072928711771965027 0.82429987192153931 0.046148952096700668
0.24883396923542023 0.81219154596328735 0.050179053097963333
0.26182261109352112 0.81659811735153198 0.050124254077672958
0.44883188605308533 0.82269638776779175 0.044594917446374893
0.74275511503219604 0.81393939256668091 0.050118554383516312
0.82595843076705933 0.82796704769134521 0.060241237282752991
0.94915330410003662 0.81896036863327026 0.039186589419841766
0.073502637445926666 0.95473784208297729 0.04562174528837204
0.23538967967033386 0.94182640314102173 0.047490078955888748
0.2555840015411377 0.94773244857788086 0.038814723491668701
0.43298012018203735 0.95453768968582153 0.042728543281555176
0.73385536670684814 0.9444844126701355 0.042128201574087143
0.82368594408035278 0.95235985517501831 0.042352594435214996
0.94620174169540405 0.948944091796875 0.03630371019244194
0.070130094885826111 0.1527862548828125 0.18725328147411346
0.24570630490779877 0.14808668196201324 0.19350031018257141
0.25525727868080139 0.13534848392009735 0.191934734582901
0.44048616290092468 0.14039449393749237 0.19385921955108643
0.74245309829711914 0.14324915409088135 0.19316302239894867
0.82650208473205566 0.12037591636180878 0.19278176128864288
0.93299269676208496 0.13416248559951782 0.18799535930156708
0.069405905902385712 0.52967947721481323 0.19442969560623169
0.23631551861763 0.52498817443847656 0.1966773122549057
0.25477701425552368 0.52434611320495605 0.1927369087934494
0.44657284021377563 0.5287051796913147 0.19102846086025238
0.73014777898788452 0.53067672252655029 0.19336864352226257
0.83657217025756836 0.52364116907119751 0.19534698128700256
0.94713675975799561 0.52015846967697144 0.18940752744674683
0.071867428719997406 0.55152523517608643 0.18703685700893402
0.24571223556995392 0.54864871501922607 0.1931612491607666
0.26357525587081909 0.53791147470474243 0.19638866186141968
0.44711720943450928 0.54136306047439575 0.18747206032276154
0.73560935258865356 0.54957026243209839 0.19907160103321075
0.83618974685668945 0.53648918867111206 0.19970373809337616
0.94792348146438599 0.54237872362136841 0.19147630035877228
0.07200285792350769 0.49267962574958801 0.18822793662548065
0.25164741277694702 0.49565434455871582 0.19049429893493652
0.25630834698677063 0.49545148015022278 0.19707785546779633
0.43778660893440247 0.50554978847503662 0.18475534021854401
0.74089109897613525 0.49046844244003296 0.19461482763290405
0.82193243503570557 0.49708417057991028 0.19266046583652496
0.94344621896743774 0.50582116842269897 0.19637289643287659
0.084280572831630707 0.79090648889541626 0.19011569023132324
0.24699649214744568 0.78766757249832153 0.19153624773025513
0.25793513655662537 0.78953260183334351 0.19170279800891876
0.43919801712036133 0.77917301654815674 0.18972121179103851
0.73128700256347656 0.78213536739349365 0.19304594397544861
0.8240056037902832 0.78380531072616577 0.1878228634595871
0.94841557741165161 0.78503572940826416 0.18794959783554077
0.087939031422138214 0.82883036136627197 0.18812572956085205
0.23221494257450104 0.81272429227828979 0.19620552659034729
0.25778430700302124 0.82025760412216187 0.19021026790142059
0.43232530355453491 0.81136584281921387 0.19609566032886505
0.73273324966430664 0.81237220764160156 0.19040217995643616
0.83034509420394897 0.82089781761169434 0.18939553201198578
0.93727296590805054 0.82042258977890015 0.19127726554870605
0.068980887532234192 0.95266139507293701 0.19151201844215393
0.24685114622116089 0.95244461297988892 0.18449860811233521
0.25540030002593994 0.95116060972213745 0.18283763527870178
0.42635023593902588 0.952312171459198 0.18721860647201538
0.73177850246429443 0.94638562202453613 0.19802428781986237
0.82820087671279907 0.93949908018112183 0.18865266442298889
0.95510268211364746 0.95461356639862061 0.19603903591632843
0.074312202632427216 0.13249041140079498 0.34783443808555603
0.25512862205505371 0.12522104382514954 0.34601736068725586
0.25046822428703308 0.13904125988483429 0.34417915344238281
0.43878006935119629 0.13136652112007141 0.34199833869934082
0.74684852361679077 0.14889183640480042 0.34251612424850464
0.82540315389633179 0.1260715126991272 0.3423457145690918
0.95202070474624634 0.13352300226688385 0.34154191613197327
0.087058961391448975 0.52898967266082764 0.34928235411643982
0.25464770197868347 0.53131657838821411 0.34563529491424561
0.25626865029335022 0.5237697958946228 0.33954441547393799
0.43716627359390259 0.51874619722366333 0.33691853284835815
0.73798894882202148 0.53053611516952515 0.34107959270477295
0.83688640594482422 0.51866316795349121 0.34871414303779602
0.94917041063308716 0.53235340118408203 0.34615373611450195
0.066407054662704468 0.54944813251495361 0.34503713250160217
0.24551710486412048 0.54366862773895264 0.33948555588722229
0.25998347997665405 0.55069988965988159 0.34823572635650635
0.46295022964477539 0.54772353172302246 0.34953165054321289
0.7260735034942627 0.55320197343826294 0.35179987549781799
0.84261065721511841 0.55342161655426025 0.34811055660247803
0.95554333925247192 0.55083346366882324 0.35353606939315796
0.083359390497207642 0.49102151393890381 0.34049472212791443
0.25068551301956177 0.50631088018417358 0.34562414884567261
0.25874868035316467 0.49261221289634705 0.34578832983970642
0.4312380850315094 0.49903970956802368 0.3436431884765625
0.73228913545608521 0.4973737895488739 0.35230752825737
0.83585339784622192 0.51439785957336426 0.34597772359848022
0.93250340223312378 0.49925950169563293 0.34081816673278809
0.070262417197227478 0.788166344165802 0.34210371971130371
0.25151112675666809 0.79617887735366821 0.34020900726318359
0.2535611093044281 0.7866026759147644 0.34348922967910767
0.4451841413974762 0.78506368398666382 0.33762058615684509
0.7368130087852478 0.78114694356918335 0.34762266278266907
0.83024734258651733 0.78395795822143555 0.34473195672035217
0.94850385189056396 0.78897011280059814 0.34778031706809998
0.06486249715089798 0.81322652101516724 0.34327638149261475
0.24242152273654938 0.8118705153465271 0.33923071622848511
0.25944596529006958 0.82095509767532349 0.34389773011207581
0.43653294444084167 0.81408250331878662 0.34141978621482849
0.74209123849868774 0.82188254594802856 0.33647647500038147
0.82839250564575195 0.82373404502868652 0.33728143572807312
0.93832385540008545 0.82276856899261475 0.34382271766662598
0.072859294712543488 0.95579010248184204 0.3385293185710907
0.24813374876976013 0.94905632734298706 0.34437596797943115
0.25724074244499207 0.94784301519393921 0.33727806806564331
0.43752756714820862 0.9483751654624939 0.34282305836677551
0.7381598949432373 0.95301359891891479 0.34293943643569946
0.82994073629379272 0.95082241296768188 0.33544299006462097
0.95314145088195801 0.95588457584381104 0.34446394443511963
0.068046823143959045 0.14136119186878204 0.50292754173278809
0.25026190280914307 0.12202251702547073 0.49190086126327515
0.25742942094802856 0.13253150880336761 0.49630990624427795
0.43945848941802979 0.13277950882911682 0.49014443159103394
0.74768722057342529 0.13392162322998047 0.49384984374046326
0.82218360900878906 0.14306698739528656 0.50282984972000122
0.94337618350982666 0.14346678555011749 0.49306583404541016
0.075390428304672241 0.528797447681427 0.48831316828727722
0.24662451446056366 0.51817697286605835 0.48440259695053101
0.25451388955116272 0.52480369806289673 0.49364528059959412
0.447630375623703 0.52402597665786743 0.49581831693649292
0.72792983055114746 0.52669292688369751 0.4928516149520874
0.83081895112991333 0.52315902709960938 0.49997156858444214
0.94154816865921021 0.53252238035202026 0.50202351808547974
0.073117770254611969 0.55058425664901733 0.49004536867141724
0.25231796503067017 0.54532915353775024 0.49053415656089783
0.26046901941299438 0.5388675332069397 0.49645015597343445
0.45229339599609375 0.55196291208267212 0.49411880970001221
0.72144198417663574 0.55188381671905518 0.50498658418655396
0.82447415590286255 0.5479920506477356 0.50233769416809082
0.94456785917282104 0.53952229022979736 0.5025743842124939
0.070298977196216583 0.49110355973243713 0.4960709810256958
0.2487490326166153 0.4911123514175415 0.49412858486175537
0.26287639141082764 0.49759367108345032 0.49892136454582214
0.44296199083328247 0.4985034167766571 0.49931719899177551
0.72967153787612915 0.48896467685699463 0.5074353814125061
0.82650202512741089 0.50190526247024536 0.49432641267776489
0.94404476881027222 0.50086581707000732 0.4895150363445282
0.075351625680923462 0.79889887571334839 0.49252206087112427
0.24783311784267426 0.78240537643432617 0.49540144205093384
0.25277948379516602 0.80826616287231445 0.49610796570777893
0.43276619911193848 0.80796843767166138 0.4929804801940918
0.7320747971534729 0.78131282329559326 0.49000036716461182
0.82641220092773438 0.77769988775253296 0.48913088440895081
0.94316059350967407 0.79714053869247437 0.48491057753562927
0.070448465645313263 0.81276398897171021 0.49354293942451477
0.23818188905715942 0.81616830825805664 0.49396443367004395
0.261648029088974 0.81706994771957397 0.50338917970657349
0.45425871014595032 0.82237064838409424 0.50066834688186646
0.73686701059341431 0.83633303642272949 0.49101027846336365
0.82851886749267578 0.82334345579147339 0.4904729425907135
0.94853109121322632 0.81565582752227783 0.48840343952178955
0.079644158482551575 0.95194476842880249 0.49576321244239807
0.24391397833824158 0.95437347888946533 0.49532762169837952
0.2629508376121521 0.94850438833236694 0.50123918056488037
0.44897612929344177 0.94771283864974976 0.50294989347457886
0.74232369661331177 0.95725923776626587 0.49630239605903625
0.83260589838027954 0.94683647155761719 0.4861895740032196
0.95031094551086426 0.94060105085372925 0.49541482329368591
0.082143999636173248 0.14580801129341125 0.65316849946975708
0.25319415330886841 0.14781326055526733 0.65133994817733765
0.25586360692977905 0.14106893539428711 0.6525692343711853
0.43954586982727051 0.13497407734394073 0.65299594402313232
0.74179530143737793 0.12238237261772156 0.6495739221572876
0.82430249452590942 0.12177062779664993 0.65179634094238281
0.94449043273925781 0.13009317219257355 0.65065699815750122
0.091680891811847687 0.52244013547897339 0.65571874380111694
0.25157374143600464 0.51259112358093262 0.64866578578948975
0.25838407874107361 0.51521402597427368 0.65712040662765503
0.4314180314540863 0.52917414903640747 0.65933108329772949
0.7308465838432312 0.5273478627204895 0.65263098478317261
0.82814472913742065 0.52094322443008423 0.6555367112159729
0.93352800607681274 0.50627440214157104 0.65659457445144653
0.072453126311302185 0.54701459407806396 0.65630602836608887
0.24956169724464417 0.54157322645187378 0.64420938491821289
0.26005890965461731 0.54354631900787354 0.64696425199508667
0.42132234573364258 0.5524565577507019 0.6555827260017395
0.72204494476318359 0.5512014627456665 0.65751773118972778
0.83160108327865601 0.55165088176727295 0.65143507719039917
0.93657273054122925 0.54607570171356201 0.65588897466659546
0.076409853994846344 0.48839381337165833 0.65143942832946777
0.25407499074935913 0.49083814024925232 0.64658260345458984
0.26031160354614258 0.49771597981452942 0.65287512540817261
0.4402921199798584 0.4967595636844635 0.65126395225524902
0.72904229164123535 0.50044798851013184 0.6529926061630249
0.82863932847976685 0.50302314758300781 0.64650231599807739
0.95069617033004761 0.4938158392906189 0.65190309286117554
0.076580852270126343 0.78133749961853027 0.6503710150718689
0.25569212436676025 0.79701042175292969 0.64992994070053101
0.24961227178573608 0.78620618581771851 0.64563804864883423
0.42940345406532288 0.78392517566680908 0.65434539318084717
0.74278628826141357 0.77920413017272949 0.65036177635192871
0.82532048225402832 0.788970947265625 0.64955568313598633
0.94609600305557251 0.79216593503952026 0.65234839916229248
0.079768955707550049 0.82221204042434692 0.64728337526321411
0.23677478730678558 0.83224326372146606 0.64888042211532593
0.25892812013626099 0.82769596576690674 0.65025991201400757
0.42784819006919861 0.81849700212478638 0.65517419576644897
0.73538726568222046 0.82503890991210938 0.65291720628738403
0.83225494623184204 0.82468193769454956 0.65199482440948486
0.95291119813919067 0.80839747190475464 0.64960336685180664
0.069228813052177429 0.95006918907165527 0.65385174751281738
0.23646634817123413 0.9488404393196106 0.65073210000991821
0.25437256693840027 0.9502825140953064 0.65372699499130249
0.45076519250869751 0.94860613346099854 0.64944177865982056
0.74428701400756836 0.95310962200164795 0.64918410778045654
0.8302873969078064 0.94098538160324097 0.64768189191818237
0.93095183372497559 0.93107748031616211 0.64566075801849365
0.067881502211093903 0.13009095191955566 0.80548584461212158
0.25334250926971436 0.12914536893367767 0.80430328845977783
0.2500547468662262 0.15219554305076599 0.80567771196365356
0.43945702910423279 0.13815565407276154 0.8034401535987854
0.7440955638885498 0.12760700285434723 0.80895757675170898
0.82241499423980713 0.14764915406703949 0.80197668075561523
0.94402021169662476 0.13808344304561615 0.80655694007873535
0.065145544707775116 0.53759974241256714 0.80860054492950439
0.24584905803203583 0.51611149311065674 0.80555570125579834
0.25747674703598022 0.52880316972732544 0.80173951387405396
0.43557202816009521 0.52906280755996704 0.8086128830909729
0.73448967933654785 0.52115404605865479 0.80020928382873535
0.82489383220672607 0.52204877138137817 0.8086550235748291
0.95437562465667725 0.53126198053359985 0.80438876152038574
0.074194051325321198 0.54283988475799561 0.80926710367202759
0.25014233589172363 0.54702025651931763 0.81094741821289062
0.26034283638000488 0.54648154973983765 0.79321479797363281
0.43948519229888916 0.5497739315032959 0.79899752140045166
0.71647578477859497 0.54766350984573364 0.80355632305145264
0.8224031925201416 0.55316060781478882 0.80290687084197998
0.95375943183898926 0.54842656850814819 0.80583232641220093
0.07332146167755127 0.49179163575172424 0.80426281690597534
0.25185403227806091 0.49955803155899048 0.80825316905975342
0.25839802622795105 0.4965304434299469 0.79944533109664917
0.44610574841499329 0.49093034863471985 0.80470603704452515
0.7276310920715332 0.49393767118453979 0.79970365762710571
0.83540582656860352 0.49306437373161316 0.80482727289199829
0.94570237398147583 0.49639689922332764 0.80013149976730347
0.068117998540401459 0.79212838411331177 0.80535036325454712
0.2522881031036377 0.78198099136352539 0.80588763952255249
0.25289338827133179 0.79674875736236572 0.80149108171463013
0.42996388673782349 0.78898996114730835 0.80391931533813477
0.74269145727157593 0.77873772382736206 0.80718874931335449
0.82623565196990967 0.78964430093765259 0.81116145849227905
0.94023376703262329 0.79279160499572754 0.80051606893539429
0.066268771886825562 0.82244980335235596 0.80466127395629883
0.24225597083568573 0.81906616687774658 0.80029118061065674
0.2635783851146698 0.81778234243392944 0.80379194021224976
0.43558427691459656 0.8227914571762085 0.80398821830749512
0.73510420322418213 0.81815606355667114 0.80971497297286987
0.82317733764648438 0.81974631547927856 0.80193144083023071
0.94848024845123291 0.82098865509033203 0.80776512622833252
0.067794471979141235 0.94683516025543213 0.81155788898468018
0.240475133061409 0.93585503101348877 0.80392873287200928
0.26495867967605591 0.95102465152740479 0.80236339569091797
0.43423476815223694 0.94332796335220337 0.7984282374382019
0.73271363973617554 0.95289486646652222 0.81265813112258911
0.83437538146972656 0.94966709613800049 0.80896764993667603
0.95019394159317017 0.95493954420089722 0.80687409639358521
0.072208404541015625 0.15066920220851898 0.94768232107162476
0.25731551647186279 0.13354416191577911 0.95818144083023071
0.25370553135871887 0.12045662105083466 0.95880979299545288
0.41896942257881165 0.14337907731533051 0.94946908950805664
0.74183189868927002 0.1355128288269043 0.94939035177230835
0.82381457090377808 0.14844466745853424 0.95031058788299561
0.95073050260543823 0.15030480921268463 0.94784849882125854
0.070212207734584808 0.53067171573638916 0.94574570655822754
0.24698047339916229 0.5282440185546875 0.95325911045074463
0.25367540121078491 0.53065824508666992 0.95482242107391357
0.44592806696891785 0.53825712203979492 0.95467644929885864
0.74222224950790405 0.52858757972717285 0.95779740810394287
0.82041448354721069 0.52098113298416138 0.94704818725585938
0.95615649223327637 0.51992321014404297 0.94305235147476196
0.079427175223827362 0.54646050930023193 0.95508480072021484
0.24586957693099976 0.54021203517913818 0.95072013139724731
0.26232993602752686 0.54907608032226562 0.94429177045822144
0.43062472343444824 0.55292057991027832 0.94704216718673706
0.7380979061126709 0.54757952690124512 0.94840848445892334
0.82043766975402832 0.54308825731277466 0.9560583233833313
0.95076596736907959 0.54598534107208252 0.94356924295425415
0.075555972754955292 0.50325793027877808 0.94019973278045654
0.25431171059608459 0.49274218082427979 0.95203536748886108
0.25711789727210999 0.49887624382972717 0.95013600587844849
0.43551331758499146 0.49793234467506409 0.95466059446334839
0.73296630382537842 0.49852526187896729 0.95278650522232056
0.83165580034255981 0.49471357464790344 0.94987297058105469
0.95203036069869995 0.49951574206352234 0.94871556758880615
0.086160220205783844 0.78299432992935181 0.95085006952285767
0.25459864735603333 0.78747820854187012 0.95339363813400269
0.25485199689865112 0.78779762983322144 0.9501374363899231
0.43565499782562256 0.78494572639465332 0.94928085803985596
0.74133265018463135 0.79426902532577515 0.95786291360855103
0.82431328296661377 0.78475981950759888 0.94123965501785278
0.94314497709274292 0.79299545288085938 0.95456689596176147
0.06383012980222702 0.81741899251937866 0.95012611150741577
0.25350719690322876 0.82617372274398804 0.95317786931991577
0.25818368792533875 0.82314956188201904 0.95433372259140015
0.45396798849105835 0.82138693332672119 0.94468331336975098
0.73412579298019409 0.82719910144805908 0.95335561037063599
0.82463568449020386 0.82004129886627197 0.9558073878288269
0.94112175703048706 0.82715237140655518 0.94272142648696899
0.068880341947078705 0.9525301456451416 0.95785331726074219
0.25118479132652283 0.94754409790039062 0.95206564664840698
0.26164373755455017 0.94802248477935791 0.95004862546920776
0.44578030705451965 0.94992548227310181 0.947010338306427
0.74124103784561157 0.95468926429748535 0.95681917667388916
0.8230595588684082 0.95243120193481445 0.95703321695327759
0.95086371898651123 0.95413148403167725 0.94987946748733521
