assets/lut/others rotated.cube
# Created by: G'MIC (https://gmic.eu)
TITLE "rotated"
# LUT size
LUT_3D_SIZE 7
# Data domain
DOMAIN_MIN 0.0 0.0 0.0
DOMAIN_MAX 1.0 1.0 1.0
# LUT data points
0.011783345602452755 0.023298494517803192 0.013148738071322441
0.12270195037126541 0.0084762126207351685 0.093018338084220886
0.30126583576202393 0.0027956794947385788 0.2771819531917572
0.45518326759338379 0.00024512797244824469 0.42831158638000488
0.62511128187179565 0.00018059225112665445 0.60067880153656006
0.81015723943710327 0 0.78271543979644775
0.97677016258239746 0 0.94567197561264038
0.0057555404491722584 0.14590135216712952 0.0025360407307744026
0.1419776976108551 0.06411278247833252 0.011235794052481651
0.28905323147773743 0.01380621176213026 0.048554275184869766
0.45536863803863525 0.0095139900222420692 0.18412373960018158
0.63348537683486938 0.0090633770450949669 0.34559744596481323
0.81664508581161499 0.0028897454030811787 0.51020115613937378
0.98430413007736206 0.0030244714580476284 0.70028984546661377
0.0077196457423269749 0.30559933185577393 0.004050819668918848
0.17569930851459503 0.28224414587020874 0.01870625838637352
0.31916356086730957 0.17953480780124664 0.020083708688616753
0.45554575324058533 0.057274177670478821 0.018101725727319717
0.6388477087020874 0.0075569301843643188 0.074930556118488312
0.8151208758354187 0.0065268869511783123 0.23349989950656891
0.97913914918899536 0.0040338854305446148 0.39295792579650879
0.010324814356863499 0.45797345042228699 0.0054044085554778576
0.16558228433132172 0.45983120799064636 0.0077508813701570034
0.40096992254257202 0.44773507118225098 0.021261701360344887
0.49683618545532227 0.30565077066421509 0.024534488096833229
0.64805740118026733 0.13988038897514343 0.027747225016355515
0.83003151416778564 0.022570531815290451 0.024633251130580902
0.97233575582504272 0.0091341054067015648 0.15293240547180176
0.0097729554399847984 0.63110536336898804 0.0013132132589817047
0.16113832592964172 0.63071674108505249 0.0035268296487629414
0.39707827568054199 0.63572371006011963 0.010099777951836586
0.60196655988693237 0.60265171527862549 0.0088205672800540924
0.66797500848770142 0.42617636919021606 0.030461689457297325
0.81929105520248413 0.24600052833557129 0.021751344203948975
0.97415006160736084 0.089799009263515472 0.016199702396988869
0.018001047894358635 0.82259553670883179 7.4678311648312956e-05
0.1580624133348465 0.82622051239013672 0.0030492446385324001
0.41164752840995789 0.82238775491714478 0.0033611373510211706
0.62615013122558594 0.81838202476501465 0.0081723229959607124
0.81565505266189575 0.76472902297973633 0.024041164666414261
0.85712403059005737 0.53448158502578735 0.033777259290218353
0.97939771413803101 0.37355923652648926 0.028020268306136131
0.018553804606199265 0.97206753492355347 0.00023336971935350448
0.18002957105636597 0.98424327373504639 0.0054776659235358238
0.40020698308944702 0.98013567924499512 0.0038193047512322664
0.66264635324478149 0.97186785936355591 0.010990756563842297
0.89751112461090088 0.97621691226959229 0.012651510536670685
0.979389488697052 0.88289612531661987 0.024492107331752777
0.98631894588470459 0.65279209613800049 0.045041266828775406
0.010120271705091 0.026766698807477951 0.13064035773277283
0.094704046845436096 0.036937415599822998 0.15426464378833771
0.22711135447025299 0.022513056173920631 0.2803475558757782
0.38563445210456848 0.020944632589817047 0.45153450965881348
0.55893409252166748 0.013060176745057106 0.62991750240325928
0.74530988931655884 0.010633775033056736 0.81363683938980103
0.93536239862442017 0.0074994256719946861 0.96830719709396362
0.0084746712818741798 0.14928747713565826 0.02836964838206768
0.12157118320465088 0.13649594783782959 0.11164335161447525
0.28316333889961243 0.10553807020187378 0.26472353935241699
0.44890600442886353 0.083529405295848846 0.41702395677566528
0.63171756267547607 0.083659976720809937 0.60221010446548462
0.81268060207366943 0.05427570641040802 0.78778892755508423
0.98012244701385498 0.046437282115221024 0.95841401815414429
0.012644883245229721 0.29400071501731873 0.015971897169947624
0.12447547167539597 0.28635379672050476 0.10225566476583481
0.29828491806983948 0.23398828506469727 0.13920497894287109
0.45546776056289673 0.1396787166595459 0.17564120888710022
0.63982605934143066 0.11011157929897308 0.35588681697845459
0.81849485635757446 0.092130355536937714 0.48576509952545166
0.97473478317260742 0.082158572971820831 0.69878661632537842
0.012328144162893295 0.46388548612594604 0.013805598951876163
0.1175556555390358 0.45637452602386475 0.075191110372543335
0.35720387101173401 0.44736999273300171 0.12914317846298218
0.48030877113342285 0.35733160376548767 0.15093480050563812
0.638935387134552 0.19112014770507812 0.15382426977157593
0.81428569555282593 0.11660202592611313 0.23012132942676544
0.97634351253509521 0.10398326069116592 0.41575124859809875
0.013428108766674995 0.63754850625991821 0.0060049020685255527
0.087179593741893768 0.63782721757888794 0.065695740282535553
0.34750345349311829 0.64006781578063965 0.11301332712173462
0.5646246075630188 0.62877249717712402 0.13069486618041992
0.67391908168792725 0.475627601146698 0.16095930337905884
0.81345069408416748 0.32591944932937622 0.15012560784816742
0.97824716567993164 0.15907351672649384 0.15993720293045044
0.0076097673736512661 0.82984393835067749 0.0035265604965388775
0.085877902805805206 0.82291018962860107 0.043250605463981628
0.33054190874099731 0.834716796875 0.09717230498790741
0.55996173620223999 0.82391363382339478 0.11785441637039185
0.78810113668441772 0.78483325242996216 0.14282071590423584
0.84013557434082031 0.6043209433555603 0.16475570201873779
0.98192542791366577 0.41994380950927734 0.16157001256942749
0.0054288376122713089 0.98592203855514526 0.0044224457815289497
0.081116259098052979 0.96961551904678345 0.039376635104417801
0.30232015252113342 0.97841918468475342 0.072174370288848877
0.56762158870697021 0.97573709487915039 0.099414601922035217
0.82702982425689697 0.96965295076370239 0.13260821998119354
0.97629344463348389 0.92652314901351929 0.15004211664199829
0.99188840389251709 0.71256989240646362 0.1731913685798645
0.00681279506534338 0.027175005525350571 0.29426595568656921
0.080678708851337433 0.036107905209064484 0.28019100427627563
0.19807474315166473 0.062925525009632111 0.30637159943580627
0.34050095081329346 0.060944486409425735 0.45228445529937744
0.50138157606124878 0.053248833864927292 0.62885135412216187
0.68924343585968018 0.040595527738332748 0.81978309154510498
0.85285121202468872 0.027453163638710976 0.98555022478103638
0.0070713716559112072 0.24768181145191193 0.25080722570419312
0.10937228053808212 0.15134152770042419 0.28267565369606018
0.24397571384906769 0.16258285939693451 0.3234083354473114
0.39390546083450317 0.15609419345855713 0.44928464293479919
0.56656044721603394 0.14252322912216187 0.62937843799591064
0.7528267502784729 0.12276853621006012 0.82470011711120605
0.92479211091995239 0.11205946654081345 0.97600281238555908
0.003847847692668438 0.31591072678565979 0.030690481886267662
0.11041650176048279 0.30120196938514709 0.15057741105556488
0.28362813591957092 0.29431882500648499 0.29106426239013672
0.44964006543159485 0.2669951319694519 0.42283955216407776
0.62708300352096558 0.24806241691112518 0.6034543514251709
0.81068438291549683 0.22880364954471588 0.78578919172286987
0.97893083095550537 0.21047641336917877 0.96190190315246582
0.0090523064136505127 0.46607211232185364 0.0083703137934207916
0.096607565879821777 0.4586731493473053 0.092992328107357025
0.29446649551391602 0.4650326669216156 0.24791997671127319
0.47941422462463379 0.39503011107444763 0.30102229118347168
0.63433164358139038 0.29862084984779358 0.3600519597530365
0.82122683525085449 0.2658596932888031 0.50961798429489136
0.9711729884147644 0.25871405005455017 0.71043902635574341
0.0044878493063151836 0.64159590005874634 0.003984399139881134
0.084206603467464447 0.64899319410324097 0.077730707824230194
0.28234803676605225 0.64219892024993896 0.23565362393856049
0.52085566520690918 0.62587350606918335 0.28317829966545105
0.66621798276901245 0.5371708869934082 0.31173831224441528
0.8188740611076355 0.36732321977615356 0.31092768907546997
0.98499375581741333 0.28695669770240784 0.42344468832015991
0.0044187507592141628 0.83226090669631958 0.004234987311065197
0.074835099279880524 0.83006805181503296 0.063204854726791382
0.27961421012878418 0.83099591732025146 0.22380723059177399
0.5018048882484436 0.82536917924880981 0.26115015149116516
0.74997836351394653 0.81609463691711426 0.29174500703811646
0.85347080230712891 0.65903550386428833 0.31239566206932068
0.97819894552230835 0.4830118715763092 0.30627873539924622
0.0036500818096101284 0.98717707395553589 0.0039589079096913338
0.068205863237380981 0.98027366399765015 0.06454041600227356
0.2338772714138031 0.97331517934799194 0.20244574546813965
0.49637725949287415 0.97772151231765747 0.24853323400020599
0.75257503986358643 0.97062307596206665 0.27837744355201721
0.96997928619384766 0.96729183197021484 0.31071341037750244
0.9932367205619812 0.78132456541061401 0.32874408364295959
0.0091151818633079529 0.024896195158362389 0.45555469393730164
0.082335516810417175 0.039403848350048065 0.45565074682235718
0.19387659430503845 0.061496254056692123 0.45210546255111694
0.31693887710571289 0.11192642152309418 0.48801499605178833
0.46525079011917114 0.10826827585697174 0.64521104097366333
0.63610696792602539 0.099551886320114136 0.82284963130950928
0.79866945743560791 0.081252649426460266 0.96914100646972656
0.0081701688468456268 0.29947879910469055 0.44951844215393066
0.093383952975273132 0.13812163472175598 0.45012393593788147
0.24371513724327087 0.16125117242336273 0.45093023777008057
0.36156204342842102 0.20560672879219055 0.48577934503555298
0.50926667451858521 0.20370194315910339 0.63588953018188477
0.68281155824661255 0.19032570719718933 0.82578051090240479
0.84516686201095581 0.17227163910865784 0.96919089555740356
0.0019380457233637571 0.44557112455368042 0.26694846153259277
0.09191238135099411 0.42307054996490479 0.40650570392608643
0.2692197859287262 0.30731478333473206 0.46311450004577637
0.41506272554397583 0.33013960719108582 0.48491176962852478
0.57671350240707397 0.31999552249908447 0.63656282424926758
0.73275947570800781 0.30286383628845215 0.80397361516952515
0.92159223556518555 0.28356650471687317 0.96885210275650024
0.002592812292277813 0.49032002687454224 0.029099887236952782
0.093655906617641449 0.48124250769615173 0.13503868877887726
0.26916247606277466 0.47977644205093384 0.308015376329422
0.45204594731330872 0.45370116829872131 0.45523342490196228
0.6277233362197876 0.43049570918083191 0.60509681701660156
0.81301999092102051 0.40619829297065735 0.7900855541229248
0.96778863668441772 0.39568838477134705 0.96109652519226074
0.010293728671967983 0.64621615409851074 0.015648188069462776
0.086966253817081451 0.63639360666275024 0.087145350873470306
0.26701390743255615 0.64374077320098877 0.26297307014465332
0.46733158826828003 0.63609260320663452 0.41606453061103821
0.65552979707717896 0.56708866357803345 0.46223405003547668
0.83126282691955566 0.45524981617927551 0.53457474708557129
0.97995591163635254 0.4399925172328949 0.70441800355911255
0.010119523853063583 0.82975101470947266 0.0089426375925540924
0.069044463336467743 0.82755124568939209 0.062742419540882111
0.24243724346160889 0.82437682151794434 0.233957439661026
0.45098304748535156 0.82378286123275757 0.40402776002883911
0.698139488697052 0.81421566009521484 0.45413872599601746
0.85924822092056274 0.70506459474563599 0.47433376312255859
0.97626465559005737 0.54237896203994751 0.47834232449531555
0.0039254431612789631 0.9872862696647644 0.005749422125518322
0.065887451171875 0.96736329793930054 0.058828242123126984
0.23085708916187286 0.97714167833328247 0.22026187181472778
0.41457211971282959 0.97555708885192871 0.38464394211769104
0.69381052255630493 0.97936558723449707 0.43512898683547974
0.94231361150741577 0.97904366254806519 0.46479591727256775
0.99363833665847778 0.85681831836700439 0.49250370264053345
0.0022220537066459656 0.028397908434271812 0.63357293605804443
0.064392223954200745 0.021006684750318527 0.64115530252456665
0.20895397663116455 0.048732846975326538 0.63666325807571411
0.31622129678726196 0.11269599944353104 0.63276827335357666
0.44290915131568909 0.16014327108860016 0.67413753271102905
0.59478819370269775 0.15904706716537476 0.82280158996582031
0.7467191219329834 0.14963711798191071 0.96767133474349976
0.0030810188036412001 0.26628470420837402 0.6367039680480957
0.080116122961044312 0.1026851013302803 0.63476139307022095
0.23145589232444763 0.14733381569385529 0.63508206605911255
0.35421454906463623 0.20320986211299896 0.63522154092788696
0.48418238759040833 0.25194796919822693 0.65544974803924561
0.63540381193161011 0.25357374548912048 0.82465708255767822
0.80290651321411133 0.23291273415088654 0.97620987892150879
0.0021343755070120096 0.59899991750717163 0.61222606897354126
0.084444738924503326 0.43837368488311768 0.63212096691131592
0.249405637383461 0.29372793436050415 0.6350594162940979
0.40217196941375732 0.32425019145011902 0.63783186674118042
0.537788987159729 0.37258893251419067 0.6587831974029541
0.6893271803855896 0.36549586057662964 0.81457328796386719
0.85751849412918091 0.35079047083854675 0.97372668981552124
0.0039601344615221024 0.64137619733810425 0.29041346907615662
0.08896840363740921 0.63434958457946777 0.46276611089706421
0.25828063488006592 0.59709405899047852 0.59586769342422485
0.43379887938499451 0.47059988975524902 0.63606137037277222
0.57705891132354736 0.49544283747673035 0.66521948575973511
0.75618183612823486 0.48837554454803467 0.81775182485580444
0.92714601755142212 0.47627073526382446 0.97435808181762695
0.0056637185625731945 0.67783999443054199 0.028478585183620453
0.075867637991905212 0.65668010711669922 0.11333531141281128
0.25364804267883301 0.65594595670700073 0.29011553525924683
0.43561023473739624 0.6618196964263916 0.47999653220176697
0.63044929504394531 0.64335894584655762 0.64168298244476318
0.82439726591110229 0.61086165904998779 0.79142534732818604
0.98139578104019165 0.59261435270309448 0.95748978853225708
0.0068445689976215363 0.82639026641845703 0.011021931655704975
0.067363739013671875 0.81793922185897827 0.068962022662162781
0.23899148404598236 0.82264471054077148 0.23907120525836945
0.42150101065635681 0.83047515153884888 0.42385584115982056
0.63818109035491943 0.82418054342269897 0.58926022052764893
0.84546619653701782 0.76032161712646484 0.64859890937805176
0.97771430015563965 0.6582038402557373 0.7162778377532959
0.0031472898554056883 0.98129498958587646 0.0080257486552000046
0.060098085552453995 0.98355495929718018 0.06375015527009964
0.22369441390037537 0.97148829698562622 0.21822267770767212
0.41190940141677856 0.98315906524658203 0.40797138214111328
0.631949782371521 0.97538703680038452 0.57236731052398682
0.87947016954421997 0.98008227348327637 0.63414084911346436
0.99077373743057251 0.9035683274269104 0.64582109451293945
0.0036092721857130527 0.012811833061277866 0.8124886155128479
0.05235474556684494 0.0097820507362484932 0.81796425580978394
0.17740841209888458 0.03470756858587265 0.82126486301422119
0.31573891639709473 0.097809888422489166 0.82361108064651489
0.45083510875701904 0.1630147397518158 0.81106299161911011
0.56164765357971191 0.21234144270420074 0.84385585784912109
0.71768569946289062 0.21404004096984863 0.97839456796646118
0.0050648110918700695 0.288490891456604 0.81783145666122437
0.055846493691205978 0.084043227136135101 0.81536948680877686
0.21047402918338776 0.1292155534029007 0.82877761125564575
0.34863549470901489 0.18726764619350433 0.82606595754623413
0.47906339168548584 0.24824632704257965 0.82690268754959106
0.60409057140350342 0.30446094274520874 0.83516508340835571
0.75760865211486816 0.29453706741333008 0.96574026346206665
0.0034262414555996656 0.64643961191177368 0.81840223073959351
0.06377074122428894 0.43485504388809204 0.81894040107727051
0.22899255156517029 0.26452985405921936 0.81757688522338867
0.39118537306785583 0.30773377418518066 0.82159656286239624
0.54026013612747192 0.372235506772995 0.82460564374923706
0.66002196073532104 0.41970717906951904 0.84996610879898071
0.81302046775817871 0.42769977450370789 0.98216313123703003
0.0015395520022138953 0.81852895021438599 0.61993825435638428
0.072087064385414124 0.7813677191734314 0.78923553228378296
0.22983349859714508 0.62146967649459839 0.81557339429855347
0.41664654016494751 0.45300832390785217 0.81841468811035156
0.5783390998840332 0.49898341298103333 0.82511627674102783
0.71372538805007935 0.54673165082931519 0.85821038484573364
0.86849623918533325 0.54262202978134155 0.97422999143600464
0.0041175992228090763 0.82255882024765015 0.2591586709022522
0.071265876293182373 0.82431620359420776 0.43981197476387024
0.23736841976642609 0.81748443841934204 0.62433785200119019
0.42376920580863953 0.79149335622787476 0.7793281078338623
0.61958765983581543 0.6696772575378418 0.82063442468643188
0.77834242582321167 0.69214427471160889 0.85228151082992554
0.93339812755584717 0.67846715450286865 0.97120136022567749
0.001419007545337081 0.84935843944549561 0.019011000171303749
0.057919804006814957 0.84262925386428833 0.10348522663116455
0.22572922706604004 0.84743857383728027 0.26579424738883972
0.41642940044403076 0.83838170766830444 0.45509392023086548
0.61988383531570435 0.83987259864807129 0.66161441802978516
0.80822432041168213 0.81846040487289429 0.81608778238296509
0.97382587194442749 0.79511356353759766 0.95693552494049072
0.0030314128380268812 0.98736822605133057 0.0066221798770129681
0.062410302460193634 0.98291367292404175 0.061964221298694611
0.22788850963115692 0.98734384775161743 0.22656306624412537
0.40514689683914185 0.98282867670059204 0.40479594469070435
0.61406391859054565 0.96470844745635986 0.60620176792144775
0.83215272426605225 0.98260223865509033 0.79992848634719849
0.99339896440505981 0.94333630800247192 0.83068549633026123
0.0060885860584676266 0.015363491140305996 0.96917515993118286
0.047465484589338303 0.0055210934951901436 0.9863542914390564
0.17714431881904602 0.024790370836853981 0.9728277325630188
0.32267022132873535 0.083534687757492065 0.98851388692855835
0.4657575786113739 0.15642359852790833 0.97244060039520264
0.57498228549957275 0.21503531932830811 0.97093212604522705
0.68975245952606201 0.25752779841423035 0.98648309707641602
0.0050574061460793018 0.27966070175170898 0.98037838935852051
0.051456883549690247 0.071141280233860016 0.97984808683395386
0.21065631508827209 0.1229759082198143 0.98895186185836792
0.34841433167457581 0.17694491147994995 0.98431426286697388
0.49160581827163696 0.23903051018714905 0.97490197420120239
0.61507028341293335 0.29679766297340393 0.96546918153762817
0.7284502387046814 0.34292954206466675 0.98871821165084839
0.0020598617848008871 0.61783772706985474 0.98115050792694092
0.055806763470172882 0.41984325647354126 0.97456538677215576
0.22453600168228149 0.24724923074245453 0.97454899549484253
0.38136902451515198 0.29804414510726929 0.96692264080047607
0.53471231460571289 0.36084768176078796 0.97094660997390747
0.66573798656463623 0.42213866114616394 0.96948379278182983
0.79094481468200684 0.48463544249534607 0.98522984981536865
0.00088494992814958096 0.96379375457763672 0.96572047472000122
0.05874532088637352 0.80194675922393799 0.97556000947952271
0.22316206991672516 0.59120607376098633 0.97164076566696167
0.39446300268173218 0.43780571222305298 0.97940695285797119
0.5683169960975647 0.48125377297401428 0.97192627191543579
0.72280055284500122 0.55894911289215088 0.97080928087234497
0.83760517835617065 0.59661835432052612 0.99020582437515259
0.0003362318966537714 0.97711491584777832 0.63412129878997803
0.052517101168632507 0.97790807485580444 0.79813331365585327
0.22075261175632477 0.95027822256088257 0.95113855600357056
0.40544763207435608 0.81477230787277222 0.97860711812973022
0.59062671661376953 0.63666486740112305 0.97434914112091064
0.75592714548110962 0.68057811260223389 0.96702569723129272
0.89752376079559326 0.72624331712722778 0.98778337240219116
0.0014750910922884941 0.97028005123138428 0.2495197057723999
0.059455648064613342 0.97412627935409546 0.41573429107666016
0.22073587775230408 0.9752962589263916 0.59789854288101196
0.40864521265029907 0.97717255353927612 0.79542744159698486
0.60258513689041138 0.96010595560073853 0.95357739925384521
0.79558074474334717 0.82648378610610962 0.97611504793167114
0.9538840651512146 0.85879015922546387 0.99273616075515747
0.00020769904949702322 0.99505376815795898 0.014071954414248466
0.055264431983232498 0.99264806509017944 0.084861695766448975
0.2156381756067276 0.99583905935287476 0.25042727589607239
0.40087765455245972 0.98826628923416138 0.43523547053337097
0.59802126884460449 0.98953467607498169 0.64524883031845093
0.80520570278167725 0.99011409282684326 0.84722036123275757
0.98065340518951416 0.9752691388130188 0.9819868803024292
