assets/lut/others vintage.cube
# Created by: G'MIC (https://gmic.eu)
TITLE "vintage"
# LUT size
LUT_3D_SIZE 13
# Data domain
DOMAIN_MIN 0.0 0.0 0.0
DOMAIN_MAX 1.0 1.0 1.0
# LUT data points
0.044447671622037888 0.029253283515572548 0.32211405038833618
0.045561052858829498 0.033228706568479538 0.34002768993377686
0.08449285477399826 0.03709736093878746 0.34259146451950073
0.15585476160049438 0.040010176599025726 0.3357749879360199
0.25972297787666321 0.045198075473308563 0.33021718263626099
0.38941136002540588 0.038837775588035583 0.33715274930000305
0.52978819608688354 0.038363810628652573 0.34357637166976929
0.67087090015411377 0.04178142175078392 0.33269873261451721
0.79617726802825928 0.043696712702512741 0.32488510012626648
0.90261787176132202 0.038422230631113052 0.33948114514350891
0.97241365909576416 0.0350341796875 0.34468382596969604
0.98890435695648193 0.034731023013591766 0.33987835049629211
0.94822388887405396 0.045611333101987839 0.34548777341842651
0.047860704362392426 0.059067551046609879 0.32255458831787109
0.042078010737895966 0.073599524796009064 0.32956328988075256
0.086260825395584106 0.081973068416118622 0.33069851994514465
0.15771634876728058 0.083046898245811462 0.32679286599159241
0.26091712713241577 0.085890814661979675 0.32591128349304199
0.39273795485496521 0.0847296342253685 0.3326839804649353
0.53326612710952759 0.082536645233631134 0.33729410171508789
0.67529410123825073 0.082935154438018799 0.33244597911834717
0.79821085929870605 0.085387676954269409 0.3282833993434906
0.89992451667785645 0.082634881138801575 0.33628085255622864
0.96543735265731812 0.080586254596710205 0.33934056758880615
0.98253273963928223 0.075445346534252167 0.33650127053260803
0.94596493244171143 0.082850389182567596 0.34704476594924927
0.03975246474146843 0.10247328877449036 0.31804755330085754
0.038475379347801208 0.11862315982580185 0.32453271746635437
0.083569332957267761 0.12892194092273712 0.32781305909156799
0.15510185062885284 0.13496196269989014 0.32921800017356873
0.26809993386268616 0.14484879374504089 0.33236336708068848
0.40050864219665527 0.14044272899627686 0.33501544594764709
0.53957533836364746 0.13058219850063324 0.33537000417709351
0.67755377292633057 0.12370297312736511 0.33290842175483704
0.7982640266418457 0.1246747151017189 0.33093914389610291
0.89724445343017578 0.1269993782043457 0.33342081308364868
0.96766525506973267 0.12683489918708801 0.33421343564987183
0.98304718732833862 0.12132172286510468 0.33506181836128235
0.94387030601501465 0.12798026204109192 0.34583213925361633
0.032355617731809616 0.17152301967144012 0.3220708966255188
0.038939636200666428 0.18534281849861145 0.32646387815475464
0.0841246098279953 0.19160796701908112 0.32924404740333557
0.15731783211231232 0.19994278252124786 0.33227923512458801
0.27338069677352905 0.21314503252506256 0.33707717061042786
0.40742301940917969 0.20729853212833405 0.33837902545928955
0.54512482881546021 0.19657523930072784 0.33684375882148743
0.68070530891418457 0.18651942908763885 0.33404967188835144
0.79904830455780029 0.18652926385402679 0.33254802227020264
0.89677345752716064 0.1903289407491684 0.33123475313186646
0.96897262334823608 0.18918395042419434 0.33118847012519836
0.98408329486846924 0.18351259827613831 0.33654582500457764
0.94748532772064209 0.18954278528690338 0.3485320508480072
0.040808480232954025 0.26085007190704346 0.32360365986824036
0.033900842070579529 0.28219693899154663 0.33301547169685364
0.085112616419792175 0.29347443580627441 0.33441448211669922
0.16825716197490692 0.29683485627174377 0.33733594417572021
0.27295434474945068 0.29360765218734741 0.33893367648124695
0.40474051237106323 0.29201814532279968 0.33807894587516785
0.54448938369750977 0.28712540864944458 0.3345191478729248
0.68213576078414917 0.28326481580734253 0.33154663443565369
0.79834866523742676 0.28448206186294556 0.33217975497245789
0.89970123767852783 0.28455284237861633 0.33496057987213135
0.96496909856796265 0.28449159860610962 0.33551162481307983
0.98218280076980591 0.28004711866378784 0.33795782923698425
0.94795447587966919 0.28567901253700256 0.34631046652793884
0.034376107156276703 0.37593004107475281 0.32436764240264893
0.043155159801244736 0.3968794047832489 0.33661603927612305
0.085529804229736328 0.40775665640830994 0.33865955471992493
0.17144428193569183 0.40941745042800903 0.33944174647331238
0.27279746532440186 0.40412634611129761 0.34060209989547729
0.38998502492904663 0.39595964550971985 0.34457224607467651
0.53675854206085205 0.38906306028366089 0.33455219864845276
0.68470877408981323 0.38343396782875061 0.32766619324684143
0.80204284191131592 0.38825014233589172 0.32840514183044434
0.90398955345153809 0.39027473330497742 0.33223086595535278
0.96956455707550049 0.39068233966827393 0.33930996060371399
0.98727357387542725 0.38951924443244934 0.33988472819328308
0.94432181119918823 0.4027658998966217 0.3451530933380127
0.051536917686462402 0.50976765155792236 0.32077500224113464
0.059971079230308533 0.52041101455688477 0.33287268877029419
0.088650032877922058 0.5270572304725647 0.33683061599731445
0.16854596138000488 0.52641743421554565 0.33694285154342651
0.26897865533828735 0.52173149585723877 0.33747225999832153
0.38150346279144287 0.51504546403884888 0.340333491563797
0.52787631750106812 0.51252669095993042 0.33207458257675171
0.67664980888366699 0.5112607479095459 0.3274228572845459
0.80331319570541382 0.50695580244064331 0.32726126909255981
0.90615105628967285 0.50483477115631104 0.33128213882446289
0.9754365086555481 0.50301706790924072 0.34106206893920898
0.99260729551315308 0.50520443916320801 0.34021884202957153
0.94008392095565796 0.52573823928833008 0.3477357029914856
0.053679179400205612 0.63110136985778809 0.31931734085083008
0.050474248826503754 0.64674848318099976 0.33131116628646851
0.09069167822599411 0.64645844697952271 0.33253130316734314
0.16079773008823395 0.64421308040618896 0.33030903339385986
0.26212576031684875 0.64281374216079712 0.33092471957206726
0.37352642416954041 0.63868790864944458 0.32978096604347229
0.52447181940078735 0.63888275623321533 0.32755911350250244
0.67796707153320312 0.63844406604766846 0.32578554749488831
0.7979055643081665 0.63942420482635498 0.32886609435081482
0.90261203050613403 0.6371300220489502 0.33373549580574036
0.96898376941680908 0.63524377346038818 0.34298807382583618
0.98770600557327271 0.63844788074493408 0.33901169896125793
0.94303590059280396 0.66286194324493408 0.34521180391311646
0.049055211246013641 0.75369912385940552 0.31826364994049072
0.041787359863519669 0.76478815078735352 0.33163943886756897
0.082825228571891785 0.76429617404937744 0.33655864000320435
0.15660984814167023 0.7600519061088562 0.33141094446182251
0.25706502795219421 0.75885778665542603 0.32995235919952393
0.37063723802566528 0.75388944149017334 0.32887399196624756
0.52323871850967407 0.75422120094299316 0.32827496528625488
0.67753994464874268 0.75254994630813599 0.32695382833480835
0.79553747177124023 0.75913518667221069 0.32940703630447388
0.90233206748962402 0.76105272769927979 0.33315643668174744
0.9676203727722168 0.75867271423339844 0.34618827700614929
0.98387473821640015 0.76287919282913208 0.34268644452095032
0.9481852650642395 0.77926892042160034 0.347005695104599
0.054697658866643906 0.85322296619415283 0.32002037763595581
0.05164661630988121 0.8565819263458252 0.32902190089225769
0.079163603484630585 0.86254978179931641 0.33610531687736511
0.15679669380187988 0.86188817024230957 0.33399114012718201
0.25460407137870789 0.85895419120788574 0.33112695813179016
0.37299209833145142 0.85477173328399658 0.33002901077270508
0.51697218418121338 0.85375416278839111 0.32989555597305298
0.67053240537643433 0.84905529022216797 0.33184322714805603
0.79573667049407959 0.8560977578163147 0.32960951328277588
0.90144520998001099 0.8595958948135376 0.3308962881565094
0.9673340916633606 0.85720700025558472 0.33945682644844055
0.98526626825332642 0.85823017358779907 0.3377859890460968
0.94735509157180786 0.87253910303115845 0.34394919872283936
0.056973699480295181 0.91981452703475952 0.32268735766410828
0.03617420420050621 0.93549621105194092 0.32616373896598816
0.078100107610225677 0.93652886152267456 0.32148918509483337
0.15724851191043854 0.93551653623580933 0.32581192255020142
0.2535337507724762 0.93703031539916992 0.32949307560920715
0.37200108170509338 0.9363476037979126 0.33032578229904175
0.51377785205841064 0.93586099147796631 0.3297271728515625
0.67799174785614014 0.93208086490631104 0.33735913038253784
0.80262136459350586 0.93371874094009399 0.33044260740280151
0.90198349952697754 0.93441224098205566 0.32648196816444397
0.96972841024398804 0.93099385499954224 0.32906714081764221
0.98648113012313843 0.92966562509536743 0.33346199989318848
0.93545287847518921 0.94455349445343018 0.34530031681060791
0.044537413865327835 0.96242392063140869 0.32837116718292236
0.03251565620303154 0.96964317560195923 0.33408582210540771
0.076358452439308167 0.97224873304367065 0.32584330439567566
0.15424333512783051 0.97044312953948975 0.32934868335723877
0.24999165534973145 0.97019004821777344 0.33256545662879944
0.37696182727813721 0.96776026487350464 0.33513364195823669
0.52150565385818481 0.97055083513259888 0.33301272988319397
0.67377853393554688 0.97170358896255493 0.33601713180541992
0.80173027515411377 0.96845030784606934 0.33645832538604736
0.90115547180175781 0.971457839012146 0.32781636714935303
0.96965563297271729 0.96516472101211548 0.33247944712638855
0.98818528652191162 0.96824187040328979 0.33600011467933655
0.94085425138473511 0.97779297828674316 0.34840762615203857
0.073075331747531891 0.93560832738876343 0.35081207752227783
0.056973282247781754 0.94635850191116333 0.36647859215736389
0.099734798073768616 0.95257264375686646 0.35850909352302551
0.17508743703365326 0.95277714729309082 0.36068806052207947
0.27003940939903259 0.95227652788162231 0.35997241735458374
0.40837681293487549 0.94830751419067383 0.36281207203865051
0.55517220497131348 0.95011430978775024 0.36311599612236023
0.70399856567382812 0.9491569995880127 0.36388885974884033
0.83487802743911743 0.94863200187683105 0.36585357785224915
0.93049728870391846 0.94749158620834351 0.36244511604309082
0.98189365863800049 0.94458919763565063 0.36451420187950134
0.99241799116134644 0.95234888792037964 0.36260625720024109
0.95378124713897705 0.95342379808425903 0.37861299514770508
0.038284212350845337 0.059804145246744156 0.32479774951934814
0.035818286240100861 0.063018918037414551 0.33493688702583313
0.060553994029760361 0.069893285632133484 0.33271399140357971
0.1326957494020462 0.06614810973405838 0.33673208951950073
0.229034423828125 0.074495457112789154 0.33080586791038513
0.36282175779342651 0.067382633686065674 0.33651113510131836
0.512065589427948 0.066930286586284637 0.3372018039226532
0.65560072660446167 0.065555259585380554 0.33746185898780823
0.76567161083221436 0.086658358573913574 0.32172182202339172
0.88462996482849121 0.063574805855751038 0.33784812688827515
0.95027083158493042 0.068878814578056335 0.33493137359619141
0.96465384960174561 0.069517858326435089 0.3350062370300293
0.93914347887039185 0.057664878666400909 0.36438083648681641
0.053085193037986755 0.061477884650230408 0.34461820125579834
0.053429815918207169 0.080165654420852661 0.34691587090492249
0.078024908900260925 0.091795951128005981 0.34701788425445557
0.14845757186412811 0.092188812792301178 0.35077306628227234
0.24989612400531769 0.10278188437223434 0.34619951248168945
0.38060879707336426 0.10008851438760757 0.35061746835708618
0.52505010366439819 0.092049360275268555 0.35334545373916626
0.66533207893371582 0.093809403479099274 0.34789717197418213
0.78270262479782104 0.10422771424055099 0.33987748622894287
0.89111685752868652 0.090515166521072388 0.34893810749053955
0.95990288257598877 0.088476292788982391 0.3509802520275116
0.97874367237091064 0.080848604440689087 0.35574904084205627
0.94229024648666382 0.085069023072719574 0.37304574251174927
0.049923166632652283 0.10077089816331863 0.34508579969406128
0.056870032101869583 0.11831630766391754 0.35107043385505676
0.089477851986885071 0.12733179330825806 0.35576936602592468
0.15662059187889099 0.13511747121810913 0.35753500461578369
0.26428905129432678 0.14509724080562592 0.35693925619125366
0.39492595195770264 0.14285834133625031 0.36104282736778259
0.53651517629623413 0.13083861768245697 0.36312907934188843
0.67398971319198608 0.12745317816734314 0.35901954770088196
0.79191243648529053 0.13248778879642487 0.35330066084861755
0.89377737045288086 0.12579701840877533 0.35590997338294983
0.96822208166122437 0.1214778944849968 0.35852229595184326
0.98295313119888306 0.12064401805400848 0.35875523090362549
0.94634979963302612 0.12959980964660645 0.37004292011260986
0.050224140286445618 0.17031626403331757 0.34645918011665344
0.053894490003585815 0.1885802149772644 0.35267254710197449
0.091636762022972107 0.19283147156238556 0.35606515407562256
0.15864238142967224 0.1994641125202179 0.35938984155654907
0.26963984966278076 0.21001903712749481 0.36152517795562744
0.39807817339897156 0.20751205086708069 0.36427527666091919
0.53867882490158081 0.19648244976997375 0.36322811245918274
0.68056076765060425 0.18937869369983673 0.36148521304130554
0.79933792352676392 0.19075249135494232 0.35806947946548462
0.89683431386947632 0.19213615357875824 0.35588574409484863
0.96120524406433105 0.19018511474132538 0.35789394378662109
0.98004543781280518 0.18735754489898682 0.36145210266113281
0.94856584072113037 0.19630624353885651 0.37313786149024963
0.046759001910686493 0.26120048761367798 0.34438177943229675
0.038654536008834839 0.28230065107345581 0.3553718626499176
0.088225074112415314 0.28729286789894104 0.35801586508750916
0.16450545191764832 0.28933340311050415 0.36162218451499939
0.27013733983039856 0.29051476716995239 0.36311116814613342
0.39240279793739319 0.29164090752601624 0.36259865760803223
0.53387880325317383 0.28520706295967102 0.3606114387512207
0.67848962545394897 0.2813364565372467 0.35948404669761658
0.79649430513381958 0.27934673428535461 0.35613656044006348
0.89917302131652832 0.2736203670501709 0.35390996932983398
0.95086389780044556 0.27665573358535767 0.35689026117324829
0.97510457038879395 0.27630922198295593 0.36063280701637268
0.9482804536819458 0.28387415409088135 0.37180432677268982
0.046469520777463913 0.36896833777427673 0.34658285975456238
0.041790217161178589 0.395172119140625 0.35603955388069153
0.087053380906581879 0.4017798900604248 0.35840937495231628
0.16909544169902802 0.40095081925392151 0.35978046059608459
0.26757562160491943 0.3963591456413269 0.35957646369934082
0.37413638830184937 0.39511540532112122 0.35862833261489868
0.5218927264213562 0.39064329862594604 0.35696956515312195
0.67177319526672363 0.38941457867622375 0.35672181844711304
0.79370659589767456 0.39008721709251404 0.35472297668457031
0.89898377656936646 0.38755649328231812 0.35518613457679749
0.96225970983505249 0.38614609837532043 0.35911992192268372
0.98436540365219116 0.38819870352745056 0.3617061972618103
0.95023888349533081 0.40028825402259827 0.37227433919906616
0.05356820672750473 0.50287097692489624 0.34702461957931519
0.057939626276493073 0.51735138893127441 0.35543113946914673
0.089458972215652466 0.52155798673629761 0.35913816094398499
0.16976958513259888 0.52061504125595093 0.35959291458129883
0.26652628183364868 0.51567506790161133 0.35849255323410034
0.37355101108551025 0.51374870538711548 0.35750523209571838
0.51779770851135254 0.51252073049545288 0.3555665910243988
0.666157066822052 0.51258939504623413 0.35583788156509399
0.79447460174560547 0.51335960626602173 0.35650885105133057
0.89689970016479492 0.51308411359786987 0.35935565829277039
0.97130453586578369 0.50573831796646118 0.3624909520149231
0.98998194932937622 0.51095384359359741 0.36321762204170227
0.95025801658630371 0.52806717157363892 0.37247788906097412
0.060047853738069534 0.62839698791503906 0.34495964646339417
0.064150102436542511 0.63936358690261841 0.35453972220420837
0.090831920504570007 0.64249402284622192 0.36050683259963989
0.16453711688518524 0.64251035451889038 0.3607819676399231
0.26434949040412903 0.64232605695724487 0.36009645462036133
0.37980541586875916 0.64010012149810791 0.35944584012031555
0.52293109893798828 0.63928353786468506 0.35711902379989624
0.66817253828048706 0.64008021354675293 0.35613733530044556
0.79305773973464966 0.64168769121170044 0.35775390267372131
0.89667803049087524 0.6405453085899353 0.36137634515762329
0.96550208330154419 0.63705438375473022 0.36594554781913757
0.98413276672363281 0.64039820432662964 0.36377665400505066
0.94904309511184692 0.65661323070526123 0.37059074640274048
0.052501033991575241 0.75430095195770264 0.34559449553489685
0.05704854428768158 0.75957262516021729 0.35555875301361084
0.084621250629425049 0.7621685266494751 0.36081436276435852
0.16178962588310242 0.76397800445556641 0.36263936758041382
0.26105347275733948 0.76356905698776245 0.36226660013198853
0.37977230548858643 0.75980550050735474 0.36111834645271301
0.52526897192001343 0.75855892896652222 0.35873121023178101
0.67056030035018921 0.75778967142105103 0.35775727033615112
0.79203420877456665 0.76240080595016479 0.35901084542274475
0.895649254322052 0.76298654079437256 0.36336693167686462
0.96481746435165405 0.76081347465515137 0.37076765298843384
0.98296582698822021 0.76328539848327637 0.36630240082740784
0.94901829957962036 0.77958637475967407 0.37052240967750549
0.051176272332668304 0.85376197099685669 0.35077854990959167
0.047431677579879761 0.860973060131073 0.3555665910243988
0.078309841454029083 0.8644181489944458 0.35652810335159302
0.15902659296989441 0.86304175853729248 0.35940840840339661
0.25773835182189941 0.85884612798690796 0.35952824354171753
0.37782073020935059 0.85494214296340942 0.35859543085098267
0.52434802055358887 0.85488319396972656 0.35919931530952454
0.67142188549041748 0.85209172964096069 0.35909807682037354
0.79119628667831421 0.85723555088043213 0.35981127619743347
0.89353173971176147 0.85829490423202515 0.36173173785209656
0.96355211734771729 0.85653829574584961 0.36643311381340027
0.98265188932418823 0.85910803079605103 0.36402612924575806
0.94344490766525269 0.87825298309326172 0.37475782632827759
0.054018657654523849 0.9220232367515564 0.34559479355812073
0.039287224411964417 0.93463617563247681 0.34912505745887756
0.076161526143550873 0.93566197156906128 0.34984424710273743
0.15602035820484161 0.93528831005096436 0.35293594002723694
0.25494319200515747 0.93763822317123413 0.35571485757827759
0.3779900074005127 0.93600380420684814 0.35711795091629028
0.52931863069534302 0.93258273601531982 0.35897690057754517
0.68149679899215698 0.93161553144454956 0.35939252376556396
0.7947811484336853 0.92696762084960938 0.35935768485069275
0.89520812034606934 0.92524570226669312 0.357462078332901
0.96313333511352539 0.92516285181045532 0.35965892672538757
0.98149353265762329 0.92565226554870605 0.36383920907974243
0.93321305513381958 0.94491243362426758 0.37604585289955139
0.050906013697385788 0.95667475461959839 0.35255220532417297
0.041323687881231308 0.96541911363601685 0.35799196362495422
0.078422963619232178 0.96841436624526978 0.35514819622039795
0.15394860506057739 0.96836930513381958 0.35704326629638672
0.25381344556808472 0.97143000364303589 0.35907962918281555
0.37736302614212036 0.97063207626342773 0.36258324980735779
0.52927869558334351 0.9672553539276123 0.36410552263259888
0.68110084533691406 0.96618276834487915 0.36441722512245178
0.8000761866569519 0.96383428573608398 0.36306720972061157
0.90122836828231812 0.96475589275360107 0.3583584725856781
0.96757251024246216 0.9615662693977356 0.36189353466033936
0.98453313112258911 0.96425938606262207 0.36673632264137268
0.94183552265167236 0.97505289316177368 0.37841999530792236
0.060583017766475677 0.93872445821762085 0.38508689403533936
0.063276953995227814 0.94181710481643677 0.39554387331008911
0.10310278832912445 0.95048326253890991 0.38704946637153625
0.17676785588264465 0.94980573654174805 0.38816174864768982
0.27817130088806152 0.95230841636657715 0.38925901055335999
0.39819282293319702 0.95059537887573242 0.39408066868782043
0.55459588766098022 0.94604980945587158 0.3953491747379303
0.70032733678817749 0.95128911733627319 0.39274322986602783
0.83316665887832642 0.94823563098907471 0.39431515336036682
0.92940747737884521 0.94751346111297607 0.39104041457176208
0.98263800144195557 0.9461408257484436 0.39160096645355225
0.99114155769348145 0.94611990451812744 0.39569559693336487
0.9455111026763916 0.95211070775985718 0.40550535917282104
0.032507278025150299 0.053493797779083252 0.35650509595870972
0.031549103558063507 0.063842043280601501 0.36536785960197449
0.063635386526584625 0.063240617513656616 0.36911749839782715
0.1320669949054718 0.064101964235305786 0.36808985471725464
0.22818475961685181 0.075718946754932404 0.36142253875732422
0.34255623817443848 0.08504098653793335 0.35337483882904053
0.50473886728286743 0.062380921095609665 0.36738288402557373
0.65845209360122681 0.064971998333930969 0.36386722326278687
0.78722965717315674 0.065842613577842712 0.36574754118919373
0.87977999448776245 0.076412394642829895 0.35586822032928467
0.95058006048202515 0.068021245300769806 0.36504915356636047
0.95684880018234253 0.078748680651187897 0.35987108945846558
0.91969758272171021 0.07746017724275589 0.38423344492912292
0.050848104059696198 0.060665968805551529 0.36982038617134094
0.053423788398504257 0.079820506274700165 0.37574845552444458
0.086166143417358398 0.080966800451278687 0.38281461596488953
0.15096727013587952 0.085702560842037201 0.38453927636146545
0.25445756316184998 0.098799720406532288 0.37847775220870972
0.37948638200759888 0.098587274551391602 0.37966075539588928
0.5284494161605835 0.082735158503055573 0.38834026455879211
0.66174578666687012 0.088988706469535828 0.38068580627441406
0.78164660930633545 0.097826972603797913 0.37410563230514526
0.88541978597640991 0.092916615307331085 0.37531390786170959
0.96259188652038574 0.08538094162940979 0.3813498318195343
0.98064726591110229 0.079611882567405701 0.38639888167381287
0.94721657037734985 0.084468930959701538 0.4031309187412262
0.0466143898665905 0.10278227925300598 0.37132909893989563
0.050098210573196411 0.12128949910402298 0.38272103667259216
0.091421283781528473 0.12561625242233276 0.38907328248023987
0.15983442962169647 0.13186855614185333 0.39133629202842712
0.26911288499832153 0.13906174898147583 0.38919761776924133
0.39424636960029602 0.13834904134273529 0.39247241616249084
0.53610730171203613 0.12832850217819214 0.39633843302726746
0.67073500156402588 0.12836320698261261 0.39106056094169617
0.78685778379440308 0.13599270582199097 0.38295638561248779
0.88913810253143311 0.12650172412395477 0.38461211323738098
0.97025573253631592 0.11942020803689957 0.38732650876045227
0.98542302846908569 0.1179971769452095 0.39031991362571716
0.94759821891784668 0.12756799161434174 0.40359947085380554
0.049143113195896149 0.1723652184009552 0.3747859001159668
0.04945017397403717 0.19239488244056702 0.38338577747344971
0.091995924711227417 0.1946965754032135 0.38726300001144409
0.15864996612071991 0.19847196340560913 0.39046332240104675
0.26576447486877441 0.20459124445915222 0.39108380675315857
0.3870411217212677 0.20634974539279938 0.39412561058998108
0.53249251842498779 0.19667644798755646 0.39488095045089722
0.67903381586074829 0.18773680925369263 0.39255967736244202
0.79813206195831299 0.18765261769294739 0.38912031054496765
0.89413964748382568 0.18775007128715515 0.38782387971878052
0.96596550941467285 0.18591341376304626 0.38986474275588989
0.98549437522888184 0.18395596742630005 0.39237785339355469
0.94819098711013794 0.19333459436893463 0.40511235594749451
0.048859987407922745 0.25690737366676331 0.3718419075012207
0.038358666002750397 0.27842235565185547 0.38418939709663391
0.091009654104709625 0.28146427869796753 0.38787052035331726
0.16044139862060547 0.28226438164710999 0.39115408062934875
0.2638801634311676 0.28359699249267578 0.39290794730186462
0.37870210409164429 0.28201031684875488 0.39451810717582703
