assets/lut/others sunny rich.cube
# Created by: G'MIC (https://gmic.eu)
TITLE "sunny_rich"
# LUT size
LUT_3D_SIZE 5
# Data domain
DOMAIN_MIN 0.0 0.0 0.0
DOMAIN_MAX 1.0 1.0 1.0
# LUT data points
0.02888997457921505 0.024971920996904373 0.033066872507333755
0.23150087893009186 0.023161765187978745 0.03161284327507019
0.46583342552185059 0.023161765187978745 0.030536681413650513
0.72535538673400879 0.023161765187978745 0.027848904952406883
0.96030932664871216 0.023357974365353584 0.025264006108045578
0.028391534462571144 0.19944813847541809 0.031412534415721893
0.24534760415554047 0.19415572285652161 0.032747950404882431
0.50635349750518799 0.19686530530452728 0.02975444495677948
0.75013917684555054 0.19938495755195618 0.026816753670573235
0.96275752782821655 0.20109236240386963 0.028418447822332382
0.033676072955131531 0.38465404510498047 0.034841470420360565
0.26562392711639404 0.37868502736091614 0.030046246945858002
0.54580622911453247 0.3800162672996521 0.025177570059895515
0.77438104152679443 0.37857604026794434 0.023741075769066811
0.96394068002700806 0.38229897618293762 0.023161765187978745
0.033307049423456192 0.65635156631469727 0.031787797808647156
0.2959231436252594 0.65898317098617554 0.024740496650338173
0.57104235887527466 0.6561887264251709 0.028915809467434883
0.78084486722946167 0.66324543952941895 0.026833329349756241
0.96598213911056519 0.67380094528198242 0.023161765187978745
0.035115081816911697 0.9480774998664856 0.027743574231863022
0.31307771801948547 0.94963234663009644 0.023161765187978745
0.61117386817932129 0.94571077823638916 0.02708333358168602
0.78784400224685669 0.95000481605529785 0.026080053299665451
0.96696245670318604 0.95177853107452393 0.027485506609082222
0.027879677712917328 0.023203233256936073 0.26400941610336304
0.24788284301757812 0.023161765187978745 0.25577369332313538
0.5013766884803772 0.023161765187978745 0.23919160664081573
0.75004792213439941 0.024278439581394196 0.22307561337947845
0.96416395902633667 0.025320809334516525 0.20675413310527802
0.032569617033004761 0.19544801115989685 0.25450050830841064
0.27000841498374939 0.19687500596046448 0.23883432149887085
0.5326036810874939 0.19464366137981415 0.22371773421764374
0.76957595348358154 0.19918301701545715 0.21026596426963806
0.96651369333267212 0.20317086577415466 0.20103606581687927
0.035028316080570221 0.37731486558914185 0.23863740265369415
0.29088515043258667 0.38361829519271851 0.22461098432540894
0.57105988264083862 0.38075980544090271 0.21003405749797821
0.78248792886734009 0.38867837190628052 0.19723419845104218
0.96491628885269165 0.41010910272598267 0.19292953610420227
0.034805253148078918 0.65925735235214233 0.2204183042049408
0.3154304027557373 0.65787327289581299 0.20294418931007385
0.60227614641189575 0.66466313600540161 0.19698040187358856
0.79075676202774048 0.67820918560028076 0.20028588175773621
0.96740198135375977 0.69436824321746826 0.19080881774425507
0.034960594028234482 0.95096200704574585 0.2118193656206131
0.32563811540603638 0.94963234663009644 0.19228941202163696
0.61297428607940674 0.94957095384597778 0.19713678956031799
0.79082512855529785 0.95175540447235107 0.19685789942741394
0.96704459190368652 0.95707273483276367 0.19571313261985779
0.029986511915922165 0.023161765187978745 0.48078510165214539
0.26598924398422241 0.023161765187978745 0.45122706890106201
0.54061758518218994 0.023161765187978745 0.43023240566253662
0.76946687698364258 0.023161765187978745 0.40449333190917969
0.96289026737213135 0.022505607455968857 0.39259204268455505
0.034635193645954132 0.19763918220996857 0.4570249617099762
0.2908596396446228 0.20079657435417175 0.43306154012680054
0.57116073369979858 0.20087173581123352 0.40684133768081665
0.77912896871566772 0.20140106976032257 0.38516545295715332
0.966339111328125 0.21549937129020691 0.38322120904922485
0.036801014095544815 0.38960826396942139 0.42752435803413391
0.31557005643844604 0.38797247409820557 0.41126027703285217
0.61655509471893311 0.38091534376144409 0.37877088785171509
0.7927972674369812 0.41230505704879761 0.37612584233283997
0.9658820629119873 0.44735941290855408 0.3803059458732605
0.039937455207109451 0.65905416011810303 0.40661925077438354
0.32442119717597961 0.65941470861434937 0.39626264572143555
0.61164397001266479 0.67192023992538452 0.37622454762458801
0.79279381036758423 0.69796502590179443 0.38661208748817444
0.96437638998031616 0.7188839316368103 0.37631985545158386
0.03447386622428894 0.94963234663009644 0.37675186991691589
0.3231358528137207 0.94812458753585815 0.38167333602905273
0.6035761833190918 0.95574438571929932 0.38640549778938293
0.78756332397460938 0.95735293626785278 0.38637822866439819
0.96546679735183716 0.95828455686569214 0.38365662097930908
0.035989619791507721 0.024233171716332436 0.70292609930038452
0.28896600008010864 0.023161765187978745 0.68580585718154907
0.57412040233612061 0.023161765187978745 0.6754721999168396
0.79148799180984497 0.023260811343789101 0.66142237186431885
0.96136146783828735 0.025260176509618759 0.65621143579483032
0.036862794309854507 0.20035959780216217 0.68492966890335083
0.31062346696853638 0.19385966658592224 0.67460304498672485
0.59953832626342773 0.19770729541778564 0.66421061754226685
0.79402381181716919 0.21521325409412384 0.65724670886993408
0.96608966588973999 0.23668505251407623 0.65940046310424805
0.03628501296043396 0.37684836983680725 0.66652345657348633
0.32958373427391052 0.38425573706626892 0.66067397594451904
0.61141383647918701 0.41228342056274414 0.65351402759552002
0.79937219619750977 0.4510028064250946 0.65034115314483643
0.96899509429931641 0.48452013731002808 0.6590125560760498
0.03644092008471489 0.65859407186508179 0.66010093688964844
0.32566437125205994 0.66929477453231812 0.66397750377655029
0.60319310426712036 0.69573915004730225 0.66129428148269653
0.79346877336502075 0.71679699420928955 0.65514355897903442
0.96899509429931641 0.73489069938659668 0.66131681203842163
0.039855118840932846 0.95064479112625122 0.66319006681442261
0.3283989429473877 0.95100295543670654 0.66744083166122437
0.60741573572158813 0.95875716209411621 0.66252785921096802
0.78967088460922241 0.96424669027328491 0.6561887264251709
0.96620184183120728 0.96305012702941895 0.66063606739044189
0.036628454923629761 0.024417668581008911 0.9512743353843689
0.30603253841400146 0.023161765187978745 0.94989460706710815
0.60349839925765991 0.023433834314346313 0.94917851686477661
0.79404258728027344 0.025341616943478584 0.94935274124145508
0.96076512336730957 0.0289028100669384 0.94571077823638916
0.037941742688417435 0.20092128217220306 0.95103389024734497
0.32424113154411316 0.19601830840110779 0.95065933465957642
0.60034936666488647 0.21167398989200592 0.94982516765594482
0.79288387298583984 0.23391669988632202 0.9493105411529541
0.96843576431274414 0.25225368142127991 0.94744724035263062
0.038637768477201462 0.38541474938392639 0.94790422916412354
0.3319765031337738 0.40602895617485046 0.94962179660797119
0.60856461524963379 0.4428589940071106 0.9471251368522644
0.79490804672241211 0.48300045728683472 0.94840884208679199
0.96899509429931641 0.51350003480911255 0.95000779628753662
0.034836187958717346 0.67784512042999268 0.95247793197631836
0.32207369804382324 0.69536936283111572 0.94958454370498657
0.60490792989730835 0.71524035930633545 0.95161974430084229
0.7943844199180603 0.73687553405761719 0.95356458425521851
0.96465027332305908 0.76004266738891602 0.94674801826477051
0.038610734045505524 0.95214974880218506 0.94780451059341431
0.32420343160629272 0.95642435550689697 0.94869071245193481
0.6089855432510376 0.96103018522262573 0.94789141416549683
0.78840821981430054 0.95871526002883911 0.94593775272369385
0.97178620100021362 0.96552163362503052 0.94715458154678345
