assets/lut/others faded alt.cube
# Created by: G'MIC (https://gmic.eu)
TITLE "faded_alt"
# LUT size
LUT_3D_SIZE 13
# Data domain
DOMAIN_MIN 0.0 0.0 0.0
DOMAIN_MAX 1.0 1.0 1.0
# LUT data points
0.034325648099184036 0.036369577050209045 0.027907248586416245
0.06801874190568924 0.049533486366271973 0.045033160597085953
0.099426373839378357 0.060932144522666931 0.059656180441379547
0.12966755032539368 0.071132510900497437 0.072886630892753601
0.16036126017570496 0.081668436527252197 0.086037702858448029
0.19129417836666107 0.091727942228317261 0.10002045333385468
0.22228406369686127 0.10248883068561554 0.11423993855714798
0.25370687246322632 0.11349319666624069 0.12887151539325714
0.28521892428398132 0.12516023218631744 0.14351703226566315
0.3166082501411438 0.13782943785190582 0.15828521549701691
0.34791457653045654 0.15053723752498627 0.173121377825737
0.37839284539222717 0.16277836263179779 0.18789763748645782
0.4065990149974823 0.17279411852359772 0.20177076756954193
0.09617537260055542 0.11240164190530777 0.086185827851295471
0.12915973365306854 0.12512272596359253 0.1029389351606369
0.16050614416599274 0.13639673590660095 0.11735492944717407
0.19098760187625885 0.14680486917495728 0.1305634081363678
0.22146420180797577 0.15692855417728424 0.14383105933666229
0.25233390927314758 0.16708128154277802 0.15759833157062531
0.28368201851844788 0.17742092907428741 0.17189852893352509
0.31526327133178711 0.18814800679683685 0.18645781278610229
0.34704998135566711 0.19976127147674561 0.20125474035739899
0.37870010733604431 0.21241876482963562 0.21605990827083588
0.41008999943733215 0.22553800046443939 0.23098962008953094
0.44055169820785522 0.23836356401443481 0.24579913914203644
0.46883085370063782 0.24921548366546631 0.25969129800796509
0.15664757788181305 0.18689773976802826 0.14310429990291595
0.18890668451786041 0.19901168346405029 0.15931034088134766
0.22017504274845123 0.21013885736465454 0.17354433238506317
0.25068271160125732 0.22089710831642151 0.18682046234607697
0.28127849102020264 0.23126551508903503 0.20007000863552094
0.31227248907089233 0.24127478897571564 0.21402248740196228
0.34357509016990662 0.2511882483959198 0.22835434973239899
0.37519979476928711 0.26182758808135986 0.24300688505172729
0.40699285268783569 0.27335396409034729 0.25764626264572144
0.43858698010444641 0.28596490621566772 0.27239474654197693
0.47021660208702087 0.29918092489242554 0.28721556067466736
0.50085705518722534 0.31183317303657532 0.3019060492515564
0.52931243181228638 0.32271495461463928 0.31565570831298828
0.21645554900169373 0.26043510437011719 0.19936731457710266
0.24813388288021088 0.27194321155548096 0.21486255526542664
0.27901738882064819 0.28286191821098328 0.22894181311130524
0.30948612093925476 0.29360273480415344 0.24229620397090912
0.34004855155944824 0.30425867438316345 0.25564071536064148
0.37113726139068604 0.31420791149139404 0.26974031329154968
0.40254116058349609 0.32419431209564209 0.28429025411605835
0.43398323655128479 0.33477309346199036 0.29869845509529114
0.46572223305702209 0.346364825963974 0.31310072541236877
0.49722573161125183 0.35879713296890259 0.32738706469535828
0.52871102094650269 0.37163642048835754 0.34196311235427856
0.55996423959732056 0.38415935635566711 0.35650071501731873
0.58857172727584839 0.39482524991035461 0.3702748715877533
0.27594390511512756 0.33364647626876831 0.25500968098640442
0.30708560347557068 0.34442731738090515 0.27028632164001465
0.33759725093841553 0.3548094630241394 0.28434985876083374
0.36787128448486328 0.36525538563728333 0.29775348305702209
0.39845976233482361 0.37580165266990662 0.31138601899147034
0.42976900935173035 0.38607496023178101 0.32553070783615112
0.46134135127067566 0.39638802409172058 0.33996120095252991
0.49274525046348572 0.40732750296592712 0.35404136776924133
0.52389407157897949 0.41909176111221313 0.36785236001014709
0.55551987886428833 0.43118882179260254 0.38178065419197083
0.58716243505477905 0.44340354204177856 0.39594128727912903
0.61838042736053467 0.45516315102577209 0.40969830751419067
0.64700996875762939 0.46562832593917847 0.42370149493217468
0.33587419986724854 0.40736371278762817 0.31031310558319092
0.36639678478240967 0.41734018921852112 0.32549834251403809
0.39625033736228943 0.42686375975608826 0.33975818753242493
0.42627415060997009 0.43650993704795837 0.3536631166934967
0.45709577202796936 0.44663900136947632 0.36754646897315979
0.48867464065551758 0.45743939280509949 0.38167354464530945
0.52070659399032593 0.46878299117088318 0.39572036266326904
0.55230247974395752 0.48066186904907227 0.40933191776275635
0.58356541395187378 0.49264246225357056 0.42264533042907715
0.614837646484375 0.50415283441543579 0.43580764532089233
0.64650553464889526 0.51517379283905029 0.44928470253944397
0.67721563577651978 0.52572047710418701 0.4628487229347229
0.70500653982162476 0.53556495904922485 0.476419597864151
0.39633196592330933 0.48223990201950073 0.36545082926750183
0.42587029933929443 0.49131965637207031 0.38089281320571899
0.45507025718688965 0.49995812773704529 0.39548259973526001
0.48478776216506958 0.50882899761199951 0.40970811247825623
0.51570075750350952 0.51873326301574707 0.42388197779655457
0.54812026023864746 0.53039789199829102 0.43788567185401917
0.58146208524703979 0.54330003261566162 0.45176774263381958
0.61429697275161743 0.55624538660049438 0.46508491039276123
0.64592838287353516 0.56812530755996704 0.47793447971343994
0.67693227529525757 0.57869446277618408 0.49056446552276611
0.70780932903289795 0.58796370029449463 0.50338566303253174
0.7371785044670105 0.59698450565338135 0.51637154817581177
0.76270174980163574 0.60567879676818848 0.52952903509140015
0.4568169116973877 0.55839961767196655 0.42101186513900757
0.4860365092754364 0.56719738245010376 0.43666812777519226
0.51471340656280518 0.57539880275726318 0.45154967904090881
0.54409706592559814 0.58338642120361328 0.46601226925849915
0.57518267631530762 0.59318548440933228 0.48028719425201416
0.60908263921737671 0.60595762729644775 0.49430117011070251
0.64443260431289673 0.6209571361541748 0.50804597139358521
0.6789667010307312 0.63522225618362427 0.52125227451324463
0.71145981550216675 0.6467013955116272 0.53420424461364746
0.74208003282546997 0.65531402826309204 0.54673153162002563
0.77109050750732422 0.6622578501701355 0.55903333425521851
0.79742562770843506 0.66895681619644165 0.57121628522872925
0.82010054588317871 0.67656457424163818 0.58360177278518677
0.51761424541473389 0.63567137718200684 0.4775235652923584
0.54680091142654419 0.64508765935897827 0.49309363961219788
0.57563847303390503 0.65382540225982666 0.5079835057258606
0.60526412725448608 0.66205263137817383 0.52242851257324219
0.63681662082672119 0.67166590690612793 0.53666549921035767
0.67198115587234497 0.68561416864395142 0.55066430568695068
0.70951282978057861 0.70253342390060425 0.56432539224624634
0.7457154393196106 0.71715587377548218 0.57790863513946533
0.77844482660293579 0.72730827331542969 0.59123307466506958
0.80764085054397583 0.73330873250961304 0.60433542728424072
0.83343899250030518 0.73733937740325928 0.61655145883560181
0.85508233308792114 0.74214291572570801 0.62808763980865479
0.87216031551361084 0.74830710887908936 0.63975363969802856
0.57878690958023071 0.7142673134803772 0.53435581922531128
0.60850632190704346 0.7251359224319458 0.54985666275024414
0.63797885179519653 0.73478955030441284 0.56451261043548584
0.6682853102684021 0.74430245161056519 0.57865095138549805
0.7010650634765625 0.75531792640686035 0.59273427724838257
0.73731952905654907 0.76990556716918945 0.60653191804885864
0.77559465169906616 0.78626871109008789 0.62043571472167969
0.8117946982383728 0.7996668815612793 0.63442456722259521
0.84335124492645264 0.80748641490936279 0.64845371246337891
0.86924558877944946 0.80987632274627686 0.66249281167984009
0.88950514793395996 0.81072628498077393 0.67520630359649658
0.90560531616210938 0.81390261650085449 0.68667680025100708
0.91741347312927246 0.81878125667572021 0.6976439356803894
0.63977611064910889 0.79233062267303467 0.59114450216293335
0.67018234729766846 0.80423229932785034 0.60667449235916138
0.70036453008651733 0.81517660617828369 0.62106215953826904
0.73154044151306152 0.82602095603942871 0.63479894399642944
0.76507341861724854 0.83810633420944214 0.64845514297485352
0.80155438184738159 0.85237067937850952 0.66216105222702026
0.83929526805877686 0.86698198318481445 0.67612206935882568
0.87424337863922119 0.87804675102233887 0.69044458866119385
0.9022107720375061 0.88247531652450562 0.70502275228500366
0.922343909740448 0.88079774379730225 0.71952611207962036
0.93618476390838623 0.87777888774871826 0.73302382230758667
0.94578009843826294 0.87872147560119629 0.74481683969497681
0.95186036825180054 0.88108038902282715 0.75545704364776611
0.69943886995315552 0.86585468053817749 0.64736437797546387
0.73027551174163818 0.87892812490463257 0.66295105218887329
0.76078629493713379 0.89027833938598633 0.67731207609176636
0.79189324378967285 0.90101116895675659 0.69067096710205078
0.82498890161514282 0.91265136003494263 0.70390081405639648
0.8605383038520813 0.92523479461669922 0.71744859218597412
0.89684224128723145 0.93730419874191284 0.73135453462600708
0.92930281162261963 0.94566398859024048 0.74573791027069092
0.95262926816940308 0.94648033380508423 0.76037007570266724
0.96487396955490112 0.94003200531005859 0.77478253841400146
0.97069323062896729 0.93289721012115479 0.78847140073776245
0.97343045473098755 0.92927062511444092 0.80044454336166382
0.97491717338562012 0.92762219905853271 0.81147074699401855
0.75582677125930786 0.93119555711746216 0.702553391456604
0.78710341453552246 0.94439506530761719 0.71836793422698975
0.81735247373580933 0.955058753490448 0.73283284902572632
0.84768682718276978 0.96464765071868896 0.74612176418304443
0.87883305549621582 0.97381395101547241 0.75903177261352539
0.91170400381088257 0.98263484239578247 0.7722591757774353
0.94512778520584106 0.98963499069213867 0.78622668981552124
0.97409653663635254 0.99335289001464844 0.80038464069366455
0.99088507890701294 0.99215686321258545 0.81474995613098145
0.99450677633285522 0.98302584886550903 0.82890880107879639
0.9943472146987915 0.97131747007369995 0.8422272801399231
0.99252539873123169 0.96296864748001099 0.8543543815612793
0.9905388355255127 0.95673757791519165 0.86552304029464722
0.049972802400588989 0.057555705308914185 0.05494467169046402
0.082839518785476685 0.070177800953388214 0.071543164551258087
0.11438155919313431 0.081100001931190491 0.085924737155437469
0.14505951106548309 0.090928919613361359 0.09905407577753067
0.1757950484752655 0.10061907023191452 0.11187385022640228
0.20647163689136505 0.11047670245170593 0.12569285929203033
0.2373388260602951 0.12070942670106888 0.13975152373313904
0.26830053329467773 0.1315159946680069 0.15394321084022522
0.29936003684997559 0.14311651885509491 0.16827225685119629
0.33062824606895447 0.15520648658275604 0.18274769186973572
0.36197188496589661 0.16773180663585663 0.19732552766799927
0.3926963210105896 0.1801648736000061 0.21207591891288757
0.4216768741607666 0.19124945998191833 0.22616647183895111
0.11227948218584061 0.13318286836147308 0.1132376417517662
0.14429982006549835 0.14509591460227966 0.12909024953842163
0.17557592689990997 0.1557157039642334 0.14316131174564362
0.2061501145362854 0.16569371521472931 0.1561284065246582
0.23657262325286865 0.17546160519123077 0.16939063370227814
0.26727879047393799 0.18516494333744049 0.18300525844097137
0.29817730188369751 0.19522401690483093 0.19713827967643738
0.32924866676330566 0.20585572719573975 0.21152397990226746
0.36046534776687622 0.2173159271478653 0.22596856951713562
0.39185956120491028 0.22970660030841827 0.2405010461807251
0.42331951856613159 0.24266014993190765 0.25509518384933472
0.45438560843467712 0.25557121634483337 0.2699095606803894
0.48360598087310791 0.26712670922279358 0.28406035900115967
0.17310488224029541 0.20700414478778839 0.16967985033988953
0.20467931032180786 0.21838024258613586 0.18514014780521393
0.2355060875415802 0.22896133363246918 0.19897907972335815
0.26592803001403809 0.23906509578227997 0.2120242565870285
0.2965012788772583 0.2491186112165451 0.22542591392993927
0.3271210789680481 0.25893235206604004 0.23919408023357391
0.35798358917236328 0.26884099841117859 0.25357317924499512
0.38892790675163269 0.27932801842689514 0.26799061894416809
0.41993817687034607 0.29083135724067688 0.28233534097671509
0.45134997367858887 0.30325263738632202 0.29680690169334412
0.48304301500320435 0.31634619832038879 0.31135135889053345
0.51440203189849854 0.3293398916721344 0.32601726055145264
0.54403823614120483 0.3408738374710083 0.34016051888465881
0.23299899697303772 0.28012803196907043 0.2255631685256958
0.26408925652503967 0.29090416431427002 0.24036899209022522
0.29465672373771667 0.30121511220932007 0.25409755110740662
0.32500681281089783 0.31143811345100403 0.2672823965549469
0.3554694652557373 0.3217960000038147 0.28071114420890808
0.38628983497619629 0.33186781406402588 0.29496759176254272
0.41719743609428406 0.34180226922035217 0.30942913889884949
0.44780021905899048 0.35240408778190613 0.32369217276573181
0.47833478450775146 0.36376568675041199 0.33776968717575073
0.50939738750457764 0.37611335515975952 0.35176965594291687
0.54162311553955078 0.38891232013702393 0.36611267924308777
0.57330614328384399 0.40171760320663452 0.38066208362579346
0.60316956043243408 0.41328170895576477 0.39484581351280212
0.29271000623703003 0.35297653079032898 0.28124436736106873
0.32328709959983826 0.36309877038002014 0.29558628797531128
0.35332924127578735 0.37284442782402039 0.3092246949672699
0.38356155157089233 0.38307532668113708 0.32256373763084412
0.41393187642097473 0.39356556534767151 0.33629506826400757
0.44511234760284424 0.40398290753364563 0.35066312551498413
0.47621661424636841 0.41453427076339722 0.36521583795547485
0.50655561685562134 0.42554324865341187 0.37910157442092896
0.53644400835037231 0.43698933720588684 0.39251315593719482
0.56705683469772339 0.4488271176815033 0.40596893429756165
0.59931975603103638 0.46101409196853638 0.41969713568687439
0.6316530704498291 0.47313550114631653 0.4338192343711853
0.66175109148025513 0.48458829522132874 0.4482971727848053
0.35251584649085999 0.42633259296417236 0.33669105172157288
0.3822711706161499 0.43560770153999329 0.35109734535217285
0.41168966889381409 0.44490808248519897 0.36462295055389404
0.44165423512458801 0.45459538698196411 0.37810894846916199
0.47245550155639648 0.46512314677238464 0.39216244220733643
0.5040091872215271 0.47632792592048645 0.40649038553237915
0.53566056489944458 0.48796477913856506 0.42076459527015686
0.56615948677062988 0.49975162744522095 0.43432343006134033
0.59551477432250977 0.51120281219482422 0.44707289338111877
0.62558639049530029 0.52255171537399292 0.45963993668556213
0.65794402360916138 0.53338682651519775 0.47294458746910095
0.69076502323150635 0.54446232318878174 0.48690271377563477
0.72062474489212036 0.55527633428573608 0.50094175338745117
0.412454754114151 0.50040662288665771 0.39215242862701416
0.44130471348762512 0.50914430618286133 0.40643548965454102
0.47003054618835449 0.51790070533752441 0.42026355862617493
0.49961665272712708 0.52741068601608276 0.43396279215812683
0.53073334693908691 0.53823328018188477 0.44807064533233643
0.56334769725799561 0.55063021183013916 0.46237283945083618
0.59640192985534668 0.56394469738006592 0.47644543647766113
0.62793397903442383 0.57655864953994751 0.48963993787765503
0.65779983997344971 0.58795720338821411 0.50190699100494385
0.68765097856521606 0.59776574373245239 0.51414567232131958
0.71969509124755859 0.60726594924926758 0.52685606479644775
0.75157028436660767 0.61646097898483276 0.54015874862670898
0.77971500158309937 0.62647873163223267 0.5536695122718811
0.47234252095222473 0.57526957988739014 0.4478309154510498
0.50075572729110718 0.58433252573013306 0.46240916848182678
0.52904045581817627 0.59333252906799316 0.47625821828842163
0.5583685040473938 0.60267895460128784 0.49003511667251587
0.58995658159255981 0.61418741941452026 0.50403332710266113
0.62404674291610718 0.62817704677581787 0.51818615198135376
0.65923005342483521 0.64328879117965698 0.5321735143661499
0.69317173957824707 0.65715384483337402 0.54546409845352173
0.72455346584320068 0.6680675745010376 0.55816859006881714
0.75464928150177002 0.67626404762268066 0.57041090726852417
0.78496116399765015 0.68287539482116699 0.58253008127212524
0.81375062465667725 0.68989413976669312 0.5946890115737915
0.83755332231521606 0.69877487421035767 0.6076245903968811
0.53279972076416016 0.65230673551559448 0.50422996282577515
0.56121170520782471 0.66216707229614258 0.51881074905395508
0.5894661545753479 0.67183899879455566 0.53255802392959595
0.61903899908065796 0.68209266662597656 0.54620945453643799
0.65131682157516479 0.69421625137329102 0.56002211570739746
0.68703359365463257 0.70962584018707275 0.57407152652740479
0.72444438934326172 0.72636628150939941 0.58815252780914307
0.7605130672454834 0.74074834585189819 0.60192346572875977
0.79315745830535889 0.75054705142974854 0.61545026302337646
0.82267385721206665 0.75637167692184448 0.62834137678146362
0.84947043657302856 0.76046121120452881 0.64052176475524902
0.87323307991027832 0.76548224687576294 0.65184247493743896
0.89164787530899048 0.77315992116928101 0.66355305910110474
0.59400278329849243 0.73150938749313354 0.56117099523544312
0.62283289432525635 0.74244552850723267 0.57566529512405396
0.6516907811164856 0.75322502851486206 0.58934277296066284
0.68187659978866577 0.76430553197860718 0.60259819030761719
0.71518808603286743 0.77757489681243896 0.61608922481536865
0.75175470113754272 0.79378205537796021 0.62991869449615479
0.79008638858795166 0.81061697006225586 0.64412254095077515
0.82657265663146973 0.82413440942764282 0.65852171182632446
0.85848665237426758 0.83202040195465088 0.672821044921875
0.88516712188720703 0.83489328622817993 0.68700754642486572
0.90703576803207397 0.83656316995620728 0.70004463195800781
0.92408502101898193 0.84190982580184937 0.71131050586700439
0.93654036521911621 0.84969097375869751 0.7225881814956665
0.65561413764953613 0.81123107671737671 0.61802375316619873
0.68520569801330566 0.82303065061569214 0.63276565074920654
0.71459400653839111 0.83421194553375244 0.6462211012840271
0.74533951282501221 0.8457876443862915 0.65916585922241211
0.77879762649536133 0.85893481969833374 0.67222839593887329
0.81526124477386475 0.87458252906799316 0.68583971261978149
0.85278177261352539 0.88961565494537354 0.7000507116317749
0.88745194673538208 0.90069949626922607 0.71469426155090332
0.91551852226257324 0.90549230575561523 0.72956317663192749
0.93658024072647095 0.90528863668441772 0.74449300765991211
0.95136380195617676 0.90440136194229126 0.75858175754547119
0.96177119016647339 0.90946918725967407 0.77048373222351074
0.96866780519485474 0.91660034656524658 0.78166073560714722
0.7160603404045105 0.88693231344223022 0.67453193664550781
0.74629664421081543 0.89911824464797974 0.68951761722564697
0.77612161636352539 0.90979599952697754 0.70297294855117798
0.80660796165466309 0.91992902755737305 0.715626060962677
0.83875179290771484 0.93116492033004761 0.72827047109603882
0.87329328060150146 0.94381821155548096 0.74153923988342285
0.90815681219100952 0.95548230409622192 0.75571215152740479
0.93884074687957764 0.96286922693252563 0.77032744884490967
0.96091192960739136 0.96336615085601807 0.78529274463653564
0.97362780570983887 0.95920103788375854 0.80008399486541748
0.98002320528030396 0.95521557331085205 0.81410390138626099
0.98388761281967163 0.95647042989730835 0.82663989067077637
0.98631817102432251 0.95946037769317627 0.83822101354598999
0.77359002828598022 0.95275253057479858 0.72988557815551758
0.80417674779891968 0.96483415365219116 0.74533021450042725
0.8337332010269165 0.97392392158508301 0.75908035039901733
0.8629310131072998 0.98080438375473022 0.77161282300949097
0.89250469207763672 0.98705923557281494 0.78403168916702271
0.92335158586502075 0.99267160892486572 0.7970651388168335
0.95400291681289673 0.996498703956604 0.81122326850891113
0.97904711961746216 0.99809294939041138 0.82561683654785156
0.99267673492431641 0.99715727567672729 0.84024232625961304
0.99596571922302246 0.99192649126052856 0.85453963279724121
0.99639713764190674 0.9843064546585083 0.86816203594207764
0.99537700414657593 0.98026710748672485 0.88053643703460693
0.99408036470413208 0.9779694676399231 0.89206159114837646
0.065511204302310944 0.077967040240764618 0.079728372395038605
0.096860162913799286 0.089378148317337036 0.09589240700006485
0.12875516712665558 0.099901027977466583 0.11006215214729309
0.15989470481872559 0.1093510314822197 0.1233321875333786
0.19062346220016479 0.11882121115922928 0.1366657167673111
0.22118104994297028 0.12831170856952667 0.15031281113624573
0.2516629695892334 0.13827463984489441 0.1644282341003418
0.28217563033103943 0.14892800152301788 0.17865195870399475
0.31266710162162781 0.16023038327693939 0.19237132370471954
0.34350568056106567 0.17175973951816559 0.2066245973110199
0.37445184588432312 0.18361735343933105 0.22066172957420349
0.40528714656829834 0.19574670493602753 0.23509106040000916
0.43494430184364319 0.20710287988185883 0.24943442642688751
0.12798146903514862 0.15275602042675018 0.13759796321392059
0.15898764133453369 0.1637980192899704 0.15334452688694
0.19018539786338806 0.17385978996753693 0.16727806627750397
0.22096167504787445 0.18345293402671814 0.18047125637531281
0.25152000784873962 0.1928606778383255 0.19375477731227875
0.28190001845359802 0.20249995589256287 0.20756089687347412
0.31233742833137512 0.21244709193706512 0.22175449132919312
0.34274700284004211 0.22305016219615936 0.23586729168891907
0.37327113747596741 0.23431944847106934 0.25003346800804138
0.40411385893821716 0.24619399011135101 0.26415613293647766
0.43541783094406128 0.25867670774459839 0.27846422791481018
0.46673575043678284 0.27134203910827637 0.29303804039955139
0.49674588441848755 0.28321978449821472 0.30744794011116028
0.18893870711326599 0.22607184946537018 0.19414110481739044
0.21982826292514801 0.23666441440582275 0.20917479693889618
0.25056535005569458 0.24668554961681366 0.22291156649589539
0.28105330467224121 0.25645661354064941 0.236239954829216
0.311524897813797 0.26613935828208923 0.24979232251644135
0.34192731976509094 0.27589726448059082 0.2638433575630188
0.37230297923088074 0.28597718477249146 0.27818232774734497
0.40250065922737122 0.29646214842796326 0.29245936870574951
0.43277311325073242 0.30778095126152039 0.30653691291809082
0.46357545256614685 0.3198125958442688 0.32055249810218811
0.49512931704521179 0.33255922794342041 0.33493390679359436
0.52684116363525391 0.34543582797050476 0.34952419996261597
0.55716496706008911 0.35744690895080566 0.36387556791305542
0.24907961487770081 0.29891803860664368 0.2499835342168808
0.2796383798122406 0.30897673964500427 0.26441130042076111
0.31004911661148071 0.31866809725761414 0.2779558002948761
0.34046590328216553 0.32856371998786926 0.2913106381893158
0.37096846103668213 0.3385976254940033 0.30520784854888916
0.40160396695137024 0.34889766573905945 0.3197062611579895
0.4319891631603241 0.35913991928100586 0.33434018492698669
0.46190282702445984 0.36977294087409973 0.34849280118942261
0.49148720502853394 0.3809371292591095 0.36220154166221619
0.52198654413223267 0.39280697703361511 0.37587940692901611
0.55330556631088257 0.4053245484828949 0.3900047242641449
0.58582466840744019 0.41811433434486389 0.40445786714553833
0.61667096614837646 0.4303012490272522 0.41886228322982788
0.30891236662864685 0.37175077199935913 0.30577218532562256
0.33899524807929993 0.38114285469055176 0.31971687078475952
0.36900442838668823 0.39040848612785339 0.33296662569046021
0.39918944239616394 0.40029290318489075 0.34645044803619385
0.42983222007751465 0.41075944900512695 0.3605952262878418
0.46099206805229187 0.42168796062469482 0.37544885277748108
0.49192455410957336 0.43247464299201965 0.3902837336063385
0.52141034603118896 0.44342303276062012 0.40427440404891968
0.54989743232727051 0.45443716645240784 0.41724064946174622
