assets/lut/others purple.cube
# Created by: G'MIC (https://gmic.eu)
TITLE "purple"
# LUT size
LUT_3D_SIZE 13
# Data domain
DOMAIN_MIN 0.0 0.0 0.0
DOMAIN_MAX 1.0 1.0 1.0
# LUT data points
0.12283093482255936 0.12271367758512497 0.12482739984989166
0.13963276147842407 0.12171952426433563 0.12458041310310364
0.17883649468421936 0.11858420073986053 0.12394506484270096
0.22707384824752808 0.11721710860729218 0.12567977607250214
0.28403562307357788 0.1176941841840744 0.13034294545650482
0.34276410937309265 0.11227526515722275 0.13240176439285278
0.41178703308105469 0.10472892224788666 0.13324210047721863
0.50011980533599854 0.083441369235515594 0.13345387578010559
0.59744435548782349 0.041997797787189484 0.13304834067821503
0.71349221467971802 0.01447734422981739 0.12738910317420959
0.81851524114608765 0.0035302105825394392 0.12070915102958679
0.91774845123291016 0.0016997542697936296 0.11202342063188553
0.98711854219436646 0.00069403555244207382 0.10799875855445862
0.12177710235118866 0.14188282191753387 0.12409500777721405
0.14184370636940002 0.14088502526283264 0.12361995875835419
0.18240810930728912 0.13840913772583008 0.12396173179149628
0.2305433452129364 0.13948655128479004 0.12626443803310394
0.28189584612846375 0.13637083768844604 0.12861277163028717
0.34547591209411621 0.13352665305137634 0.13232636451721191
0.42065015435218811 0.12876573204994202 0.13392391800880432
0.51174598932266235 0.1154109314084053 0.13336232304573059
0.60225105285644531 0.09006151556968689 0.13111412525177002
0.71370106935501099 0.057891305536031723 0.12799131870269775
0.82456457614898682 0.037743512541055679 0.12252671271562576
0.91688811779022217 0.042041163891553879 0.11308988928794861
0.98550087213516235 0.03082784079015255 0.10796786844730377
0.11749791353940964 0.178244948387146 0.12712891399860382
0.13876824080944061 0.18045276403427124 0.12778744101524353
0.17930646240711212 0.17940890789031982 0.12628635764122009
0.23423302173614502 0.18215744197368622 0.1285032331943512
0.28734064102172852 0.18256503343582153 0.1314961165189743
0.34621572494506836 0.17798900604248047 0.13337737321853638
0.42318609356880188 0.17548860609531403 0.1338813304901123
0.51258677244186401 0.17192038893699646 0.13299156725406647
0.60448563098907471 0.16266883909702301 0.13095654547214508
0.70726311206817627 0.14757725596427917 0.12464538216590881
0.81990319490432739 0.14111617207527161 0.11788250505924225
0.92041003704071045 0.13599464297294617 0.10901414602994919
0.98536115884780884 0.12751561403274536 0.10241000354290009
0.11739014089107513 0.22773748636245728 0.13710540533065796
0.13416863977909088 0.22965967655181885 0.13403177261352539
0.1766161173582077 0.23093657195568085 0.13275131583213806
0.23568619787693024 0.23575948178768158 0.13136467337608337
0.29674246907234192 0.24112194776535034 0.13319247961044312
0.35530659556388855 0.23998987674713135 0.13411346077919006
0.42610353231430054 0.2397674173116684 0.13528852164745331
0.51175153255462646 0.24195666611194611 0.13454480469226837
0.61212730407714844 0.2447582483291626 0.12956082820892334
0.71760368347167969 0.24478630721569061 0.12216131389141083
0.82637608051300049 0.24632249772548676 0.11224568635225296
0.92207598686218262 0.24304495751857758 0.1033552885055542
0.98972749710083008 0.2407117635011673 0.09774056077003479
0.11218797415494919 0.28351250290870667 0.14685690402984619
0.12826246023178101 0.28588154911994934 0.14120812714099884
0.17252030968666077 0.2915002703666687 0.13814985752105713
0.23499618470668793 0.29427048563957214 0.13617967069149017
0.30414792895317078 0.30250149965286255 0.13229312002658844
0.36994761228561401 0.30706241726875305 0.12851595878601074
0.4346921443939209 0.30569568276405334 0.13096407055854797
0.51548367738723755 0.30653643608093262 0.13314935564994812
0.61310356855392456 0.31485229730606079 0.12675477564334869
0.72063428163528442 0.32505747675895691 0.11736150830984116
0.82676279544830322 0.33139660954475403 0.10661216825246811
0.91760349273681641 0.33280226588249207 0.095114417374134064
0.98867946863174438 0.32929083704948425 0.08584265410900116
0.095186762511730194 0.35487833619117737 0.15746176242828369
0.11376338452100754 0.35411170125007629 0.14788937568664551
0.15990866720676422 0.35701167583465576 0.13942927122116089
0.22839902341365814 0.35816124081611633 0.13717782497406006
0.30418652296066284 0.36522269248962402 0.13232187926769257
0.38564217090606689 0.38220444321632385 0.12341704964637756
0.47569584846496582 0.40017813444137573 0.11409991234540939
0.55762368440628052 0.40023726224899292 0.11613272875547409
0.64276725053787231 0.40260908007621765 0.11644547432661057
0.73696398735046387 0.40881213545799255 0.10821674019098282
0.83519113063812256 0.41595166921615601 0.096773542463779449
0.92420816421508789 0.41907903552055359 0.083618670701980591
0.98904633522033691 0.41331964731216431 0.074025548994541168
0.052697081118822098 0.43069681525230408 0.16688191890716553
0.074806571006774902 0.42821183800697327 0.15232683718204498
0.13421663641929626 0.43013730645179749 0.13708965480327606
0.2216947078704834 0.43287461996078491 0.13355989754199982
0.30191022157669067 0.43332627415657043 0.13193495571613312
0.38711696863174438 0.45306223630905151 0.12234942615032196
0.49168756604194641 0.48547914624214172 0.099006295204162598
0.60374611616134644 0.51114577054977417 0.070016764104366302
0.68223613500595093 0.51106172800064087 0.070875592529773712
0.75644874572753906 0.50445210933685303 0.079764500260353088
0.83964985609054565 0.5039706826210022 0.068543002009391785
0.92264640331268311 0.50408720970153809 0.053605623543262482
0.98784351348876953 0.49872308969497681 0.062873095273971558
0.0095516731962561607 0.52231293916702271 0.17270660400390625
0.017430368810892105 0.51884537935256958 0.15179362893104553
0.078235089778900146 0.52588796615600586 0.12686389684677124
0.20857557654380798 0.5313076376914978 0.12180561572313309
0.29957187175750732 0.52675259113311768 0.12111920863389969
0.38841673731803894 0.53952103853225708 0.11351807415485382
0.4949796199798584 0.57769852876663208 0.086945250630378723
0.6187555193901062 0.6116718053817749 0.034995120018720627
0.73261696100234985 0.6376078724861145 0.017386147752404213
0.8053438663482666 0.6301996111869812 0.023262279108166695
0.8719821572303772 0.61460620164871216 0.022152440622448921
0.93874901533126831 0.59897333383560181 0.03028380498290062
0.98839491605758667 0.58913344144821167 0.039969783276319504
0.00019303863518871367 0.63092499971389771 0.17180369794368744
0.0019625045824795961 0.63147938251495361 0.14675885438919067
0.035332188010215759 0.63670796155929565 0.1056179404258728
0.18299669027328491 0.63942968845367432 0.093961186707019806
0.29791402816772461 0.64145034551620483 0.0876130610704422
0.39477449655532837 0.64381152391433716 0.080555066466331482
0.49687439203262329 0.66449451446533203 0.058883111923933029
0.61243230104446411 0.69498318433761597 0.024467527866363525
0.73223769664764404 0.72696965932846069 0.0063800886273384094
0.83405721187591553 0.73943972587585449 0.0057218815200030804
0.90197288990020752 0.72308337688446045 0.0087106144055724144
0.9595872163772583 0.69901531934738159 0.013350063934922218
0.9941331148147583 0.67961770296096802 0.027951484546065331
0 0.73076736927032471 0.16395993530750275
0.0024192212149500847 0.7323918342590332 0.12878410518169403
0.027952754870057106 0.73671227693557739 0.057818692177534103
0.1532360315322876 0.74138337373733521 0.039619609713554382
0.28427222371101379 0.7468407154083252 0.027948267757892609
0.39131614565849304 0.74267023801803589 0.028900580480694771
0.49374121427536011 0.75055229663848877 0.023755660280585289
0.60419505834579468 0.77637165784835815 0.012488869950175285
0.71691113710403442 0.80144417285919189 0.0047840792685747147
0.82085394859313965 0.8163764476776123 0.0057532219216227531
0.91303277015686035 0.8205605149269104 0.0059974822215735912
0.9714730978012085 0.79772418737411499 0.022437362000346184
0.99719089269638062 0.7709808349609375 0.065093725919723511
0 0.84437882900238037 0.14660391211509705
4.2784446122823283e-05 0.84597337245941162 0.10040606558322906
0.0085689621046185493 0.84730768203735352 0.021573968231678009
0.099028296768665314 0.84349697828292847 0.009027848020195961
0.26146623492240906 0.83849459886550903 0.010648884810507298
0.38404303789138794 0.8373183012008667 0.010497926734387875
0.49200433492660522 0.84208232164382935 0.0074747572652995586
0.59491336345672607 0.85331308841705322 0.0035465315449982882
0.69723379611968994 0.86850655078887939 0.0040936339646577835
0.79729586839675903 0.88003289699554443 0.0059764785692095757
0.89868372678756714 0.89206504821777344 0.011815777979791164
0.97374945878982544 0.88743650913238525 0.043327659368515015
0.99754458665847778 0.86103951930999756 0.1116267517209053
0 0.92464101314544678 0.10312601923942566
5.561978105106391e-05 0.92456549406051636 0.055857907980680466
0.0060863271355628967 0.93190944194793701 0.010841025970876217
0.07594338059425354 0.92759597301483154 0.003743085777387023
0.22945974767208099 0.92134952545166016 0.0054924758151173592
0.36824044585227966 0.92262613773345947 0.0041836458258330822
0.48098564147949219 0.92359691858291626 0.004332568496465683
0.58439487218856812 0.92757153511047363 0.0029020421206951141
0.68333876132965088 0.93865656852722168 0.003041181480512023
0.77173417806625366 0.93833756446838379 0.005193762481212616
0.86255759000778198 0.94276458024978638 0.014406690374016762
0.94993948936462402 0.94546985626220703 0.045721646398305893
0.99703603982925415 0.93672126531600952 0.11474377661943436
0 0.9907602071762085 0.019267765805125237
0 0.98798686265945435 0.010215235874056816
0.0020063661504536867 0.99165916442871094 0.0034848980139940977
0.039592068642377853 0.9896923303604126 0.0033190858084708452
0.20840318500995636 0.98624414205551147 0.0028587640263140202
0.35734415054321289 0.98550236225128174 0.0027090185321867466
0.46773791313171387 0.98433023691177368 0.005941473413258791
0.57079708576202393 0.98635154962539673 0.0070863612927496433
0.67213678359985352 0.98460721969604492 0.002667789813131094
0.75178372859954834 0.98701900243759155 0.0049820845015347004
0.83460962772369385 0.99002945423126221 0.010317260399460793
0.9200366735458374 0.99151694774627686 0.042436264455318451
0.98475134372711182 0.99122655391693115 0.09314563125371933
0.11548826843500137 0.12379418313503265 0.1524798572063446
0.13779102265834808 0.12002823501825333 0.15153826773166656
0.18010099232196808 0.12075915187597275 0.15035387873649597
0.22856363654136658 0.1211850494146347 0.15384116768836975
0.28268343210220337 0.1162891760468483 0.15703694522380829
0.34397375583648682 0.10640502721071243 0.15949569642543793
0.41799992322921753 0.078358203172683716 0.15990740060806274
0.50927591323852539 0.043244216591119766 0.1604161411523819
0.61446738243103027 0.013001400977373123 0.16164357960224152
0.72328412532806396 0.0044670705683529377 0.16228799521923065
0.8290826678276062 0.00087241380242630839 0.15364131331443787
0.9248887300491333 0.00065027870004996657 0.14750277996063232
0.98777371644973755 0.00071162806125357747 0.1445382684469223
0.11714154481887817 0.14566762745380402 0.15371476113796234
0.13828727602958679 0.1418251246213913 0.15268957614898682
0.17848676443099976 0.14049378037452698 0.15348745882511139
0.23048318922519684 0.14006604254245758 0.15717938542366028
0.28490623831748962 0.13656441867351532 0.15915922820568085
0.34872251749038696 0.12840981781482697 0.16107076406478882
0.42639416456222534 0.11463525891304016 0.16220913827419281
0.51723009347915649 0.086213581264019012 0.16106845438480377
0.61667549610137939 0.0439784936606884 0.15911394357681274
0.72243356704711914 0.036645311862230301 0.15913271903991699
0.82853329181671143 0.032861102372407913 0.15263138711452484
0.92132717370986938 0.027150202542543411 0.14676782488822937
0.98596364259719849 0.022877367213368416 0.14452566206455231
0.119284987449646 0.17940260469913483 0.15637634694576263
0.13978384435176849 0.17985868453979492 0.15607818961143494
0.17967371642589569 0.18076972663402557 0.1549094021320343
0.23223374783992767 0.18093207478523254 0.15615038573741913
0.28775143623352051 0.18032407760620117 0.15799789130687714
0.35326749086380005 0.17469297349452972 0.16374142467975616
0.42897367477416992 0.17047764360904694 0.1654578298330307
0.51693218946456909 0.15941141545772552 0.1603376716375351
0.61567658185958862 0.13655796647071838 0.15656977891921997
0.72662395238876343 0.12959031760692596 0.15296132862567902
0.82645660638809204 0.1253267377614975 0.14952507615089417
0.9234081506729126 0.11685144901275635 0.14312829077243805
0.98414576053619385 0.098515845835208893 0.139988973736763
0.11985119432210922 0.22958801686763763 0.16561637818813324
0.13823996484279633 0.2289285808801651 0.16327998042106628
0.17943386733531952 0.2316012978553772 0.16113394498825073
0.23449723422527313 0.23491263389587402 0.15748488903045654
0.29477113485336304 0.23645378649234772 0.15709109604358673
0.35937768220901489 0.23566146194934845 0.16133879125118256
0.43033596873283386 0.23590241372585297 0.16195219755172729
0.51708132028579712 0.23544517159461975 0.16041757166385651
0.62429893016815186 0.23239712417125702 0.15583130717277527
0.72968035936355591 0.23425798118114471 0.14946241676807404
0.82931524515151978 0.23253656923770905 0.14359733462333679
0.92277038097381592 0.2306220680475235 0.13816356658935547
0.98882830142974854 0.22901423275470734 0.13580431044101715
0.11454672366380692 0.28682005405426025 0.17553442716598511
0.13166259229183197 0.28632262349128723 0.17010928690433502
0.17207029461860657 0.2912394106388092 0.16545403003692627
0.23281702399253845 0.29459914565086365 0.1618320494890213
0.30293476581573486 0.30247670412063599 0.15577378869056702
0.37224313616752625 0.30656701326370239 0.15432363748550415
0.44226643443107605 0.30761349201202393 0.15607896447181702
0.52113759517669678 0.30568695068359375 0.1575654149055481
0.62257593870162964 0.31140479445457458 0.15271025896072388
0.72647386789321899 0.31987208127975464 0.14602123200893402
0.82919192314147949 0.32391807436943054 0.14095853269100189
0.92234563827514648 0.32556846737861633 0.13389870524406433
0.98901665210723877 0.3250211775302887 0.13031302392482758
0.09322502464056015 0.35579082369804382 0.19020478427410126
0.112709641456604 0.35312590003013611 0.17862531542778015
0.15472611784934998 0.35748285055160522 0.1666586697101593
0.22712218761444092 0.36424186825752258 0.16492082178592682
0.30551323294639587 0.37253215909004211 0.16091817617416382
0.39149034023284912 0.38755661249160767 0.15200288593769073
0.47742179036140442 0.39984196424484253 0.1434987485408783
0.55369430780410767 0.39533805847167969 0.14614066481590271
0.64252012968063354 0.39931425452232361 0.14645770192146301
0.7393118143081665 0.40686184167861938 0.1423913836479187
0.83355617523193359 0.41002735495567322 0.13409312069416046
0.92384159564971924 0.4131217896938324 0.12688824534416199
0.98861163854598999 0.41143724322319031 0.12560857832431793
0.048261187970638275 0.4304625391960144 0.20070874691009521
0.074320487678050995 0.43383920192718506 0.18838801980018616
0.13525727391242981 0.42996460199356079 0.16757088899612427
0.21642741560935974 0.43740689754486084 0.15976156294345856
0.30162745714187622 0.44051274657249451 0.15918327867984772
0.38987886905670166 0.45803123712539673 0.15104523301124573
0.49092948436737061 0.48660165071487427 0.13453072309494019
0.60328072309494019 0.50902992486953735 0.11903828382492065
0.68255752325057983 0.50985455513000488 0.11738459020853043
0.76183849573135376 0.50496935844421387 0.12593133747577667
0.84477686882019043 0.5019766092300415 0.11824584752321243
0.92549353837966919 0.50274795293807983 0.11495310813188553
0.98517358303070068 0.4987369179725647 0.11936110258102417
0.0090059768408536911 0.52251297235488892 0.20809009671211243
0.023081505671143532 0.52834266424179077 0.19256855547428131
0.089226245880126953 0.52502918243408203 0.16341271996498108
0.1991027295589447 0.53597402572631836 0.15137508511543274
0.29560187458992004 0.53001648187637329 0.14873288571834564
0.38519120216369629 0.53884142637252808 0.14375363290309906
0.4896581768989563 0.57200586795806885 0.13023591041564941
0.61779254674911499 0.61422348022460938 0.098825998604297638
0.73109954595565796 0.63698488473892212 0.06917959451675415
0.80836403369903564 0.62748122215270996 0.085185974836349487
0.87139755487442017 0.60916042327880859 0.092292368412017822
0.93990254402160645 0.60106253623962402 0.10379365086555481
0.98966997861862183 0.58803784847259521 0.10890457779169083
6.5223845012951642e-05 0.63007080554962158 0.21392063796520233
0.0048961415886878967 0.63111132383346558 0.19356429576873779
0.046523898839950562 0.63286781311035156 0.15999919176101685
0.17063920199871063 0.63869547843933105 0.13739190995693207
0.28921794891357422 0.63921988010406494 0.12623997032642365
0.39117372035980225 0.64441472291946411 0.12607158720493317
0.49263420701026917 0.65980905294418335 0.12006177753210068
0.61289060115814209 0.69596898555755615 0.091372773051261902
0.73120450973510742 0.7251855731010437 0.05116170272231102
0.82852941751480103 0.73265361785888672 0.054087202996015549
0.89791041612625122 0.71869903802871704 0.072506681084632874
0.95717787742614746 0.69881987571716309 0.091914936900138855
0.99480003118515015 0.67858856916427612 0.10620314627885818
0 0.73157930374145508 0.21134056150913239
0.00091422587865963578 0.73188835382461548 0.18566402792930603
0.024384846910834312 0.74119061231613159 0.13406787812709808
0.13849854469299316 0.74175816774368286 0.10170606523752213
0.27312073111534119 0.74344086647033691 0.087721653282642365
0.38725703954696655 0.7476269006729126 0.088700540363788605
0.49214613437652588 0.7530861496925354 0.081496953964233398
0.60247969627380371 0.77464073896408081 0.066367626190185547
0.71562719345092773 0.79857707023620605 0.045475739985704422
0.81695133447647095 0.81050825119018555 0.056344468146562576
0.91408520936965942 0.8183436393737793 0.056825704872608185
0.97332805395126343 0.79932576417922974 0.096504181623458862
0.99726426601409912 0.76907706260681152 0.12787577509880066
0 0.84280282258987427 0.20122767984867096
2.1392223061411642e-05 0.83735060691833496 0.17180043458938599
0.0051461462862789631 0.8419041633605957 0.10006172209978104
0.092191047966480255 0.84335684776306152 0.053852185606956482
0.25527417659759521 0.84264266490936279 0.047760263085365295
0.37878844141960144 0.84194904565811157 0.042227186262607574
0.48565399646759033 0.84453266859054565 0.032970909029245377
0.5927436351776123 0.85327672958374023 0.029738601297140121
0.69868826866149902 0.86742371320724487 0.036851126700639725
0.79669076204299927 0.87698638439178467 0.061530858278274536
0.8921043872833252 0.88402891159057617 0.081329002976417542
0.97242099046707153 0.88454049825668335 0.12217206507921219
0.99653083086013794 0.85714936256408691 0.15725916624069214
0 0.92694628238677979 0.17129729688167572
0 0.92250591516494751 0.13268387317657471
0.0070195817388594151 0.92803531885147095 0.056540574878454208
0.08762938529253006 0.92529696226119995 0.030023746192455292
0.23436889052391052 0.92166256904602051 0.023859210312366486
0.36413347721099854 0.92383831739425659 0.019299644976854324
0.47606435418128967 0.92373627424240112 0.018360825255513191
0.58561831712722778 0.92415553331375122 0.016571208834648132
0.67949056625366211 0.93094271421432495 0.028524046763777733
0.7731127142906189 0.93719315528869629 0.042123906314373016
0.86211436986923218 0.94051766395568848 0.083136029541492462
0.94975835084915161 0.94383245706558228 0.13209261000156403
0.99306929111480713 0.93116921186447144 0.16327293217182159
0 0.98755371570587158 0.11945567280054092
0 0.98601996898651123 0.088573455810546875
0.0066668493673205376 0.98986005783081055 0.04260648787021637
0.076300904154777527 0.98692059516906738 0.043262317776679993
0.21597431600093842 0.98760217428207397 0.019917955622076988
0.35459280014038086 0.9849974513053894 0.013952112756669521
0.46686574816703796 0.98439782857894897 0.028488757088780403
0.56898957490921021 0.98580032587051392 0.032783791422843933
0.66713511943817139 0.98754316568374634 0.019716031849384308
0.75307989120483398 0.98984724283218384 0.039256960153579712
0.83528774976730347 0.99042081832885742 0.074038185179233551
0.92081129550933838 0.98963218927383423 0.11353465169668198
0.98107421398162842 0.98868459463119507 0.15142516791820526
0.092138908803462982 0.12365100532770157 0.21439777314662933
0.12537758052349091 0.11943520605564117 0.20921018719673157
0.17697839438915253 0.11978300660848618 0.20702578127384186
0.22963052988052368 0.12277358025312424 0.20761345326900482
0.28553980588912964 0.11786717176437378 0.21226730942726135
0.35035839676856995 0.10344603657722473 0.21983130276203156
0.42396262288093567 0.061680961400270462 0.22171318531036377
0.51215064525604248 0.01287053432315588 0.22412946820259094
0.61901330947875977 0.0031382243614643812 0.22964651882648468
0.7259373664855957 0.0018392974743619561 0.22464050352573395
0.82853692770004272 0.00010549507715040818 0.22213195264339447
0.92445486783981323 6.0676124121528119e-05 0.21608655154705048
0.98656660318374634 0 0.21082465350627899
0.10198600590229034 0.1498611718416214 0.2117757648229599
0.12720946967601776 0.14370067417621613 0.20942531526088715
0.17453594505786896 0.13997633755207062 0.20936711132526398
0.22993144392967224 0.14038676023483276 0.21161499619483948
0.28789690136909485 0.13615557551383972 0.2148631364107132
0.35166272521018982 0.12323024868965149 0.21827875077724457
0.42794069647789001 0.09504324197769165 0.22299133241176605
0.51787382364273071 0.052399098873138428 0.22560000419616699
0.62207043170928955 0.015114787966012955 0.22591763734817505
0.72693276405334473 0.012311419472098351 0.22354991734027863
0.82947635650634766 0.015994936227798462 0.22382223606109619
0.92165011167526245 0.0061580133624374866 0.21529372036457062
0.98932540416717529 0.001815107767470181 0.20491470396518707
0.11090337485074997 0.18862034380435944 0.20859056711196899
0.13122302293777466 0.18666893243789673 0.21191529929637909
0.17396816611289978 0.1811642050743103 0.20851790904998779
0.22826328873634338 0.1751767098903656 0.2082439661026001
0.2875831127166748 0.17509372532367706 0.21235780417919159
0.35658225417137146 0.17095044255256653 0.22131448984146118
0.43073612451553345 0.15597854554653168 0.22534777224063873
0.52121233940124512 0.1259305477142334 0.22050729393959045
0.61987972259521484 0.080913573503494263 0.21762321889400482
0.72559970617294312 0.087173104286193848 0.21611133217811584
0.82924395799636841 0.073641926050186157 0.21763730049133301
0.92180931568145752 0.059748884290456772 0.21111504733562469
0.98707199096679688 0.064170792698860168 0.20404975116252899
0.11605233699083328 0.23148895800113678 0.21380482614040375
0.13458797335624695 0.23140174150466919 0.21610561013221741
0.17567802965641022 0.23150776326656342 0.21384833753108978
0.23074772953987122 0.23057202994823456 0.20955269038677216
0.29150229692459106 0.23010805249214172 0.21244543790817261
0.35968205332756042 0.22743020951747894 0.21859818696975708
0.43341970443725586 0.22252479195594788 0.21909287571907043
0.52528661489486694 0.2143634706735611 0.21786406636238098
0.6260601282119751 0.19876125454902649 0.21595145761966705
0.73092633485794067 0.19913950562477112 0.20901983976364136
0.83177268505096436 0.19396857917308807 0.20837393403053284
0.9226875901222229 0.18975074589252472 0.20581553876399994
0.98897296190261841 0.2030617743730545 0.20304137468338013
0.11036492139101028 0.28693914413452148 0.22469900548458099
0.12994958460330963 0.2849327027797699 0.22587455809116364
0.16882829368114471 0.28835663199424744 0.22061572968959808
0.22811137139797211 0.29054287075996399 0.21638743579387665
0.29755857586860657 0.2973862886428833 0.21593408286571503
0.36636164784431458 0.29716461896896362 0.21353687345981598
0.43284556269645691 0.29223081469535828 0.2101016491651535
0.51896959543228149 0.29161196947097778 0.21299047768115997
