assets/lut/others mono tinted.cube
# Created by: G'MIC (https://gmic.eu)
TITLE "mono_tinted"
# LUT size
LUT_3D_SIZE 7
# Data domain
DOMAIN_MIN 0.0 0.0 0.0
DOMAIN_MAX 1.0 1.0 1.0
# LUT data points
0.098639033734798431 0.027077065780758858 0.031916555017232895
0.14533518254756927 0.079642787575721741 0.079866476356983185
0.19588610529899597 0.1325404942035675 0.1303713321685791
0.25089696049690247 0.17883345484733582 0.17573004961013794
0.31217777729034424 0.21708795428276062 0.20952169597148895
0.37559700012207031 0.26218807697296143 0.24817581474781036
0.43302255868911743 0.30749991536140442 0.28839069604873657
0.19526059925556183 0.13161890208721161 0.1289181262254715
0.24018797278404236 0.17845118045806885 0.16586777567863464
0.29183456301689148 0.22569862008094788 0.20231977105140686
0.35269388556480408 0.27343469858169556 0.24462617933750153
0.42207914590835571 0.32051444053649902 0.28624293208122253
0.494516521692276 0.36907008290290833 0.32856684923171997
0.55632913112640381 0.41522505879402161 0.36954346299171448
0.27479839324951172 0.23646406829357147 0.20937894284725189
0.32754456996917725 0.28268682956695557 0.24616974592208862
0.38706925511360168 0.32958868145942688 0.28094154596328735
0.45806539058685303 0.38251066207885742 0.32075205445289612
0.53766405582427979 0.4377291202545166 0.36328771710395813
0.61537027359008789 0.48950597643852234 0.40462318062782288
0.68104404211044312 0.54287117719650269 0.44598367810249329
0.3534122109413147 0.35310176014900208 0.2839239239692688
0.41519898176193237 0.4033660888671875 0.32401734590530396
0.48571097850799561 0.45635172724723816 0.36349552869796753
0.56874841451644897 0.51713371276855469 0.40581899881362915
0.6573188304901123 0.57780635356903076 0.44576284289360046
0.73915010690689087 0.63288694620132446 0.48218142986297607
0.80699068307876587 0.69163161516189575 0.52193325757980347
0.44038325548171997 0.48371168971061707 0.35955727100372314
0.51027011871337891 0.5418742299079895 0.4007270336151123
0.59208494424819946 0.60640007257461548 0.4456673264503479
0.68438678979873657 0.67342323064804077 0.4924505352973938
0.7820974588394165 0.73752635717391968 0.535439133644104
0.86697226762771606 0.79887920618057251 0.57358431816101074
0.92411673069000244 0.85096216201782227 0.60806334018707275
0.53066235780715942 0.61998218297958374 0.44032201170921326
0.61111724376678467 0.68672066926956177 0.48210358619689941
0.7030484676361084 0.75489276647567749 0.52840757369995117
0.79932540655136108 0.81889140605926514 0.57359063625335693
0.8931083083152771 0.87809920310974121 0.61534076929092407
0.9610639214515686 0.93457061052322388 0.66441619396209717
0.99504905939102173 0.97514677047729492 0.70977485179901123
0.60826981067657471 0.74668806791305542 0.52191460132598877
0.70212841033935547 0.81329941749572754 0.56577903032302856
0.80374282598495483 0.87375223636627197 0.60815060138702393
0.898948073387146 0.92583310604095459 0.65035194158554077
0.97418928146362305 0.97044873237609863 0.69356966018676758
0.999420166015625 0.99747174978256226 0.74531257152557373
1 1 0.79122793674468994
0.11984384804964066 0.047167342156171799 0.050889573991298676
0.16785703599452972 0.10113363713026047 0.10400573164224625
0.21907439827919006 0.15252909064292908 0.15712739527225494
0.27117082476615906 0.1940189003944397 0.20028561353683472
0.33215251564979553 0.23527589440345764 0.23856629431247711
0.39937737584114075 0.28241881728172302 0.27992609143257141
0.46026170253753662 0.32699528336524963 0.32400500774383545
0.21005047857761383 0.14840701222419739 0.14839914441108704
0.25765761733055115 0.19760330021381378 0.19252534210681915
0.31173723936080933 0.24545969069004059 0.23564393818378448
0.37318617105484009 0.29142540693283081 0.27818974852561951
0.44521737098693848 0.34035664796829224 0.32190132141113281
0.52179586887359619 0.39157626032829285 0.36831015348434448
0.58621776103973389 0.43919900059700012 0.41399094462394714
0.29193508625030518 0.25435104966163635 0.23627595603466034
0.34482091665267944 0.30235391855239868 0.27684277296066284
0.40637886524200439 0.35148325562477112 0.31645715236663818
0.47994068264961243 0.40459981560707092 0.35915836691856384
0.56378871202468872 0.46151697635650635 0.4060567319393158
0.64643794298171997 0.51746928691864014 0.45439553260803223
0.71231532096862793 0.56987005472183228 0.50064253807067871
0.37171626091003418 0.37352678179740906 0.31679028272628784
0.43341124057769775 0.42520830035209656 0.35955628752708435
0.50790327787399292 0.48255592584609985 0.40331128239631653
0.59401172399520874 0.54414266347885132 0.44946402311325073
0.68526613712310791 0.60505062341690063 0.49467813968658447
0.76926249265670776 0.66191273927688599 0.5385398268699646
0.83705145120620728 0.72040939331054688 0.58464473485946655
0.45687869191169739 0.50747382640838623 0.40452843904495239
0.52824527025222778 0.56702488660812378 0.44570276141166687
0.61716210842132568 0.63652294874191284 0.4951227605342865
0.71446949243545532 0.70581430196762085 0.54734253883361816
0.81232273578643799 0.77004683017730713 0.59388881921768188
0.89197289943695068 0.82630699872970581 0.63541918992996216
0.94537341594696045 0.87756681442260742 0.67670786380767822
0.5486609935760498 0.64779114723205566 0.49232587218284607
0.63273119926452637 0.71774381399154663 0.53674101829528809
0.73091208934783936 0.78978711366653442 0.5896528959274292
0.8294978141784668 0.85384184122085571 0.64482563734054565
0.92222803831100464 0.91260212659835815 0.69067895412445068
0.97855937480926514 0.95582252740859985 0.7367480993270874
0.99843448400497437 0.98599332571029663 0.77895748615264893
0.63421958684921265 0.77423155307769775 0.57755255699157715
0.72901022434234619 0.84049367904663086 0.62556684017181396
0.8304823637008667 0.90019303560256958 0.67446237802505493
0.92198485136032104 0.94823449850082397 0.72245842218399048
0.98798346519470215 0.98687660694122314 0.77094435691833496
1 0.99892348051071167 0.81894880533218384
1 0.99769920110702515 0.8570292592048645
0.13871762156486511 0.068403385579586029 0.067619264125823975
0.18652769923210144 0.12115626782178879 0.12311337143182755
0.23827899992465973 0.16951946914196014 0.18116044998168945
0.28962844610214233 0.20794700086116791 0.22453738749027252
0.35217934846878052 0.25086683034896851 0.26481777429580688
0.42064148187637329 0.29794898629188538 0.31010401248931885
0.48309111595153809 0.34148889780044556 0.35925495624542236
0.22393582761287689 0.16852425038814545 0.16890658438205719
0.27429971098899841 0.21886791288852692 0.21899072825908661
0.33215764164924622 0.26562166213989258 0.27155110239982605
0.39430415630340576 0.30937641859054565 0.31419435143470764
0.46675068140029907 0.35696926712989807 0.3568081259727478
0.5432591438293457 0.40717750787734985 0.4058072566986084
0.61007845401763916 0.45539936423301697 0.45714697241783142
0.30660858750343323 0.27594870328903198 0.26574850082397461
0.36199483275413513 0.3245636522769928 0.31100663542747498
0.4264557957649231 0.37369915843009949 0.35686030983924866
0.50053524971008301 0.42577320337295532 0.40184205770492554
0.58400458097457886 0.48083364963531494 0.4492984414100647
0.66743820905685425 0.53633040189743042 0.50235074758529663
0.73781204223632812 0.59194499254226685 0.55693471431732178
0.38961052894592285 0.39609694480895996 0.35509839653968811
0.45366701483726501 0.44839769601821899 0.4022945761680603
0.52973616123199463 0.50480163097381592 0.44872689247131348
0.61682772636413574 0.566783607006073 0.49771225452423096
0.7094881534576416 0.62769722938537598 0.54891407489776611
0.79332691431045532 0.68376177549362183 0.60081714391708374
0.86197614669799805 0.74604374170303345 0.65596199035644531
0.47607463598251343 0.53243303298950195 0.45251449942588806
0.55077636241912842 0.59306579828262329 0.50091069936752319
0.64234441518783569 0.66069549322128296 0.55155271291732788
0.74035543203353882 0.73030614852905273 0.60517853498458862
0.83786052465438843 0.79331642389297485 0.65862488746643066
0.91112035512924194 0.84427297115325928 0.70781606435775757
0.96202152967453003 0.90162467956542969 0.75966542959213257
0.56676912307739258 0.67374372482299805 0.54855740070343018
0.65147155523300171 0.74309438467025757 0.60157084465026855
0.75365948677062988 0.814117431640625 0.65670973062515259
0.85341542959213257 0.87649333477020264 0.71068030595779419
0.94028729200363159 0.93111258745193481 0.76603829860687256
0.992351233959198 0.97351044416427612 0.81655752658843994
0.99970859289169312 0.99599635601043701 0.85707634687423706
0.65228748321533203 0.79979878664016724 0.64064407348632812
0.74593329429626465 0.86447727680206299 0.69632238149642944
0.85227727890014648 0.92188936471939087 0.75062394142150879
0.94222462177276611 0.96563339233398438 0.80309367179870605
0.99112510681152344 0.99080526828765869 0.85495299100875854
1 0.9981427788734436 0.89709633588790894
1 0.99994164705276489 0.92661863565444946
0.16197109222412109 0.095595642924308777 0.094249963760375977
0.20705491304397583 0.14442865550518036 0.14579002559185028
0.258758544921875 0.18704956769943237 0.20230114459991455
0.31165096163749695 0.22519081830978394 0.25034990906715393
0.37651693820953369 0.26728168129920959 0.29708185791969299
0.44467362761497498 0.31193363666534424 0.34928971529006958
0.50582897663116455 0.3557220995426178 0.40180429816246033
0.23939672112464905 0.19040939211845398 0.19712454080581665
0.29496356844902039 0.24008691310882568 0.25031721591949463
0.35881027579307556 0.28520923852920532 0.30807614326477051
0.41656637191772461 0.32794991135597229 0.35220953822135925
0.48747730255126953 0.37298586964607239 0.39586210250854492
0.56573307514190674 0.42300128936767578 0.44936525821685791
0.63384228944778442 0.47265052795410156 0.5060197114944458
0.32136735320091248 0.29684263467788696 0.29964298009872437
0.38076215982437134 0.34692022204399109 0.3507397472858429
0.44709914922714233 0.39555478096008301 0.40093198418617249
0.51963216066360474 0.4470059871673584 0.44845318794250488
0.60061854124069214 0.49992227554321289 0.49570304155349731
0.68725723028182983 0.55611979961395264 0.55314844846725464
0.76286357641220093 0.61341649293899536 0.61409986019134521
0.40796586871147156 0.41845160722732544 0.39833459258079529
0.47412431240081787 0.47193297743797302 0.4506492018699646
0.54832321405410767 0.52460962533950806 0.49852871894836426
0.63553792238235474 0.58664554357528687 0.55115282535552979
0.73117637634277344 0.6488918662071228 0.60842645168304443
0.818340003490448 0.7078586220741272 0.66721814870834351
0.88687998056411743 0.76954871416091919 0.72514796257019043
0.49752634763717651 0.557902991771698 0.50179451704025269
0.57423073053359985 0.61807292699813843 0.55897676944732666
0.66382676362991333 0.68180078268051147 0.61296647787094116
0.76135647296905518 0.75335448980331421 0.66919189691543579
0.86127942800521851 0.81409627199172974 0.72768110036849976
0.9337727427482605 0.86679482460021973 0.78442239761352539
0.9760279655456543 0.92140877246856689 0.83623695373535156
0.58741861581802368 0.70130640268325806 0.6066131591796875
0.6714329719543457 0.76752859354019165 0.66951161623001099
0.77169895172119141 0.83641296625137329 0.72850966453552246
0.87106192111968994 0.90107685327529907 0.78377014398574829
0.95507287979125977 0.9483640193939209 0.83671778440475464
0.9963916540145874 0.98356121778488159 0.88644754886627197
1 0.9996219277381897 0.92530333995819092
0.66935384273529053 0.8261454701423645 0.707763671875
0.76314502954483032 0.88739728927612305 0.76956677436828613
0.87217563390731812 0.94056075811386108 0.8264164924621582
0.95840919017791748 0.9805837869644165 0.87880319356918335
0.99439579248428345 0.99381512403488159 0.9248167872428894
1 0.99670332670211792 0.95929962396621704
1 0.9998658299446106 0.98444068431854248
0.17864289879798889 0.11590576171875 0.12181782722473145
0.22361810505390167 0.16293522715568542 0.17536862194538116
0.2764507532119751 0.20562881231307983 0.22846826910972595
0.33309820294380188 0.24433530867099762 0.28239202499389648
0.39817684888839722 0.28676685690879822 0.33837306499481201
0.46746906638145447 0.33242511749267578 0.39409726858139038
0.52841252088546753 0.37500885128974915 0.44755619764328003
0.25216126441955566 0.2065347284078598 0.22613896429538727
0.31057727336883545 0.25636416673660278 0.28499510884284973
0.37609642744064331 0.30439046025276184 0.34265834093093872
0.43795263767242432 0.34810808300971985 0.3931373655796051
0.50984114408493042 0.39320790767669678 0.44321879744529724
0.58974480628967285 0.44597402215003967 0.50113284587860107
0.65843576192855835 0.49662697315216064 0.56004327535629272
0.33722150325775146 0.31434959173202515 0.33357027173042297
0.39919522404670715 0.36782312393188477 0.39143288135528564
0.46873071789741516 0.4198189377784729 0.44667279720306396
0.54370129108428955 0.47244808077812195 0.50058889389038086
0.62417483329772949 0.52463161945343018 0.55209094285964966
0.71151506900787354 0.58198857307434082 0.61286389827728271
0.78690481185913086 0.63861614465713501 0.67542946338653564
0.42552617192268372 0.43710994720458984 0.43944290280342102
0.49417951703071594 0.497854083776474 0.49967175722122192
0.57022702693939209 0.55416321754455566 0.55338948965072632
0.65948313474655151 0.61495161056518555 0.611896812915802
0.75569844245910645 0.67589449882507324 0.67356961965560913
0.84362310171127319 0.73609441518783569 0.73526692390441895
0.90766620635986328 0.79346597194671631 0.79098761081695557
0.51543909311294556 0.58228915929794312 0.55165350437164307
0.59455347061157227 0.6483885645866394 0.61692416667938232
0.68230509757995605 0.71208769083023071 0.67394036054611206
0.78359568119049072 0.77968227863311768 0.733318030834198
0.88412255048751831 0.83898043632507324 0.79596811532974243
0.95332133769989014 0.89049768447875977 0.85370367765426636
0.98746633529663086 0.93743991851806641 0.89872431755065918
0.60517656803131104 0.73097079992294312 0.66608422994613647
0.69495373964309692 0.79814940690994263 0.73670774698257446
0.7932465672492981 0.86036837100982666 0.79379796981811523
0.89450442790985107 0.92146092653274536 0.84967780113220215
0.97080856561660767 0.96553754806518555 0.89984863996505737
0.99902451038360596 0.99257004261016846 0.94335830211639404
1 1 0.97837251424789429
0.68886518478393555 0.85281354188919067 0.77279603481292725
0.78640466928482056 0.91143590211868286 0.83706581592559814
0.89173799753189087 0.95734143257141113 0.88820880651473999
0.9728853702545166 0.99130523204803467 0.94032484292984009
0.99778389930725098 0.99554687738418579 0.9787408709526062
1 0.99627256393432617 0.99786263704299927
1 1 1
0.19580382108688354 0.13128176331520081 0.14435216784477234
0.23510818183422089 0.17478905618190765 0.20176617801189423
0.28884756565093994 0.21919138729572296 0.25411543250083923
0.3510783314704895 0.26119086146354675 0.30889856815338135
0.41760000586509705 0.30377629399299622 0.36612960696220398
0.48934829235076904 0.35181710124015808 0.42754915356636047
0.55033153295516968 0.39310187101364136 0.48440840840339661
0.27184772491455078 0.22260230779647827 0.25080180168151855
0.32122209668159485 0.26948386430740356 0.31174552440643311
0.3874971866607666 0.32119199633598328 0.37067756056785583
0.46165311336517334 0.37046211957931519 0.43013349175453186
0.53874224424362183 0.41762068867683411 0.48751762509346008
0.61640411615371704 0.4689936637878418 0.54648232460021973
0.68252110481262207 0.51603823900222778 0.60428488254547119
0.35733088850975037 0.3323778510093689 0.36512771248817444
0.41705223917961121 0.38642030954360962 0.4252464771270752
0.49010184407234192 0.44293603301048279 0.48420318961143494
0.57244157791137695 0.49874019622802734 0.54766499996185303
0.65753233432769775 0.55168551206588745 0.60843974351882935
0.74173367023468018 0.60778665542602539 0.66910439729690552
0.80984604358673096 0.6605536937713623 0.72794008255004883
0.44332423806190491 0.45918413996696472 0.4787750244140625
0.51409381628036499 0.52303898334503174 0.54121494293212891
0.59365862607955933 0.58269482851028442 0.59830981492996216
0.6840636134147644 0.64094209671020508 0.6618657112121582
0.78152799606323242 0.70219260454177856 0.72868740558624268
0.86923432350158691 0.76450496912002563 0.79190754890441895
0.92439496517181396 0.81720709800720215 0.84563827514648438
0.52791070938110352 0.6032721996307373 0.59340846538543701
0.61229532957077026 0.6761288046836853 0.66235572099685669
0.70340657234191895 0.74090254306793213 0.72187000513076782
0.80313748121261597 0.80256432294845581 0.78229856491088867
0.90267705917358398 0.86290675401687622 0.84848105907440186
0.97168350219726562 0.91484993696212769 0.9058762788772583
0.99442422389984131 0.9562191367149353 0.94547414779663086
0.61665529012680054 0.74845719337463379 0.7119903564453125
0.71474575996398926 0.82376599311828613 0.78569787740707397
0.81397634744644165 0.88311243057250977 0.84211105108261108
0.91429513692855835 0.93840080499649048 0.89943224191665649
0.98284423351287842 0.97463977336883545 0.94903308153152466
1 0.99419617652893066 0.98611736297607422
1 1 0.9997870922088623
0.71043354272842407 0.8751833438873291 0.82686483860015869
0.8102414608001709 0.93294090032577515 0.88827335834503174
0.91154849529266357 0.97470384836196899 0.94063764810562134
0.98813438415527344 0.99739861488342285 0.98371881246566772
1 1 0.99984139204025269
1 1 1
1 1 1
0.20988424122333527 0.14298595488071442 0.15941937267780304
0.25339415669441223 0.18789005279541016 0.21936927735805511
0.30810356140136719 0.23412720859050751 0.2755185067653656
0.37094134092330933 0.27792763710021973 0.3322049081325531
0.4410146176815033 0.32129707932472229 0.38831540942192078
0.51344245672225952 0.36922699213027954 0.44813236594200134
0.57107603549957275 0.41006883978843689 0.5049445629119873
0.29115381836891174 0.24066418409347534 0.27092272043228149
0.33963692188262939 0.28582337498664856 0.33302077651023865
0.40174177289009094 0.33546832203865051 0.39184868335723877
0.48216426372528076 0.38974139094352722 0.4546046257019043
0.56363111734390259 0.43937030434608459 0.51369470357894897
0.64052504301071167 0.48903012275695801 0.57225519418716431
0.70186179876327515 0.53383934497833252 0.6292310357093811
0.37508299946784973 0.35355579853057861 0.38959065079689026
0.43587058782577515 0.40646296739578247 0.45117467641830444
0.5098833441734314 0.46298953890800476 0.51150310039520264
0.59582632780075073 0.52046304941177368 0.57561945915222168
0.68548750877380371 0.57634037733078003 0.63897544145584106
0.76888453960418701 0.63186335563659668 0.70011091232299805
0.82785934209823608 0.67965978384017944 0.75567626953125
0.46015128493309021 0.48458215594291687 0.50754356384277344
0.53423315286636353 0.54776573181152344 0.57088005542755127
0.61616653203964233 0.60677075386047363 0.63045179843902588
0.70646870136260986 0.66286152601242065 0.6915898323059082
0.80538982152938843 0.72673958539962769 0.7581140398979187
0.89364886283874512 0.79058194160461426 0.821757972240448
0.94065690040588379 0.83673077821731567 0.8722609281539917
0.5438651442527771 0.62508213520050049 0.6217532753944397
0.63437449932098389 0.70192378759384155 0.69089537858963013
0.73031795024871826 0.768848717212677 0.75457924604415894
0.82597649097442627 0.82563233375549316 0.81340485811233521
0.9184151291847229 0.88377165794372559 0.87471294403076172
0.98436522483825684 0.93366646766662598 0.9291570782661438
0.99869561195373535 0.96873778104782104 0.96519666910171509
0.63374924659729004 0.7638515830039978 0.73752319812774658
0.73772799968719482 0.84593307971954346 0.80789631605148315
0.8421129584312439 0.90857350826263428 0.86948865652084351
0.93159580230712891 0.95400130748748779 0.92406588792800903
0.99012595415115356 0.98565000295639038 0.96911394596099854
1 0.9997209906578064 0.99849218130111694
1 1 1
0.72641903162002563 0.88208848237991333 0.84773480892181396
0.82894492149353027 0.9430232048034668 0.9071311354637146
0.92445814609527588 0.98110544681549072 0.9569283127784729
0.98963731527328491 0.99753409624099731 0.9935423731803894
1 1 1
1 1 1
1 1 1
