assets/lut/others vintage alt.cube
# Created by: G'MIC (https://gmic.eu)
TITLE "vintage_alt"
# LUT size
LUT_3D_SIZE 5
# Data domain
DOMAIN_MIN 0.0 0.0 0.0
DOMAIN_MAX 1.0 1.0 1.0
# LUT data points
0.14938725531101227 0.030882352963089943 0.14441066980361938
0.35407739877700806 0.030882352963089943 0.14464813470840454
0.55628663301467896 0.034803923219442368 0.14378000795841217
0.75965976715087891 0.031076768413186073 0.14473038911819458
0.96156209707260132 0.033979751169681549 0.14275044202804565
0.14715565741062164 0.26642155647277832 0.14187783002853394
0.35232841968536377 0.26283738017082214 0.1408088207244873
0.55412495136260986 0.26642155647277832 0.1408088207244873
0.76157689094543457 0.26642155647277832 0.14515082538127899
0.96236485242843628 0.26249998807907104 0.14427843689918518
0.14651213586330414 0.49803921580314636 0.14201708137989044
0.3533327579498291 0.49767377972602844 0.1408088207244873
0.55551725625991821 0.49803921580314636 0.14111283421516418
0.76616984605789185 0.49600338935852051 0.15110278129577637
0.96746325492858887 0.49411764740943909 0.14976900815963745
0.14620098471641541 0.73058897256851196 0.14473038911819458
0.35281151533126831 0.7296568751335144 0.14473038911819458
0.55647188425064087 0.72964984178543091 0.14485964179039001
0.76278388500213623 0.72573530673980713 0.15104249119758606
0.96347296237945557 0.7277495265007019 0.14970600605010986
0.14877563714981079 0.95785021781921387 0.14508764445781708
0.35541987419128418 0.95735293626785278 0.14865195751190186
0.5587955117225647 0.95735293626785278 0.14865195751190186
0.75964057445526123 0.95735293626785278 0.14865195751190186
0.95972669124603271 0.96127450466156006 0.14390794932842255
0.15060757100582123 0.030882352963089943 0.32225766777992249
0.35151594877243042 0.031262882053852081 0.32235291600227356
0.55612689256668091 0.031608536839485168 0.32002350687980652
0.76180779933929443 0.030882352963089943 0.31844362616539001
0.96213674545288086 0.032301239669322968 0.31844362616539001
0.15125672519207001 0.26642155647277832 0.32236519455909729
0.3542533814907074 0.26642155647277832 0.31994235515594482
0.55285298824310303 0.26642155647277832 0.31522330641746521
0.75672072172164917 0.26642155647277832 0.31569582223892212
0.96198529005050659 0.26398786902427673 0.31844362616539001
0.14880597591400146 0.49803921580314636 0.31844362616539001
0.35356107354164124 0.49803921580314636 0.31741517782211304
0.5528266429901123 0.49803921580314636 0.31452205777168274
0.75710207223892212 0.49803921580314636 0.318438321352005
0.96326595544815063 0.49803921580314636 0.320799320936203
0.14853467047214508 0.7296568751335144 0.31844362616539001
0.35298246145248413 0.7296568751335144 0.31844362616539001
0.55294293165206909 0.7296568751335144 0.31843635439872742
0.7591736912727356 0.72961437702178955 0.322214275598526
0.96341681480407715 0.72965353727340698 0.32405814528465271
0.15112447738647461 0.95770615339279175 0.32156449556350708
0.35732778906822205 0.95735293626785278 0.32100781798362732
0.55495756864547729 0.95735293626785278 0.32236519455909729
0.75948458909988403 0.95735293626785278 0.32169678807258606
0.96411526203155518 0.95735293626785278 0.32259103655815125
0.15038684010505676 0.030882352963089943 0.49331939220428467
0.35446983575820923 0.030882352963089943 0.49607843160629272
0.55626606941223145 0.030882352963089943 0.49215686321258545
0.76368755102157593 0.030882352963089943 0.49215686321258545
0.96272367238998413 0.034396599978208542 0.4952818751335144
0.1478443443775177 0.26787468791007996 0.4909692108631134
0.35958683490753174 0.26249998807907104 0.49607115983963013
0.55672192573547363 0.26419064402580261 0.49105966091156006
0.76089370250701904 0.26615577936172485 0.49089652299880981
0.96548235416412354 0.26307150721549988 0.49622839689254761
0.14883363246917725 0.49791723489761353 0.49215686321258545
0.35458090901374817 0.49411764740943909 0.49051305651664734
0.55366635322570801 0.49803921580314636 0.48823529481887817
0.75630795955657959 0.49803921580314636 0.48823529481887817
0.95906925201416016 0.49803921580314636 0.49209323525428772
0.15182751417160034 0.72573530673980713 0.49500814080238342
0.35398617386817932 0.72573530673980713 0.49037036299705505
0.55294120311737061 0.72965526580810547 0.48828008770942688
0.75692272186279297 0.7296568751335144 0.49161818623542786
0.95707303285598755 0.7296568751335144 0.49019327759742737
0.15341150760650635 0.95735293626785278 0.49607843160629272
0.35733917355537415 0.95735293626785278 0.49332714080810547
0.5572282075881958 0.95735293626785278 0.49560654163360596
0.76263684034347534 0.95735293626785278 0.49607843160629272
0.96351754665374756 0.95735293626785278 0.49469417333602905
0.15072076022624969 0.030882352963089943 0.66754698753356934
0.3539792001247406 0.030882352963089943 0.66979163885116577
0.55437749624252319 0.032514698803424835 0.66926795244216919
0.76148968935012817 0.030882352963089943 0.6658700704574585
0.96143805980682373 0.034803923219442368 0.67235702276229858
0.15114198625087738 0.26394298672676086 0.66874772310256958
0.35748147964477539 0.26249998807907104 0.66645747423171997
0.55798101425170898 0.26249998807907104 0.6658700704574585
0.76284360885620117 0.26640456914901733 0.66598546504974365
0.96465390920639038 0.26642155647277832 0.67539465427398682
0.15009826421737671 0.49543845653533936 0.6658700704574585
0.3541053831577301 0.49411764740943909 0.66293573379516602
0.55545759201049805 0.49513536691665649 0.66195017099380493
0.7586209774017334 0.49821022152900696 0.66388118267059326
0.95806735754013062 0.49803921580314636 0.66698586940765381
0.15330882370471954 0.72194385528564453 0.66979163885116577
0.35266333818435669 0.72573530673980713 0.66453242301940918
0.55401074886322021 0.72940969467163086 0.66204559803009033
0.75734758377075195 0.73092079162597656 0.66513168811798096
0.95510387420654297 0.7296568751335144 0.66042274236679077
0.15356557071208954 0.96060389280319214 0.67028802633285522
0.35658726096153259 0.95735293626785278 0.66947537660598755
0.55916720628738403 0.95735293626785278 0.6658700704574585
0.76429158449172974 0.95735293626785278 0.66979163885116577
0.96539187431335449 0.95950651168823242 0.66626626253128052
0.15045684576034546 0.030882352963089943 0.84195220470428467
0.35536277294158936 0.030882352963089943 0.84054404497146606
0.55684131383895874 0.030926693230867386 0.8428613543510437
0.75900542736053467 0.030882352963089943 0.83700668811798096
0.9643053412437439 0.033456210047006607 0.84047031402587891
0.15286099910736084 0.26249998807907104 0.84350490570068359
0.35802695155143738 0.26249998807907104 0.84350490570068359
0.56078433990478516 0.25858813524246216 0.84402203559875488
0.76354163885116577 0.26249998807907104 0.84350490570068359
0.96527248620986938 0.26642155647277832 0.84742647409439087
0.15008559823036194 0.49482709169387817 0.84314262866973877
0.35367840528488159 0.49459683895111084 0.83958333730697632
0.55856478214263916 0.49411764740943909 0.84350490570068359
0.76155155897140503 0.49771657586097717 0.84261214733123779
0.96173036098480225 0.49803921580314636 0.83866500854492188
0.14749540388584137 0.7296568751335144 0.83964812755584717
0.35286074876785278 0.72955769300460815 0.84193205833435059
0.55687034130096436 0.72573530673980713 0.84640932083129883
0.75747549533843994 0.7296568751335144 0.83958333730697632
0.96183139085769653 0.7296568751335144 0.83935928344726562
0.14960913360118866 0.95824873447418213 0.8426780104637146
0.35538965463638306 0.95735293626785278 0.84155350923538208
0.55882352590560913 0.95735293626785278 0.84350490570068359
0.76137566566467285 0.95735293626785278 0.84350490570068359
0.96384292840957642 0.95774048566818237 0.84350490570068359
