assets/lut/others smooth cromeish.cube
# Created by: G'MIC (https://gmic.eu)
TITLE "smooth_cromeish"
# LUT size
LUT_3D_SIZE 7
# Data domain
DOMAIN_MIN 0.0 0.0 0.0
DOMAIN_MAX 1.0 1.0 1.0
# LUT data points
0.081137143075466156 0.1535930335521698 0.13635240495204926
0.17009748518466949 0.14281362295150757 0.13684797286987305
0.34754332900047302 0.14481733739376068 0.14543120563030243
0.55341637134552002 0.13088269531726837 0.12419020384550095
0.78915917873382568 0.14658933877944946 0.13954946398735046
0.91193687915802002 0.14646178483963013 0.13593347370624542
0.97160422801971436 0.15492032468318939 0.14246763288974762
0.096160575747489929 0.2798149585723877 0.15302455425262451
0.18033002316951752 0.26731961965560913 0.14753171801567078
0.35782468318939209 0.27229124307632446 0.1537272036075592
0.58504372835159302 0.27636632323265076 0.15426863729953766
0.79239028692245483 0.26337265968322754 0.1448545902967453
0.91846799850463867 0.27171057462692261 0.14556001126766205
0.98229742050170898 0.25191518664360046 0.13428913056850433
0.087712995707988739 0.40857416391372681 0.14519155025482178
0.18753549456596375 0.41988760232925415 0.15256671607494354
0.36585932970046997 0.41682794690132141 0.15550926327705383
0.5621446967124939 0.38106906414031982 0.13771337270736694
0.78787606954574585 0.39345055818557739 0.13728432357311249
0.9178694486618042 0.4044492244720459 0.14399524033069611
0.98338192701339722 0.39706403017044067 0.13235968351364136
0.069183811545372009 0.53174853324890137 0.12286854535341263
0.15580011904239655 0.53251248598098755 0.12581731379032135
0.34220755100250244 0.53814572095870972 0.13945487141609192
0.57620012760162354 0.55417925119400024 0.14809827506542206
0.79125428199768066 0.5377543568611145 0.14132998883724213
0.91233021020889282 0.52488511800765991 0.12985919415950775
0.98612093925476074 0.54123139381408691 0.12126297503709793
0.07085157185792923 0.65749615430831909 0.12202662974596024
0.17288768291473389 0.67630350589752197 0.13745288550853729
0.33622479438781738 0.66638827323913574 0.13442018628120422
0.56919938325881958 0.67496156692504883 0.14304110407829285
0.78995615243911743 0.67068350315093994 0.14110785722732544
0.90990579128265381 0.67614001035690308 0.13522198796272278
0.98309558629989624 0.67992329597473145 0.12714597582817078
0.081345275044441223 0.81400376558303833 0.139389768242836
0.17336976528167725 0.8113173246383667 0.13874207437038422
0.36293321847915649 0.82548290491104126 0.15459586679935455
0.56150168180465698 0.8152008056640625 0.1409149169921875
0.78489959239959717 0.81483042240142822 0.13208648562431335
0.90167784690856934 0.81135332584381104 0.12036503851413727
0.97471988201141357 0.82071870565414429 0.12953072786331177
0.085547171533107758 0.95701611042022705 0.13838149607181549
0.18364216387271881 0.96804070472717285 0.14629989862442017
0.34301823377609253 0.96738088130950928 0.1358485072851181
0.54508525133132935 0.96035999059677124 0.12521202862262726
0.78858417272567749 0.97022682428359985 0.13736750185489655
0.91065436601638794 0.97020101547241211 0.13101714849472046
0.97666072845458984 0.97097218036651611 0.13966511189937592
0.076043613255023956 0.14588712155818939 0.21841156482696533
0.17507719993591309 0.14520058035850525 0.23669314384460449
0.37407982349395752 0.16192051768302917 0.25083646178245544
0.60589599609375 0.16951434314250946 0.24981698393821716
0.79805147647857666 0.17910270392894745 0.25866353511810303
0.91445469856262207 0.18968155980110168 0.24738402664661407
0.98350447416305542 0.18628813326358795 0.22874626517295837
0.091225489974021912 0.28388914465904236 0.24152418971061707
0.20258122682571411 0.29602494835853577 0.25767377018928528
0.378652423620224 0.28523367643356323 0.24979592859745026
0.58397406339645386 0.28667727112770081 0.2493656724691391
0.78847247362136841 0.29281207919120789 0.24860014021396637
0.92311269044876099 0.30128034949302673 0.25430762767791748
0.98875069618225098 0.28552699089050293 0.22976134717464447
0.098769992589950562 0.4501897394657135 0.25151136517524719
0.20415076613426208 0.45397353172302246 0.26109686493873596
0.38167309761047363 0.44207245111465454 0.26116526126861572
0.58353716135025024 0.45039254426956177 0.26413071155548096
0.79637771844863892 0.46436703205108643 0.25690522789955139
0.91774141788482666 0.4367196261882782 0.24014104902744293
0.99011969566345215 0.42719203233718872 0.2194344699382782
0.092352814972400665 0.59737813472747803 0.2453760951757431
0.20543219149112701 0.59963595867156982 0.25871291756629944
0.37563815712928772 0.6012108325958252 0.25948527455329895
0.58939528465270996 0.59300488233566284 0.25843033194541931
0.79847323894500732 0.61971086263656616 0.2638532817363739
0.91294616460800171 0.60252517461776733 0.24347703158855438
0.98750466108322144 0.59363096952438354 0.22738181054592133
0.072571083903312683 0.68553215265274048 0.22967703640460968
0.18150091171264648 0.69404059648513794 0.24042458832263947
0.36830845475196838 0.70468151569366455 0.25236380100250244
0.58714145421981812 0.70197010040283203 0.25443708896636963
0.80052298307418823 0.72455000877380371 0.25853097438812256
0.90851444005966187 0.72588145732879639 0.23994177579879761
0.98442739248275757 0.71714168787002563 0.22674867510795593
0.077484339475631714 0.81844556331634521 0.24265843629837036
0.18344372510910034 0.82907676696777344 0.24789951741695404
0.36287322640419006 0.83037137985229492 0.24972259998321533
0.59383291006088257 0.8298717737197876 0.25874239206314087
0.79090023040771484 0.83314055204391479 0.25889331102371216
0.91285616159439087 0.84846186637878418 0.24386249482631683
0.98087447881698608 0.8471066951751709 0.23309795558452606
0.11055056750774384 0.9585644006729126 0.27087777853012085
0.20904475450515747 0.96392643451690674 0.2689821720123291
0.36964565515518188 0.94994348287582397 0.25846049189567566
0.58456575870513916 0.95624750852584839 0.26216796040534973
0.79553979635238647 0.96741127967834473 0.24742451310157776
0.91644430160522461 0.96846467256546021 0.23692239820957184
0.98623764514923096 0.97131490707397461 0.22550629079341888
0.10226032137870789 0.17853167653083801 0.42700257897377014
0.21953622996807098 0.18392187356948853 0.44154292345046997
0.39627888798713684 0.19585393369197845 0.44545736908912659
0.60584896802902222 0.22354656457901001 0.43970635533332825
0.8154417872428894 0.2053312212228775 0.45057228207588196
0.92783129215240479 0.2378997802734375 0.45198237895965576
0.96821731328964233 0.2001386433839798 0.43861764669418335
0.10718119144439697 0.29270544648170471 0.43025147914886475
0.22906185686588287 0.32344093918800354 0.434122234582901
0.40175497531890869 0.31953293085098267 0.43186339735984802
0.60924166440963745 0.31779021024703979 0.44532042741775513
0.81613290309906006 0.3269878625869751 0.45095574855804443
0.92793560028076172 0.33081424236297607 0.46171921491622925
0.98607814311981201 0.32981321215629578 0.4584401547908783
0.11048108339309692 0.4461338222026825 0.42348045110702515
0.22412435710430145 0.45043173432350159 0.45539605617523193
0.40343016386032104 0.4569031298160553 0.43502405285835266
0.61181199550628662 0.47097340226173401 0.44879597425460815
0.81186485290527344 0.49102374911308289 0.45992150902748108
0.92311280965805054 0.46317538619041443 0.4520447850227356
0.98260575532913208 0.48656269907951355 0.45138093829154968
0.11919313669204712 0.63556420803070068 0.44257587194442749
0.2274995893239975 0.60343104600906372 0.45046800374984741
0.40482065081596375 0.60740804672241211 0.44396993517875671
0.60984104871749878 0.6280636191368103 0.44259664416313171
0.8097425103187561 0.62561440467834473 0.45940786600112915
0.91919207572937012 0.62280166149139404 0.45248556137084961
0.99250930547714233 0.64288896322250366 0.44295290112495422
0.11340351402759552 0.73877155780792236 0.44980993866920471
0.2226206362247467 0.72952044010162354 0.44740769267082214
0.40223583579063416 0.74112981557846069 0.44951197504997253
0.61166250705718994 0.7544817328453064 0.45195809006690979
0.81548976898193359 0.72829020023345947 0.45384794473648071
0.922596275806427 0.75646018981933594 0.45243111252784729
0.98862564563751221 0.75076031684875488 0.45042851567268372
0.1079287976026535 0.83987957239151001 0.4670831561088562
0.23236703872680664 0.86893492937088013 0.46682429313659668
0.40161353349685669 0.86938381195068359 0.44843924045562744
0.60632467269897461 0.85780185461044312 0.45210656523704529
0.80174338817596436 0.85979115962982178 0.45638567209243774
0.92043447494506836 0.86305582523345947 0.44475278258323669
0.96859562397003174 0.84511852264404297 0.44947716593742371
0.11640080809593201 0.96784085035324097 0.46078664064407349
0.23001173138618469 0.97180193662643433 0.46782070398330688
0.39524397253990173 0.95468145608901978 0.45651251077651978
0.60643428564071655 0.94109207391738892 0.45928698778152466
0.80229640007019043 0.96531438827514648 0.45758858323097229
0.92345190048217773 0.9666333794593811 0.45516842603683472
0.97191929817199707 0.96672326326370239 0.4439045786857605
0.12219662964344025 0.2174350768327713 0.6254878044128418
0.23297911882400513 0.19781710207462311 0.62394791841506958
0.40371686220169067 0.20123381912708282 0.61784189939498901
0.6186823844909668 0.21662363409996033 0.61719340085983276
0.80904513597488403 0.23519322276115417 0.62672394514083862
0.92029833793640137 0.20611879229545593 0.61887753009796143
0.97835922241210938 0.19878289103507996 0.62592607736587524
0.12239073216915131 0.30880671739578247 0.62637895345687866
0.23446619510650635 0.3202965259552002 0.61904263496398926
0.40216749906539917 0.32425111532211304 0.6127815842628479
0.61602604389190674 0.31645005941390991 0.61575496196746826
0.80320483446121216 0.331011563539505 0.62874394655227661
0.9240993857383728 0.34022679924964905 0.6341090202331543
0.98551583290100098 0.33268868923187256 0.63648730516433716
0.11922501027584076 0.45213449001312256 0.63076913356781006
0.23476041853427887 0.47713294625282288 0.62934321165084839
0.41884219646453857 0.48966282606124878 0.6123586893081665
0.6205751895904541 0.48515570163726807 0.62178683280944824
0.81384098529815674 0.48017096519470215 0.63733416795730591
0.92924404144287109 0.4928232729434967 0.63623064756393433
0.97805583477020264 0.49415493011474609 0.63518303632736206
0.11838872730731964 0.62170320749282837 0.62276417016983032
0.23288439214229584 0.62750160694122314 0.64039045572280884
0.40766042470932007 0.63455992937088013 0.62692195177078247
0.62439298629760742 0.64326679706573486 0.62451028823852539
0.81085216999053955 0.63039296865463257 0.64221292734146118
0.93161320686340332 0.63591700792312622 0.62993478775024414
0.98567432165145874 0.64165782928466797 0.63184398412704468
0.11228585243225098 0.71866321563720703 0.62998169660568237
0.22512289881706238 0.72691267728805542 0.6359865665435791
0.39835962653160095 0.7577279806137085 0.6347382664680481
0.62369322776794434 0.73145347833633423 0.63944971561431885
0.80350172519683838 0.74106335639953613 0.63859790563583374
0.92502450942993164 0.74569207429885864 0.63051396608352661
0.98148179054260254 0.75717681646347046 0.63221198320388794
0.11997540295124054 0.83951526880264282 0.63720810413360596
0.23099379241466522 0.84709644317626953 0.63636207580566406
0.3966687023639679 0.86004745960235596 0.6341167688369751
0.6134229302406311 0.85724788904190063 0.63791948556900024
0.80536568164825439 0.86819350719451904 0.64163696765899658
0.91962248086929321 0.86560827493667603 0.62963974475860596
0.96985197067260742 0.85605514049530029 0.62682616710662842
0.12311579287052155 0.9639582633972168 0.62869459390640259
0.23742316663265228 0.9458422064781189 0.63746106624603271
0.39951303601264954 0.95981866121292114 0.63797777891159058
0.60610014200210571 0.95953714847564697 0.63826775550842285
0.80714458227157593 0.95971846580505371 0.63840800523757935
0.92334991693496704 0.95263636112213135 0.63106787204742432
0.98334157466888428 0.97244977951049805 0.62053042650222778
0.11372988671064377 0.19426576793193817 0.78031730651855469
0.22146396338939667 0.18949151039123535 0.77459347248077393
0.40346801280975342 0.23653107881546021 0.78175687789916992
0.61477547883987427 0.22899574041366577 0.78630733489990234
0.81132322549819946 0.20807382464408875 0.79100364446640015
0.91991186141967773 0.23282530903816223 0.79495924711227417
0.97162514925003052 0.20496638119220734 0.7998766303062439
0.11524050682783127 0.31212905049324036 0.78094464540481567
0.22644722461700439 0.30877283215522766 0.77993595600128174
0.39542493224143982 0.31739753484725952 0.78132474422454834
0.61052227020263672 0.31587487459182739 0.78235507011413574
0.811698317527771 0.31433910131454468 0.80129677057266235
0.92821770906448364 0.32745811343193054 0.80111032724380493
0.98873132467269897 0.32894545793533325 0.80063718557357788
0.11436089873313904 0.4812895655632019 0.80156439542770386
0.22229993343353271 0.47207343578338623 0.78289270401000977
0.39629098773002625 0.45577532052993774 0.78919947147369385
0.61598539352416992 0.47497612237930298 0.78987044095993042
0.80482006072998047 0.46696531772613525 0.79488641023635864
0.92813056707382202 0.48929259181022644 0.79771393537521362
0.98685097694396973 0.48021134734153748 0.79528999328613281
0.11045540869235992 0.61623901128768921 0.79531562328338623
0.22507824003696442 0.62628978490829468 0.79246693849563599
0.40862461924552917 0.63842380046844482 0.78720009326934814
0.61886459589004517 0.62400239706039429 0.78346353769302368
0.80299997329711914 0.63258910179138184 0.78958255052566528
0.92650395631790161 0.62859690189361572 0.78288435935974121
0.98588228225708008 0.63114708662033081 0.7911452054977417
0.11235632747411728 0.70711433887481689 0.78770554065704346
0.2184380441904068 0.7230866551399231 0.79076075553894043
0.39711052179336548 0.75663769245147705 0.79315859079360962
0.62226969003677368 0.73870432376861572 0.7868419885635376
0.80651646852493286 0.74249380826950073 0.7887004017829895
0.9235953688621521 0.73972201347351074 0.78900247812271118
0.98387926816940308 0.75771522521972656 0.80032247304916382
0.11340148001909256 0.8282850980758667 0.78626608848571777
0.22605150938034058 0.83643925189971924 0.79444664716720581
0.39453580975532532 0.85333830118179321 0.79317784309387207
0.61417889595031738 0.85705506801605225 0.79462146759033203
0.81106400489807129 0.85031616687774658 0.80019313097000122
0.92330652475357056 0.84587150812149048 0.79648083448410034
0.96283507347106934 0.85394233465194702 0.78776019811630249
0.11706124246120453 0.96639835834503174 0.79432123899459839
0.23070129752159119 0.95296329259872437 0.80008548498153687
0.40446281433105469 0.94765216112136841 0.79747039079666138
0.61014723777770996 0.9581679105758667 0.79871612787246704
0.80703675746917725 0.96826547384262085 0.80312931537628174
0.92342424392700195 0.97051560878753662 0.7909577488899231
0.97998297214508057 0.9719889760017395 0.77670413255691528
0.082290947437286377 0.14821916818618774 0.92054492235183716
0.19094210863113403 0.16030494868755341 0.90854758024215698
0.35783076286315918 0.1718420535326004 0.91529273986816406
0.58862793445587158 0.17917069792747498 0.91497206687927246
0.79959011077880859 0.17241394519805908 0.92258960008621216
0.91795814037322998 0.19025227427482605 0.91991478204727173
0.98311412334442139 0.19001542031764984 0.92012101411819458
0.092429064214229584 0.27542582154273987 0.91778111457824707
0.18907497823238373 0.27316084504127502 0.91657620668411255
0.36462098360061646 0.27623921632766724 0.9187694787979126
0.5838242769241333 0.28574082255363464 0.91954797506332397
0.79461777210235596 0.30759355425834656 0.92271989583969116
0.9226875901222229 0.2895607054233551 0.92249518632888794
0.9897271990776062 0.28679627180099487 0.92212045192718506
0.10008633136749268 0.45494413375854492 0.9280019998550415
0.20009230077266693 0.43811899423599243 0.92007839679718018
0.37936988472938538 0.44857147336006165 0.92361903190612793
0.59304755926132202 0.43913263082504272 0.91863405704498291
0.79565387964248657 0.46165367960929871 0.91741478443145752
0.92099922895431519 0.46819952130317688 0.92110919952392578
0.98941957950592041 0.43647059798240662 0.91641378402709961
0.091116540133953094 0.59131228923797607 0.92427510023117065
0.20181162655353546 0.59891188144683838 0.92183995246887207
0.37884038686752319 0.60511529445648193 0.92422974109649658
0.58738571405410767 0.58824354410171509 0.92105162143707275
0.7870604395866394 0.60219448804855347 0.91251450777053833
0.92171919345855713 0.59932267665863037 0.91195017099380493
0.98763835430145264 0.59477871656417847 0.91680717468261719
0.077178642153739929 0.68101221323013306 0.92177480459213257
0.19252902269363403 0.69535452127456665 0.91822892427444458
0.3550068736076355 0.69550275802612305 0.91791284084320068
0.58669191598892212 0.71248126029968262 0.91970539093017578
0.79384040832519531 0.73897790908813477 0.91520011425018311
0.91951984167098999 0.7209898829460144 0.91505438089370728
0.98347645998001099 0.72894150018692017 0.91702985763549805
0.071252666413784027 0.79779064655303955 0.91418814659118652
0.18952527642250061 0.81697243452072144 0.91799795627593994
0.36437982320785522 0.82387971878051758 0.91633695363998413
0.5875321626663208 0.83360391855239868 0.92252498865127563
0.79063278436660767 0.83750516176223755 0.91797733306884766
0.91334563493728638 0.83567744493484497 0.91001206636428833
0.97972553968429565 0.84795677661895752 0.91850060224533081
0.10433496534824371 0.95118457078933716 0.9245954155921936
0.20460914075374603 0.953990638256073 0.92364233732223511
0.37797972559928894 0.96525627374649048 0.92263531684875488
0.58822286128997803 0.95910948514938354 0.91978496313095093
0.793415367603302 0.9635319709777832 0.91909974813461304
0.91111564636230469 0.96309369802474976 0.91234010457992554
0.98949837684631348 0.97098398208618164 0.91402316093444824
0.079139873385429382 0.15355430543422699 0.99596214294433594
0.15728509426116943 0.13926182687282562 0.99130243062973022
0.35502079129219055 0.16008317470550537 0.99493473768234253
0.5599285364151001 0.14826321601867676 0.99548614025115967
0.79203402996063232 0.15987184643745422 0.99488908052444458
0.89202404022216797 0.13512130081653595 0.98887866735458374
0.9711989164352417 0.18608884513378143 0.99154853820800781
0.089867189526557922 0.28545084595680237 0.99685347080230713
0.18801568448543549 0.28453421592712402 0.99598288536071777
0.36574965715408325 0.29344266653060913 0.99645686149597168
0.5832984447479248 0.2898329496383667 0.99735498428344727
0.78966093063354492 0.28458127379417419 0.9945380687713623
0.91517180204391479 0.29185071587562561 0.99638772010803223
0.97738480567932129 0.29098987579345703 0.99632364511489868
0.082180514931678772 0.43396762013435364 0.99772483110427856
0.19140912592411041 0.447500079870224 0.99730473756790161
0.37034797668457031 0.45038661360740662 0.99693465232849121
0.56907957792282104 0.43544363975524902 0.99568444490432739
0.79516947269439697 0.44739460945129395 0.9955446720123291
0.91333848237991333 0.43007051944732666 0.99574524164199829
0.97618311643600464 0.43094116449356079 0.99665766954421997
0.063375256955623627 0.54075527191162109 0.99648559093475342
0.15764631330966949 0.56095987558364868 0.99742358922958374
0.34402596950531006 0.58100706338882446 0.99748265743255615
0.54507344961166382 0.576119065284729 0.99689072370529175
0.78151321411132812 0.57624083757400513 0.99472278356552124
0.91137015819549561 0.58276176452636719 0.99390339851379395
0.98320525884628296 0.58245474100112915 0.99456334114074707
0.072971731424331665 0.70287990570068359 0.99730890989303589
0.15871874988079071 0.69726622104644775 0.99747103452682495
0.34692126512527466 0.70687645673751831 0.99747419357299805
0.56281214952468872 0.71148025989532471 0.99499988555908203
0.7825847864151001 0.72123891115188599 0.99222475290298462
0.91350120306015015 0.7264474630355835 0.99276942014694214
0.96844160556793213 0.71715015172958374 0.99154233932495117
0.065393500030040741 0.8302457332611084 0.99515175819396973
0.18218879401683807 0.85380047559738159 0.99520629644393921
0.36352965235710144 0.85400819778442383 0.99619299173355103
0.57855188846588135 0.84766852855682373 0.99605172872543335
0.78371816873550415 0.85132336616516113 0.9917532205581665
0.90771520137786865 0.85730910301208496 0.98922163248062134
0.96976196765899658 0.84889376163482666 0.99463140964508057
0.060430236160755157 0.96246862411499023 0.99345946311950684
0.20366679131984711 0.96141886711120605 0.99264329671859741
0.34709802269935608 0.97683143615722656 0.99227249622344971
0.5598454475402832 0.9669196605682373 0.99248743057250977
0.76886677742004395 0.9771772027015686 0.99351447820663452
0.91399633884429932 0.97942918539047241 0.9894949197769165
0.98351836204528809 0.96072685718536377 0.99104779958724976
