assets/lut/others hong kong.cube
# Created by: G'MIC (https://gmic.eu)
TITLE "hong_kong"
# LUT size
LUT_3D_SIZE 13
# Data domain
DOMAIN_MIN 0.0 0.0 0.0
DOMAIN_MAX 1.0 1.0 1.0
# LUT data points
0.0078431377187371254 0.00011201746383449063 0.0079693514853715897
0.010778898373246193 0 0.0053009930998086929
0.068336695432662964 0.0017480887472629547 0.0041018016636371613
0.20447741448879242 0.0039215688593685627 0.0070822322741150856
0.34457635879516602 0.0047343983314931393 0.013658486306667328
0.47941738367080688 0.0071297138929367065 0.019305448979139328
0.59954911470413208 0.0083204684779047966 0.016780972480773926
0.71013116836547852 0.0078594731166958809 0.011975427158176899
0.80464434623718262 0.00526453647762537 0.0083663938567042351
0.87508493661880493 0.0034279916435480118 0.0072079827077686787
0.92032945156097412 0.0039215688593685627 0.0096063055098056793
0.95461505651473999 0.0037325392477214336 0.015920422971248627
0.97757542133331299 0.0037768795154988766 0.011792306788265705
0.0078431377187371254 0.0088647576048970222 0.0042492733336985111
0.0083675310015678406 0.0076802722178399563 0.0027131473179906607
0.065861687064170837 0.0079150181263685226 0.0028386283665895462
0.2059786319732666 0.0089224418625235558 0.006155096460133791
0.3467307984828949 0.017698952928185463 0.0091783562675118446
0.47933965921401978 0.023539494723081589 0.011249781586229801
0.59621894359588623 0.020864717662334442 0.01116790808737278
0.71039646863937378 0.015084884129464626 0.0084107639268040657
0.80423665046691895 0.01619352400302887 0.0077330945059657097
0.87225884199142456 0.017522385343909264 0.0064787920564413071
0.92245310544967651 0.011756717227399349 0.0072055594064295292
0.95599085092544556 0.01418723352253437 0.0090918596833944321
0.98178088665008545 0.011364103294909 0.0079462090507149696
0.0078431377187371254 0.061664283275604248 0.0054837395437061787
0.0093048540875315666 0.063387654721736908 0.0042010140605270863
0.0696120485663414 0.063750773668289185 0.0042597753927111626
0.21001400053501129 0.06380009651184082 0.0067248623818159103
0.35240370035171509 0.066241934895515442 0.0055691888555884361
0.48166546225547791 0.067948915064334869 0.0077978693880140781
0.59983313083648682 0.070222221314907074 0.010164687409996986
0.7132146954536438 0.070737592875957489 0.0084542073309421539
0.80352610349655151 0.072216883301734924 0.0081877466291189194
0.86982691287994385 0.072617217898368835 0.0087591130286455154
0.9237293004989624 0.070089124143123627 0.0082109337672591209
0.95710170269012451 0.070947177708148956 0.0069302576594054699
0.98269903659820557 0.068741381168365479 0.006223730742931366
0.0078431377187371254 0.14566691219806671 0.0071454965509474277
0.010818377137184143 0.14525189995765686 0.0063089705072343349
0.072876468300819397 0.1451890766620636 0.0063704098574817181
0.21359547972679138 0.14376728236675262 0.0076654921285808086
0.35657194256782532 0.14418229460716248 0.0069043776020407677
0.48173779249191284 0.14509445428848267 0.0093451859429478645
0.60011082887649536 0.14822225272655487 0.011690566316246986
0.71348929405212402 0.15083996951580048 0.010453511960804462
0.80481642484664917 0.15258906781673431 0.0084601305425167084
0.87303227186203003 0.15308108925819397 0.0089783910661935806
0.92309319972991943 0.15289926528930664 0.0090356413275003433
0.95839548110961914 0.15188604593276978 0.005611000582575798
0.97999811172485352 0.15077675879001617 0.0050433292053639889
0.0078431377187371254 0.24164578318595886 0.0055542290210723877
0.0080542620271444321 0.23800307512283325 0.0044196182861924171
0.065578266978263855 0.23583976924419403 0.0038030287250876427
0.21285520493984222 0.23740494251251221 0.005145353265106678
0.35494625568389893 0.23970772325992584 0.0044531878083944321
0.47980087995529175 0.23703233897686005 0.006570479366928339
0.5984155535697937 0.23708803951740265 0.0083990208804607391
0.71054631471633911 0.23732462525367737 0.0091872569173574448
0.80365365743637085 0.2386985570192337 0.0064900116994976997
0.87335234880447388 0.24131718277931213 0.0077391979284584522
0.92144852876663208 0.24171176552772522 0.0075989216566085815
0.95852524042129517 0.24003687500953674 0.0039312327280640602
0.97724539041519165 0.23769846558570862 0.0027370078023523092
0.0077160405926406384 0.35526874661445618 0.0067752762697637081
0.0094562601298093796 0.35372871160507202 0.0040266001597046852
0.074148185551166534 0.3521348237991333 0.0041639590635895729
0.2132473886013031 0.3496251106262207 0.0061811860650777817
0.35279926657676697 0.34949934482574463 0.005527077242732048
0.47545123100280762 0.34451007843017578 0.0068250768817961216
0.59532016515731812 0.34389773011207581 0.0077869640663266182
0.7084009051322937 0.34614098072052002 0.0059958365745842457
0.79883480072021484 0.35236379504203796 0.0049508637748658657
0.87067669630050659 0.35867452621459961 0.0068813548423349857
0.91970795392990112 0.35983097553253174 0.0078010708093643188
0.95539802312850952 0.35506647825241089 0.0060458462685346603
0.98132205009460449 0.35084754228591919 0.0050287134945392609
0.0078302118927240372 0.48797839879989624 0.0055635040625929832
0.0093468613922595978 0.4860960841178894 0.003841654397547245
0.070999100804328918 0.48329582810401917 0.0035148770548403263
0.21290673315525055 0.47545966506004333 0.0063191731460392475
0.35032215714454651 0.47272062301635742 0.0079295290634036064
0.47650450468063354 0.47068241238594055 0.0095139900222420692
0.59750503301620483 0.46926736831665039 0.0084725469350814819
0.7084648609161377 0.4709770679473877 0.007500337902456522
0.79438477754592896 0.4776100218296051 0.0050996220670640469
0.86865603923797607 0.48776271939277649 0.0040376549586653709
0.91709256172180176 0.48724061250686646 0.0069715464487671852
0.95347905158996582 0.48091176152229309 0.0087833032011985779
0.98262888193130493 0.48048493266105652 0.0057681663893163204
0.0078431377187371254 0.61880254745483398 0.0072175869718194008
0.0091612422838807106 0.6159178614616394 0.0051147611811757088
0.069713577628135681 0.60913580656051636 0.0042703365907073021
0.21371173858642578 0.60123258829116821 0.0040771486237645149
0.34926098585128784 0.59866398572921753 0.0056734122335910797
0.47935795783996582 0.59939241409301758 0.0085670920088887215
0.60570472478866577 0.59980660676956177 0.0078042573295533657
0.71276736259460449 0.60084789991378784 0.0078444536775350571
0.79626178741455078 0.60438305139541626 0.0094670765101909637
0.86857461929321289 0.60878944396972656 0.0045630363747477531
0.91715735197067261 0.60975116491317749 0.0074319876730442047
0.95329082012176514 0.60793101787567139 0.0093846637755632401
0.98196649551391602 0.61001312732696533 0.0064033507369458675
0.0073686186224222183 0.73468559980392456 0.0087290890514850616
0.010993987321853638 0.72837907075881958 0.0078553445637226105
0.073765970766544342 0.72027009725570679 0.00775146484375
0.21372522413730621 0.71996849775314331 0.0061365761794149876
0.35148370265960693 0.7206922173500061 0.0053349514491856098
0.4832766056060791 0.71618574857711792 0.0064297844655811787
0.60762530565261841 0.71162337064743042 0.0074362363666296005
0.71458560228347778 0.70986843109130859 0.0077457502484321594
0.79995089769363403 0.71173065900802612 0.011264845728874207
0.86753553152084351 0.71430820226669312 0.0078651877120137215
0.91981685161590576 0.71931552886962891 0.0066675520502030849
0.95565134286880493 0.72160029411315918 0.0075790407136082649
0.98242580890655518 0.72147727012634277 0.0053435531444847584
0.0078221336007118225 0.80820286273956299 0.006948553491383791
0.0092208711430430412 0.80608063936233521 0.0050382576882839203
0.068951085209846497 0.80056804418563843 0.0048516364768147469
0.21122172474861145 0.79846596717834473 0.0070379967801272869
0.35133063793182373 0.79834890365600586 0.0060065323486924171
0.48376885056495667 0.79920667409896851 0.0047121532261371613
0.60322540998458862 0.79098248481750488 0.0063540441915392876
0.70997685194015503 0.79133015871047974 0.0058363820426166058
0.80091500282287598 0.79622644186019897 0.0056496267206966877
0.86795413494110107 0.79889935255050659 0.0061241895891726017
0.92000085115432739 0.80144333839416504 0.006474603433161974
0.95544290542602539 0.79857861995697021 0.0078221336007118225
0.97991764545440674 0.80124658346176147 0.0066121118143200874
0.009713401086628437 0.85245180130004883 0.0050623724237084389
0.0084460685029625893 0.85463964939117432 0.003771867835894227
0.065365761518478394 0.85627782344818115 0.0048299003392457962
0.21258945763111115 0.8538285493850708 0.008706485852599144
0.35065242648124695 0.85262459516525269 0.0081336824223399162
0.48245641589164734 0.85288935899734497 0.0058770719915628433
0.6094016432762146 0.8510054349899292 0.0046515967696905136
0.71236610412597656 0.85334634780883789 0.0046545588411390781
0.80436074733734131 0.85580617189407349 0.0050248689949512482
0.87321591377258301 0.85638260841369629 0.0057064727880060673
0.91608744859695435 0.85583066940307617 0.0058102477341890335
0.95413058996200562 0.85586392879486084 0.0051850262098014355
0.97057795524597168 0.85521417856216431 0.0067451028153300285
0.011738676577806473 0.88746041059494019 0.0051299897022545338
0.01173725537955761 0.89035356044769287 0.0043676788918673992
0.069094128906726837 0.89362621307373047 0.0056965695694088936
0.21392025053501129 0.89523917436599731 0.008548317477107048
0.35105058550834656 0.89399522542953491 0.0082848789170384407
0.48437055945396423 0.89390593767166138 0.005365319550037384
0.61502593755722046 0.89439177513122559 0.0041531878523528576
0.71588313579559326 0.89393240213394165 0.0071073197759687901
0.80603325366973877 0.89319449663162231 0.0093442881479859352
0.87431389093399048 0.89384937286376953 0.0064033358357846737
0.91761082410812378 0.89298146963119507 0.0050874748267233372
0.95450198650360107 0.89327138662338257 0.0042854459024965763
0.9720490574836731 0.89215964078903198 0.0050678178668022156
0.010252664797008038 0.91352194547653198 0.0043204212561249733
0.0087320664897561073 0.91736447811126709 0.0031924976501613855
0.065639287233352661 0.91825872659683228 0.004993857815861702
0.21392297744750977 0.91126132011413574 0.011648888699710369
0.3517862856388092 0.90871036052703857 0.011877171695232391
0.48611065745353699 0.90976995229721069 0.0076735252514481544
0.60745328664779663 0.90681636333465576 0.0073931226506829262
0.7162126898765564 0.91178393363952637 0.013317467644810677
0.8053286075592041 0.91458851099014282 0.015153802931308746
0.87180638313293457 0.91657674312591553 0.0077189425937831402
0.92213177680969238 0.92004859447479248 0.0022974950261414051
0.95441174507141113 0.91878926753997803 0.0033208210952579975
0.98103243112564087 0.91991382837295532 0.0021590287797152996
0.0058468836359679699 0.002613127464428544 0.02911059744656086
0.0073275249451398849 0.0011701247422024608 0.025146394968032837
0.067420735955238342 0.0010307312477380037 0.024022195488214493
0.21025985479354858 0.0039215688593685627 0.027223728597164154
0.35061165690422058 0.0038477429188787937 0.027314998209476471
0.48514828085899353 0.0040230094455182552 0.026894828304648399
0.60027873516082764 0.0069408789277076721 0.03062012605369091
0.7105526328086853 0.0084014292806386948 0.031135933473706245
0.8060721755027771 0.0052937525324523449 0.026615023612976074
0.87466967105865479 0.0028415455017238855 0.023717423900961876
0.91660118103027344 0.0042727002874016762 0.026573166251182556
0.95560264587402344 0.0016110140131786466 0.026129525154829025
0.97020423412322998 0.0021234550513327122 0.026259493082761765
0.0077694011852145195 0.015396746806800365 0.024787453934550285
0.0077019487507641315 0.01275953371077776 0.022882468998432159
0.064477734267711639 0.0099403532221913338 0.021868972107768059
0.21201299130916595 0.008406919427216053 0.023714417591691017
0.35248714685440063 0.014042932540178299 0.024082453921437263
0.48342609405517578 0.019378961995244026 0.025470374152064323
0.59893089532852173 0.018124943599104881 0.028514457866549492
0.7104300856590271 0.012742480263113976 0.025186590850353241
0.804676353931427 0.015142687596380711 0.023651810362935066
0.87410509586334229 0.023875607177615166 0.023965498432517052
0.92010462284088135 0.024137727916240692 0.025874163955450058
0.95624136924743652 0.022556275129318237 0.025479035452008247
0.97875547409057617 0.018137209117412567 0.025232382118701935
0.0066624809987843037 0.062195543199777603 0.024180527776479721
0.0071406494826078415 0.062584832310676575 0.02133616991341114
0.06408989429473877 0.06365203857421875 0.020866170525550842
0.21108706295490265 0.064325176179409027 0.025818783789873123
0.35437664389610291 0.064005769789218903 0.024316510185599327
0.48435118794441223 0.065309561789035797 0.024760063737630844
0.59995019435882568 0.068194128572940826 0.028755981475114822
0.71207761764526367 0.068517036736011505 0.028674885630607605
0.80225801467895508 0.070564478635787964 0.027026651427149773
0.8690485954284668 0.073227584362030029 0.027133701369166374
0.92322123050689697 0.070952802896499634 0.024944335222244263
0.95605814456939697 0.071662336587905884 0.026574019342660904
0.98310226202011108 0.067142173647880554 0.02580331452190876
0.0078431377187371254 0.14294008910655975 0.026785742491483688
0.0080041475594043732 0.14360867440700531 0.024703022092580795
0.065397821366786957 0.14421145617961884 0.024676783010363579
0.21048605442047119 0.14565551280975342 0.029017025604844093
0.35295403003692627 0.14558474719524384 0.028123818337917328
0.48586282134056091 0.14513851702213287 0.025574972853064537
0.60108959674835205 0.14745587110519409 0.032051041722297668
0.71308243274688721 0.15074433386325836 0.03704521432518959
0.80511480569839478 0.15157897770404816 0.030425246804952621
0.87250638008117676 0.15045303106307983 0.026784036308526993
0.92286974191665649 0.14995715022087097 0.026178637519478798
0.95812171697616577 0.15063393115997314 0.027135707437992096
0.98145604133605957 0.14956995844841003 0.03032480925321579
0.0076774447225034237 0.24082860350608826 0.02679811418056488
0.0078779635950922966 0.23997145891189575 0.023905929177999496
0.065119050443172455 0.23965480923652649 0.024173930287361145
0.21096694469451904 0.23976561427116394 0.026712993159890175
0.35538288950920105 0.24109293520450592 0.024101601913571358
0.48196405172348022 0.24088582396507263 0.02668965607881546
0.59995579719543457 0.24166499078273773 0.030689433217048645
0.71151870489120483 0.24041074514389038 0.037686724215745926
0.80578148365020752 0.23815423250198364 0.028443789109587669
0.87569183111190796 0.23856011033058167 0.024051083251833916
0.9216955304145813 0.238817498087883 0.024675600230693817
0.95956945419311523 0.23848055303096771 0.025545636191964149
0.97995597124099731 0.23802796006202698 0.035067733377218246
0.0065433578565716743 0.35304960608482361 0.029251232743263245
0.007401186041533947 0.35267123579978943 0.024185299873352051
0.075762823224067688 0.35333862900733948 0.027140988036990166
0.21430662274360657 0.35298171639442444 0.030784009024500847
0.35653552412986755 0.35339236259460449 0.027183009311556816
0.48025912046432495 0.35054615139961243 0.029084702953696251
0.59848898649215698 0.34951338171958923 0.029070775955915451
0.70878970623016357 0.35055091977119446 0.025799425318837166
0.79852467775344849 0.3512304425239563 0.026777828112244606
0.87138509750366211 0.35493078827857971 0.028509566560387611
0.92153006792068481 0.35564532876014709 0.028617650270462036
0.95748746395111084 0.35502803325653076 0.03278929740190506
0.98036736249923706 0.35378316044807434 0.041653726249933243
0.0051828273572027683 0.48464804887771606 0.033617474138736725
0.0088321613147854805 0.48418310284614563 0.030829710885882378
0.076128743588924408 0.48396271467208862 0.032712209969758987
0.21564851701259613 0.47923994064331055 0.031865976750850677
0.35401621460914612 0.47858324646949768 0.033336099237203598
0.48158600926399231 0.47758051753044128 0.036116253584623337
0.60128861665725708 0.4745934009552002 0.03149394690990448
0.70977723598480225 0.47381708025932312 0.024941284209489822
0.7952653169631958 0.47765308618545532 0.028355423361063004
0.8680720329284668 0.48534029722213745 0.029921617358922958
0.92195367813110352 0.48762309551239014 0.027353100478649139
0.95501697063446045 0.48436626791954041 0.032869137823581696
0.98233717679977417 0.48634791374206543 0.031413044780492783
0.0069629894569516182 0.61577892303466797 0.03279489278793335
0.0081418352201581001 0.61068987846374512 0.029108652845025063
0.067801259458065033 0.60620385408401489 0.026130257174372673
0.21462874114513397 0.60109823942184448 0.023622341454029083
0.35269498825073242 0.6017681360244751 0.028865635395050049
0.48310565948486328 0.60292643308639526 0.034364856779575348
0.6089978814125061 0.60145449638366699 0.028334584087133408
0.71572095155715942 0.60061395168304443 0.024249373003840446
0.80268371105194092 0.60201007127761841 0.0257707629352808
0.86970311403274536 0.60799849033355713 0.025199307128787041
0.9215850830078125 0.61056047677993774 0.025163223966956139
0.95474392175674438 0.60987889766693115 0.027974491938948631
0.98264831304550171 0.61090379953384399 0.024833379313349724
0.0042183520272374153 0.72899949550628662 0.026104362681508064
0.0056697921827435493 0.72524470090866089 0.022781595587730408
0.06463313102722168 0.72063696384429932 0.020738415420055389
0.2135898768901825 0.71777927875518799 0.022917324677109718
0.3533473014831543 0.71692401170730591 0.024925202131271362
0.48640963435173035 0.71757358312606812 0.026571864262223244
0.60843628644943237 0.71211183071136475 0.025593671947717667
0.71561872959136963 0.71003109216690063 0.024563359096646309
0.80478227138519287 0.71088159084320068 0.025091059505939484
0.8697049617767334 0.71557343006134033 0.025169149041175842
0.92124563455581665 0.72057455778121948 0.024512406438589096
0.95627367496490479 0.72436654567718506 0.02414703369140625
0.98332351446151733 0.72195231914520264 0.023938706144690514
0.0047214580699801445 0.80285191535949707 0.024663079530000687
0.005139459390193224 0.80322903394699097 0.022350611165165901
0.064005725085735321 0.80261647701263428 0.021784299984574318
0.21316967904567719 0.80204015970230103 0.025912849232554436
0.35192817449569702 0.80062544345855713 0.026765128597617149
0.48507493734359741 0.80134576559066772 0.024869387969374657
0.5996360182762146 0.79488140344619751 0.028045086190104485
0.7071462869644165 0.7943381667137146 0.026899943128228188
0.80148947238922119 0.79775011539459229 0.022872267290949821
0.86808604001998901 0.80062556266784668 0.025062097236514091
0.92111301422119141 0.80372750759124756 0.025258097797632217
0.95618176460266113 0.7997928261756897 0.026000857353210449
0.98155087232589722 0.80259627103805542 0.024504434317350388
0.0070270164869725704 0.84858077764511108 0.028084071353077888
0.0077127944678068161 0.8509710431098938 0.02711067907512188
0.066393382847309113 0.85274779796600342 0.029635844752192497
0.21323199570178986 0.85095483064651489 0.036243066191673279
0.35134649276733398 0.84944194555282593 0.035856522619724274
0.4833027720451355 0.8500104546546936 0.030075956135988235
0.60748547315597534 0.85238450765609741 0.026791201904416084
0.71092408895492554 0.85423988103866577 0.025920689105987549
0.80343538522720337 0.85502904653549194 0.024327132850885391
0.87173998355865479 0.85513889789581299 0.026234870776534081
0.91709339618682861 0.85539424419403076 0.027474945411086082
0.95605039596557617 0.85622197389602661 0.024966087192296982
0.97261101007461548 0.85542172193527222 0.027159044519066811
0.0096873566508293152 0.88643604516983032 0.0279819555580616
0.0088107986375689507 0.89035904407501221 0.02504996582865715
0.065437227487564087 0.89365983009338379 0.025675605982542038
0.21330317854881287 0.89167994260787964 0.033070880919694901
0.35151246190071106 0.89104932546615601 0.033834733068943024
0.48724466562271118 0.89140081405639648 0.027919679880142212
0.61406522989273071 0.89542281627655029 0.023697946220636368
0.71433877944946289 0.89610916376113892 0.025038177147507668
0.80561935901641846 0.89597362279891968 0.025787757709622383
0.87508255243301392 0.89595216512680054 0.02653127908706665
0.91753005981445312 0.89433139562606812 0.029490092769265175
0.9558405876159668 0.89360535144805908 0.028518019244074821
0.97373712062835693 0.89286595582962036 0.031817521899938583
0.011764706112444401 0.91281026601791382 0.027890074998140335
0.0099170012399554253 0.91669923067092896 0.02376626618206501
0.06591758131980896 0.91960489749908447 0.022313181310892105
0.21424657106399536 0.91868400573730469 0.02568449079990387
0.35092750191688538 0.91575002670288086 0.027375718578696251
0.48720750212669373 0.91345840692520142 0.024730099365115166
0.60588294267654419 0.91382145881652832 0.025250259786844254
0.71259361505508423 0.91829216480255127 0.025889107957482338
0.80277860164642334 0.92016255855560303 0.026843590661883354
0.8705441951751709 0.92001575231552124 0.029586583375930786
0.92204546928405762 0.92031645774841309 0.032972030341625214
0.95441174507141113 0.9179152250289917 0.035638533532619476
0.98114186525344849 0.91849130392074585 0.036457344889640808
0.0033838460221886635 0.0039215688593685627 0.090332493185997009
0.011552623473107815 0.0038776174187660217 0.089438103139400482
0.080184534192085266 0.0038745056372135878 0.090406395494937897
0.21702270209789276 0.0039215688593685627 0.09046027809381485
0.35429194569587708 0.0031108034308999777 0.088214695453643799
0.48417675495147705 0.0035134707577526569 0.08429253101348877
0.60198867321014404 0.0092477835714817047 0.088170267641544342
0.71311837434768677 0.014929004944860935 0.091232165694236755
0.80646800994873047 0.010913684032857418 0.090169481933116913
0.87280565500259399 0.0070804818533360958 0.087472997605800629
0.91663718223571777 0.0071141109801828861 0.085052996873855591
0.95561325550079346 0.003501024330034852 0.08424319326877594
0.97585678100585938 0.0036471646744757891 0.084315188229084015
0.0057899476960301399 0.014450537040829659 0.08547026664018631
0.0077150231227278709 0.010775024071335793 0.08547675609588623
0.067843958735466003 0.0096507798880338669 0.086263768374919891
0.21252381801605225 0.012097422033548355 0.087382026016712189
0.35110282897949219 0.012650448828935623 0.08712971955537796
0.48528909683227539 0.01358407735824585 0.087010614573955536
0.60360431671142578 0.016094282269477844 0.089465104043483734
0.71222764253616333 0.020327026024460793 0.08886987715959549
0.8059876561164856 0.018965208902955055 0.088454194366931915
0.87384921312332153 0.018486352637410164 0.086435042321681976
0.91930067539215088 0.023421268910169601 0.084012188017368317
0.95607370138168335 0.02020893432199955 0.083660975098609924
0.98087781667709351 0.013108107261359692 0.083713635802268982
0.0066634980030357838 0.063372202217578888 0.08368847519159317
0.0086441636085510254 0.06330561637878418 0.083409145474433899
0.066098637878894806 0.065609052777290344 0.083846315741539001
0.20840932428836823 0.068338252604007721 0.08630332350730896
0.34880518913269043 0.067720241844654083 0.087616533041000366
0.48429617285728455 0.066163033246994019 0.08686334639787674
0.6024361252784729 0.067807994782924652 0.088072247803211212
0.71171563863754272 0.06705474853515625 0.088962391018867493
0.80197012424468994 0.068437866866588593 0.088012710213661194
0.87116926908493042 0.071409784257411957 0.085418805480003357
0.92227298021316528 0.071846500039100647 0.084135465323925018
0.95557445287704468 0.072327569127082825 0.086573459208011627
0.98248457908630371 0.068525470793247223 0.085693463683128357
0.0071458104066550732 0.14249919354915619 0.084315069019794464
0.0084105851128697395 0.14303731918334961 0.08356146514415741
0.065814882516860962 0.14502166211605072 0.083896562457084656
0.20688454806804657 0.14774961769580841 0.086798995733261108
0.34718990325927734 0.1472027599811554 0.086804047226905823
0.48378857970237732 0.14683111011981964 0.086523853242397308
0.60178905725479126 0.14817430078983307 0.0878310427069664
0.7124788761138916 0.14935633540153503 0.08975239098072052
