assets/lut/others hong kong.cube
# Created by: G'MIC (https://gmic.eu)
TITLE "hong_kong"
# LUT size
LUT_3D_SIZE 7
# Data domain
DOMAIN_MIN 0.0 0.0 0.0
DOMAIN_MAX 1.0 1.0 1.0
# LUT data points
0.0078431377187371254 0.00011201746383449063 0.0079693514853715897
0.068336695432662964 0.0017480887472629547 0.0041018016636371613
0.34457635879516602 0.0047343983314931393 0.013658486306667328
0.59954911470413208 0.0083204684779047966 0.016780972480773926
0.80464434623718262 0.00526453647762537 0.0083663938567042351
0.92032945156097412 0.0039215688593685627 0.0096063055098056793
0.97757542133331299 0.0037768795154988766 0.011792306788265705
0.0078431377187371254 0.061664283275604248 0.0054837395437061787
0.0696120485663414 0.063750773668289185 0.0042597753927111626
0.35240370035171509 0.066241934895515442 0.0055691888555884361
0.59983313083648682 0.070222221314907074 0.010164687409996986
0.80352610349655151 0.072216883301734924 0.0081877466291189194
0.9237293004989624 0.070089124143123627 0.0082109337672591209
0.98269903659820557 0.068741381168365479 0.006223730742931366
0.0078431377187371254 0.24164578318595886 0.0055542290210723877
0.065578266978263855 0.23583976924419403 0.0038030287250876427
0.35494625568389893 0.23970772325992584 0.0044531878083944321
0.5984155535697937 0.23708803951740265 0.0083990208804607391
0.80365365743637085 0.2386985570192337 0.0064900116994976997
0.92144852876663208 0.24171176552772522 0.0075989216566085815
0.97724539041519165 0.23769846558570862 0.0027370078023523092
0.0078302118927240372 0.48797839879989624 0.0055635040625929832
0.070999100804328918 0.48329582810401917 0.0035148770548403263
0.35032215714454651 0.47272062301635742 0.0079295290634036064
0.59750503301620483 0.46926736831665039 0.0084725469350814819
0.79438477754592896 0.4776100218296051 0.0050996220670640469
0.91709256172180176 0.48724061250686646 0.0069715464487671852
0.98262888193130493 0.48048493266105652 0.0057681663893163204
0.0073686186224222183 0.73468559980392456 0.0087290890514850616
0.073765970766544342 0.72027009725570679 0.00775146484375
0.35148370265960693 0.7206922173500061 0.0053349514491856098
0.60762530565261841 0.71162337064743042 0.0074362363666296005
0.79995089769363403 0.71173065900802612 0.011264845728874207
0.91981685161590576 0.71931552886962891 0.0066675520502030849
0.98242580890655518 0.72147727012634277 0.0053435531444847584
0.009713401086628437 0.85245180130004883 0.0050623724237084389
0.065365761518478394 0.85627782344818115 0.0048299003392457962
0.35065242648124695 0.85262459516525269 0.0081336824223399162
0.6094016432762146 0.8510054349899292 0.0046515967696905136
0.80436074733734131 0.85580617189407349 0.0050248689949512482
0.91608744859695435 0.85583066940307617 0.0058102477341890335
0.97057795524597168 0.85521417856216431 0.0067451028153300285
0.010252664797008038 0.91352194547653198 0.0043204212561249733
0.065639287233352661 0.91825872659683228 0.004993857815861702
0.3517862856388092 0.90871036052703857 0.011877171695232391
0.60745328664779663 0.90681636333465576 0.0073931226506829262
0.8053286075592041 0.91458851099014282 0.015153802931308746
0.92213177680969238 0.92004859447479248 0.0022974950261414051
0.98103243112564087 0.91991382837295532 0.0021590287797152996
0.0033838460221886635 0.0039215688593685627 0.090332493185997009
0.080184534192085266 0.0038745056372135878 0.090406395494937897
0.35429194569587708 0.0031108034308999777 0.088214695453643799
0.60198867321014404 0.0092477835714817047 0.088170267641544342
0.80646800994873047 0.010913684032857418 0.090169481933116913
0.91663718223571777 0.0071141109801828861 0.085052996873855591
0.97585678100585938 0.0036471646744757891 0.084315188229084015
0.0066634980030357838 0.063372202217578888 0.08368847519159317
0.066098637878894806 0.065609052777290344 0.083846315741539001
0.34880518913269043 0.067720241844654083 0.087616533041000366
0.6024361252784729 0.067807994782924652 0.088072247803211212
0.80197012424468994 0.068437866866588593 0.088012710213661194
0.92227298021316528 0.071846500039100647 0.084135465323925018
0.98248457908630371 0.068525470793247223 0.085693463683128357
0.0078431377187371254 0.23778645694255829 0.087099872529506683
0.066533885896205902 0.23723037540912628 0.087655775249004364
0.34880504012107849 0.24037379026412964 0.089686840772628784
0.60108929872512817 0.24153321981430054 0.089314430952072144
0.80005925893783569 0.23893359303474426 0.087824426591396332
0.92174297571182251 0.24312877655029297 0.090830393135547638
0.9828987717628479 0.23849010467529297 0.092429138720035553
0.0043358895927667618 0.48425161838531494 0.096365712583065033
0.076617345213890076 0.48317497968673706 0.093136988580226898
0.35633140802383423 0.48608776926994324 0.091496996581554413
0.60040742158889771 0.47595295310020447 0.094765543937683105
0.79810988903045654 0.48228907585144043 0.090275600552558899
0.92099851369857788 0.48086217045783997 0.089935839176177979
0.97998321056365967 0.48620545864105225 0.095229268074035645
0.0039215688593685627 0.72020125389099121 0.086837917566299438
0.066107712686061859 0.71509701013565063 0.084077484905719757
0.3552042543888092 0.71464985609054565 0.087932243943214417
0.60577487945556641 0.71753609180450439 0.089969322085380554
0.80233371257781982 0.71498864889144897 0.086370162665843964
0.91568547487258911 0.71857959032058716 0.093561224639415741
0.98153769969940186 0.72099876403808594 0.090761296451091766
0.0061693377792835236 0.85116446018218994 0.083009012043476105
0.065658032894134521 0.85501015186309814 0.084860675036907196
0.35062161087989807 0.85134035348892212 0.091788105666637421
0.60743182897567749 0.85232889652252197 0.090186357498168945
0.79969233274459839 0.85476028919219971 0.088724382221698761
0.91608887910842896 0.85473847389221191 0.09793584793806076
0.9776841402053833 0.85275554656982422 0.094370901584625244
0.0105730090290308 0.9131014347076416 0.087480522692203522
0.068980664014816284 0.91859298944473267 0.086076818406581879
0.34593802690505981 0.91727918386459351 0.088649064302444458
0.60183835029602051 0.90961652994155884 0.089673243463039398
0.80114847421646118 0.92153650522232056 0.086750701069831848
0.92196226119995117 0.92032533884048462 0.092658132314682007
0.98038870096206665 0.91311001777648926 0.1020478755235672
9.1911766503471881e-05 0.0039215688593685627 0.25497990846633911
0.085044443607330322 0.0030017178505659103 0.25743669271469116
0.34895268082618713 0.0035769294481724501 0.25563704967498779
0.60490179061889648 0.0079637710005044937 0.25020685791969299
0.80429518222808838 0.01484654750674963 0.25091585516929626
0.91720902919769287 0.0075783072970807552 0.252084881067276
0.97825568914413452 0.0029842003714293242 0.25601860880851746
0.0023037330247461796 0.065046556293964386 0.25297296047210693
0.067948497831821442 0.065758123993873596 0.25593087077140808
0.34675493836402893 0.07055269181728363 0.25687322020530701
0.60945028066635132 0.069269977509975433 0.25237685441970825
0.80031591653823853 0.068486399948596954 0.25432273745536804
0.91631484031677246 0.070147857069969177 0.25209876894950867
0.97848916053771973 0.066786915063858032 0.25824639201164246
0.0048870011232793331 0.235515296459198 0.25232112407684326
0.060867771506309509 0.23768164217472076 0.25307479500770569
0.34518128633499146 0.23812714219093323 0.25526338815689087
0.60451102256774902 0.24423615634441376 0.25604420900344849
0.79604637622833252 0.2455078661441803 0.2598034143447876
0.92096632719039917 0.2379382997751236 0.25315970182418823
0.98250806331634521 0.23654085397720337 0.25401014089584351
0.0019762376323342323 0.4859929084777832 0.25234359502792358
0.065046213567256927 0.47553962469100952 0.25562646985054016
0.3493097722530365 0.48057180643081665 0.25839957594871521
0.6087263822555542 0.47801098227500916 0.25587967038154602
0.79683089256286621 0.48569118976593018 0.25447651743888855
0.91492390632629395 0.4791128933429718 0.25852546095848083
0.98101216554641724 0.48279485106468201 0.25404089689254761
0.0045853708870708942 0.705361008644104 0.2492431104183197
0.064805515110492706 0.71638381481170654 0.2552550733089447
0.35312569141387939 0.70093047618865967 0.25729849934577942
0.59935998916625977 0.71386867761611938 0.25755518674850464
0.79482185840606689 0.71947211027145386 0.25240424275398254
0.91700786352157593 0.71979779005050659 0.2596287727355957
0.98194319009780884 0.72046464681625366 0.25523465871810913
0.0064916126430034637 0.85671663284301758 0.25039714574813843
0.064586564898490906 0.85745108127593994 0.25208356976509094
0.35210967063903809 0.85439932346343994 0.25465679168701172
0.59952008724212646 0.84998631477355957 0.25756308436393738
0.7973596453666687 0.85280698537826538 0.25785389542579651
0.91943860054016113 0.85478919744491577 0.25725841522216797
0.97910064458847046 0.85094523429870605 0.25923565030097961
0.0060181263834238052 0.91599774360656738 0.24794983863830566
0.062899932265281677 0.92023617029190063 0.25208333134651184
0.34767958521842957 0.92091655731201172 0.25359839200973511
0.6027722954750061 0.91832190752029419 0.2578544020652771
0.79894775152206421 0.92119163274765015 0.25421908497810364
0.9202582836151123 0.91666883230209351 0.26092737913131714
0.9824565052986145 0.91563922166824341 0.25816920399665833
0.00058370851911604404 0.0039215688593685627 0.46706464886665344
0.066226363182067871 0.0015544068301096559 0.46443739533424377
0.34231573343276978 0.0059361774474382401 0.46648949384689331
0.60587424039840698 0.0076966527849435806 0.46763113141059875
0.79856795072555542 0.010601193644106388 0.46290621161460876
0.91777563095092773 0.0040850769728422165 0.46219965815544128
0.98074626922607422 0.0004809211241081357 0.46132922172546387
0.00021523868781514466 0.064899042248725891 0.46805167198181152
0.064172081649303436 0.063942089676856995 0.47317439317703247
0.3505847156047821 0.067680686712265015 0.46910956501960754
0.61027747392654419 0.066538356244564056 0.47417548298835754
0.79670369625091553 0.071210511028766632 0.4703318178653717
0.9166414737701416 0.069703012704849243 0.46688511967658997
0.98156040906906128 0.064645610749721527 0.46326112747192383
0.0032564648427069187 0.24212677776813507 0.46165734529495239
0.065376192331314087 0.23599350452423096 0.46949896216392517
0.35131600499153137 0.23568560183048248 0.47489169239997864
0.60398799180984497 0.2366006076335907 0.47362485527992249
0.79900753498077393 0.23819319903850555 0.47077524662017822
0.92055660486221313 0.24302329123020172 0.47422671318054199
0.98183411359786987 0.24036943912506104 0.47299757599830627
0.003741963766515255 0.47589471936225891 0.46155524253845215
0.064753510057926178 0.4794350266456604 0.47358760237693787
0.35138630867004395 0.47220888733863831 0.47058844566345215
0.60600215196609497 0.47605207562446594 0.46970966458320618
0.80307042598724365 0.48182740807533264 0.46524983644485474
0.91783660650253296 0.48058751225471497 0.46449950337409973
0.98166954517364502 0.48145166039466858 0.47328305244445801
0.0054442011751234531 0.7180488109588623 0.45914804935455322
0.062719084322452545 0.71738255023956299 0.47213172912597656
0.34921255707740784 0.71545100212097168 0.47011679410934448
0.60272538661956787 0.71044009923934937 0.46825236082077026
0.80130565166473389 0.70817065238952637 0.46584996581077576
0.91982603073120117 0.71317726373672485 0.46665993332862854
0.98331046104431152 0.71943700313568115 0.47361081838607788
0.0078431377187371254 0.85460895299911499 0.46271926164627075
0.066204369068145752 0.85236060619354248 0.46917045116424561
0.34728166460990906 0.85183441638946533 0.46827596426010132
0.61017394065856934 0.85317397117614746 0.47340863943099976
0.80314236879348755 0.85443174839019775 0.47173911333084106
0.91543483734130859 0.85326302051544189 0.47070258855819702
0.97521030902862549 0.85447925329208374 0.47221413254737854
0.007475490216165781 0.91186130046844482 0.46363207697868347
0.063294611871242523 0.9147040843963623 0.46960946917533875
0.34833520650863647 0.91928279399871826 0.46988245844841003
0.60749369859695435 0.91586661338806152 0.47057965397834778
0.80006158351898193 0.92123562097549438 0.47349938750267029
0.92074066400527954 0.92063212394714355 0.466194748878479
0.98195070028305054 0.92115253210067749 0.46447649598121643
0.0020695854909718037 0.0039215688593685627 0.68859362602233887
0.066132865846157074 0.0023732802364975214 0.68111628293991089
0.35149547457695007 0.0039215688593685627 0.68412768840789795
0.61081379652023315 0.0039215688593685627 0.68896472454071045
0.7958405613899231 0.0039215688593685627 0.68239635229110718
0.91824674606323242 0.003642108291387558 0.68628734350204468
0.98133480548858643 0.00029655903927050531 0.67625886201858521
0.0027854470536112785 0.06403014063835144 0.68453222513198853
0.067673668265342712 0.063946112990379333 0.69399940967559814
0.3549073338508606 0.063969478011131287 0.69129651784896851
0.6124042272567749 0.063851900398731232 0.69203400611877441
0.80250018835067749 0.064418792724609375 0.68879258632659912
0.9212268590927124 0.06696898490190506 0.69135677814483643
0.9831424355506897 0.0688142329454422 0.67760014533996582
0.0059037152677774429 0.23723988234996796 0.67460685968399048
0.071899563074111938 0.23741233348846436 0.68393021821975708
0.35368326306343079 0.23904405534267426 0.69294840097427368
0.61024212837219238 0.23535546660423279 0.69124436378479004
0.80391913652420044 0.23821805417537689 0.68602079153060913
0.91791343688964844 0.24004077911376953 0.68796545267105103
0.98366397619247437 0.23625871539115906 0.68690747022628784
0.005831101443618536 0.47464534640312195 0.67969882488250732
0.073287755250930786 0.47106695175170898 0.68164849281311035
0.3500271737575531 0.46928867697715759 0.68841564655303955
0.60651606321334839 0.46579927206039429 0.69400173425674438
0.80381137132644653 0.47074627876281738 0.68237483501434326
0.9197118878364563 0.47548115253448486 0.68289941549301147
0.97680848836898804 0.47518089413642883 0.68679869174957275
0.0078431377187371254 0.71459078788757324 0.68471741676330566
0.067978426814079285 0.71137148141860962 0.68415504693984985
0.34184560179710388 0.70792007446289062 0.68778592348098755
0.60992193222045898 0.71567773818969727 0.68798500299453735
0.80531156063079834 0.71801286935806274 0.68296670913696289
0.92099606990814209 0.71735298633575439 0.68524718284606934
0.984233558177948 0.71100962162017822 0.6876600980758667
0.0078135775402188301 0.85561209917068481 0.70141184329986572
0.062199011445045471 0.85571378469467163 0.69275039434432983
0.34479346871376038 0.8527824878692627 0.68479984998703003
0.60909116268157959 0.85418957471847534 0.68601948022842407
0.80257821083068848 0.85455626249313354 0.68706881999969482
0.92122596502304077 0.85492467880249023 0.68577289581298828
0.98190033435821533 0.85470813512802124 0.68571120500564575
0.0034655253402888775 0.92038112878799438 0.6925055980682373
0.062578566372394562 0.92055737972259521 0.68883860111236572
0.34622684121131897 0.91454452276229858 0.67789936065673828
0.60627466440200806 0.91017544269561768 0.69278019666671753
0.80411022901535034 0.92166703939437866 0.69304811954498291
0.92152208089828491 0.91974681615829468 0.68521469831466675
0.98318600654602051 0.92018228769302368 0.68120431900024414
0.0023284314665943384 0.0039215688593685627 0.85579967498779297
0.074284210801124573 0.0027884091250598431 0.8534926176071167
0.35214510560035706 0.0039215688593685627 0.85329896211624146
0.61510515213012695 0.0020787257235497236 0.85746890306472778
0.78585433959960938 0.0039215688593685627 0.85494959354400635
0.91730695962905884 0.0043429955840110779 0.85690677165985107
0.98332303762435913 0.0018745273118838668 0.85693025588989258
0.0040024253539741039 0.06453067809343338 0.85703784227371216
0.065486431121826172 0.065299749374389648 0.85607898235321045
0.35244518518447876 0.064190104603767395 0.85241156816482544
0.61166578531265259 0.063823089003562927 0.85663509368896484
0.79961490631103516 0.064626403152942657 0.85812193155288696
0.92007654905319214 0.063876040279865265 0.85900074243545532
0.98374205827713013 0.064021512866020203 0.85634720325469971
0.010281895287334919 0.23188583552837372 0.85355329513549805
0.064289480447769165 0.23596292734146118 0.85674440860748291
0.34952175617218018 0.23538041114807129 0.8587525486946106
0.60680073499679565 0.24012434482574463 0.85675269365310669
0.80225270986557007 0.23615275323390961 0.85303819179534912
0.92110294103622437 0.23618951439857483 0.8568955659866333
0.9807974100112915 0.23857507109642029 0.85838526487350464
0.011762551963329315 0.4714159369468689 0.85136091709136963
0.065294034779071808 0.47347751259803772 0.85323244333267212
0.3415374755859375 0.47205513715744019 0.85587328672409058
0.60614436864852905 0.47041776776313782 0.85886257886886597
0.80306696891784668 0.47671991586685181 0.85425221920013428
0.92112380266189575 0.47453513741493225 0.85495823621749878
0.98369407653808594 0.48386409878730774 0.85829907655715942
0.0078431377187371254 0.7209627628326416 0.85524821281433105
0.062801599502563477 0.71684253215789795 0.85619825124740601
0.34571382403373718 0.71588277816772461 0.85663849115371704
0.61112093925476074 0.70926600694656372 0.85595768690109253
0.80116921663284302 0.71326667070388794 0.85381722450256348
0.92068362236022949 0.70471340417861938 0.85219883918762207
0.98211050033569336 0.71848189830780029 0.85148543119430542
0.0098182829096913338 0.85540509223937988 0.85630190372467041
0.065151706337928772 0.85595357418060303 0.85767769813537598
0.3533458411693573 0.85147464275360107 0.85373550653457642
0.60834264755249023 0.85480266809463501 0.85427027940750122
0.79459166526794434 0.8536674976348877 0.85764002799987793
0.9157179594039917 0.85345983505249023 0.85692518949508667
0.97991859912872314 0.85180085897445679 0.85564154386520386
0.0024667028337717056 0.92009145021438599 0.85861647129058838
0.065645508468151093 0.92038959264755249 0.85531985759735107
0.35530999302864075 0.91890305280685425 0.8569759726524353
0.60243678092956543 0.91189181804656982 0.85882008075714111
0.80290073156356812 0.92020225524902344 0.8561701774597168
0.91588723659515381 0.91874498128890991 0.85233414173126221
0.98000282049179077 0.91863405704498291 0.85285240411758423
0.0023284314665943384 0.0039215688593685627 0.96408283710479736
0.074123978614807129 0.0027638303581625223 0.96698546409606934
0.35750237107276917 0.0039316811598837376 0.96455979347229004
0.60016411542892456 0.0010764028411358595 0.96243083477020264
0.80248522758483887 0.0019213956547901034 0.96665912866592407
0.9169231653213501 0.0029315275605767965 0.96469020843505859
0.9810415506362915 0.0047303740866482258 0.9678916335105896
0.0033130571246147156 0.066464096307754517 0.96571916341781616
0.064786843955516815 0.065286926925182343 0.96837270259857178
0.34650984406471252 0.06749870628118515 0.96317732334136963
0.60722851753234863 0.065163269639015198 0.96540915966033936
0.79919928312301636 0.064901955425739288 0.96472615003585815
0.92125028371810913 0.062620483338832855 0.96783274412155151
0.97825044393539429 0.066227853298187256 0.96807199716567993
0.0061504291370511055 0.24409621953964233 0.95877951383590698
0.062234077602624893 0.2400386780500412 0.96126997470855713
0.34501707553863525 0.23705664277076721 0.9603765606880188
0.61245453357696533 0.23725691437721252 0.96697473526000977
0.8057703971862793 0.23507818579673767 0.9666028618812561
0.92045319080352783 0.23464937508106232 0.96661823987960815
0.98365390300750732 0.23420955240726471 0.96877342462539673
0.0052169500850141048 0.4726085364818573 0.96224099397659302
0.062284864485263824 0.47246405482292175 0.96735996007919312
0.34549853205680847 0.47624218463897705 0.96495664119720459
0.60287070274353027 0.47290199995040894 0.96680217981338501
0.80119901895523071 0.47975790500640869 0.96541363000869751
0.91888344287872314 0.47566777467727661 0.96415102481842041
0.97426623106002808 0.47774946689605713 0.96419072151184082
0.0034830879885703325 0.72164750099182129 0.96450263261795044
0.06183287501335144 0.71648204326629639 0.9691617488861084
0.35338181257247925 0.71891158819198608 0.96726161241531372
0.60310709476470947 0.7091251015663147 0.96504521369934082
0.80595970153808594 0.71979355812072754 0.9674912691116333
0.92367088794708252 0.70710712671279907 0.96785426139831543
0.97632080316543579 0.71044325828552246 0.96552914381027222
0.0042348224669694901 0.85578781366348267 0.96158146858215332
0.065265372395515442 0.85742980241775513 0.96802860498428345
0.35476982593536377 0.85524153709411621 0.96614468097686768
0.6110033392906189 0.85536485910415649 0.96659976243972778
0.801300048828125 0.8548736572265625 0.96726512908935547
0.92125529050827026 0.84792757034301758 0.96646368503570557
0.97948795557022095 0.84974586963653564 0.96493124961853027
0.0026246164925396442 0.92033106088638306 0.96690851449966431
0.065355516970157623 0.92112100124359131 0.96684414148330688
0.35098710656166077 0.91874676942825317 0.96809327602386475
0.58855986595153809 0.9119756817817688 0.96381616592407227
0.80124956369400024 0.92044460773468018 0.96824806928634644
0.91947710514068604 0.91621845960617065 0.9665800929069519
0.97672182321548462 0.91923850774765015 0.96633684635162354
