assets/lut/others rotated crush.cube
# Created by: G'MIC (https://gmic.eu)
TITLE "rotated_crush"
# LUT size
LUT_3D_SIZE 13
# Data domain
DOMAIN_MIN 0.0 0.0 0.0
DOMAIN_MAX 1.0 1.0 1.0
# LUT data points
0.0039215688593685627 0 0
0.0039215688593685627 0 0
0.0043647317215800285 0 0.00082059373380616307
0.0091891717165708542 0 0.025060646235942841
0.014529419131577015 0 0.10471583157777786
0.024824494495987892 0 0.18770448863506317
0.036071281880140305 0 0.26009765267372131
0.06759374588727951 9.918212890625e-05 0.35571211576461792
0.11168324947357178 0.0003449982323218137 0.46353441476821899
0.14841444790363312 8.1679398135747761e-05 0.56912857294082642
0.20194214582443237 0 0.68452554941177368
0.25739613175392151 0.00062640319811180234 0.79719430208206177
0.3041745126247406 0.00096381694311276078 0.90898436307907104
0.0039215688593685627 0.00091691856505349278 0
0.0039215688593685627 0.00059551163576543331 0
0.0093587534502148628 0 0.0013447032542899251
0.031258735805749893 0 0.016260603442788124
0.067546263337135315 0.00031018725712783635 0.097386829555034637
0.11551190912723541 4.9202113586943597e-05 0.19557933509349823
0.1537306159734726 0 0.27592509984970093
0.19962899386882782 0.00013340968871489167 0.36986172199249268
0.24405910074710846 0.0022321066353470087 0.4764096736907959
0.28793790936470032 0.0033099304419010878 0.58360391855239868
0.32745569944381714 0.0023943432606756687 0.69445657730102539
0.41694605350494385 0.00094372616149485111 0.82051557302474976
0.47723734378814697 0.0011598474811762571 0.92732357978820801
0.0049515669234097004 0.003744462039321661 0
0.0082269255071878433 0.0053885816596448421 0
0.010959235951304436 0.003404340473935008 0.0024116516578942537
0.047648455947637558 0.010203014127910137 0.018783494830131531
0.11552898585796356 0.012005510739982128 0.087449111044406891
0.19723446667194366 0.0062951929867267609 0.18197746574878693
0.27081933617591858 0.0013610839378088713 0.28434556722640991
0.33678457140922546 0.00040948906098492444 0.38900887966156006
0.40590861439704895 0.0010720196878537536 0.49493259191513062
0.46704757213592529 0.001665900694206357 0.60088080167770386
0.5441213846206665 0.00072950473986566067 0.71363860368728638
0.58958029747009277 8.0572390288580209e-05 0.82635790109634399
0.6556166410446167 0.00074075435986742377 0.94517713785171509
0.021122816950082779 0.016151951625943184 0
0.045639533549547195 0.019569156691431999 0.00015927483036648482
0.052085157483816147 0.011206533759832382 0.0079686930403113365
0.070796355605125427 0.033009294420480728 0.037048999220132828
0.12901043891906738 0.038073010742664337 0.080429702997207642
0.21325838565826416 0.027951931580901146 0.15126833319664001
0.29816451668739319 0.015985196456313133 0.23463347554206848
0.39084711670875549 0.012399022467434406 0.34087225794792175
0.49575918912887573 0.015407905913889408 0.46280691027641296
0.58851426839828491 0.010688572190701962 0.59559178352355957
0.68869411945343018 0.010555087588727474 0.72051191329956055
0.76847219467163086 0.014758659526705742 0.84576719999313354
0.83646148443222046 0.015016264282166958 0.95857959985733032
0.090823248028755188 0.078882567584514618 0.0005950927734375
0.10860860347747803 0.051581572741270065 0.0033337313216179609
0.11704858392477036 0.035256538540124893 0.010051966644823551
0.13385064899921417 0.061189450323581696 0.041771534830331802
0.17179416120052338 0.098447717726230621 0.10054424405097961
0.23391509056091309 0.10188968479633331 0.15707643330097198
0.3080240786075592 0.08409041166305542 0.20815050601959229
0.39927864074707031 0.076445214450359344 0.29222759604454041
0.51523041725158691 0.082767486572265625 0.40313798189163208
0.63213413953781128 0.07329481840133667 0.5372774600982666
0.74625343084335327 0.064261987805366516 0.67367470264434814
0.87199622392654419 0.068987511098384857 0.82238012552261353
0.96730488538742065 0.076641947031021118 0.9618193507194519
0.16694998741149902 0.15708279609680176 3.5005457903025672e-05
0.18385426700115204 0.12039759010076523 0.0037052978295832872
0.19927017390727997 0.098266929388046265 0.011242825537919998
0.22035807371139526 0.10079115629196167 0.03362458199262619
0.24418802559375763 0.14702767133712769 0.10692719370126724
0.27752077579498291 0.20112155377864838 0.20157937705516815
0.33199974894523621 0.19449752569198608 0.2411482185125351
0.41927462816238403 0.17351306974887848 0.28400769829750061
0.54115819931030273 0.17588156461715698 0.37735235691070557
0.65424370765686035 0.16920025646686554 0.48064437508583069
0.76410967111587524 0.15647201240062714 0.60175782442092896
0.89245527982711792 0.14773173630237579 0.74951958656311035
0.98034089803695679 0.16554117202758789 0.8935774564743042
0.24979418516159058 0.23443570733070374 0
0.26368343830108643 0.19100551307201385 0.0031786600593477488
0.28464090824127197 0.1608281284570694 0.0088890222832560539
0.31140092015266418 0.1597597748041153 0.028283242136240005
0.32950380444526672 0.17463366687297821 0.080984674394130707
0.350719153881073 0.22482205927371979 0.18589025735855103
0.37708321213722229 0.28038886189460754 0.27650487422943115
0.45194354653358459 0.28218534588813782 0.33122414350509644
0.57966512441635132 0.26715472340583801 0.39693227410316467
0.68138718605041504 0.261259526014328 0.4795876145362854
0.78700172901153564 0.25207868218421936 0.57089674472808838
0.90389001369476318 0.24646143615245819 0.68224793672561646
0.97828954458236694 0.26512151956558228 0.81292128562927246
0.34964048862457275 0.33142858743667603 0
0.36402556300163269 0.28796437382698059 0.0014885248383507133
0.37731024622917175 0.24146273732185364 0.0065575093030929565
0.40537258982658386 0.22988379001617432 0.027366099879145622
0.43476733565330505 0.23578523099422455 0.075425736606121063
0.44766637682914734 0.26350843906402588 0.16875824332237244
0.46503973007202148 0.32330143451690674 0.27778446674346924
0.49918660521507263 0.39312955737113953 0.39370056986808777
0.5938335657119751 0.38252207636833191 0.43724730610847473
0.70219129323959351 0.37069606781005859 0.49888977408409119
0.81292027235031128 0.36353155970573425 0.58102434873580933
0.92035937309265137 0.35658019781112671 0.66647738218307495
0.98922455310821533 0.36640498042106628 0.78122735023498535
0.45584967732429504 0.42714878916740417 0
0.47067955136299133 0.38300105929374695 8.3354876551311463e-05
0.47936755418777466 0.33247140049934387 0.0050934734754264355
0.50318938493728638 0.30448895692825317 0.024638606235384941
0.53841060400009155 0.30241471529006958 0.06857338547706604
0.55651211738586426 0.32327455282211304 0.15572440624237061
0.56131565570831299 0.35542842745780945 0.26081979274749756
0.58190667629241943 0.43072259426116943 0.38833200931549072
0.63179147243499756 0.50602126121520996 0.50943011045455933
0.71998435258865356 0.5119510293006897 0.56230157613754272
0.83113813400268555 0.50013357400894165 0.6179007887840271
0.94400715827941895 0.48808634281158447 0.67906290292739868
0.99514800310134888 0.48602819442749023 0.76859903335571289
0.55990976095199585 0.52312862873077393 0
0.57689386606216431 0.479746013879776 0.00083543366054072976
0.59196263551712036 0.42727595567703247 0.009001145139336586
0.61238187551498413 0.39262086153030396 0.026116868481040001
0.6444975733757019 0.37372285127639771 0.067026771605014801
0.66439706087112427 0.37690722942352295 0.15142685174942017
0.67186039686203003 0.39697489142417908 0.24969437718391418
0.68985432386398315 0.45287817716598511 0.36619579792022705
0.72497618198394775 0.55079293251037598 0.5097234845161438
0.774131178855896 0.63573253154754639 0.63775473833084106
0.8622245192527771 0.64189183712005615 0.68048429489135742
0.96403920650482178 0.63008874654769897 0.72658312320709229
0.9952283501625061 0.61053037643432617 0.78283524513244629
0.66456472873687744 0.64865344762802124 0
0.68650668859481812 0.58349919319152832 4.1138893720926717e-05
0.70253324508666992 0.52330338954925537 0.006209938321262598
0.72298246622085571 0.48842918872833252 0.022228898480534554
0.7494397759437561 0.4578213095664978 0.072450451552867889
0.77147364616394043 0.44805717468261719 0.15055538713932037
0.78750574588775635 0.45913338661193848 0.24222679436206818
0.81205904483795166 0.50247645378112793 0.36048424243927002
0.84533733129501343 0.57267361879348755 0.49456033110618591
0.87080526351928711 0.66645574569702148 0.6322324275970459
0.90647447109222412 0.74901342391967773 0.75065577030181885
0.97643750905990601 0.75555115938186646 0.8013836145401001
0.9961172342300415 0.73877567052841187 0.84120070934295654
0.77864611148834229 0.76525485515594482 0.0003578485338948667
0.80583804845809937 0.71053147315979004 4.7631358029320836e-05
0.81869828701019287 0.64070713520050049 0.0014188429340720177
0.83665096759796143 0.57867366075515747 0.0122286481782794
0.85799884796142578 0.54117614030838013 0.059529189020395279
0.88430213928222656 0.5279700756072998 0.13109961152076721
0.90439450740814209 0.53354626893997192 0.23082557320594788
0.92612755298614502 0.56033849716186523 0.34954792261123657
0.95393866300582886 0.61787921190261841 0.48616436123847961
0.96904069185256958 0.6819227933883667 0.60982787609100342
0.96862727403640747 0.77636927366256714 0.74376267194747925
0.98931980133056641 0.88320976495742798 0.88487094640731812
0.9962007999420166 0.89246052503585815 0.92880243062973022
0.90474849939346313 0.8931390643119812 0.0018478842684999108
0.92706376314163208 0.82503658533096313 0.0026831831783056259
0.93709594011306763 0.74677228927612305 0.002115840557962656
0.94880324602127075 0.68742251396179199 0.0071942047215998173
0.96229708194732666 0.64284950494766235 0.064647689461708069
0.98341786861419678 0.61668932437896729 0.14905291795730591
0.99067527055740356 0.6179012656211853 0.24781130254268646
0.98870229721069336 0.63457256555557251 0.36278283596038818
0.98839253187179565 0.6715967059135437 0.48666122555732727
0.9918971061706543 0.72154110670089722 0.61270898580551147
0.99212491512298584 0.80528146028518677 0.73811835050582886
0.99717086553573608 0.91703158617019653 0.88990354537963867
0.99776256084442139 0.98754853010177612 0.98358720541000366
0.0039215688593685627 0 0
0.0039215688593685627 0 0.00048320993664674461
0.0046651950106024742 0 0.0061781639233231544
0.0072368844412267208 1.7772001228877343e-05 0.045242443680763245
0.0079288557171821594 0.00057503196876496077 0.12159432470798492
0.010170821100473404 0.00068703445140272379 0.20276010036468506
0.017170116305351257 0 0.28214046359062195
0.034688554704189301 0 0.38092145323753357
0.077593438327312469 0.00059295352548360825 0.48965078592300415
0.11634372174739838 0.0015766068827360868 0.59485369920730591
0.16113311052322388 0.0024181590415537357 0.70139950513839722
0.2042391449213028 0.0017354328883811831 0.80745714902877808
0.2532966136932373 2.5670668037491851e-05 0.91881954669952393
0.0036798364017158747 0.00047202015412040055 0
0.0039215688593685627 0.0007225185981951654 0.00086496392032131553
0.0067712971940636635 0.00029126336448825896 0.0068366257473826408
0.021470477804541588 0.00056909298291429877 0.037046574056148529
0.019280722364783287 0.0024906082544475794 0.10838732123374939
0.033533357083797455 0.00052756513468921185 0.20244984328746796
0.055421389639377594 0 0.28632447123527527
0.083926886320114136 0 0.37247458100318909
0.1315707266330719 4.936667210131418e-06 0.48711887001991272
0.18232005834579468 7.9375618952326477e-05 0.58826082944869995
0.20948633551597595 0.0030451756902039051 0.69650578498840332
0.28319928050041199 0.0013350691879168153 0.81670188903808594
0.36050531268119812 5.6008731917245314e-05 0.92489707469940186
0.0059532914310693741 0.007474054116755724 0
0.0074653178453445435 0.010603631846606731 0.0006302328547462821
0.011210842058062553 0.0065017552115023136 0.0038818060420453548
0.041512507945299149 0.0039859847165644169 0.016137231141328812
0.087564371526241302 0.003789370646700263 0.09447188675403595
0.14001819491386414 0.00089229509467259049 0.20293575525283813
0.18753185868263245 0.00022019031166564673 0.3028988242149353
0.23271526396274567 1.8549901142250746e-05 0.39321669936180115
0.27809274196624756 6.731818757543806e-06 0.49678662419319153
0.33228614926338196 0.00012657315528485924 0.6025351881980896
0.38643074035644531 0.0015150032704696059 0.7127680778503418
0.44827368855476379 4.2649811803130433e-05 0.82818406820297241
0.51566469669342041 0.00073278089985251427 0.94208800792694092
0.0263990368694067 0.039480336010456085 0
0.036531172692775726 0.034087192267179489 0.00012736601638607681
0.046483926475048065 0.01389160193502903 0.0047902725636959076
0.076970688998699188 0.021684398874640465 0.02496255561709404
0.13330802321434021 0.021525798365473747 0.084050454199314117
0.21467752754688263 0.013242923654615879 0.18046188354492188
0.2870640754699707 0.0098564596846699715 0.28025320172309875
0.36522224545478821 0.006175067275762558 0.38361522555351257
0.4415169358253479 0.0061084674671292305 0.50426393747329712
0.51520675420761108 0.0032061408273875713 0.61662417650222778
0.56914299726486206 0.0065610846504569054 0.72517365217208862
0.62704187631607056 0.0081836031749844551 0.8437996506690979
0.7117534875869751 0.013712998479604721 0.95688164234161377
0.082408487796783447 0.10285541415214539 7.0010914896556642e-06
0.099932529032230377 0.086735762655735016 0.00012091842654626817
0.11042086780071259 0.048690631985664368 0.0042684217914938927
0.13436770439147949 0.057440292090177536 0.03172779455780983
0.16678379476070404 0.10242107510566711 0.1070016622543335
0.23433122038841248 0.084976866841316223 0.16072164475917816
0.31310707330703735 0.069412648677825928 0.22752413153648376
0.40980708599090576 0.048777725547552109 0.3273504376411438
0.52454489469528198 0.044748209416866302 0.46062597632408142
0.62753742933273315 0.033627036958932877 0.59117448329925537
0.72186583280563354 0.032647840678691864 0.71913886070251465
0.81749176979064941 0.047121938318014145 0.85572248697280884
0.89982092380523682 0.082352884113788605 0.96619737148284912
0.14378474652767181 0.17194472253322601 0
0.17435851693153381 0.15522928535938263 0.001813731505535543
0.19530250132083893 0.12499102205038071 0.0054943310096859932
0.21730536222457886 0.10681390017271042 0.019651854410767555
0.24001136422157288 0.14415156841278076 0.092692628502845764
0.27420976758003235 0.1927870512008667 0.19653259217739105
0.33959236741065979 0.18617084622383118 0.23914498090744019
0.43033710122108459 0.15675905346870422 0.29829323291778564
0.54159033298492432 0.1435743123292923 0.40323635935783386
0.6566847562789917 0.1282665878534317 0.52331358194351196
0.76911479234695435 0.12535351514816284 0.64128828048706055
0.88631784915924072 0.13578861951828003 0.80337584018707275
0.97803014516830444 0.16678045690059662 0.95160555839538574
0.22503387928009033 0.255982905626297 0
0.25805503129959106 0.2405075877904892 0.0029484019614756107
0.28818359971046448 0.21520578861236572 0.0057828566059470177
0.30940884351730347 0.17640957236289978 0.013967671431601048
0.32959148287773132 0.17776945233345032 0.060277469456195831
0.35189938545227051 0.22506120800971985 0.18145890533924103
0.37844327092170715 0.27515429258346558 0.27907848358154297
0.45211061835289001 0.27826055884361267 0.33169487118721008
0.5677647590637207 0.25556060671806335 0.39684784412384033
0.67792773246765137 0.24197500944137573 0.49053972959518433
0.78424376249313354 0.22437785565853119 0.58813148736953735
0.90061867237091064 0.2216724157333374 0.73043680191040039
0.98514872789382935 0.26196900010108948 0.8854224681854248
0.32599255442619324 0.36113163828849792 0
0.3668096661567688 0.3522028923034668 0.0011441099923104048
0.38666015863418579 0.30933347344398499 0.0047550126910209656
0.40650478005409241 0.26254680752754211 0.0096580656245350838
0.43147110939025879 0.23953248560428619 0.040819384157657623
0.44455841183662415 0.25854936242103577 0.14960065484046936
0.46067091822624207 0.31348806619644165 0.26936769485473633
0.49509358406066895 0.39193993806838989 0.39050334692001343
0.59065133333206177 0.38416880369186401 0.44462743401527405
0.7027132511138916 0.35880288481712341 0.49338260293006897
0.80738168954849243 0.3360094428062439 0.58430564403533936
0.92054247856140137 0.32800650596618652 0.6872362494468689
0.99231564998626709 0.36106118559837341 0.83157992362976074
0.43476316332817078 0.46589475870132446 0.00012691722076851875
0.47386276721954346 0.45383217930793762 0.0011713214917108417
0.48523685336112976 0.39412063360214233 0.0014993107179179788
0.50570285320281982 0.34246313571929932 0.0092908376827836037
0.53844809532165527 0.31826040148735046 0.03780028223991394
0.55810308456420898 0.3232058584690094 0.12765653431415558
0.57304221391677856 0.34996092319488525 0.23491960763931274
0.58906519412994385 0.42571979761123657 0.37151879072189331
0.63179987668991089 0.5088614821434021 0.51345139741897583
0.72824972867965698 0.51281440258026123 0.57321745157241821
0.8349488377571106 0.49219277501106262 0.62009596824645996
0.94660067558288574 0.47535675764083862 0.68892461061477661
0.99352067708969116 0.48102918267250061 0.80392557382583618
0.54297113418579102 0.57017672061920166 0.00018813188944477588
0.57435399293899536 0.55499351024627686 0.0028061810880899429
0.58961492776870728 0.49285313487052917 0.0029067844152450562
0.61440098285675049 0.43348419666290283 0.0088481232523918152
0.64644807577133179 0.40003368258476257 0.04025581106543541
0.66592758893966675 0.39043262600898743 0.12084634602069855
0.68220424652099609 0.40004092454910278 0.21825934946537018
0.70278489589691162 0.4462989866733551 0.33959278464317322
0.72663450241088867 0.54486542940139771 0.50083696842193604
0.77160722017288208 0.63712441921234131 0.63694792985916138
0.86207073926925659 0.63659977912902832 0.68334901332855225
0.96647417545318604 0.62567359209060669 0.73498249053955078
0.99418872594833374 0.62490755319595337 0.81693118810653687
0.65112411975860596 0.68871700763702393 0.00025981827639043331
0.69149523973464966 0.67865830659866333 2.3037779101287015e-05
0.70043432712554932 0.59411168098449707 0.0019863802008330822
0.72158360481262207 0.52994436025619507 0.0076134325936436653
0.74734401702880859 0.48365509510040283 0.039759136736392975
0.771129310131073 0.468232661485672 0.1283966451883316
0.79003340005874634 0.47353348135948181 0.21798579394817352
0.81489628553390503 0.50572139024734497 0.33625459671020508
0.84182137250900269 0.56357783079147339 0.47190394997596741
0.86272281408309937 0.65207815170288086 0.61620074510574341
0.90399515628814697 0.7535858154296875 0.75481724739074707
0.97936850786209106 0.75955277681350708 0.80681848526000977
0.99562186002731323 0.75868421792984009 0.86137121915817261
0.7573249340057373 0.80294185876846313 0.0025357713457196951
0.81479358673095703 0.80361181497573853 0.00023704978229943663
0.82093542814254761 0.71293050050735474 0.0024328194558620453
0.83955162763595581 0.64089870452880859 0.015522272326052189
0.85896903276443481 0.58896315097808838 0.041543412953615189
0.88355183601379395 0.55998694896697998 0.11594875901937485
0.9096064567565918 0.55667769908905029 0.2196522057056427
0.93024855852127075 0.57747137546539307 0.34080755710601807
0.95388633012771606 0.62244665622711182 0.47432640194892883
0.96599626541137695 0.68239039182662964 0.60652494430541992
0.97411137819290161 0.78601711988449097 0.75229531526565552
0.98922455310821533 0.89639610052108765 0.89677578210830688
0.9959527850151062 0.90593695640563965 0.94196802377700806
0.87402540445327759 0.92213898897171021 0.004262872040271759
0.92511314153671265 0.90777796506881714 0.001945929485373199
0.94205039739608765 0.83883774280548096 0.005002249963581562
0.95781517028808594 0.76313209533691406 0.022381022572517395
0.96704107522964478 0.70662283897399902 0.077965155243873596
0.98026013374328613 0.66834884881973267 0.15762241184711456
0.9866795539855957 0.65165603160858154 0.25380799174308777
0.98753190040588379 0.65945768356323242 0.36547413468360901
0.98951667547225952 0.69137859344482422 0.4921267032623291
0.99154174327850342 0.74261844158172607 0.62297278642654419
0.99368733167648315 0.81948196887969971 0.74836570024490356
0.99550348520278931 0.92216873168945312 0.89369696378707886
0.99788171052932739 0.99030697345733643 0.98849093914031982
0.0033245310187339783 0 0
0.0024213902652263641 0 0.00032338162418454885
0.003800500649958849 0 0.0076319677755236626
0.0048408806324005127 0.0010543823009356856 0.056314028799533844
0.0066747479140758514 0.0037636552006006241 0.13206645846366882
0.010062378831207752 0.0038723815232515335 0.21857039630413055
0.014892144128680229 0.0026609532069414854 0.30940154194831848
0.021793754771351814 0.0016940247733145952 0.40477266907691956
0.052022222429513931 0.0033768150024116039 0.51102477312088013
0.09132702648639679 0.0021827996242791414 0.61374044418334961
0.12588222324848175 0.0011168087366968393 0.70798635482788086
0.17912875115871429 0.002276192419230938 0.82185977697372437
0.23668891191482544 3.5005457903025672e-05 0.94166386127471924
0.0012138965539634228 1.9746668840525672e-05 6.8754306994378567e-05
0.0041603986173868179 0.002041057450696826 0.0033078959677368402
0.0081527112051844597 0.002950137248262763 0.011970295570790768
0.010142786428332329 0.0012862860457971692 0.051767162978649139
0.0063877780921757221 0.0038958978839218616 0.12281087040901184
0.011730059050023556 0.002925678389146924 0.21554705500602722
0.022674815729260445 0.0010157417273148894 0.30424103140830994
0.042792435735464096 0.00044733684626407921 0.38989803194999695
0.077684395015239716 0.00028883988852612674 0.49622362852096558
0.11717979609966278 6.5971821641142014e-06 0.60437566041946411
0.16825291514396667 0.00054719211766496301 0.71332567930221558
0.23516125977039337 0.00079254450974985957 0.8277631402015686
0.31313663721084595 0 0.94390368461608887
0.0025439991150051355 0.0063264733180403709 0.00066272512776777148
0.0065381070598959923 0.014615361578762531 0.004250634927302599
0.013826796784996986 0.012775465846061707 0.011753067374229431
0.021685656160116196 0.0031531089916825294 0.039409369230270386
0.026218833401799202 0.0010451222769916058 0.11383064091205597
0.041070032864809036 6.7482746089808643e-05 0.20893850922584534
0.066332995891571045 9.5741424956941046e-06 0.30531355738639832
0.098993711173534393 0 0.39131355285644531
0.13730119168758392 0 0.49127158522605896
0.18732187151908875 2.6254092517774552e-05 0.60572218894958496
0.26117068529129028 0.00060014909831807017 0.72326755523681641
0.33445766568183899 0.00018436207028571516 0.83963203430175781
0.42482626438140869 0.00078237196430563927 0.94985705614089966
0.0079734502360224724 0.047155730426311493 0.00052406458416953683
0.010868371464312077 0.044934112578630447 0.0018315034685656428
0.023209096863865852 0.03197866678237915 0.0052603776566684246
0.058503139764070511 0.020561890676617622 0.023654324933886528
0.10659601539373398 0.0094864042475819588 0.10377692431211472
0.16615673899650574 0.001888334983959794 0.20684400200843811
0.21964311599731445 0.0022505368106067181 0.30901682376861572
0.26216253638267517 0.00082174560520797968 0.40144449472427368
0.3124811053276062 0.000807713542599231 0.50837767124176025
0.37681108713150024 0.00079650880070403218 0.62072116136550903
0.44066986441612244 0.0055473479442298412 0.73461461067199707
0.48082774877548218 0.0077416962012648582 0.84333765506744385
0.58518987894058228 0.023469813168048859 0.95831942558288574
0.046208895742893219 0.11265463382005692 0.00031056124134920537
0.065215915441513062 0.10607714205980301 0.00013089647109154612
0.091339230537414551 0.088734522461891174 0.0020656809210777283
0.1273825615644455 0.064133889973163605 0.010649153962731361
0.16305719316005707 0.090948723256587982 0.10059656202793121
0.23485817015171051 0.062601469457149506 0.1689135730266571
0.31060689687728882 0.038545958697795868 0.2545655369758606
0.39777684211730957 0.018832607194781303 0.36790034174919128
0.49937942624092102 0.015450735576450825 0.50085365772247314
0.57492220401763916 0.019232790917158127 0.62482404708862305
0.65002703666687012 0.036997821182012558 0.74442529678344727
