assets/lut/others vibrant cromeish.cube
# Created by: G'MIC (https://gmic.eu)
TITLE "vibrant_cromeish"
# LUT size
LUT_3D_SIZE 5
# Data domain
DOMAIN_MIN 0.0 0.0 0.0
DOMAIN_MAX 1.0 1.0 1.0
# LUT data points
0.0158857312053442 0.0011258143931627274 0.097568660974502563
0.25767827033996582 0.0012306362623348832 0.089488714933395386
0.65929466485977173 0 0.083456002175807953
0.95878762006759644 0 0.070847697556018829
1 0.00070049811620265245 0.057624697685241699
0.0038352368865162134 0.26652580499649048 0.072746932506561279
0.21767747402191162 0.24073371291160583 0.064963020384311676
0.60318654775619507 0.23109634220600128 0.057009078562259674
0.92231255769729614 0.21838961541652679 0.078142978250980377
1 0.19976991415023804 0.034512687474489212
0.0047149057500064373 0.61342364549636841 0.052811656147241592
0.18580661714076996 0.59753584861755371 0.040629114955663681
0.5540621280670166 0.57375937700271606 0.040023054927587509
0.89794743061065674 0.55994731187820435 0.041652679443359375
1 0.53276342153549194 0.050394453108310699
3.7339155824156478e-05 0.90303468704223633 0.025625385344028473
0.15711234509944916 0.91994529962539673 0.036836378276348114
0.51057010889053345 0.89774966239929199 0.052721001207828522
0.87223291397094727 0.87729424238204956 0.053502265363931656
1 0.86110162734985352 0.054483212530612946
0.001366349752061069 0.99981546401977539 0.0064842673018574715
0.13354404270648956 1 0.014104761183261871
0.46092751622200012 1 0.030348176136612892
0.82562994956970215 1 0.02343425340950489
0.99725306034088135 1 0.01903095655143261
0.02046419121325016 0 0.37340584397315979
0.25465220212936401 8.6167283370741643e-06 0.35408863425254822
0.65387487411499023 0 0.33581402897834778
0.9610021710395813 0 0.31779941916465759
1 0 0.30447778105735779
0.0030720580834895372 0.26735126972198486 0.33616054058074951
0.20886170864105225 0.24538338184356689 0.32370838522911072
0.59458565711975098 0.22847872972488403 0.30557221174240112
0.93053323030471802 0.1994321346282959 0.29874411225318909
1 0.17692096531391144 0.27540010213851929
0.0020845001563429832 0.61324620246887207 0.31036385893821716
0.17128431797027588 0.58387380838394165 0.29428231716156006
0.55029237270355225 0.56983655691146851 0.2776210606098175
0.89731693267822266 0.55379807949066162 0.26885107159614563
1 0.52693229913711548 0.24825969338417053
0 0.9172738790512085 0.2796991765499115
0.14937938749790192 0.89815771579742432 0.26938673853874207
0.51002329587936401 0.88779103755950928 0.24067942798137665
0.86215633153915405 0.8812028169631958 0.22772663831710815
1 0.85919946432113647 0.1999627947807312
0 1 0.2432091236114502
0.11090255528688431 0.99592477083206177 0.2318633496761322
0.45911213755607605 0.99902451038360596 0.21702755987644196
0.83817386627197266 0.99912834167480469 0.20002545416355133
1 1 0.18760661780834198
0.019818205386400223 0 0.63556903600692749
0.25617125630378723 0 0.62317144870758057
0.64858889579772949 0 0.60581135749816895
0.9502333402633667 0 0.59602063894271851
1 0 0.58726352453231812
0.0016791101079434156 0.25843751430511475 0.59787333011627197
0.20111069083213806 0.24223268032073975 0.58372229337692261
0.59231555461883545 0.18910646438598633 0.57451784610748291
0.92031025886535645 0.18896491825580597 0.56148838996887207
0.99779683351516724 0.175167515873909 0.54758971929550171
0.0057776505127549171 0.61028271913528442 0.57099252939224243
0.17508880794048309 0.58477544784545898 0.55896353721618652
0.55051028728485107 0.56238752603530884 0.54734295606613159
0.90715920925140381 0.54547911882400513 0.531086266040802
0.99997788667678833 0.52654242515563965 0.51799291372299194
0.006962495855987072 0.92699187994003296 0.54322004318237305
0.14393484592437744 0.907257080078125 0.52977937459945679
0.5094674825668335 0.88831174373626709 0.51982754468917847
0.86603564023971558 0.86857306957244873 0.50707238912582397
1 0.85963410139083862 0.48801344633102417
0 1 0.51004117727279663
0.10563056915998459 0.99920344352722168 0.49242222309112549
0.44813793897628784 1 0.48557397723197937
0.8262399435043335 0.99995100498199463 0.47100961208343506
1 1 0.46318155527114868
0.010988257825374603 9.8015283583663404e-05 0.87292098999023438
0.24141758680343628 0 0.89189523458480835
0.63888806104660034 0 0.87073290348052979
0.95197886228561401 0 0.86965954303741455
1 0 0.86207252740859985
0.0090104350820183754 0.24311408400535583 0.87771260738372803
0.20062592625617981 0.22334156930446625 0.86287760734558105
0.58536738157272339 0.18411928415298462 0.85440385341644287
0.91734153032302856 0.19560679793357849 0.83055287599563599
0.99876350164413452 0.17156624794006348 0.81515437364578247
0.00083416211418807507 0.60302340984344482 0.84456521272659302
0.16826242208480835 0.57497930526733398 0.8403351902961731
0.54495537281036377 0.55659312009811401 0.83064103126525879
0.88729077577590942 0.53761500120162964 0.79365032911300659
1 0.51627302169799805 0.7887004017829895
0.00012889188656117767 0.90841597318649292 0.81271344423294067
0.14143441617488861 0.89440596103668213 0.80260789394378662
0.49996441602706909 0.90025085210800171 0.78300899267196655
0.85870152711868286 0.86439007520675659 0.76606446504592896
1 0.84686785936355591 0.75926560163497925
0 1 0.77919101715087891
0.11069513857364655 0.9996262788772583 0.76549446582794189
0.44920891523361206 1 0.75589156150817871
0.82584226131439209 1 0.74155938625335693
1 1 0.72758084535598755
0.014177494682371616 0 0.9286080002784729
0.24293898046016693 0 0.93313908576965332
0.63163334131240845 0 0.93417966365814209
0.93697500228881836 0 0.93996226787567139
1 0 0.95603060722351074
0.0023467270657420158 0.22459264099597931 0.93520838022232056
0.19750836491584778 0.21452602744102478 0.91946202516555786
0.5790829062461853 0.19524401426315308 0.92995309829711914
0.90783357620239258 0.20002634823322296 0.92717307806015015
1 0.16841582953929901 0.96334850788116455
6.8933826696593314e-05 0.59543603658676147 0.94296294450759888
0.16247540712356567 0.57769149541854858 0.92868447303771973
0.52705168724060059 0.55929070711135864 0.95033162832260132
0.87596619129180908 0.53708457946777344 0.98620152473449707
1 0.51273709535598755 0.98967814445495605
0 0.90148830413818359 0.93277060985565186
0.13304032385349274 0.89683341979980469 0.92189317941665649
0.48584979772567749 0.89208751916885376 0.95016545057296753
0.84396523237228394 0.85822325944900513 0.98679608106613159
0.99987339973449707 0.84013468027114868 0.98567140102386475
0 1 0.95464092493057251
0.12540282309055328 0.9976915717124939 0.96761119365692139
0.45069113373756409 0.99809843301773071 0.96705347299575806
0.8087695837020874 0.99999302625656128 0.9745713472366333
0.99250304698944092 0.99982261657714844 0.96076673269271851
