assets/lut/others solarized color 2.cube
# Created by: G'MIC (https://gmic.eu)
TITLE "solarized_color_2"
# LUT size
LUT_3D_SIZE 13
# Data domain
DOMAIN_MIN 0.0 0.0 0.0
DOMAIN_MAX 1.0 1.0 1.0
# LUT data points
0.039688725024461746 0.038673970848321915 0.04496929794549942
0.10452726483345032 0.043635185807943344 0.045410558581352234
0.16971936821937561 0.041437245905399323 0.039117597043514252
0.26435068249702454 0.041547589004039764 0.041753999888896942
0.45185744762420654 0.046252485364675522 0.053221371024847031
0.67922848463058472 0.040354382246732712 0.046732496470212936
0.74141949415206909 0.038601506501436234 0.044207718223333359
0.65309274196624756 0.052896566689014435 0.037533089518547058
0.54772412776947021 0.044908098876476288 0.0343489870429039
0.57695657014846802 0.037413623183965683 0.03888663649559021
0.77245348691940308 0.036264605820178986 0.039323888719081879
0.92401814460754395 0.036470524966716766 0.037747088819742203
0.97586774826049805 0.036396685987710953 0.037562530487775803
0.042603898793458939 0.11053471267223358 0.039943933486938477
0.11292476207017899 0.11460892856121063 0.038848068565130234
0.17938829958438873 0.11836232244968414 0.03788178414106369
0.26407250761985779 0.1244920939207077 0.03856804221868515
0.45347851514816284 0.11785640567541122 0.040025897324085236
0.68143075704574585 0.11491836607456207 0.046577319502830505
0.7406005859375 0.11122363060712814 0.048766609281301498
0.65199428796768188 0.12256338447332382 0.041831687092781067
0.55063050985336304 0.12048826366662979 0.037714190781116486
0.56866645812988281 0.11317138373851776 0.038099296391010284
0.77308052778244019 0.11418189108371735 0.038701359182596207
0.92419040203094482 0.11351168900728226 0.038828399032354355
0.97533297538757324 0.10985309630632401 0.041460555046796799
0.039601597934961319 0.18760232627391815 0.034814395010471344
0.11572516709566116 0.19090127944946289 0.034796200692653656
0.18615595996379852 0.19629183411598206 0.037673171609640121
0.26429784297943115 0.20262499153614044 0.041446596384048462
0.44346833229064941 0.19552446901798248 0.037246868014335632
0.67386788129806519 0.1875639408826828 0.039049725979566574
0.7429993748664856 0.19417314231395721 0.044004909694194794
0.6458544135093689 0.19483673572540283 0.050530124455690384
0.55642080307006836 0.19764266908168793 0.045957855880260468
0.57389611005783081 0.19686274230480194 0.041112564504146576
0.74992889165878296 0.19572648406028748 0.045104499906301498
0.91416871547698975 0.18789234757423401 0.040322054177522659
0.97451049089431763 0.1801631897687912 0.044367771595716476
0.039701558649539948 0.26087173819541931 0.037426743656396866
0.12021747976541519 0.27463582158088684 0.037302426993846893
0.19581784307956696 0.27726873755455017 0.041218642145395279
0.27745455503463745 0.27173161506652832 0.051069792360067368
0.45112532377243042 0.26725602149963379 0.042674403637647629
0.67823630571365356 0.26434481143951416 0.04110412672162056
0.73900383710861206 0.26816082000732422 0.042316600680351257
0.65428614616394043 0.26686066389083862 0.046392973512411118
0.55044972896575928 0.26771986484527588 0.052301652729511261
0.58124625682830811 0.27087706327438354 0.047124270349740982
0.75450080633163452 0.2700079083442688 0.047284115105867386
0.9162333607673645 0.259287029504776 0.043840281665325165
0.98403573036193848 0.24936157464981079 0.042641807347536087
0.047834686934947968 0.34633705019950867 0.044181793928146362
0.11999504268169403 0.35643813014030457 0.037976164370775223
0.18909731507301331 0.35492768883705139 0.039580535143613815
0.26061123609542847 0.34499320387840271 0.046453259885311127
0.45323377847671509 0.3398803174495697 0.038657244294881821
0.688740074634552 0.34288305044174194 0.041487690061330795
0.7364734411239624 0.34372833371162415 0.038053654134273529
0.64644336700439453 0.34061959385871887 0.038246665149927139
0.54013419151306152 0.34158948063850403 0.037594456225633621
0.57008379697799683 0.34795054793357849 0.038228262215852737
0.75896108150482178 0.34917992353439331 0.041464831680059433
0.91786932945251465 0.33712649345397949 0.040341127663850784
0.97887325286865234 0.33468586206436157 0.053167097270488739
0.041887156665325165 0.42574834823608398 0.042006056755781174
0.11063392460346222 0.43080350756645203 0.041423693299293518
0.17342285811901093 0.42835879325866699 0.042510882019996643
0.24091090261936188 0.42083948850631714 0.042013686150312424
0.44803741574287415 0.41921141743659973 0.042535938322544098
0.68303060531616211 0.42115351557731628 0.04143046960234642
0.72797214984893799 0.42316636443138123 0.037631507962942123
0.64343690872192383 0.42003586888313293 0.03801688551902771
0.54286539554595947 0.42163506150245667 0.03859170526266098
0.5719112753868103 0.42549219727516174 0.039596244692802429
0.77107399702072144 0.42142799496650696 0.03831767663359642
0.9168701171875 0.41800925135612488 0.045111652463674545
0.97452276945114136 0.4154629111289978 0.055502407252788544
0.035428185015916824 0.50052225589752197 0.035677410662174225
0.10018116235733032 0.50229346752166748 0.041822995990514755
0.16544397175312042 0.50044363737106323 0.040145635604858398
0.24777409434318542 0.49506291747093201 0.037233032286167145
0.44187736511230469 0.49220597743988037 0.046716578304767609
0.68316805362701416 0.49173769354820251 0.047034736722707748
0.73235338926315308 0.49585247039794922 0.041427027434110641
0.63979554176330566 0.49597293138504028 0.037363059818744659
0.53942751884460449 0.49263185262680054 0.037777472287416458
0.58099484443664551 0.49159699678421021 0.042101543396711349
0.77639973163604736 0.49003604054450989 0.04065481573343277
0.90703898668289185 0.48594516515731812 0.046668916940689087
0.9721609354019165 0.48537281155586243 0.047376774251461029
0.041536249220371246 0.57928800582885742 0.040025658905506134
0.10303406417369843 0.58008944988250732 0.041562609374523163
0.17101489007472992 0.57835882902145386 0.04221305251121521
0.26728808879852295 0.57544493675231934 0.042120691388845444
0.45131871104240417 0.56896853446960449 0.040986813604831696
0.68269574642181396 0.56724834442138672 0.044530291110277176
0.73469007015228271 0.57096278667449951 0.042813766747713089
0.64222961664199829 0.571308434009552 0.038413297384977341
0.54701274633407593 0.56754279136657715 0.037584684789180756
0.56857329607009888 0.56771951913833618 0.03689739853143692
0.75625747442245483 0.56920027732849121 0.037306107580661774
0.90578103065490723 0.56322669982910156 0.043729998171329498
0.97222769260406494 0.56019705533981323 0.044885538518428802
0.045116722583770752 0.65511089563369751 0.043084461241960526
0.10630611330270767 0.65554112195968628 0.039904095232486725
0.17615722119808197 0.65392017364501953 0.039273042231798172
0.27480953931808472 0.653766930103302 0.040845446288585663
0.44046276807785034 0.65114778280258179 0.038816832005977631
0.65920335054397583 0.64886963367462158 0.050737239420413971
0.73684912919998169 0.64977198839187622 0.045930180698633194
0.65929025411605835 0.65087395906448364 0.039718523621559143
0.54720968008041382 0.6517716646194458 0.040738843381404877
0.57709395885467529 0.64892947673797607 0.041812058538198471
0.76066714525222778 0.65014666318893433 0.041082628071308136
0.91861045360565186 0.64528745412826538 0.041466206312179565
0.97506999969482422 0.64040553569793701 0.045101840049028397
0.041436918079853058 0.72711634635925293 0.039098896086215973
0.10764550417661667 0.72932404279708862 0.036599926650524139
0.17567041516304016 0.72907781600952148 0.035613294690847397
0.24957063794136047 0.72866529226303101 0.037682641297578812
0.44130182266235352 0.72568881511688232 0.045768320560455322
0.66175001859664917 0.73091202974319458 0.044910803437232971
0.72744947671890259 0.73324167728424072 0.044634051620960236
0.65358847379684448 0.73273944854736328 0.049815952777862549
0.54456835985183716 0.73189932107925415 0.046126078814268112
0.58477526903152466 0.72719180583953857 0.048608444631099701
0.77114516496658325 0.72702103853225708 0.047352451831102371
0.91474658250808716 0.72362571954727173 0.043551083654165268
0.97568166255950928 0.72049307823181152 0.043274194002151489
0.047981217503547668 0.80454862117767334 0.037436332553625107
0.11731106787919998 0.80876153707504272 0.036976490169763565
0.17641456425189972 0.80792689323425293 0.042888715863227844
0.24166171252727509 0.8032957911491394 0.043034348636865616
0.44130459427833557 0.80337715148925781 0.045194156467914581
0.66238343715667725 0.80965369939804077 0.046995066106319427
0.73359209299087524 0.81410068273544312 0.054726500064134598
0.64245253801345825 0.81230354309082031 0.062082670629024506
0.54399454593658447 0.81302559375762939 0.054451782256364822
0.57942944765090942 0.8099055290222168 0.043701712042093277
0.78264337778091431 0.79975587129592896 0.045356541872024536
0.91111880540847778 0.798392653465271 0.043463241308927536
0.97633481025695801 0.79883772134780884 0.042091682553291321
0.055623762309551239 0.88829761743545532 0.037196770310401917
0.12421871721744537 0.88966631889343262 0.040582604706287384
0.17665167152881622 0.88509327173233032 0.050420064479112625
0.24073320627212524 0.8789600133895874 0.047040946781635284
0.44468635320663452 0.87954169511795044 0.040797065943479538
0.67019480466842651 0.88287824392318726 0.042302988469600677
0.72896850109100342 0.88937389850616455 0.052520003169775009
0.64539206027984619 0.88803142309188843 0.060711879283189774
0.54767119884490967 0.88983315229415894 0.052354700863361359
0.58983594179153442 0.88683569431304932 0.044085513800382614
0.77666765451431274 0.87538671493530273 0.047540657222270966
0.913155198097229 0.87111383676528931 0.041902787983417511
0.97130292654037476 0.8718906044960022 0.045049391686916351
0.047114294022321701 0.96138006448745728 0.046557556837797165
0.11888612061738968 0.96257740259170532 0.054967589676380157
0.1754186600446701 0.95749747753143311 0.05297953262925148
0.24106559157371521 0.95638972520828247 0.040925882756710052
0.43275362253189087 0.95637130737304688 0.035863298922777176
0.66997218132019043 0.95748722553253174 0.038919828832149506
0.73414599895477295 0.95809423923492432 0.046157985925674438
0.64254677295684814 0.95522773265838623 0.057754486799240112
0.54735803604125977 0.9560171365737915 0.052503008395433426
0.58281993865966797 0.95327848196029663 0.043389175087213516
0.7750694751739502 0.9516139030456543 0.045011453330516815
0.91681867837905884 0.94284725189208984 0.040595754981040955
0.97640281915664673 0.94809615612030029 0.04391174390912056
0.037716973572969437 0.03800983726978302 0.11411169916391373
0.10238243639469147 0.040960438549518585 0.115436851978302
0.16966962814331055 0.03962312638759613 0.11360640823841095
0.26328366994857788 0.040444962680339813 0.11248224228620529
0.45160725712776184 0.04500974714756012 0.11921775341033936
0.67976266145706177 0.039061319082975388 0.11847170442342758
0.74109375476837158 0.044439069926738739 0.11277624219655991
0.65617328882217407 0.052308414131402969 0.11261232942342758
0.54885017871856689 0.043109998106956482 0.10978861898183823
0.58507490158081055 0.041679352521896362 0.1095287874341011
0.76736241579055786 0.043079748749732971 0.11437313258647919
0.91635686159133911 0.040928829461336136 0.11655800044536591
0.9685247540473938 0.042917784303426743 0.11590275168418884
0.045149873942136765 0.11168244481086731 0.10960358381271362
0.11113807559013367 0.11560355126857758 0.10933598875999451
0.17814449965953827 0.11818823963403702 0.10944872349500656
0.27254506945610046 0.12236863374710083 0.1110135093331337
0.46426618099212646 0.12316390126943588 0.11590703576803207
0.68017029762268066 0.11444725841283798 0.11948128789663315
0.73197633028030396 0.11426364630460739 0.11562353372573853
0.64809626340866089 0.1221286877989769 0.1162215918302536
0.55432987213134766 0.12009935826063156 0.11235864460468292
0.57198804616928101 0.11862246692180634 0.109402135014534
0.77295339107513428 0.12032683193683624 0.11325375735759735
0.91340100765228271 0.11470573395490646 0.11844126135110855
0.97194266319274902 0.10856214165687561 0.11858848482370377
0.046881433576345444 0.19116245210170746 0.10924920439720154
0.11572283506393433 0.19573947787284851 0.10812192410230637
0.18276193737983704 0.20020668208599091 0.10810092091560364
0.24848400056362152 0.20395280420780182 0.10749863088130951
0.45416897535324097 0.19831979274749756 0.1144801452755928
0.68041086196899414 0.19090737402439117 0.11555448174476624
0.72757929563522339 0.19420942664146423 0.11561234295368195
0.64486712217330933 0.19474947452545166 0.11955262720584869
0.54921478033065796 0.19242234528064728 0.11284814029932022
0.57022404670715332 0.19228638708591461 0.10855484008789062
0.75506842136383057 0.1916813850402832 0.11196066439151764
0.91814881563186646 0.19180533289909363 0.1155027374625206
0.97275668382644653 0.18108437955379486 0.11865059286355972
0.042785659432411194 0.26976019144058228 0.11693112552165985
0.1151951476931572 0.27626439929008484 0.11188329011201859
0.18757738173007965 0.279136061668396 0.10814623534679413
0.25974896550178528 0.27581781148910522 0.10855215042829514
0.4598330557346344 0.26908048987388611 0.11625408381223679
0.67506808042526245 0.26422488689422607 0.12153594195842743
0.72390937805175781 0.266387939453125 0.12128026783466339
0.65063035488128662 0.26648235321044922 0.12086769193410873
0.5505865216255188 0.26559993624687195 0.12030994147062302
0.57982015609741211 0.2660561203956604 0.11666105687618256
0.75269961357116699 0.25985065102577209 0.10762093961238861
0.91589087247848511 0.25683510303497314 0.1133611649274826
0.97792035341262817 0.24943855404853821 0.1170671209692955
0.03831012174487114 0.34683448076248169 0.12013541162014008
0.11559046059846878 0.35319483280181885 0.11377720534801483
0.1894848495721817 0.35184073448181152 0.10945785790681839
0.26428514719009399 0.34431925415992737 0.10830957442522049
0.45657604932785034 0.34040233492851257 0.1150466650724411
0.68540865182876587 0.34085729718208313 0.12133606523275375
0.73417919874191284 0.34081190824508667 0.11807063966989517
0.64845746755599976 0.34204334020614624 0.11818347871303558
0.55051571130752563 0.34507560729980469 0.11704889684915543
0.57663601636886597 0.34653916954994202 0.11316393315792084
0.76370716094970703 0.34476661682128906 0.11353126913309097
0.91854143142700195 0.34001493453979492 0.12084343284368515
0.97441750764846802 0.33630013465881348 0.12025395035743713
0.043637681752443314 0.4247608482837677 0.11707431823015213
0.11073190718889236 0.4279138445854187 0.11403390020132065
0.1776244044303894 0.42738091945648193 0.11420807242393494
0.2624097466468811 0.42322561144828796 0.11541436612606049
0.45905974507331848 0.4203190803527832 0.11771327257156372
0.68783634901046753 0.41483482718467712 0.11725462228059769
0.73477089405059814 0.41496822237968445 0.11377095431089401
0.64425545930862427 0.41757658123970032 0.11432407051324844
0.54767012596130371 0.42333188652992249 0.11236787587404251
0.57499033212661743 0.42385455965995789 0.11033321917057037
0.77203863859176636 0.42027580738067627 0.11604620516300201
0.92012697458267212 0.42381006479263306 0.12436731159687042
0.97296583652496338 0.42014738917350769 0.12076927721500397
0.045306500047445297 0.50196081399917603 0.10930807143449783
0.10717016458511353 0.50199562311172485 0.11073978245258331
0.17262129485607147 0.50177693367004395 0.11316467076539993
0.25241705775260925 0.49887144565582275 0.11547178030014038
0.45889881253242493 0.49316951632499695 0.11716102063655853
0.68719053268432617 0.48513469099998474 0.11871888488531113
0.72848784923553467 0.48678997159004211 0.11654748022556305
0.6397826075553894 0.49249717593193054 0.11852647364139557
0.54646003246307373 0.49457001686096191 0.1142081618309021
0.58023864030838013 0.49387624859809875 0.11068287491798401
0.75862753391265869 0.49334067106246948 0.11421317607164383
0.91568624973297119 0.4935145378112793 0.12118072807788849
0.97889316082000732 0.49182075262069702 0.11762611567974091
0.046542778611183167 0.57916665077209473 0.10818248242139816
0.1091177836060524 0.57917428016662598 0.10932125151157379
0.17603087425231934 0.57848721742630005 0.11211206763982773
0.2588467001914978 0.57489210367202759 0.11348412930965424
0.44895672798156738 0.56970727443695068 0.11530443280935287
0.68140268325805664 0.56530100107192993 0.11825019866228104
0.73229694366455078 0.56705182790756226 0.11352063715457916
0.64437121152877808 0.5701860785484314 0.11773686110973358
0.54238063097000122 0.56864964962005615 0.11464402079582214
0.57949846982955933 0.5686039924621582 0.10741927474737167
0.77143442630767822 0.56993252038955688 0.11611665040254593
0.92417752742767334 0.56807535886764526 0.12138863652944565
0.97679406404495239 0.56527453660964966 0.11921144276857376
0.046216525137424469 0.65456700325012207 0.10889629274606705
0.10998333245515823 0.65607279539108276 0.10870902985334396
0.1786426305770874 0.65455490350723267 0.11152943968772888
0.26632732152938843 0.65252649784088135 0.11132049560546875
0.43720060586929321 0.65406519174575806 0.11330033838748932
0.6548650860786438 0.65324872732162476 0.11992302536964417
0.7267765998840332 0.65235543251037598 0.11496635526418686
0.65110892057418823 0.65218520164489746 0.1163342222571373
0.5488048791885376 0.65204757452011108 0.11953612416982651
0.57880812883377075 0.6487535834312439 0.11571945250034332
0.77035009860992432 0.64954191446304321 0.12184138596057892
0.92804443836212158 0.65038406848907471 0.12789219617843628
0.97652667760848999 0.6447296142578125 0.12223199754953384
0.041565660387277603 0.72905516624450684 0.10810983926057816
0.10987122356891632 0.73153239488601685 0.10819965600967407
0.18022873997688293 0.73245745897293091 0.10910662263631821
0.27267611026763916 0.72822350263595581 0.1141546219587326
0.44669985771179199 0.72658073902130127 0.11719746142625809
0.65751343965530396 0.72931933403015137 0.11603669077157974
0.72574079036712646 0.73087072372436523 0.11651789397001266
0.64328193664550781 0.73259919881820679 0.12016550451517105
0.541390061378479 0.73636007308959961 0.1256231963634491
0.58129256963729858 0.72708630561828613 0.12294270843267441
0.77002120018005371 0.72622048854827881 0.12205152213573456
0.90910136699676514 0.72818559408187866 0.11979127675294876
0.97301501035690308 0.7253376841545105 0.11800418794155121
0.045043166726827621 0.80665892362594604 0.10938701033592224
0.11393175274133682 0.80996304750442505 0.10815376043319702
0.17798680067062378 0.80997580289840698 0.11078648269176483
0.26347389817237854 0.80418336391448975 0.11737672239542007
0.44185277819633484 0.80004996061325073 0.12074293196201324
0.66795295476913452 0.80338144302368164 0.12621666491031647
0.73441165685653687 0.81207549571990967 0.12660036981105804
0.65307003259658813 0.81106120347976685 0.12810926139354706
0.54754960536956787 0.81242692470550537 0.12410721182823181
0.57727307081222534 0.80869829654693604 0.11930986493825912
0.75924372673034668 0.80052417516708374 0.11970977485179901
0.90517467260360718 0.80100399255752563 0.12006183713674545
0.9714997410774231 0.80165386199951172 0.1199457198381424
0.052548561245203018 0.88630080223083496 0.11562220007181168
0.11783737689256668 0.88799738883972168 0.11461810022592545
0.17703138291835785 0.88562297821044922 0.11709030717611313
0.26086533069610596 0.88024401664733887 0.11465419828891754
0.43495705723762512 0.87873953580856323 0.11055640131235123
0.66043287515640259 0.88046687841415405 0.12330829352140427
0.7284780740737915 0.88422888517379761 0.12932232022285461
0.65638864040374756 0.88497728109359741 0.13093836605548859
0.56035888195037842 0.8851657509803772 0.12439905852079391
0.59205597639083862 0.88423126935958862 0.11561606824398041
0.78266388177871704 0.87813997268676758 0.11524638533592224
0.91308677196502686 0.87248831987380981 0.11655008792877197
0.97477871179580688 0.87405997514724731 0.1181807741522789
0.047589097172021866 0.96152615547180176 0.12348611652851105
0.11849091202020645 0.96113640069961548 0.12542000412940979
0.18808795511722565 0.95280706882476807 0.12408915162086487
0.27100956439971924 0.95228224992752075 0.11928538978099823
0.43122494220733643 0.95189350843429565 0.11367011070251465
0.66425234079360962 0.95329958200454712 0.1159924641251564
0.73246705532073975 0.95544981956481934 0.12480612099170685
0.65333318710327148 0.95686167478561401 0.13058511912822723
0.556202232837677 0.95639169216156006 0.12285874038934708
0.58818966150283813 0.95169907808303833 0.11589648574590683
0.78286850452423096 0.94533926248550415 0.11584879457950592
0.91632997989654541 0.94164711236953735 0.11786004155874252
0.98149001598358154 0.94831901788711548 0.11991052329540253
0.034837804734706879 0.038190461695194244 0.18754149973392487
0.10039523243904114 0.041299529373645782 0.18949013948440552
0.17113214731216431 0.037602785974740982 0.18856015801429749
0.25886589288711548 0.040024235844612122 0.18874062597751617
0.4624275267124176 0.043036967515945435 0.19069330394268036
0.67940360307693481 0.041444502770900726 0.1917002946138382
0.74181395769119263 0.043121665716171265 0.18874421715736389
0.65275973081588745 0.045348193496465683 0.19152694940567017
0.54847139120101929 0.046352565288543701 0.18878917396068573
0.57195460796356201 0.047707293182611465 0.18597397208213806
0.75597900152206421 0.047525294125080109 0.19011916220188141
0.91721385717391968 0.044473055750131607 0.19465897977352142
0.97142088413238525 0.045070827007293701 0.19384780526161194
0.045700326561927795 0.11519989371299744 0.18513140082359314
0.10861367732286453 0.1170012354850769 0.18480798602104187
0.17921538650989532 0.11797099560499191 0.18484435975551605
0.26021352410316467 0.11632531881332397 0.18405598402023315
0.46110826730728149 0.11756947636604309 0.18932643532752991
0.67328107357025146 0.115853451192379 0.19290879368782043
0.73662453889846802 0.11827155947685242 0.19009281694889069
0.65520858764648438 0.12327315658330917 0.19029118120670319
0.54742807149887085 0.12385406345129013 0.18878814578056335
0.57494533061981201 0.12144531309604645 0.1872616708278656
0.75369429588317871 0.12015096843242645 0.18905721604824066
0.91499418020248413 0.11899702996015549 0.19348348677158356
0.96656495332717896 0.10956282913684845 0.1957692950963974
0.04924359917640686 0.19569502770900726 0.18477694690227509
0.11461733281612396 0.19863450527191162 0.1828458309173584
0.18695031106472015 0.20046444237232208 0.18463507294654846
0.26237136125564575 0.19867634773254395 0.18744976818561554
0.46739044785499573 0.19702358543872833 0.19469626247882843
0.69040536880493164 0.19370116293430328 0.19458542764186859
0.73262220621109009 0.19445426762104034 0.19290624558925629
0.64732557535171509 0.19445060193538666 0.19233296811580658
0.54539471864700317 0.19430561363697052 0.18723616003990173
0.57741785049438477 0.19129353761672974 0.18608766794204712
0.75628626346588135 0.19313974678516388 0.18899340927600861
0.91567730903625488 0.19419467449188232 0.18940232694149017
0.96821540594100952 0.18590421974658966 0.19138716161251068
0.045123770833015442 0.27416998147964478 0.18667955696582794
0.1123829260468483 0.27716332674026489 0.18487939238548279
0.18776074051856995 0.27775800228118896 0.18434572219848633
0.2726997435092926 0.27441054582595825 0.18776795268058777
0.46409526467323303 0.2688082754611969 0.19369921088218689
0.67927753925323486 0.2659420371055603 0.19597235321998596
0.72602921724319458 0.26645550131797791 0.19856944680213928
0.65310412645339966 0.26496049761772156 0.19615094363689423
0.562233567237854 0.26760339736938477 0.19319473206996918
0.58657610416412354 0.26604580879211426 0.19042328000068665
0.77149730920791626 0.2629304826259613 0.18948885798454285
0.92364227771759033 0.26174286007881165 0.18973176181316376
0.97238963842391968 0.25922003388404846 0.19081470370292664
0.041220616549253464 0.34939947724342346 0.18759505450725555
0.1125287339091301 0.35171863436698914 0.1853473037481308
0.19143003225326538 0.34984287619590759 0.18531949818134308
0.27499786019325256 0.34540620446205139 0.18842849135398865
0.44662511348724365 0.34219616651535034 0.19298973679542542
