assets/lut/others blue mono.cube
# Created by: G'MIC (https://gmic.eu)
TITLE "blue_mono"
# LUT size
LUT_3D_SIZE 5
# Data domain
DOMAIN_MIN 0.0 0.0 0.0
DOMAIN_MAX 1.0 1.0 1.0
# LUT data points
0.030908502638339996 0.048396166414022446 0.14408838748931885
0.081738479435443878 0.13700529932975769 0.37347027659416199
0.1735747754573822 0.27111941576004028 0.59131783246994019
0.26734301447868347 0.39752990007400513 0.75796693563461304
0.4165918231010437 0.62252837419509888 0.89064258337020874
0.041848260909318924 0.055295277386903763 0.15986284613609314
0.09631386399269104 0.14998188614845276 0.39751964807510376
0.18461692333221436 0.28072655200958252 0.61691123247146606
0.28227481245994568 0.42129266262054443 0.77496743202209473
0.44565993547439575 0.67060995101928711 0.90273213386535645
0.042368270456790924 0.063078857958316803 0.18065434694290161
0.10793501883745193 0.17239914834499359 0.42699092626571655
0.20987175405025482 0.30945682525634766 0.64297491312026978
0.30266767740249634 0.45039594173431396 0.79120081663131714
0.47059464454650879 0.70227313041687012 0.91217124462127686
0.048094026744365692 0.074242793023586273 0.21694852411746979
0.10684545338153839 0.18087431788444519 0.45305284857749939
0.21403324604034424 0.32419750094413757 0.66230648756027222
0.32800030708312988 0.48623389005661011 0.81020998954772949
0.49386584758758545 0.73421788215637207 0.92536741495132446
0.056553591042757034 0.085964277386665344 0.23822797834873199
0.13208192586898804 0.20775958895683289 0.48431119322776794
0.23072457313537598 0.34865039587020874 0.67031079530715942
0.35860937833786011 0.53300970792770386 0.81616419553756714
0.51964068412780762 0.77023088932037354 0.9271010160446167
0.034147031605243683 0.055424604564905167 0.15796920657157898
0.095284663140773773 0.15156760811805725 0.39775151014328003
0.1839127391576767 0.28358903527259827 0.60868430137634277
0.28810212016105652 0.42889833450317383 0.77559411525726318
0.44228053092956543 0.6655116081237793 0.90243953466415405
0.04226360097527504 0.066020280122756958 0.18692563474178314
0.10074709355831146 0.16566064953804016 0.42618131637573242
0.19064599275588989 0.29975438117980957 0.63498777151107788
0.29972878098487854 0.44896993041038513 0.79237943887710571
0.4689236581325531 0.69595837593078613 0.91599905490875244
0.047192398458719254 0.073311015963554382 0.21468763053417206
0.11395082622766495 0.18341310322284698 0.46049869060516357
0.20790626108646393 0.31908425688743591 0.65276628732681274
0.30406147241592407 0.45194646716117859 0.79287052154541016
0.49279150366783142 0.73011666536331177 0.92623192071914673
0.056832272559404373 0.085100404918193817 0.24432754516601562
0.12771846354007721 0.20299512147903442 0.4953235387802124
0.22436866164207458 0.33353221416473389 0.68432158231735229
0.32882976531982422 0.48454576730728149 0.81564390659332275
0.51528096199035645 0.76796066761016846 0.94439065456390381
0.058475196361541748 0.091086022555828094 0.26426953077316284
0.13823947310447693 0.22014620900154114 0.52052223682403564
0.24314078688621521 0.36025702953338623 0.70745718479156494
0.36243641376495361 0.53666919469833374 0.84029865264892578
0.53514260053634644 0.79170918464660645 0.95271462202072144
0.042631395161151886 0.063830010592937469 0.18400990962982178
0.10249702632427216 0.16637793183326721 0.42390698194503784
0.20382238924503326 0.30231073498725891 0.63615208864212036
0.30844339728355408 0.44562208652496338 0.79661303758621216
0.47031491994857788 0.70064938068389893 0.91602927446365356
0.051456481218338013 0.072495043277740479 0.21103242039680481
0.11189769953489304 0.18167397379875183 0.45381256937980652
0.20753005146980286 0.31833335757255554 0.65927034616470337
0.32029107213020325 0.47311508655548096 0.81436270475387573
0.49361589550971985 0.7318301796913147 0.93106675148010254
0.055050421506166458 0.078110143542289734 0.23426491022109985
0.12238636612892151 0.19431385397911072 0.4864068329334259
0.22047369182109833 0.33739036321640015 0.67736983299255371
0.34096419811248779 0.51575231552124023 0.82809919118881226
0.51253372430801392 0.7610970139503479 0.94191372394561768
0.060454022139310837 0.094716332852840424 0.26572772860527039
0.14101995527744293 0.22145016491413116 0.52165865898132324
0.23826074600219727 0.35728678107261658 0.70283478498458862
0.35999965667724609 0.54276037216186523 0.83810174465179443
0.534892737865448 0.79276227951049805 0.94927400350570679
0.064623482525348663 0.1073625460267067 0.2871299684047699
0.15165670216083527 0.23839505016803741 0.54617452621459961
0.25891932845115662 0.38281548023223877 0.72819262742996216
0.3727581799030304 0.55796068906784058 0.85331308841705322
0.55501478910446167 0.820079505443573 0.96649831533432007
0.046349350363016129 0.070045068860054016 0.19351325929164886
0.1041850820183754 0.17896699905395508 0.44449377059936523
0.20550869405269623 0.30823960900306702 0.65109246969223022
0.31045493483543396 0.44637656211853027 0.80182087421417236
0.4986979067325592 0.7321656346321106 0.93511688709259033
0.054608095437288284 0.084399521350860596 0.23786219954490662
0.12421073019504547 0.19823963940143585 0.48767688870429993
0.21686869859695435 0.32522520422935486 0.67718976736068726
0.33378162980079651 0.48750677704811096 0.82113993167877197
0.5244067907333374 0.77445411682128906 0.946952223777771
0.059998754411935806 0.097075521945953369 0.26283517479896545
0.13286320865154266 0.21733927726745605 0.51760411262512207
0.22428253293037415 0.34505891799926758 0.69658571481704712
0.35502845048904419 0.53306734561920166 0.83719444274902344
0.53376960754394531 0.79141736030578613 0.95304399728775024
0.06437557190656662 0.10736200958490372 0.30282533168792725
0.14246974885463715 0.23121212422847748 0.55006915330886841
0.23712716996669769 0.36591616272926331 0.72098344564437866
0.37467876076698303 0.5679161548614502 0.85428571701049805
0.55623710155487061 0.82223117351531982 0.9655643105506897
0.070804700255393982 0.12555152177810669 0.32914957404136658
0.16265285015106201 0.24833343923091888 0.57680428028106689
0.26243740320205688 0.39301830530166626 0.74200236797332764
0.39645084738731384 0.59510129690170288 0.86949574947357178
0.57149243354797363 0.84260833263397217 0.97271984815597534
0.055148914456367493 0.086205996572971344 0.21524658799171448
0.12912976741790771 0.20600849390029907 0.47015702724456787
0.22197616100311279 0.33752784132957458 0.66067570447921753
0.33619263768196106 0.50601077079772949 0.81061893701553345
0.50987207889556885 0.76226699352264404 0.94549697637557983
0.060317978262901306 0.097533673048019409 0.27438721060752869
0.14145123958587646 0.21227951347827911 0.52611511945724487
0.23126968741416931 0.34498193860054016 0.69612443447113037
0.3541509211063385 0.53353607654571533 0.83793181180953979
0.53309798240661621 0.79985159635543823 0.95902746915817261
0.070526361465454102 0.1091482862830162 0.30032894015312195
0.14826895296573639 0.23093642294406891 0.54721075296401978
0.23990383744239807 0.35880196094512939 0.71980530023574829
0.3656829297542572 0.54958504438400269 0.85307520627975464
0.55370086431503296 0.82531285285949707 0.96676439046859741
0.078083813190460205 0.12328504770994186 0.33429506421089172
0.15803579986095428 0.24803361296653748 0.56966817378997803
0.27062636613845825 0.39961439371109009 0.74751901626586914
0.41328352689743042 0.6165803074836731 0.88205313682556152
0.57790905237197876 0.85395979881286621 0.98085629940032959
0.081640742719173431 0.14135164022445679 0.34825867414474487
0.17838065326213837 0.26676297187805176 0.58474940061569214
0.29237344861030579 0.42695119976997375 0.75538229942321777
0.43652981519699097 0.65000003576278687 0.89062041044235229
0.58957201242446899 0.86533623933792114 0.98331046104431152
