assets/lut/others rotate muted.cube
# Created by: G'MIC (https://gmic.eu)
TITLE "rotate_muted"
# LUT size
LUT_3D_SIZE 5
# Data domain
DOMAIN_MIN 0.0 0.0 0.0
DOMAIN_MAX 1.0 1.0 1.0
# LUT data points
0.037656102329492569 0.032562419772148132 0.036441609263420105
0.040319062769412994 0.060538660734891891 0.20872765779495239
0.05929126963019371 0.072403818368911743 0.4047301709651947
0.2014068067073822 0.19879423081874847 0.60518902540206909
0.37040379643440247 0.39335408806800842 0.78158724308013916
0.16299708187580109 0.045778851956129074 0.047838367521762848
0.27001851797103882 0.23265400528907776 0.28243562579154968
0.28905436396598816 0.22440792620182037 0.42800277471542358
0.32038456201553345 0.21355336904525757 0.57079273462295532
0.46707555651664734 0.37111440300941467 0.77172046899795532
0.36258304119110107 0.18459367752075195 0.19152893126010895
0.38844731450080872 0.2739747166633606 0.31192168593406677
0.54136085510253906 0.49335452914237976 0.54220718145370483
0.61551123857498169 0.55419009923934937 0.68800300359725952
0.66752821207046509 0.5750880241394043 0.81855016946792603
0.5764961838722229 0.39917823672294617 0.39463907480239868
0.49796950817108154 0.32931816577911377 0.37846589088439941
0.66433167457580566 0.57033360004425049 0.62887066602706909
0.7481502890586853 0.68051618337631226 0.75073003768920898
0.91133284568786621 0.83963495492935181 0.94966429471969604
0.73494356870651245 0.55586153268814087 0.55480343103408813
0.67312353849411011 0.48817616701126099 0.53198802471160889
0.71094834804534912 0.55762839317321777 0.62782484292984009
0.92505103349685669 0.83034628629684448 0.90188425779342651
0.96897447109222412 0.88367319107055664 0.97303217649459839
0.029992735013365746 0.10104022920131683 0.034383915364742279
0.039793364703655243 0.12675562500953674 0.13276413083076477
0.064886845648288727 0.14813606441020966 0.29492977261543274
0.17954768240451813 0.28345689177513123 0.53326857089996338
0.33854103088378906 0.43569245934486389 0.73975056409835815
0.20975258946418762 0.20886063575744629 0.084476679563522339
0.24476757645606995 0.24902725219726562 0.2500033974647522
0.26097342371940613 0.24445794522762299 0.41266712546348572
0.34744077920913696 0.35352465510368347 0.6120341420173645
0.50290966033935547 0.49859735369682312 0.80285352468490601
0.35038918256759644 0.26227733492851257 0.18801379203796387
0.39293393492698669 0.31065934896469116 0.30542466044425964
0.5194815993309021 0.47888746857643127 0.50826716423034668
0.55131345987319946 0.49482008814811707 0.65595740079879761
0.64469337463378906 0.56990128755569458 0.82536274194717407
0.46771630644798279 0.34738188982009888 0.29483941197395325
0.53987222909927368 0.42040741443634033 0.41771093010902405
0.61146223545074463 0.52488982677459717 0.55732768774032593
0.77545475959777832 0.7209780216217041 0.77876341342926025
0.86859726905822754 0.80394911766052246 0.91078478097915649
0.6700669527053833 0.53145486116409302 0.48667088150978088
0.76537281274795532 0.63103717565536499 0.63053619861602783
0.70924800634384155 0.58227026462554932 0.62422662973403931
0.88353186845779419 0.80946964025497437 0.85747236013412476
0.96832841634750366 0.904183030128479 0.97203683853149414
0.020279932767152786 0.1397092193365097 0.016503129154443741
0.031348060816526413 0.16626420617103577 0.09277237206697464
0.18106374144554138 0.28026461601257324 0.28122004866600037
0.15309615433216095 0.25240215659141541 0.31374961137771606
0.24225828051567078 0.3544180691242218 0.49038985371589661
0.18255284428596497 0.27232590317726135 0.096354767680168152
0.22391195595264435 0.31341812014579773 0.22108027338981628
0.32568538188934326 0.38262748718261719 0.381010502576828
0.33130815625190735 0.394298255443573 0.49257826805114746
0.46445688605308533 0.54414737224578857 0.72240239381790161
0.47030144929885864 0.47120857238769531 0.32958394289016724
0.45244190096855164 0.45252850651741028 0.37828731536865234
0.49560332298278809 0.48750019073486328 0.4956931471824646
0.53660118579864502 0.54079794883728027 0.6586114764213562
0.65079241991043091 0.64980274438858032 0.85243707895278931
0.56226885318756104 0.50711745023727417 0.39779043197631836
0.55761808156967163 0.50292634963989258 0.44407153129577637
0.62054544687271118 0.56384223699569702 0.56191790103912354
0.73954981565475464 0.69882714748382568 0.74356496334075928
0.82157260179519653 0.77799946069717407 0.8945280909538269
0.596294105052948 0.51211971044540405 0.42236772179603577
0.67651379108428955 0.58300942182540894 0.53965294361114502
0.75336569547653198 0.66692459583282471 0.66489517688751221
0.86149686574935913 0.79578757286071777 0.82569336891174316
0.93831717967987061 0.89160549640655518 0.93932551145553589
0.034916296601295471 0.21498341858386993 0.033362116664648056
0.051828887313604355 0.2154938131570816 0.09694315493106842
0.13401874899864197 0.26457542181015015 0.21986092627048492
0.35752186179161072 0.46229538321495056 0.46131893992424011
0.32421013712882996 0.41746905446052551 0.446533203125
0.13448840379714966 0.27332240343093872 0.073742903769016266
0.20730240643024445 0.35785233974456787 0.20437900722026825
0.30111390352249146 0.41303831338882446 0.3497852087020874
0.4375298023223877 0.51178491115570068 0.51372075080871582
0.3941570520401001 0.46618309617042542 0.50489205121994019
0.47116023302078247 0.53899776935577393 0.35076647996902466
0.42776644229888916 0.49678716063499451 0.36020910739898682
0.47809374332427979 0.54055184125900269 0.4738081693649292
0.55332362651824951 0.59346181154251099 0.59348499774932861
0.65695786476135254 0.70312273502349854 0.77641433477401733
0.66413998603820801 0.66558539867401123 0.52381998300552368
0.65658539533615112 0.6563413143157959 0.55692529678344727
0.71219199895858765 0.71123009920120239 0.66240966320037842
0.72251182794570923 0.72533077001571655 0.73433780670166016
0.78763711452484131 0.78527116775512695 0.86545372009277344
0.80726796388626099 0.76600545644760132 0.64516228437423706
0.7676016092300415 0.73252034187316895 0.64675450325012207
0.83666491508483887 0.79853606224060059 0.75224637985229492
0.82756137847900391 0.78984308242797852 0.79068446159362793
0.96063888072967529 0.9355958104133606 0.96361559629440308
0.023600904271006584 0.25580930709838867 0.02746899239718914
0.058711018413305283 0.27104169130325317 0.10685312747955322
0.099833503365516663 0.26915663480758667 0.17920099198818207
0.32581865787506104 0.44649949669837952 0.41772392392158508
0.49277925491333008 0.60837233066558838 0.60630351305007935
0.095857761800289154 0.28204292058944702 0.040482360869646072
0.22306610643863678 0.39163681864738464 0.21504345536231995
0.29111972451210022 0.42264091968536377 0.32665088772773743
0.40013116598129272 0.49425545334815979 0.46632388234138489
0.6031610369682312 0.6844906210899353 0.68564128875732422
0.36339899897575378 0.48283308744430542 0.24101726710796356
0.37172254920005798 0.48819583654403687 0.30768796801567078
0.4532267153263092 0.5519135594367981 0.4422016441822052
0.56834876537322998 0.64189320802688599 0.60412114858627319
0.67056679725646973 0.72306841611862183 0.72164654731750488
0.74107992649078369 0.78384977579116821 0.61358904838562012
0.71917229890823364 0.76428669691085815 0.62991708517074585
0.69464057683944702 0.74035012722015381 0.64336782693862915
0.73931884765625 0.77431195974349976 0.73338532447814941
0.81588536500930786 0.84665530920028687 0.84401208162307739
0.89134079217910767 0.89108759164810181 0.73846727609634399
0.88799870014190674 0.88808810710906982 0.76921761035919189
0.90363919734954834 0.90641731023788452 0.82706969976425171
0.90596181154251099 0.90785074234008789 0.8752320408821106
0.94470852613449097 0.93874871730804443 0.94192373752593994
