assets/lut/others pink fade.cube
# Created by: G'MIC (https://gmic.eu)
TITLE "pink_fade"
# LUT size
LUT_3D_SIZE 7
# Data domain
DOMAIN_MIN 0.0 0.0 0.0
DOMAIN_MAX 1.0 1.0 1.0
# LUT data points
0.19192266464233398 0.13771657645702362 0.18041233718395233
0.27845177054405212 0.14594271779060364 0.20193752646446228
0.41376805305480957 0.16475693881511688 0.22533264756202698
0.58076339960098267 0.21481969952583313 0.28622749447822571
0.74416649341583252 0.28939279913902283 0.36417806148529053
0.88199764490127563 0.37409606575965881 0.45342472195625305
0.97714614868164062 0.43289667367935181 0.52180606126785278
0.20008563995361328 0.19201429188251495 0.17647793889045715
0.28348088264465332 0.18134528398513794 0.18799535930156708
0.4141964316368103 0.19332733750343323 0.22057993710041046
0.57585012912750244 0.24085529148578644 0.27470734715461731
0.74868404865264893 0.31206616759300232 0.36232712864875793
0.88415348529815674 0.38664999604225159 0.44859716296195984
0.98460984230041504 0.44435772299766541 0.52150613069534302
0.23067304491996765 0.31685155630111694 0.18708384037017822
0.31342828273773193 0.30074313282966614 0.18872234225273132
0.42885226011276245 0.27129235863685608 0.20323894917964935
0.57887887954711914 0.28812596201896667 0.25749313831329346
0.73954474925994873 0.346681147813797 0.33710697293281555
0.88478547334671021 0.4190317690372467 0.42797091603279114
0.97695845365524292 0.46794861555099487 0.50037354230880737
0.28008273243904114 0.48223733901977539 0.21379205584526062
0.36055898666381836 0.48275631666183472 0.21003222465515137
0.50421738624572754 0.46930566430091858 0.21079303324222565
0.58944272994995117 0.3786710798740387 0.23962365090847015
0.74701088666915894 0.39007693529129028 0.31683823466300964
0.88120639324188232 0.45325538516044617 0.40336698293685913
0.98422807455062866 0.50440973043441772 0.48274257779121399
0.34946414828300476 0.66018503904342651 0.26951462030410767
0.42262840270996094 0.64813739061355591 0.25768360495567322
0.5752556324005127 0.66193562746047974 0.24702286720275879
0.69114553928375244 0.58146917819976807 0.2556702196598053
0.77595698833465576 0.49645894765853882 0.30805826187133789
0.88668763637542725 0.50264620780944824 0.38784286379814148
0.98369795083999634 0.52780365943908691 0.45610806345939636
0.41912183165550232 0.78166884183883667 0.3316403329372406
0.49229833483695984 0.78280872106552124 0.30855271220207214
0.61061012744903564 0.78268605470657349 0.29070484638214111
0.80191695690155029 0.77002972364425659 0.28186959028244019
0.88171017169952393 0.67005026340484619 0.33294224739074707
0.90005242824554443 0.58101218938827515 0.36576047539710999
0.9820554256439209 0.56922286748886108 0.43793594837188721
0.48202478885650635 0.87140679359436035 0.3673950731754303
0.55171781778335571 0.86584722995758057 0.35111731290817261
0.64609110355377197 0.87548428773880005 0.33181914687156677
0.84520560503005981 0.87648701667785645 0.32842063903808594
0.97595375776290894 0.84256047010421753 0.35401484370231628
0.97586053609848022 0.73783862590789795 0.37648069858551025
0.98759102821350098 0.63092076778411865 0.41954290866851807
0.19857035577297211 0.14200988411903381 0.25767451524734497
0.24912519752979279 0.14082080125808716 0.26573696732521057
0.39644420146942139 0.15733161568641663 0.30768835544586182
0.5778498649597168 0.21058361232280731 0.36377924680709839
0.74163007736206055 0.27917134761810303 0.43140155076980591
0.88341134786605835 0.35341095924377441 0.51670849323272705
0.97722321748733521 0.40550121665000916 0.57996189594268799
0.195895716547966 0.19483514130115509 0.240618035197258
0.26431381702423096 0.19052353501319885 0.25064241886138916
0.41144227981567383 0.1984950453042984 0.29653516411781311
0.57452839612960815 0.23371915519237518 0.34026944637298584
0.74304330348968506 0.29802614450454712 0.42525407671928406
0.88317716121673584 0.36984097957611084 0.50989049673080444
0.97834926843643188 0.41938173770904541 0.58194714784622192
0.21151407063007355 0.3033602237701416 0.23085762560367584
0.29364582896232605 0.30095699429512024 0.23285464942455292
0.42767637968063354 0.28319796919822693 0.25846004486083984
0.57593780755996704 0.289284348487854 0.30379331111907959
0.74735832214355469 0.33972695469856262 0.38582110404968262
0.8814622163772583 0.40408617258071899 0.48109006881713867
0.98180729150772095 0.45356690883636475 0.55729424953460693
0.25987997651100159 0.47333094477653503 0.25651946663856506
0.34456202387809753 0.48249813914299011 0.25115415453910828
0.497322678565979 0.46705663204193115 0.24812816083431244
0.59564852714538574 0.38949987292289734 0.27952671051025391
0.74817687273025513 0.39588254690170288 0.34743466973304749
0.88257682323455811 0.44683024287223816 0.43702155351638794
0.97770386934280396 0.49337843060493469 0.51086008548736572
0.337241530418396 0.65345388650894165 0.30360144376754761
0.41998511552810669 0.65933346748352051 0.29541832208633423
0.56453210115432739 0.6622852087020874 0.28082951903343201
0.68896877765655518 0.57763278484344482 0.2901795506477356
0.77908682823181152 0.50077980756759644 0.34025800228118896
0.88327878713607788 0.49903696775436401 0.41174197196960449
0.97980451583862305 0.52190625667572021 0.48035401105880737
0.42072048783302307 0.78126466274261475 0.35282930731773376
0.48262894153594971 0.78528189659118652 0.34207257628440857
0.60513663291931152 0.78464460372924805 0.32563689351081848
0.79582494497299194 0.75963538885116577 0.32059350609779358
0.87532573938369751 0.66619551181793213 0.35952794551849365
0.90721040964126587 0.58243632316589355 0.39794132113456726
0.98118799924850464 0.56629389524459839 0.45658162236213684
0.50020056962966919 0.86523342132568359 0.38580736517906189
0.54323887825012207 0.8732115626335144 0.38288748264312744
0.64382189512252808 0.86238628625869751 0.35568532347679138
0.85099172592163086 0.87539416551589966 0.34632337093353271
0.97311824560165405 0.837821364402771 0.38122135400772095
0.97639793157577515 0.73464620113372803 0.40584027767181396
0.98559069633483887 0.6361963152885437 0.43933731317520142
0.21453224122524261 0.16727927327156067 0.37940263748168945
0.25103256106376648 0.16071890294551849 0.38420242071151733
0.32150062918663025 0.15355636179447174 0.39539501070976257
0.5218927264213562 0.18026690185070038 0.46433299779891968
0.73889684677124023 0.25211745500564575 0.55366307497024536
0.87770330905914307 0.32183808088302612 0.60850006341934204
0.98010724782943726 0.3795619010925293 0.6602787971496582
0.20657205581665039 0.21776510775089264 0.35828313231468201
0.25405609607696533 0.20870693027973175 0.37398752570152283
0.34700965881347656 0.19095875322818756 0.39497712254524231
0.53513675928115845 0.20898710191249847 0.45502758026123047
0.74473875761032104 0.27404725551605225 0.55035865306854248
0.88342005014419556 0.34056395292282104 0.60914826393127441
0.98003840446472168 0.39527601003646851 0.66422426700592041
0.19839094579219818 0.3163093626499176 0.29915297031402588
0.25433343648910522 0.31640312075614929 0.32080316543579102
0.39628326892852783 0.30375725030899048 0.3706972599029541
0.56907755136489868 0.30489316582679749 0.42012658715248108
0.74947208166122437 0.33423614501953125 0.49958741664886475
0.88413470983505249 0.38933134078979492 0.57742559909820557
0.97214877605438232 0.42576354742050171 0.63825994729995728
0.22904148697853088 0.47997370362281799 0.30076128244400024
0.28920257091522217 0.4819791316986084 0.29333120584487915
0.43491792678833008 0.48046612739562988 0.3322349488735199
0.59247630834579468 0.43325692415237427 0.37187746167182922
0.7501291036605835 0.40926831960678101 0.42187392711639404
0.88359838724136353 0.4461243748664856 0.50466430187225342
0.98026394844055176 0.48474180698394775 0.56780874729156494
0.30089655518531799 0.65194499492645264 0.34093409776687622
0.36490464210510254 0.66147714853286743 0.33892065286636353
0.49888074398040771 0.66527760028839111 0.34422805905342102
0.68307936191558838 0.63633626699447632 0.3544585108757019
0.76879888772964478 0.53204250335693359 0.3929465115070343
0.88335055112838745 0.50423276424407959 0.45112705230712891
0.97794139385223389 0.51650744676589966 0.51878541707992554
0.39566683769226074 0.78009557723999023 0.3855440616607666
0.44865876436233521 0.77985399961471558 0.37793317437171936
0.56590527296066284 0.78431135416030884 0.36074966192245483
0.76903367042541504 0.78064262866973877 0.36416149139404297
0.87851417064666748 0.69646185636520386 0.39566484093666077
0.90612393617630005 0.5961604118347168 0.43062236905097961
0.98298817873001099 0.56227278709411621 0.4823354184627533
0.46794828772544861 0.86695283651351929 0.4172433614730835
0.51472920179367065 0.87229561805725098 0.41313228011131287
0.61760950088500977 0.86872857809066772 0.39252510666847229
0.82626801729202271 0.87442284822463989 0.36843907833099365
0.97250151634216309 0.85946547985076904 0.4076114296913147
0.97482514381408691 0.74712920188903809 0.43374818563461304
0.98727667331695557 0.64039707183837891 0.46430394053459167
0.25162708759307861 0.22546035051345825 0.54172801971435547
0.2837073802947998 0.2099861204624176 0.5430949330329895
0.32092955708503723 0.19641414284706116 0.54267257452011108
0.41629493236541748 0.18569125235080719 0.55518990755081177
0.62469327449798584 0.20351947844028473 0.64338725805282593
0.83581209182739258 0.27441969513893127 0.75456249713897705
0.97731930017471313 0.33229690790176392 0.82644641399383545
0.24100224673748016 0.27149343490600586 0.53986662626266479
0.28122338652610779 0.25739726424217224 0.54415178298950195
0.32217326760292053 0.23439285159111023 0.54500895738601685
0.42565101385116577 0.21259236335754395 0.55124092102050781
0.636810302734375 0.23734484612941742 0.64850032329559326
0.85150474309921265 0.2951342761516571 0.76254045963287354
0.97465157508850098 0.34562814235687256 0.8365480899810791
0.22626347839832306 0.38003179430961609 0.49462121725082397
0.26879793405532837 0.36802282929420471 0.50240355730056763
0.36663296818733215 0.34129035472869873 0.5353696346282959
0.49515676498413086 0.3044903576374054 0.55992799997329712
0.70490676164627075 0.31432649493217468 0.64755189418792725
0.8713805079460144 0.35359179973602295 0.74643862247467041
0.97479498386383057 0.3911079466342926 0.80945360660552979
0.22402308881282806 0.48824742436408997 0.3885626494884491
0.26956051588058472 0.49971574544906616 0.40387621521949768
0.3806818425655365 0.49894547462463379 0.47055721282958984
0.56416255235671997 0.48260608315467834 0.52884745597839355
0.74763232469558716 0.45430243015289307 0.5961717963218689
0.88321375846862793 0.47147926688194275 0.66436898708343506
0.97594618797302246 0.48100546002388 0.72562325000762939
0.28145506978034973 0.65315425395965576 0.38245779275894165
0.31808057427406311 0.65329432487487793 0.37818771600723267
0.41050368547439575 0.66464829444885254 0.40949335694313049
0.62336146831512451 0.66760849952697754 0.47472816705703735
0.77453827857971191 0.60127103328704834 0.52763605117797852
0.8847808837890625 0.54538571834564209 0.56587761640548706
0.98332118988037109 0.55732041597366333 0.63094395399093628
0.35140421986579895 0.78629237413406372 0.41893956065177917
0.37924322485923767 0.78334939479827881 0.41250920295715332
0.47512525320053101 0.78270769119262695 0.41381093859672546
0.67736601829528809 0.78295761346817017 0.46619591116905212
0.87608867883682251 0.76099014282226562 0.5088234543800354
0.90968972444534302 0.64724624156951904 0.53054392337799072
0.98611760139465332 0.5938228964805603 0.55768734216690063
0.41181272268295288 0.86774188280105591 0.45160999894142151
0.44657972455024719 0.86763232946395874 0.44584476947784424
0.52955377101898193 0.87230628728866577 0.44408705830574036
0.7206270694732666 0.86865687370300293 0.45621126890182495
0.96108901500701904 0.88437354564666748 0.49286374449729919
0.97912633419036865 0.8007504940032959 0.51340800523757935
0.98608505725860596 0.68209260702133179 0.52878296375274658
0.31022277474403381 0.28740674257278442 0.70592153072357178
0.34100592136383057 0.27963176369667053 0.70788228511810303
0.37111338973045349 0.26597243547439575 0.70800650119781494
0.3989289402961731 0.25603488087654114 0.7099040150642395
0.51077675819396973 0.2433595210313797 0.72432845830917358
0.71004855632781982 0.26259404420852661 0.82716816663742065
0.91715449094772339 0.30165812373161316 0.92239266633987427
0.30021047592163086 0.33539518713951111 0.70282351970672607
0.33292004466056824 0.33051899075508118 0.7040371298789978
0.36594656109809875 0.30834564566612244 0.70781213045120239
0.40845385193824768 0.27856510877609253 0.71032106876373291
0.51980137825012207 0.26147270202636719 0.72431468963623047
0.70864522457122803 0.28623515367507935 0.8273550271987915
0.92129945755004883 0.31233885884284973 0.9209781289100647
0.28249230980873108 0.45276573300361633 0.70400029420852661
0.31617328524589539 0.44963714480400085 0.70415288209915161
0.37810781598091125 0.41119751334190369 0.70576411485671997
0.44315469264984131 0.3502233624458313 0.7127983570098877
0.57013458013534546 0.32590565085411072 0.73239225149154663
0.74708157777786255 0.33076375722885132 0.82690894603729248
0.93036127090454102 0.35727220773696899 0.92383533716201782
0.25846993923187256 0.57549935579299927 0.60182821750640869
0.28682664036750793 0.57459026575088501 0.60495156049728394
0.37646257877349854 0.57416588068008423 0.66727596521377563
0.52483195066452026 0.52706122398376465 0.70600926876068115
0.65404647588729858 0.47083884477615356 0.73634839057922363
0.84366655349731445 0.45531779527664185 0.83276951313018799
0.97209811210632324 0.45930305123329163 0.9069867730140686
0.27323493361473083 0.67949604988098145 0.48626375198364258
0.30890160799026489 0.6824878454208374 0.49110221862792969
0.3788142204284668 0.67982631921768188 0.5323607325553894
0.53325724601745605 0.69111943244934082 0.61984831094741821
0.73988765478134155 0.66013538837432861 0.70077860355377197
0.88262593746185303 0.6082383394241333 0.76136374473571777
0.97879564762115479 0.59060108661651611 0.82297372817993164
0.32982435822486877 0.7871096134185791 0.45735654234886169
0.36166667938232422 0.78783750534057617 0.45487341284751892
0.41989105939865112 0.7856869101524353 0.46976861357688904
0.55466306209564209 0.78265702724456787 0.53539186716079712
0.78920656442642212 0.7863495945930481 0.63787239789962769
0.90947699546813965 0.7086176872253418 0.67510432004928589
0.9764559268951416 0.64277130365371704 0.70248514413833618
0.37843787670135498 0.87441080808639526 0.48786389827728271
0.40990766882896423 0.87167608737945557 0.47852471470832825
0.46315222978591919 0.87171721458435059 0.4766811728477478
0.60602295398712158 0.87238675355911255 0.51975822448730469
0.84895592927932739 0.87390881776809692 0.60807424783706665
0.97011631727218628 0.86197340488433838 0.64764750003814697
0.98482739925384521 0.74535173177719116 0.66043972969055176
0.37488844990730286 0.37021511793136597 0.83778864145278931
0.40663322806358337 0.35643872618675232 0.84072047472000122
0.43034699559211731 0.34314155578613281 0.83840006589889526
0.45266181230545044 0.32979124784469604 0.83581864833831787
0.4876236617565155 0.31765758991241455 0.83718729019165039
0.59772849082946777 0.30551663041114807 0.85612589120864868
0.76509660482406616 0.31599864363670349 0.92031550407409668
0.36633953452110291 0.40877693891525269 0.83671337366104126
0.39217963814735413 0.4061647355556488 0.83905577659606934
0.42123240232467651 0.3848472535610199 0.83840221166610718
0.45205280184745789 0.35497000813484192 0.83925712108612061
0.48964741826057434 0.33565038442611694 0.83941185474395752
0.58746588230133057 0.31678065657615662 0.8496893048286438
0.7690243124961853 0.32012084126472473 0.91865986585617065
0.33948919177055359 0.51222425699234009 0.83555567264556885
0.37188917398452759 0.50625312328338623 0.83458083868026733
0.41118082404136658 0.47864606976509094 0.83547049760818481
0.46005463600158691 0.41919258236885071 0.83746969699859619
0.5009530782699585 0.37694427371025085 0.84029185771942139
0.6198650598526001 0.36211505532264709 0.85763144493103027
0.78613781929016113 0.35675624012947083 0.92847663164138794
0.29843246936798096 0.6758352518081665 0.7990952730178833
0.33445152640342712 0.67894667387008667 0.81078165769577026
0.39134418964385986 0.65888530015945435 0.82408797740936279
0.51569116115570068 0.59203743934631348 0.83580976724624634
0.56958717107772827 0.50014263391494751 0.8364376425743103
0.69391840696334839 0.46266600489616394 0.86615180969238281
0.86852079629898071 0.45097020268440247 0.92575865983963013
0.28617545962333679 0.7742764949798584 0.67056107521057129
0.31645694375038147 0.77146321535110474 0.6706426739692688
0.37194618582725525 0.77864813804626465 0.70701342821121216
0.50437045097351074 0.77775400876998901 0.79912716150283813
0.67576664686203003 0.71468496322631836 0.83292776346206665
0.78014731407165527 0.62682002782821655 0.86793214082717896
0.9521411657333374 0.60320359468460083 0.93266946077346802
0.32088306546211243 0.81022560596466064 0.56383150815963745
0.34788477420806885 0.80315130949020386 0.55587446689605713
0.39184194803237915 0.80661910772323608 0.58483433723449707
0.50403803586959839 0.79764735698699951 0.64958184957504272
0.68103396892547607 0.8090478777885437 0.73878663778305054
0.87104266881942749 0.78320837020874023 0.83394062519073486
0.97694844007492065 0.72981661558151245 0.87593066692352295
0.35711395740509033 0.86112982034683228 0.52534610033035278
0.3927885890007019 0.873779296875 0.52174633741378784
0.42340585589408875 0.86443519592285156 0.51668518781661987
0.51156044006347656 0.86516422033309937 0.55722635984420776
0.69430762529373169 0.8673940896987915 0.64051765203475952
0.92620557546615601 0.87790971994400024 0.76544833183288574
0.98592519760131836 0.82338529825210571 0.7951931357383728
0.43141844868659973 0.42861568927764893 0.93573641777038574
0.45722758769989014 0.41972061991691589 0.93618005514144897
0.48011648654937744 0.40578332543373108 0.93279707431793213
0.50109404325485229 0.3903539776802063 0.93423765897750854
0.52018833160400391 0.37683409452438354 0.93543750047683716
0.54773479700088501 0.36121520400047302 0.92581164836883545
0.64038562774658203 0.34172609448432922 0.93113833665847778
0.42005389928817749 0.46968677639961243 0.93362987041473389
0.43998521566390991 0.462474524974823 0.92808741331100464
0.46485117077827454 0.44243186712265015 0.92574715614318848
0.49249190092086792 0.41023945808410645 0.92601257562637329
0.52156698703765869 0.39321854710578918 0.93209564685821533
0.55543631315231323 0.37537172436714172 0.92454129457473755
0.63412225246429443 0.36126840114593506 0.93414986133575439
0.3916536271572113 0.57049787044525146 0.92977231740951538
0.41631978750228882 0.54578316211700439 0.92370498180389404
0.44827386736869812 0.53244763612747192 0.92969280481338501
0.49090403318405151 0.48513603210449219 0.92986136674880981
0.51062411069869995 0.43797320127487183 0.9328421950340271
0.54677516222000122 0.41472381353378296 0.92863327264785767
0.65079164505004883 0.38997304439544678 0.93580996990203857
0.34843093156814575 0.73797136545181274 0.93129295110702515
0.37656241655349731 0.73610883951187134 0.92974519729614258
0.41417726874351501 0.7132067084312439 0.9230654239654541
0.50273644924163818 0.64323776960372925 0.9255363941192627
0.55523240566253662 0.56854003667831421 0.92355996370315552
0.592873215675354 0.48987475037574768 0.92700862884521484
0.70874768495559692 0.46318933367729187 0.93441557884216309
0.30690103769302368 0.853232741355896 0.87353944778442383
0.3418746292591095 0.86023306846618652 0.875419020652771
0.3864046037197113 0.8613274097442627 0.89405888319015503
0.49349263310432434 0.8455396294593811 0.92416965961456299
0.63768178224563599 0.76463109254837036 0.92702490091323853
0.68050724267959595 0.64118891954421997 0.92672526836395264
0.79940569400787354 0.59841984510421753 0.93577706813812256
0.31503182649612427 0.86165410280227661 0.72218865156173706
0.34405967593193054 0.85922777652740479 0.727630615234375
0.38162842392921448 0.85975414514541626 0.74510020017623901
0.48260277509689331 0.86322212219238281 0.82322812080383301
0.64946246147155762 0.87294268608093262 0.90875625610351562
0.79868823289871216 0.82512879371643066 0.92531657218933105
0.90309834480285645 0.74065858125686646 0.93701642751693726
0.34849122166633606 0.87627077102661133 0.60141164064407349
0.37639227509498596 0.87515413761138916 0.60707598924636841
0.40519705414772034 0.87521439790725708 0.61697632074356079
0.48909357190132141 0.87437736988067627 0.68212378025054932
0.64658218622207642 0.87623190879821777 0.75799822807312012
0.81800425052642822 0.87777042388916016 0.86377298831939697
0.96339517831802368 0.86595124006271362 0.93235713243484497
