assets/lut/others retro.cube
# Created by: G'MIC (https://gmic.eu)
TITLE "retro"
# LUT size
LUT_3D_SIZE 13
# Data domain
DOMAIN_MIN 0.0 0.0 0.0
DOMAIN_MAX 1.0 1.0 1.0
# LUT data points
0.42751917243003845 0.26730060577392578 0.10516621917486191
0.46186080574989319 0.27274954319000244 0.11485742032527924
0.49441757798194885 0.27714931964874268 0.12387534976005554
0.52638280391693115 0.2818903923034668 0.1314549446105957
0.55838143825531006 0.28772023320198059 0.13714821636676788
0.59068918228149414 0.29449179768562317 0.14165940880775452
0.62309902906417847 0.3020818829536438 0.14576241374015808
0.65576517581939697 0.31002554297447205 0.14983467757701874
0.68847918510437012 0.31852829456329346 0.15452486276626587
0.72132772207260132 0.32754004001617432 0.1605919748544693
0.75390875339508057 0.33810418844223022 0.16872182488441467
0.78609269857406616 0.34879833459854126 0.17898884415626526
0.81708633899688721 0.35884848237037659 0.18953803181648254
0.42844662070274353 0.29379194974899292 0.10580585151910782
0.4629245400428772 0.29944834113121033 0.11506609618663788
0.49551308155059814 0.3042415976524353 0.12333957105875015
0.52752822637557983 0.30891010165214539 0.13048911094665527
0.55931061506271362 0.31434401869773865 0.1362299770116806
0.59135276079177856 0.32066300511360168 0.14071232080459595
0.62367504835128784 0.32760459184646606 0.14455239474773407
0.65612787008285522 0.33488523960113525 0.14810113608837128
0.68889439105987549 0.34258991479873657 0.15200589597225189
0.72183024883270264 0.35103970766067505 0.15726599097251892
0.7544904351234436 0.36078023910522461 0.1652272492647171
0.78689336776733398 0.37198594212532043 0.17606961727142334
0.81813377141952515 0.38235098123550415 0.187479168176651
0.42758101224899292 0.31902173161506653 0.10574346780776978
0.46223756670951843 0.32496410608291626 0.11418925225734711
0.49518916010856628 0.3301493227481842 0.12194912135601044
0.52725112438201904 0.33507362008094788 0.12881001830101013
0.55884718894958496 0.3403383195400238 0.13438916206359863
0.59061205387115479 0.34625712037086487 0.13891366124153137
0.62267696857452393 0.3525797426700592 0.14294898509979248
0.65524488687515259 0.3592953085899353 0.14651037752628326
0.68794012069702148 0.36644420027732849 0.15026640892028809
0.72082000970840454 0.37401869893074036 0.1548716276884079
0.75352925062179565 0.38326326012611389 0.16258159279823303
0.7859957218170166 0.39423930644989014 0.1738278865814209
0.81756550073623657 0.40479978919029236 0.18563240766525269
0.42607954144477844 0.34339255094528198 0.10481462627649307
0.46081957221031189 0.34984129667282104 0.11265403777360916
0.49413731694221497 0.35541418194770813 0.11997789889574051
0.52605372667312622 0.36043497920036316 0.12638524174690247
0.55753487348556519 0.365743488073349 0.13210272789001465
0.58905625343322754 0.37129446864128113 0.13713672757148743
0.62097024917602539 0.37752118706703186 0.14160338044166565
0.65335434675216675 0.38397851586341858 0.14589327573776245
0.68612688779830933 0.39083245396614075 0.15012624859809875
0.71886259317398071 0.39835426211357117 0.1554720401763916
0.75166153907775879 0.40735289454460144 0.16339111328125
0.783985435962677 0.4173639714717865 0.17407156527042389
0.81563597917556763 0.42749130725860596 0.18535742163658142
0.42405954003334045 0.36730304360389709 0.10336722433567047
0.4592432975769043 0.37413826584815979 0.11063507944345474
0.49259853363037109 0.38008823990821838 0.11752739548683167
0.52443069219589233 0.38509827852249146 0.1237984299659729
0.55567330121994019 0.39045709371566772 0.12964910268783569
0.58707624673843384 0.39618891477584839 0.13534931838512421
0.61882865428924561 0.40233528614044189 0.14077726006507874
0.65111476182937622 0.40885433554649353 0.14585883915424347
0.68381792306900024 0.4159356951713562 0.15128688514232635
0.71674871444702148 0.42357790470123291 0.1577845960855484
0.74942308664321899 0.43217068910598755 0.16616402566432953
0.78161180019378662 0.4415801465511322 0.17619916796684265
0.81321048736572266 0.45099553465843201 0.18671272695064545
0.42221936583518982 0.39096382260322571 0.10186076164245605
0.45743867754936218 0.39804166555404663 0.10839348286390305
0.49091419577598572 0.4040425717830658 0.11461283266544342
0.52278882265090942 0.40954104065895081 0.12085744738578796
0.55395770072937012 0.41502547264099121 0.12711800634860992
0.58518260717391968 0.42094147205352783 0.13347360491752625
0.61682063341140747 0.4273923933506012 0.14004121720790863
0.64908498525619507 0.43421125411987305 0.14630700647830963
0.68198591470718384 0.44148629903793335 0.15286317467689514
0.71497738361358643 0.44926735758781433 0.16029401123523712
0.74750316143035889 0.45766627788543701 0.16901424527168274
0.77941405773162842 0.46637418866157532 0.17885453999042511
0.81082510948181152 0.47512093186378479 0.18883727490901947
0.42184948921203613 0.41558659076690674 0.10124778002500534
0.4566197395324707 0.42211484909057617 0.1064905971288681
0.48991379141807556 0.42818149924278259 0.11216969043016434
0.52195942401885986 0.43382176756858826 0.11791595816612244
0.55309796333312988 0.43979793787002563 0.12439301609992981
0.58406585454940796 0.44602182507514954 0.13161455094814301
0.61549085378646851 0.45286273956298828 0.13916303217411041
0.64794152975082397 0.45967409014701843 0.14664246141910553
0.68108624219894409 0.46722939610481262 0.15406803786754608
0.71409386396408081 0.47509470582008362 0.16210407018661499
0.74650496244430542 0.4832635223865509 0.17115914821624756
0.77813529968261719 0.49158725142478943 0.18095438182353973
0.80919593572616577 0.49970635771751404 0.19050827622413635
0.4251314103603363 0.4425990879535675 0.10303442180156708
0.45845264196395874 0.44807547330856323 0.10653085261583328
0.49098539352416992 0.45342442393302917 0.11057142168283463
0.52253484725952148 0.45921769738197327 0.11568222194910049
0.55338793992996216 0.46452811360359192 0.12191646546125412
0.58420926332473755 0.47090029716491699 0.12950967252254486
0.61559289693832397 0.47831946611404419 0.13792240619659424
0.64817303419113159 0.48553797602653503 0.14616458117961884
0.68158280849456787 0.49322569370269775 0.15434768795967102
0.7148250937461853 0.50115102529525757 0.16275535523891449
0.74713832139968872 0.5091559886932373 0.17209711670875549
0.77847248315811157 0.5171324610710144 0.18179956078529358
0.80905842781066895 0.52488839626312256 0.19100534915924072
0.43083640933036804 0.47192052006721497 0.1074673980474472
0.46286866068840027 0.47614505887031555 0.10899756848812103
0.49419230222702026 0.48060762882232666 0.11111447215080261
0.5247613787651062 0.48545223474502563 0.11470184475183487
0.55514901876449585 0.49087285995483398 0.12030825018882751
0.58576673269271851 0.4970552921295166 0.12772837281227112
0.61725962162017822 0.50428581237792969 0.13619516789913177
0.64996844530105591 0.5116003155708313 0.14498865604400635
0.68351441621780396 0.51944518089294434 0.15376999974250793
0.71671509742736816 0.52740788459777832 0.16276100277900696
0.74903398752212524 0.53526675701141357 0.17208701372146606
0.7799498438835144 0.54297667741775513 0.18158388137817383
0.81014734506607056 0.55023729801177979 0.19020877778530121
0.43790808320045471 0.50270754098892212 0.11467865854501724
0.46873152256011963 0.50597745180130005 0.11412878334522247
0.49855676293373108 0.50932532548904419 0.1140887662768364
0.52796220779418945 0.51321351528167725 0.11583491414785385
0.55757975578308105 0.51805108785629272 0.12010366469621658
0.58806484937667847 0.52400559186935425 0.12703351676464081
0.61967474222183228 0.53070318698883057 0.13542601466178894
0.65237671136856079 0.53812903165817261 0.14409175515174866
0.68600732088088989 0.54595518112182617 0.15332639217376709
0.71932947635650635 0.55392640829086304 0.16247725486755371
0.75140511989593506 0.56164449453353882 0.17165166139602661
0.78173726797103882 0.56880426406860352 0.18076407909393311
0.81133830547332764 0.57560646533966064 0.1892741322517395
0.44550228118896484 0.53470820188522339 0.12421155720949173
0.4752291738986969 0.53713846206665039 0.12223422527313232
0.50344771146774292 0.53943151235580444 0.11996651440858841
0.53144258260726929 0.5423353910446167 0.11941640824079514
0.56030845642089844 0.54646444320678711 0.12243377417325974
0.59047693014144897 0.55171823501586914 0.12833088636398315
0.62201797962188721 0.55802226066589355 0.1361718624830246
0.65468740463256836 0.56511706113815308 0.14469018578529358
0.68796372413635254 0.57260072231292725 0.15354785323143005
0.72120732069015503 0.58032441139221191 0.16259297728538513
0.75296032428741455 0.58801823854446411 0.17144326865673065
0.78296267986297607 0.59455162286758423 0.18017105758190155
0.81206148862838745 0.60100609064102173 0.18839062750339508
0.45282670855522156 0.56710821390151978 0.13595137000083923
0.48148062825202942 0.56915688514709473 0.13282652199268341
0.508067786693573 0.57077515125274658 0.12864576280117035
0.53462141752243042 0.57257187366485596 0.12593591213226318
0.5627140998840332 0.57579332590103149 0.12735570967197418
0.59280276298522949 0.58041286468505859 0.1323227733373642
0.62409651279449463 0.58615851402282715 0.13913892209529877
0.65624558925628662 0.59250116348266602 0.14686931669712067
0.6890295147895813 0.59945017099380493 0.15505246818065643
0.72151941061019897 0.60661506652832031 0.16342902183532715
0.75280457735061646 0.61385303735733032 0.17188721895217896
0.7828364372253418 0.62028402090072632 0.18009971082210541
0.81184679269790649 0.62670373916625977 0.18794256448745728
0.45855295658111572 0.599403977394104 0.14826114475727081
0.48656395077705383 0.60141873359680176 0.14480535686016083
0.51233571767807007 0.60231274366378784 0.13944721221923828
0.53795093297958374 0.60355871915817261 0.13526228070259094
0.56554645299911499 0.6060602068901062 0.13524140417575836
0.59515643119812012 0.60993272066116333 0.13888096809387207
0.62582844495773315 0.61473560333251953 0.14428529143333435
0.6572880744934082 0.62023758888244629 0.15059390664100647
0.68921315670013428 0.62645262479782104 0.15780019760131836
0.72089618444442749 0.63313478231430054 0.16527555882930756
0.75172132253646851 0.63958567380905151 0.17303293943405151
0.78161537647247314 0.64600521326065063 0.18063659965991974
0.81066536903381348 0.65203815698623657 0.18806391954421997
0.43860316276550293 0.27752929925918579 0.14096583425998688
0.47255823016166687 0.2828228771686554 0.15002207458019257
0.50479757785797119 0.28731822967529297 0.15826775133609772
0.53649181127548218 0.29185381531715393 0.1653083860874176
0.56809461116790771 0.29754459857940674 0.17098060250282288
0.59996491670608521 0.30421841144561768 0.17579083144664764
0.63228166103363037 0.31181725859642029 0.18044185638427734
0.66480487585067749 0.31984663009643555 0.18500435352325439
0.69778162240982056 0.32849442958831787 0.1900046169757843
0.73076450824737549 0.33758699893951416 0.1962611973285675
0.76382344961166382 0.34733116626739502 0.20411160588264465
0.79632008075714111 0.35704070329666138 0.2134566605091095
0.82766532897949219 0.3658050000667572 0.22296412289142609
0.43859970569610596 0.30335783958435059 0.14111208915710449
0.47251909971237183 0.30875375866889954 0.14972472190856934
0.50490850210189819 0.31338968873023987 0.15764503180980682
0.53661501407623291 0.31811103224754333 0.16449595987796783
0.56817901134490967 0.32367530465126038 0.17033739387989044
0.59999316930770874 0.33015239238739014 0.17511308193206787
0.63217645883560181 0.33718952536582947 0.17934812605381012
0.66476291418075562 0.3448033332824707 0.18347664177417755
0.69779759645462036 0.35279315710067749 0.18812441825866699
0.73095244169235229 0.36135932803153992 0.1937984973192215
0.76420778036117554 0.37075921893119812 0.20163656771183014
0.79671680927276611 0.38084271550178528 0.21154806017875671
0.82866388559341431 0.39020690321922302 0.22170719504356384
0.43674162030220032 0.32733374834060669 0.14009308815002441
0.47079840302467346 0.33310642838478088 0.14825823903083801
0.50352293252944946 0.33827716112136841 0.1558401882648468
0.53530389070510864 0.3433603048324585 0.1625085175037384
0.5669480562210083 0.34890195727348328 0.16823120415210724
0.59867280721664429 0.35508984327316284 0.1732335239648819
0.63081818819046021 0.36184802651405334 0.17776452004909515
0.66332417726516724 0.3689579963684082 0.18195712566375732
0.69643765687942505 0.37650039792060852 0.18637305498123169
0.72961604595184326 0.38453057408332825 0.1920328289270401
0.76282548904418945 0.3936065137386322 0.19975128769874573
0.79558151960372925 0.40348005294799805 0.20978669822216034
0.82758110761642456 0.41297855973243713 0.22035542130470276
0.43399664759635925 0.3506486713886261 0.13835437595844269
0.46832132339477539 0.35687857866287231 0.14602361619472504
0.50123149156570435 0.36246165633201599 0.15332433581352234
0.53325086832046509 0.36793506145477295 0.15986675024032593
0.56483203172683716 0.37354773283004761 0.16587845981121063
0.59656566381454468 0.37963017821311951 0.17124633491039276
0.62866652011871338 0.386190265417099 0.17613157629966736
0.66120439767837524 0.39312085509300232 0.18093104660511017
0.69412869215011597 0.40041503310203552 0.18594010174274445
0.72725784778594971 0.40827056765556335 0.19198393821716309
0.76032119989395142 0.417072594165802 0.19982829689979553
0.7931133508682251 0.42665621638298035 0.20975662767887115
0.82518720626831055 0.43590518832206726 0.22019225358963013
0.43155181407928467 0.37387725710868835 0.13631455600261688
0.46591287851333618 0.38035255670547485 0.14340057969093323
0.49908104538917542 0.38625743985176086 0.1503656804561615
0.53106600046157837 0.39195790886878967 0.1568218320608139
0.56260854005813599 0.39771658182144165 0.16303566098213196
0.59418302774429321 0.40384650230407715 0.16891591250896454
0.62615174055099487 0.4104817807674408 0.17468646168708801
0.65861272811889648 0.41752880811691284 0.18036927282810211
0.69157701730728149 0.42484921216964722 0.18636968731880188
0.72465461492538452 0.4327792227268219 0.19320032000541687
0.75761508941650391 0.44121143221855164 0.20157001912593842
0.79010665416717529 0.45033508539199829 0.21125121414661407
0.82204419374465942 0.45918658375740051 0.22122861444950104
0.4302363395690918 0.39768916368484497 0.13454663753509521
0.46432220935821533 0.40401121973991394 0.14068673551082611
0.49732062220573425 0.41005796194076538 0.14712494611740112
0.52936273813247681 0.41588857769966125 0.15333917737007141
0.56085199117660522 0.42174458503723145 0.15985898673534393
0.59226202964782715 0.42812299728393555 0.16659966111183167
0.62394613027572632 0.43494555354118347 0.1732972264289856
0.65651065111160278 0.44206196069717407 0.18005159497261047
0.68934160470962524 0.44954994320869446 0.1870797723531723
0.72242462635040283 0.45754006505012512 0.19472317397594452
0.75509345531463623 0.4658515453338623 0.2035268247127533
0.78734332323074341 0.47450029850006104 0.21319636702537537
0.81905543804168701 0.48291385173797607 0.22282592952251434
0.43105313181877136 0.42287176847457886 0.13363789021968842
0.46456941962242126 0.42848581075668335 0.13862688839435577
0.49716198444366455 0.4344823956489563 0.14409543573856354
0.52894443273544312 0.44015750288963318 0.14992159605026245
0.5601314902305603 0.4462464451789856 0.15666870772838593
0.59124594926834106 0.45281437039375305 0.16402313113212585
0.62276560068130493 0.45951944589614868 0.17179524898529053
0.65503346920013428 0.46700555086135864 0.17955434322357178
0.68826699256896973 0.47461044788360596 0.18745683133602142
0.72126829624176025 0.48265543580055237 0.19579324126243591
0.75399112701416016 0.49088606238365173 0.20490722358226776
0.78558456897735596 0.49913427233695984 0.21465954184532166
0.81690132617950439 0.50719767808914185 0.22435653209686279
0.43510982394218445 0.45037785172462463 0.13493543863296509
0.46755748987197876 0.45507770776748657 0.13816620409488678
0.49939426779747009 0.46009305119514465 0.14206480979919434
0.53047007322311401 0.4655921459197998 0.1471085250377655
0.56108665466308594 0.47090438008308411 0.15362106263637543
0.59177654981613159 0.47742486000061035 0.16145093739032745
0.62301838397979736 0.48490792512893677 0.16989971697330475
0.655345618724823 0.49223369359970093 0.17852544784545898
0.68849307298660278 0.50006550550460815 0.1871066689491272
0.72161072492599487 0.5080341100692749 0.19603009521961212
0.75404822826385498 0.51620680093765259 0.20530024170875549
0.78540194034576416 0.5242239236831665 0.2150617241859436
0.81651145219802856 0.53187304735183716 0.22420775890350342
0.44163951277732849 0.48006600141525269 0.13867568969726562
0.47296819090843201 0.48368182778358459 0.13989567756652832
0.50372564792633057 0.48753929138183594 0.14187236130237579
0.53370523452758789 0.49195414781570435 0.14562211930751801
0.56360965967178345 0.4971998929977417 0.15155796706676483
0.59375351667404175 0.50329148769378662 0.15935692191123962
0.62482869625091553 0.51061075925827026 0.16816183924674988
0.65708309412002563 0.51795405149459839 0.17717346549034119
0.69018083810806274 0.52579736709594727 0.18625250458717346
0.72315818071365356 0.53381180763244629 0.19554443657398224
0.75536763668060303 0.54183650016784668 0.20493561029434204
0.78666204214096069 0.54956042766571045 0.21420130133628845
0.81727474927902222 0.55723428726196289 0.22306625545024872
0.44937148690223694 0.5112951397895813 0.1449572741985321
0.4798755943775177 0.51400470733642578 0.144549161195755
0.50929689407348633 0.51667368412017822 0.14448454976081848
0.53820115327835083 0.52005618810653687 0.14652198553085327
0.56685948371887207 0.52466696500778198 0.15155118703842163
0.59661316871643066 0.53044646978378296 0.1588188111782074
0.62741106748580933 0.53692775964736938 0.16731128096580505
0.65946584939956665 0.54419499635696411 0.1764872670173645
0.6924625039100647 0.55199539661407471 0.18574202060699463
0.72545444965362549 0.55996370315551758 0.19483040273189545
0.75751036405563354 0.56778740882873535 0.20409180223941803
0.78826993703842163 0.57525056600570679 0.21322399377822876
0.81840753555297852 0.58274650573730469 0.22166366875171661
0.45768618583679199 0.54384434223175049 0.15388260781764984
0.48709860444068909 0.54582452774047852 0.15258350968360901
0.51513832807540894 0.54762333631515503 0.15100573003292084
0.54263985157012939 0.54993444681167603 0.15128949284553528
0.57055240869522095 0.55349582433700562 0.15475934743881226
0.59965819120407104 0.55838727951049805 0.16089670360088348
0.63016349077224731 0.56425374746322632 0.16861642897129059
0.66198790073394775 0.57103484869003296 0.17713694274425507
0.69450837373733521 0.5784604549407959 0.18595404922962189
0.72731548547744751 0.5862278938293457 0.19485047459602356
0.75899690389633179 0.59385985136032104 0.2037564218044281
0.78948986530303955 0.60098224878311157 0.21253368258476257
0.81926137208938599 0.60806715488433838 0.22071462869644165
0.46527710556983948 0.57695084810256958 0.16514334082603455
0.4938775897026062 0.57866722345352173 0.16325494647026062
0.52071982622146606 0.57984369993209839 0.16095040738582611
0.54687333106994629 0.58129280805587769 0.15987306833267212
0.57404476404190063 0.58384281396865845 0.16160127520561218
0.60273808240890503 0.58756870031356812 0.16591350734233856
0.63271164894104004 0.5924878716468811 0.17215876281261444
0.6638990044593811 0.59848004579544067 0.17948700487613678
0.69607257843017578 0.60521173477172852 0.18740935623645782
0.72814714908599854 0.61248320341110229 0.19578784704208374
0.75939679145812988 0.61990618705749512 0.20408308506011963
0.78970658779144287 0.6267082691192627 0.21233977377414703
0.81939315795898438 0.63321256637573242 0.22020335495471954
0.47117352485656738 0.60972326993942261 0.17656417191028595
0.49931341409683228 0.61138665676116943 0.1752382218837738
0.5254518985748291 0.6123395562171936 0.17291916906833649
0.55098384618759155 0.61341583728790283 0.17117159068584442
0.57752639055252075 0.61482155323028564 0.17111977934837341
0.60544592142105103 0.61743557453155518 0.17325936257839203
0.63489598035812378 0.62127363681793213 0.17767615616321564
0.66550189256668091 0.62636309862136841 0.18346764147281647
0.69653654098510742 0.63240635395050049 0.19028383493423462
0.72808992862701416 0.63901472091674805 0.19758279621601105
0.75885987281799316 0.64591145515441895 0.20529830455780029
0.78897702693939209 0.65245842933654785 0.21280384063720703
0.81835395097732544 0.65888464450836182 0.22020335495471954
0.44812887907028198 0.28661432862281799 0.17597588896751404
0.48169943690299988 0.29171925783157349 0.18398088216781616
0.51362866163253784 0.2961965799331665 0.19124363362789154
0.54481083154678345 0.30088499188423157 0.19814245402812958
0.57631736993789673 0.30665048956871033 0.20356115698814392
0.60784059762954712 0.31343171000480652 0.20920264720916748
0.63970941305160522 0.32116785645484924 0.21439376473426819
0.67264777421951294 0.3295142650604248 0.21953067183494568
0.705535888671875 0.33807447552680969 0.22532473504543304
0.73886924982070923 0.34706258773803711 0.23181048035621643
0.77228909730911255 0.35576480627059937 0.23920823633670807
0.80521821975708008 0.36413395404815674 0.24747879803180695
0.83708208799362183 0.37157970666885376 0.25570404529571533
0.44712623953819275 0.31144574284553528 0.17534452676773071
0.48066407442092896 0.31684470176696777 0.1833423376083374
0.51281225681304932 0.32160770893096924 0.19056804478168488
0.5441586971282959 0.32654944062232971 0.19724957644939423
0.57576596736907959 0.33236700296401978 0.20313937962055206
0.6074221134185791 0.33909431099891663 0.20848441123962402
0.63955509662628174 0.34657081961631775 0.21362796425819397
0.6722790002822876 0.35466635227203369 0.21873569488525391
0.70545876026153564 0.36305561661720276 0.22413648664951324
0.7389291524887085 0.37159880995750427 0.23045103251934052
0.77256423234939575 0.380389004945755 0.23800347745418549
0.80582559108734131 0.38897484540939331 0.24652548134326935
0.83791267871856689 0.39681738615036011 0.25530830025672913
0.44400176405906677 0.33450457453727722 0.17343847453594208
0.4776555597782135 0.34020745754241943 0.18130491673946381
0.5101017951965332 0.34558603167533875 0.18858170509338379
0.54208451509475708 0.35092920064926147 0.19532690942287445
0.57371258735656738 0.35694786906242371 0.20142091810703278
0.60566025972366333 0.36372783780097961 0.2069200873374939
0.63788378238677979 0.37102308869361877 0.21219258010387421
0.67065155506134033 0.37883934378623962 0.21731941401958466
0.70387321710586548 0.38684132695198059 0.22291342914104462
0.73737519979476929 0.39516028761863708 0.22904734313488007
0.77090620994567871 0.40380007028579712 0.23671574890613556
0.80430185794830322 0.41244646906852722 0.2455747127532959
0.83668059110641479 0.42068904638290405 0.25461247563362122
0.4404354989528656 0.35679826140403748 0.17099688947200775
0.47407969832420349 0.36287689208984375 0.17856423556804657
0.50703710317611694 0.36872231960296631 0.18583397567272186
0.53921425342559814 0.37468603253364563 0.19257016479969025
0.57109123468399048 0.38093146681785583 0.1989024430513382
0.60301667451858521 0.38766387104988098 0.20483371615409851
0.6353757381439209 0.39494389295578003 0.21051354706287384
0.66807621717453003 0.40250355005264282 0.21607416868209839
0.7013552188873291 0.4103999137878418 0.2219257652759552
0.73479032516479492 0.41854822635650635 0.22850105166435242
0.76829522848129272 0.42699146270751953 0.23643280565738678
0.80145609378814697 0.43560102581977844 0.24533601105213165
0.83386176824569702 0.44396710395812988 0.25437694787979126
0.43767189979553223 0.37955814599990845 0.16875062882900238
0.47114142775535583 0.38574033975601196 0.17570284008979797
0.50424039363861084 0.3918895423412323 0.18275442719459534
0.53652185201644897 0.3982025682926178 0.18952247500419617
0.56839215755462646 0.40465569496154785 0.19596606492996216
0.60038906335830688 0.41141539812088013 0.20233620703220367
0.63261634111404419 0.41857320070266724 0.20863337814807892
0.6653938889503479 0.42615398764610291 0.21495939791202545
0.69850069284439087 0.43400862812995911 0.22152893245220184
