assets/lut/others golden vibrant.cube
# Created by: G'MIC (https://gmic.eu)
TITLE "golden_vibrant"
# LUT size
LUT_3D_SIZE 13
# Data domain
DOMAIN_MIN 0.0 0.0 0.0
DOMAIN_MAX 1.0 1.0 1.0
# LUT data points
0.022273045033216476 0.031128976494073868 0.10496706515550613
0.063199900090694427 0.027988210320472717 0.10499351471662521
0.115853451192379 0.026830350980162621 0.10356509685516357
0.1910291314125061 0.024245558306574821 0.1009770855307579
0.28941476345062256 0.022816631942987442 0.099813885986804962
0.40836942195892334 0.023803440853953362 0.10004444420337677
0.5438002347946167 0.027673952281475067 0.10169386118650436
0.68771505355834961 0.030973486602306366 0.10178526490926743
0.82631069421768188 0.028746601194143295 0.10539302229881287
0.91601294279098511 0.025876617059111595 0.10938084870576859
0.9404447078704834 0.02486807107925415 0.10385792702436447
0.95484828948974609 0.024215998128056526 0.1005612388253212
0.98076075315475464 0.022323952987790108 0.10064428299665451
0.023284314200282097 0.093509554862976074 0.10374890267848969
0.064316771924495697 0.091293320059776306 0.10140956938266754
0.11621303111314774 0.091235324740409851 0.099753707647323608
0.18761193752288818 0.089038103818893433 0.099181711673736572
0.28395918011665344 0.086165107786655426 0.10079408437013626
0.40495485067367554 0.087954908609390259 0.10333044081926346
0.5454716682434082 0.091368973255157471 0.10507984459400177
0.69697469472885132 0.092701420187950134 0.10641976445913315
0.83503282070159912 0.092071473598480225 0.10751011967658997
0.91724258661270142 0.091343671083450317 0.10893705487251282
0.93994629383087158 0.091400653123855591 0.10663586854934692
0.95412719249725342 0.09035085141658783 0.10334975272417068
0.97981691360473633 0.088676095008850098 0.1014070063829422
0.021844662725925446 0.16839662194252014 0.10007219761610031
0.062682449817657471 0.16736659407615662 0.096917517483234406
0.11589283496141434 0.16838899254798889 0.09491584450006485
0.18814843893051147 0.16565258800983429 0.096085220575332642
0.2831682562828064 0.16000591218471527 0.10069424659013748
0.40373164415359497 0.1608777791261673 0.10449407249689102
0.54715478420257568 0.16575071215629578 0.10644633322954178
0.7025793194770813 0.16820371150970459 0.10781983286142349
0.83947104215621948 0.16787698864936829 0.10867291688919067
0.91763180494308472 0.16726399958133698 0.10791646689176559
0.93936246633529663 0.16713885962963104 0.10481118410825729
0.95582395792007446 0.16564799845218658 0.10160849988460541
0.98123890161514282 0.16408513486385345 0.098806537687778473
0.01744314469397068 0.25954744219779968 0.097693741321563721
0.05763733759522438 0.259977787733078 0.097272612154483795
0.1122419610619545 0.26103943586349487 0.095081105828285217
0.18788707256317139 0.25643515586853027 0.094419129192829132
0.28422257304191589 0.25019016861915588 0.09897875040769577
0.40342354774475098 0.25017604231834412 0.10240050405263901
0.54530054330825806 0.25513181090354919 0.10427660495042801
0.70015883445739746 0.25776952505111694 0.10648700594902039
0.83965450525283813 0.25759083032608032 0.10859949141740799
0.92212092876434326 0.25606906414031982 0.10670215636491776
0.94994622468948364 0.25557330250740051 0.10181989520788193
0.96579813957214355 0.25537306070327759 0.099043466150760651
0.98639005422592163 0.25468948483467102 0.097648411989212036
0.01353053655475378 0.36027377843856812 0.098849818110466003
0.052783038467168808 0.36258605122566223 0.10057655721902847
0.10928229242563248 0.36266759037971497 0.099247559905052185
0.18893231451511383 0.35775986313819885 0.096023961901664734
0.28641274571418762 0.35248497128486633 0.096413619816303253
0.40299209952354431 0.35177844762802124 0.098753593862056732
0.54080510139465332 0.35502249002456665 0.10064474493265152
0.69138717651367188 0.35718822479248047 0.10140075534582138
0.82732892036437988 0.35649845004081726 0.099796116352081299
0.91627770662307739 0.35526153445243835 0.097078122198581696
0.95662510395050049 0.35623234510421753 0.096774235367774963
0.97417998313903809 0.35769173502922058 0.098276831209659576
0.98871970176696777 0.35830885171890259 0.099840842187404633
0.012316176667809486 0.4637112021446228 0.10211579501628876
0.053115259855985641 0.46627333760261536 0.102510966360569
0.11063292622566223 0.46585136651992798 0.10090737789869308
0.18948268890380859 0.46188533306121826 0.096578694880008698
0.28636857867240906 0.45809027552604675 0.095005705952644348
0.40114614367485046 0.45752403140068054 0.096113882958889008
0.53554999828338623 0.45963332056999207 0.098427914083003998
0.68363195657730103 0.46236333250999451 0.098512656986713409
0.81984835863113403 0.46304440498352051 0.094600990414619446
0.91334074735641479 0.46264365315437317 0.0906500443816185
0.96079438924789429 0.4644642174243927 0.094806551933288574
0.97883373498916626 0.46613040566444397 0.099457234144210815
0.98859995603561401 0.46610891819000244 0.10313394665718079
0.012595143169164658 0.56723332405090332 0.10543885827064514
0.056254174560308456 0.56908786296844482 0.10450693964958191
0.11290323734283447 0.56772124767303467 0.10041885077953339
0.18873298168182373 0.56413239240646362 0.095621369779109955
0.28548943996429443 0.56192988157272339 0.093219950795173645
0.40146258473396301 0.56299841403961182 0.095067806541919708
0.53530305624008179 0.56573325395584106 0.098694637417793274
0.68485361337661743 0.57025080919265747 0.10211338847875595
0.82656413316726685 0.5748792290687561 0.10384591668844223
0.92275035381317139 0.57530331611633301 0.10184523463249207
0.96682471036911011 0.57341015338897705 0.099943690001964569
0.9811212420463562 0.57198286056518555 0.10117501765489578
0.98757719993591309 0.569721519947052 0.10375470668077469
0.014960435219109058 0.66901785135269165 0.10551470518112183
0.058224096894264221 0.67026346921920776 0.10456454753875732
0.1134473904967308 0.66720765829086304 0.099821694195270538
0.18814197182655334 0.66346293687820435 0.094456873834133148
0.28643521666526794 0.66355180740356445 0.092191167175769806
0.40603739023208618 0.66715019941329956 0.095152929425239563
0.54364097118377686 0.67103713750839233 0.1000932902097702
0.69311058521270752 0.67487233877182007 0.10569486767053604
0.83314722776412964 0.67896991968154907 0.11058834195137024
0.92792433500289917 0.67856901884078979 0.10959725826978683
0.9682433009147644 0.67449295520782471 0.10382059216499329
0.97944986820220947 0.67007076740264893 0.10066851228475571
0.98501509428024292 0.66587960720062256 0.10114264488220215
0.01677488349378109 0.7653229832649231 0.10544703155755997
0.059310119599103928 0.76617372035980225 0.1039128452539444
0.11166108399629593 0.76276940107345581 0.10104883462190628
0.18702664971351624 0.76244562864303589 0.097561746835708618
0.28842431306838989 0.76452910900115967 0.0956687331199646
0.4117882251739502 0.76780050992965698 0.09754885733127594
0.55083978176116943 0.77082890272140503 0.10122100263834
0.69642233848571777 0.77057099342346191 0.1049124002456665
0.8291010856628418 0.76892250776290894 0.10663169622421265
0.92086440324783325 0.7670435905456543 0.10543330758810043
0.96309125423431396 0.76555705070495605 0.1022191047668457
0.97439974546432495 0.76220935583114624 0.098933503031730652
0.98220169544219971 0.75700604915618896 0.098698772490024567
0.019645765423774719 0.84999269247055054 0.10216541588306427
0.060653358697891235 0.85209190845489502 0.10169383138418198
0.10968539863824844 0.84771645069122314 0.10502462834119797
0.18629090487957001 0.84945201873779297 0.10348197817802429
0.2906196117401123 0.8545880913734436 0.1010175347328186
0.41615721583366394 0.85762703418731689 0.10031237453222275
0.55361759662628174 0.85821151733398438 0.10222772508859634
0.69526153802871704 0.85574710369110107 0.10401666909456253
0.82520961761474609 0.85046368837356567 0.10444703698158264
0.91630172729492188 0.8478553295135498 0.10315106064081192
0.95811241865158081 0.85092496871948242 0.10152016580104828
0.97101879119873047 0.85127204656600952 0.099664486944675446
0.98313015699386597 0.84534251689910889 0.10061419755220413
0.022438976913690567 0.91611975431442261 0.10097279399633408
0.063326321542263031 0.91941344738006592 0.10178793966770172
0.10962445288896561 0.91476553678512573 0.10802232474088669
0.18590179085731506 0.91485887765884399 0.10564922541379929
0.29127565026283264 0.9206702709197998 0.1027936115860939
0.41855654120445251 0.92536056041717529 0.10088465362787247
0.5550696849822998 0.92508769035339355 0.10249529033899307
0.69451230764389038 0.92255055904388428 0.10374809801578522
0.82590645551681519 0.92088264226913452 0.10560812801122665
0.91762876510620117 0.92171627283096313 0.10558464378118515
0.95577079057693481 0.92432898283004761 0.10275624692440033
0.96687275171279907 0.92690294981002808 0.10180474072694778
0.98331665992736816 0.91984814405441284 0.10481634736061096
0.022850051522254944 0.95973080396652222 0.10475139319896698
0.064350888133049011 0.96356755495071411 0.10446745902299881
0.11272011697292328 0.96059703826904297 0.10514068603515625
0.18541768193244934 0.95901131629943848 0.10399915277957916
0.28729403018951416 0.96328508853912354 0.10244673490524292
0.41437754034996033 0.96682274341583252 0.10181871056556702
0.55528908967971802 0.96491944789886475 0.1029653325676918
0.69688409566879272 0.96282112598419189 0.10313472151756287
0.8292769193649292 0.96319288015365601 0.10471903532743454
0.92030417919158936 0.96579223871231079 0.1047324538230896
0.95241683721542358 0.96888262033462524 0.10071288794279099
0.96269148588180542 0.97117000818252563 0.10116430371999741
0.98195672035217285 0.96642225980758667 0.10779978334903717
0.021969469264149666 0.98751133680343628 0.10818076133728027
0.064713723957538605 0.99110841751098633 0.10490911453962326
0.11547579616308212 0.98950779438018799 0.10175516456365585
0.18590201437473297 0.98791599273681641 0.10057934373617172
0.28208222985267639 0.98948264122009277 0.10158003121614456
0.40710934996604919 0.98966509103775024 0.10252368450164795
0.55198603868484497 0.98679274320602417 0.10268121212720871
0.69394165277481079 0.98457640409469604 0.10214076191186905
0.82114547491073608 0.9844362735748291 0.10208786278963089
0.90715843439102173 0.98580414056777954 0.10019966214895248
0.9405173659324646 0.98906570672988892 0.097088679671287537
0.95716351270675659 0.99088561534881592 0.099949873983860016
0.98239684104919434 0.99044901132583618 0.11110060662031174
0.02336813323199749 0.031630720943212509 0.16768097877502441
0.065849170088768005 0.029427323490381241 0.16757485270500183
0.11878278851509094 0.028437206521630287 0.16587667167186737
0.19443260133266449 0.027949688956141472 0.16398046910762787
0.29183995723724365 0.025309767574071884 0.16325138509273529
0.40847113728523254 0.023226570338010788 0.16275838017463684
0.54433244466781616 0.026370208710432053 0.16577203571796417
0.68994003534317017 0.028603078797459602 0.16606064140796661
0.82233637571334839 0.025907419621944427 0.16182219982147217
0.90833711624145508 0.024543492123484612 0.16360433399677277
0.94001960754394531 0.025551320984959602 0.16622932255268097
0.95729929208755493 0.025818992406129837 0.1666383296251297
0.98356813192367554 0.024639952927827835 0.16583171486854553
0.023081865161657333 0.095248490571975708 0.1662088930606842
0.067716129124164581 0.092752985656261444 0.16498908400535583
0.12061747908592224 0.093723848462104797 0.16300557553768158
0.19209448993206024 0.093256808817386627 0.16221897304058075
0.28636538982391357 0.088988661766052246 0.16335475444793701
0.40330219268798828 0.086787022650241852 0.16473701596260071
0.54268693923950195 0.087609626352787018 0.16718274354934692
0.69621133804321289 0.088843449950218201 0.16834257543087006
0.835257887840271 0.08983244001865387 0.16758336126804352
0.91792595386505127 0.090183243155479431 0.16814006865024567
0.94458317756652832 0.090340197086334229 0.17132605612277985
0.95777034759521484 0.089690402150154114 0.17099288105964661
0.98127281665802002 0.088144011795520782 0.16737642884254456
0.0205854382365942 0.16905634105205536 0.16049017012119293
0.064633749425411224 0.16743044555187225 0.15798386931419373
0.1188618391752243 0.16953957080841064 0.15649889409542084
0.19039328396320343 0.16818045079708099 0.15717706084251404
0.2830522358417511 0.16305913031101227 0.16100923717021942
0.40056386590003967 0.16053043305873871 0.16416031122207642
0.54414975643157959 0.16301186382770538 0.16755098104476929
0.70278471708297729 0.16495552659034729 0.17076849937438965
0.84194380044937134 0.16578978300094604 0.17074243724346161
0.92144280672073364 0.16471610963344574 0.16862665116786957
0.94664949178695679 0.16307066380977631 0.16916829347610474
0.96010923385620117 0.16208480298519135 0.16775430738925934
0.98145800828933716 0.15927742421627045 0.16423279047012329
0.017759943380951881 0.25759938359260559 0.15602277219295502
0.059837564826011658 0.25747045874595642 0.15551608800888062
0.11444763839244843 0.25804930925369263 0.15331818163394928
0.18741565942764282 0.25699108839035034 0.15326815843582153
0.28133809566497803 0.25253066420555115 0.15793167054653168
0.39936697483062744 0.25108736753463745 0.16248273849487305
0.54404711723327637 0.25478413701057434 0.16635091602802277
0.702595055103302 0.25762411952018738 0.17080037295818329
0.84198802709579468 0.25676599144935608 0.17309506237506866
0.92382150888442993 0.25329998135566711 0.17080007493495941
0.95284545421600342 0.25128868222236633 0.1669946163892746
0.96674448251724243 0.25059515237808228 0.16503135859966278
0.98419725894927979 0.25035473704338074 0.1630217581987381
0.01498019602149725 0.35622963309288025 0.15715114772319794
0.055651046335697174 0.35740679502487183 0.15765678882598877
0.11025556921958923 0.35888665914535522 0.1570272296667099
0.18469205498695374 0.35756468772888184 0.15614117681980133
0.28005635738372803 0.35484975576400757 0.15760800242424011
0.39843112230300903 0.354593425989151 0.16061989963054657
0.54111015796661377 0.35752671957015991 0.16424599289894104
0.69663065671920776 0.35920649766921997 0.16781684756278992
0.83548253774642944 0.35740187764167786 0.17028439044952393
0.92380660772323608 0.35439193248748779 0.16922695934772491
0.96069180965423584 0.3538186252117157 0.16581031680107117
0.9746849536895752 0.35575801134109497 0.16552899777889252
0.98667579889297485 0.35730090737342834 0.16611753404140472
0.012959858402609825 0.45956075191497803 0.16091810166835785
0.055031195282936096 0.46164262294769287 0.16174305975437164
0.10930655896663666 0.46311071515083313 0.16095441579818726
0.18329374492168427 0.46269357204437256 0.15936504304409027
0.27940332889556885 0.46119216084480286 0.15793019533157349
0.39764973521232605 0.46123474836349487 0.15938644111156464
0.53805112838745117 0.46361669898033142 0.16221514344215393
0.6909288763999939 0.46522623300552368 0.16492113471031189
0.83037960529327393 0.46458172798156738 0.1663413941860199
0.9247322678565979 0.46324029564857483 0.16573061048984528
0.96702450513839722 0.46395918726921082 0.16461664438247681
0.98060345649719238 0.4673306941986084 0.16714617609977722
0.98769158124923706 0.4688088595867157 0.16990616917610168
0.013416978530585766 0.56371593475341797 0.16344380378723145
0.056816384196281433 0.56628042459487915 0.16350139677524567
0.11161375045776367 0.56654089689254761 0.1621941477060318
0.18467281758785248 0.56578093767166138 0.15943518280982971
0.28062859177589417 0.56520938873291016 0.15771046280860901
0.39970475435256958 0.56644457578659058 0.15849030017852783
0.53949570655822754 0.56895023584365845 0.16157299280166626
0.69155919551849365 0.57157349586486816 0.16409988701343536
0.83149784803390503 0.57291430234909058 0.16609175503253937
0.92748647928237915 0.57289737462997437 0.16485832631587982
0.97173023223876953 0.57271867990493774 0.16519278287887573
0.98360008001327515 0.57401186227798462 0.16742977499961853
0.98830372095108032 0.57371819019317627 0.17024122178554535
0.015025000087916851 0.66657334566116333 0.16413383185863495
0.057038668543100357 0.66743344068527222 0.16345581412315369
0.11124856770038605 0.66640347242355347 0.16094063222408295
0.18581755459308624 0.66400998830795288 0.1581851989030838
0.28430607914924622 0.6660955548286438 0.15744064748287201
0.40555807948112488 0.66881841421127319 0.15902286767959595
0.54592055082321167 0.67184120416641235 0.16227312386035919
0.69630300998687744 0.67419934272766113 0.16527818143367767
0.83355915546417236 0.67510443925857544 0.16734068095684052
0.92913109064102173 0.67460870742797852 0.16716298460960388
0.97240263223648071 0.67371118068695068 0.16542455554008484
0.9833483099937439 0.67189449071884155 0.16580165922641754
0.98748517036437988 0.66985136270523071 0.16769412159919739
0.015441176481544971 0.76339173316955566 0.16341911256313324
0.055171802639961243 0.76244020462036133 0.16244666278362274
0.10797840356826782 0.75872910022735596 0.1596195250749588
0.18514655530452728 0.7595674991607666 0.15993496775627136
0.28841277956962585 0.7634386420249939 0.16039319336414337
0.41245704889297485 0.76724588871002197 0.16197270154953003
0.55207663774490356 0.76953291893005371 0.16407354176044464
0.69897449016571045 0.7689940333366394 0.16602420806884766
0.83245748281478882 0.76640516519546509 0.16599887609481812
0.92586135864257812 0.76458048820495605 0.1644434928894043
0.96925157308578491 0.76522904634475708 0.16411475837230682
0.9803040623664856 0.76342737674713135 0.16415145993232727
0.98589408397674561 0.76062554121017456 0.16580177843570709
0.015813745558261871 0.8492622971534729 0.16286821663379669
0.055538970977067947 0.84888368844985962 0.16138674318790436
0.10737599432468414 0.84528195858001709 0.16295045614242554
0.18592792749404907 0.84714943170547485 0.16417461633682251
0.29210981726646423 0.85306906700134277 0.165114626288414
0.41746965050697327 0.85738891363143921 0.16589614748954773
0.55536472797393799 0.85688561201095581 0.16676118969917297
0.69919627904891968 0.85307037830352783 0.16736118495464325
0.83177876472473145 0.84808444976806641 0.16695414483547211
0.92486763000488281 0.84675240516662598 0.16576169431209564
0.96657168865203857 0.84971821308135986 0.16445353627204895
0.97759747505187988 0.85076248645782471 0.16426566243171692
0.9864426851272583 0.84777474403381348 0.16653139889240265
0.018312057480216026 0.91650211811065674 0.16288213431835175
0.05806833878159523 0.91863161325454712 0.16280481219291687
0.10847115516662598 0.91535776853561401 0.16448509693145752
0.18625928461551666 0.91641563177108765 0.16692861914634705
0.29298496246337891 0.924477219581604 0.16711007058620453
0.41987848281860352 0.93009871244430542 0.16791647672653198
0.55592650175094604 0.92562675476074219 0.16810920834541321
0.69803416728973389 0.92004072666168213 0.16860881447792053
0.83288830518722534 0.91644382476806641 0.16920456290245056
0.92672646045684814 0.91712731122970581 0.16856664419174194
0.96420443058013916 0.9215085506439209 0.16495227813720703
0.97376024723052979 0.92458277940750122 0.16442923247814178
0.98600679636001587 0.9212653636932373 0.16850285232067108
0.020220393314957619 0.96157985925674438 0.16471821069717407
0.060889463871717453 0.96473604440689087 0.16341911256313324
0.11073816567659378 0.96305721998214722 0.1634189635515213
0.18526217341423035 0.96254837512969971 0.16426602005958557
0.28996303677558899 0.96874403953552246 0.16565181314945221
0.41670706868171692 0.97236031293869019 0.16708856821060181
0.55516719818115234 0.967437744140625 0.16772586107254028
0.69712710380554199 0.96235948801040649 0.16731883585453033
0.83328235149383545 0.96144229173660278 0.16874879598617554
0.9262201189994812 0.96411663293838501 0.16817322373390198
0.95677489042282104 0.9668891429901123 0.1618494987487793
0.96544021368026733 0.97007530927658081 0.1613173633813858
0.98267281055450439 0.96849352121353149 0.16883459687232971
0.021471643820405006 0.98957252502441406 0.16703712940216064
0.063267052173614502 0.99227261543273926 0.16345509886741638
0.1141291931271553 0.99183982610702515 0.16136541962623596
0.18735305964946747 0.99127048254013062 0.16099847853183746
0.28850457072257996 0.99247151613235474 0.16246260702610016
0.41450417041778564 0.99208813905715942 0.16409119963645935
0.55325883626937866 0.98888438940048218 0.16469095647335052
0.69332104921340942 0.98629319667816162 0.16467383503913879
0.82188916206359863 0.98591071367263794 0.16474358737468719
0.90832126140594482 0.98774248361587524 0.16260640323162079
0.93898385763168335 0.98879778385162354 0.15568748116493225
0.95363938808441162 0.99161595106124878 0.15719287097454071
0.97900515794754028 0.99352651834487915 0.16843189299106598
0.022011088207364082 0.032989084720611572 0.22859607636928558
0.064967542886734009 0.031055031344294548 0.2269735187292099
0.11943848431110382 0.029071135446429253 0.22498127818107605
0.19505204260349274 0.02874705009162426 0.22539019584655762
0.29352986812591553 0.027235861867666245 0.22516597807407379
0.41071170568466187 0.025712301954627037 0.22296218574047089
0.54582792520523071 0.026802303269505501 0.22244198620319366
0.69295090436935425 0.02709616906940937 0.22328253090381622
0.82782387733459473 0.026424841955304146 0.22229820489883423
0.91292411088943481 0.026260839775204659 0.22478166222572327
0.94061237573623657 0.027994537726044655 0.22833721339702606
0.95832371711730957 0.028795892372727394 0.23005339503288269
0.98596411943435669 0.028222132474184036 0.22899334132671356
0.020177474245429039 0.098562128841876984 0.22780473530292511
0.067377395927906036 0.096186406910419464 0.22644619643688202
0.12389975041151047 0.095675498247146606 0.224655881524086
0.19771747291088104 0.094489991664886475 0.22518317401409149
0.29127681255340576 0.089840665459632874 0.22571991384029388
0.40479889512062073 0.086698107421398163 0.22521853446960449
0.54132354259490967 0.087061159312725067 0.22471125423908234
0.69644230604171753 0.088727302849292755 0.22639176249504089
0.8383602499961853 0.090429730713367462 0.22819197177886963
0.9216921329498291 0.091144397854804993 0.23088100552558899
0.9467463493347168 0.091717876493930817 0.23596043884754181
0.96042352914810181 0.09129556268453598 0.23578612506389618
0.98279726505279541 0.090745069086551666 0.23106606304645538
0.018281210213899612 0.17226490378379822 0.22189353406429291
0.065892115235328674 0.17020191252231598 0.22032511234283447
0.12321008741855621 0.17020562291145325 0.21940980851650238
0.19664968550205231 0.16875565052032471 0.22050467133522034
0.2878258228302002 0.16386641561985016 0.22244882583618164
0.39946171641349792 0.16083639860153198 0.22366835176944733
0.5401909351348877 0.16328908503055573 0.22555863857269287
0.70068669319152832 0.16672585904598236 0.22987520694732666
0.84310400485992432 0.16806170344352722 0.23327831923961639
0.92098677158355713 0.16516220569610596 0.23203013837337494
0.94516050815582275 0.16195391118526459 0.23142999410629272
0.96102410554885864 0.16184018552303314 0.2310291975736618
0.98136067390441895 0.16227243840694427 0.22829405963420868
0.016953278332948685 0.25833112001419067 0.21694827079772949
0.062084376811981201 0.25685584545135498 0.21594767272472382
0.11833971738815308 0.25713035464286804 0.21525467932224274
0.19072781503200531 0.25659674406051636 0.21587449312210083
0.28221222758293152 0.25399908423423767 0.21913750469684601
0.39750903844833374 0.25391510128974915 0.22154676914215088
0.54126900434494019 0.25764453411102295 0.22572450339794159
0.70139551162719727 0.26059079170227051 0.23103836178779602
0.84061020612716675 0.25840273499488831 0.23488837480545044
0.91821193695068359 0.25173559784889221 0.23187030851840973
0.94595223665237427 0.24738548696041107 0.22760841250419617
0.96361827850341797 0.24930927157402039 0.22717209160327911
0.98264038562774658 0.25115302205085754 0.22689555585384369
0.015481028705835342 0.35456272959709167 0.21723441779613495
0.058712605386972427 0.35362440347671509 0.21732717752456665
0.11301791667938232 0.35425862669944763 0.21724024415016174
0.18410179018974304 0.35617893934249878 0.21772371232509613
0.27734935283660889 0.35668215155601501 0.21922263503074646
0.39582732319831848 0.35834041237831116 0.22130998969078064
