assets/lut/others sunny alt.cube
# Created by: G'MIC (https://gmic.eu)
TITLE "sunny_alt"
# LUT size
LUT_3D_SIZE 5
# Data domain
DOMAIN_MIN 0.0 0.0 0.0
DOMAIN_MAX 1.0 1.0 1.0
# LUT data points
0.22090359032154083 0.030882352963089943 0.03333466500043869
0.32148793339729309 0.034803923219442368 0.033208839595317841
0.48301804065704346 0.030882352963089943 0.034878600388765335
0.69987648725509644 0.030882352963089943 0.030882352963089943
0.95353037118911743 0.031630095094442368 0.032444555312395096
0.21795982122421265 0.26642155647277832 0.033313855528831482
0.32321909070014954 0.26024976372718811 0.032414216548204422
0.4876289963722229 0.25789293646812439 0.032991804182529449
0.70291966199874878 0.25940260291099548 0.033505160361528397
0.95102512836456299 0.26591014862060547 0.032629065215587616
0.22289285063743591 0.50579941272735596 0.035312652587890625
0.32883554697036743 0.49733695387840271 0.035084445029497147
0.48550510406494141 0.49900099635124207 0.036328781396150589
0.70262730121612549 0.49884504079818726 0.036604158580303192
0.95414763689041138 0.4978485107421875 0.037349969148635864
0.22202758491039276 0.71732199192047119 0.035779345780611038
0.32821595668792725 0.71530932188034058 0.034803923219442368
0.48234188556671143 0.71851420402526855 0.033754926174879074
0.70265763998031616 0.71387654542922974 0.035881701856851578
0.95018404722213745 0.71635979413986206 0.038487199693918228
0.22482943534851074 0.82240772247314453 0.034123841673135757
0.32797014713287354 0.81973040103912354 0.032796163111925125
0.48301881551742554 0.820900559425354 0.032190375030040741
0.70424813032150269 0.82133907079696655 0.031195113435387611
0.95041799545288086 0.8233637809753418 0.035288147628307343
0.22413516044616699 0.030469108372926712 0.2634158730506897
0.32075685262680054 0.030322026461362839 0.26372548937797546
0.4853518009185791 0.031283136457204819 0.26052886247634888
0.70329827070236206 0.030882352963089943 0.26072341203689575
0.95417523384094238 0.030956447124481201 0.26024013757705688
0.2227141261100769 0.25888431072235107 0.26578167080879211
0.32592031359672546 0.25698995590209961 0.2636980414390564
0.48459035158157349 0.26252567768096924 0.26042696833610535
0.702431321144104 0.26171311736106873 0.25819969177246094
0.95663708448410034 0.25910124182701111 0.26220464706420898
0.22176295518875122 0.5007394552230835 0.26674196124076843
0.32841041684150696 0.49743637442588806 0.26764705777168274
0.48532968759536743 0.49973240494728088 0.26517575979232788
0.70108455419540405 0.49710270762443542 0.26334139704704285
0.95592671632766724 0.4961087703704834 0.26419752836227417
0.21959550678730011 0.71491450071334839 0.26448112726211548
0.32848918437957764 0.71693158149719238 0.26604920625686646
0.48371496796607971 0.71842062473297119 0.26347139477729797
0.70279496908187866 0.71586805582046509 0.26319593191146851
0.95458036661148071 0.7127653956413269 0.26292899250984192
0.21749775111675262 0.8267022967338562 0.25421005487442017
0.32527261972427368 0.81957286596298218 0.25933018326759338
0.48457145690917969 0.82076752185821533 0.25852176547050476
0.703025221824646 0.82365196943283081 0.26052892208099365
0.95485413074493408 0.81982451677322388 0.26278573274612427
0.22469113767147064 0.030869428068399429 0.43411815166473389
0.32325011491775513 0.030410317704081535 0.4322650134563446
0.48237577080726624 0.030882352963089943 0.43224379420280457
0.70052438974380493 0.0296173095703125 0.43409955501556396
0.9541391134262085 0.030882352963089943 0.43389010429382324
0.2278502881526947 0.2546638548374176 0.43608298897743225
0.33045241236686707 0.25520837306976318 0.43654090166091919
0.48551422357559204 0.25874781608581543 0.43418592214584351
0.70549339056015015 0.25877833366394043 0.43297296762466431
0.96045380830764771 0.25883200764656067 0.43634134531021118
0.22519482672214508 0.49332985281944275 0.43772414326667786
0.33125001192092896 0.4952818751335144 0.43599903583526611
0.48694929480552673 0.49623399972915649 0.4348771870136261
0.70514225959777832 0.49801820516586304 0.43665769696235657
0.95687389373779297 0.49946579337120056 0.43416684865951538
0.2235942929983139 0.71467417478561401 0.43721270561218262
0.33019736409187317 0.7146337628364563 0.43956723809242249
0.48593780398368835 0.71292895078659058 0.43804040551185608
0.70235908031463623 0.71665936708450317 0.43811643123626709
0.95298951864242554 0.71287721395492554 0.43661487102508545
0.22122523188591003 0.82757580280303955 0.42747285962104797
0.3284822404384613 0.82365196943283081 0.43345752358436584
0.48552030324935913 0.82326191663742065 0.42998555302619934
0.70436358451843262 0.82369279861450195 0.43515300750732422
0.95398950576782227 0.82012009620666504 0.43529516458511353
0.22149589657783508 0.030882352963089943 0.5220714807510376
0.32122927904129028 0.030882352963089943 0.52284616231918335
0.48530876636505127 0.030882352963089943 0.52327531576156616
0.70420593023300171 0.029793698340654373 0.52202516794204712
0.9545711874961853 0.030882352963089943 0.52668100595474243
0.22503434121608734 0.26187440752983093 0.52248561382293701
0.32975524663925171 0.26249998807907104 0.52630949020385742
0.48428282141685486 0.26292333006858826 0.52542281150817871
0.7020564079284668 0.26248085498809814 0.52441847324371338
0.95659899711608887 0.26183560490608215 0.52740556001663208
0.22540915012359619 0.49679723381996155 0.52351224422454834
0.32993975281715393 0.4976499080657959 0.52473318576812744
0.48551976680755615 0.5019536018371582 0.52240943908691406
0.70217764377593994 0.50569391250610352 0.52383124828338623
0.95510846376419067 0.50288420915603638 0.5265318751335144
0.2229006290435791 0.71802055835723877 0.52269953489303589
0.32630789279937744 0.71703308820724487 0.52453303337097168
0.48590949177742004 0.71718209981918335 0.52261030673980713
0.70220589637756348 0.71606302261352539 0.52519673109054565
0.95253980159759521 0.71677583456039429 0.52496320009231567
0.21833962202072144 0.82849401235580444 0.51676750183105469
0.3228488564491272 0.82284849882125854 0.52187812328338623
0.48233646154403687 0.82066583633422852 0.51905351877212524
0.706024169921875 0.82062947750091553 0.52216082811355591
0.95429623126983643 0.82437038421630859 0.52329146862030029
0.21243520081043243 0.026666529476642609 0.55638569593429565
0.32376894354820251 0.030882352963089943 0.55671614408493042
0.48450836539268494 0.030882352963089943 0.55661314725875854
0.70058965682983398 0.030882352963089943 0.55527174472808838
0.94866091012954712 0.028196072205901146 0.55803543329238892
0.21322554349899292 0.26074272394180298 0.56004899740219116
0.32311180233955383 0.25933963060379028 0.56004899740219116
0.48801127076148987 0.25857841968536377 0.56289947032928467
0.70612746477127075 0.25857841968536377 0.55983680486679077
0.95367014408111572 0.25564265251159668 0.56034988164901733
0.22045880556106567 0.49245092272758484 0.56397056579589844
0.32749214768409729 0.49945586919784546 0.55874043703079224
0.48550471663475037 0.50096678733825684 0.55485337972640991
0.70238971710205078 0.49938333034515381 0.55401879549026489
0.95532488822937012 0.49385753273963928 0.5590701699256897
0.22278296947479248 0.70326119661331177 0.56397056579589844
0.3295113742351532 0.71682524681091309 0.55673372745513916
0.4893585741519928 0.71605104207992554 0.55520367622375488
0.70563995838165283 0.70784622430801392 0.55496042966842651
0.95428919792175293 0.70666271448135376 0.55689626932144165
0.22447860240936279 0.81841164827346802 0.56174623966217041
0.32776406407356262 0.82392489910125732 0.55852049589157104
0.48484987020492554 0.8185240626335144 0.55410027503967285
0.70934879779815674 0.82289159297943115 0.55566573143005371
0.95544922351837158 0.82561576366424561 0.55645900964736938
