assets/lut/others vibrant cromeish.cube
# Created by: G'MIC (https://gmic.eu)
TITLE "vibrant_cromeish"
# LUT size
LUT_3D_SIZE 13
# Data domain
DOMAIN_MIN 0.0 0.0 0.0
DOMAIN_MAX 1.0 1.0 1.0
# LUT data points
0.0158857312053442 0.0011258143931627274 0.097568660974502563
0.076390601694583893 0.00077225925633683801 0.093777209520339966
0.15393531322479248 0.002412070520222187 0.092004604637622833
0.25767827033996582 0.0012306362623348832 0.089488714933395386
0.38341456651687622 7.9345700214616954e-05 0.087155237793922424
0.52185094356536865 0 0.085656061768531799
0.65929466485977173 0 0.083456002175807953
0.77989870309829712 0 0.07776477187871933
0.87861895561218262 0 0.070614278316497803
0.95878762006759644 0 0.070847697556018829
0.99857467412948608 0 0.072065733373165131
1 3.2671759981894866e-05 0.065069131553173065
1 0.00070049811620265245 0.057624697685241699
0.011330832727253437 0.045749064534902573 0.090341456234455109
0.069281406700611115 0.036817155778408051 0.087389938533306122
0.14632596075534821 0.03580494225025177 0.085494428873062134
0.24546615779399872 0.031899679452180862 0.082629263401031494
0.36720925569534302 0.02380269393324852 0.07980819046497345
0.5049823522567749 0.019405290484428406 0.080494031310081482
0.64420473575592041 0.012153805233538151 0.084366768598556519
0.76483064889907837 0.0097804795950651169 0.082117490470409393
0.86257535219192505 0.012190216220915318 0.075029291212558746
0.94566941261291504 0.0099023254588246346 0.079199850559234619
0.99469679594039917 0.010045444592833519 0.078131780028343201
1 0.018009575083851814 0.061429370194673538
0.99975943565368652 0.030402299016714096 0.050536375492811203
0.0062504187226295471 0.14695727825164795 0.082614496350288391
0.058970224112272263 0.13978219032287598 0.083064749836921692
0.13580074906349182 0.13091734051704407 0.080444067716598511
0.23185761272907257 0.1223629042506218 0.074869759380817413
0.34967198967933655 0.11619795113801956 0.069891959428787231
0.48489955067634583 0.11321192979812622 0.068409234285354614
0.62222963571548462 0.10411206632852554 0.072708144783973694
0.74570643901824951 0.095806419849395752 0.078654423356056213
0.84745776653289795 0.097819581627845764 0.083078853785991669
0.93176800012588501 0.096856884658336639 0.085527099668979645
0.9859083890914917 0.093424506485462189 0.071130894124507904
1 0.097044400870800018 0.050444673746824265
0.99986636638641357 0.10379421710968018 0.040944583714008331
0.0038352368865162134 0.26652580499649048 0.072746932506561279
0.050803523510694504 0.26354047656059265 0.074900053441524506
0.12501333653926849 0.25164806842803955 0.071758568286895752
0.21767747402191162 0.24073371291160583 0.064963020384311676
0.3310205340385437 0.23595805466175079 0.058299601078033447
0.46489232778549194 0.23637321591377258 0.054482612758874893
0.60318654775619507 0.23109634220600128 0.057009078562259674
0.73003238439559937 0.2196507602930069 0.066944897174835205
0.83663594722747803 0.21872344613075256 0.077526465058326721
0.92231255769729614 0.21838961541652679 0.078142978250980377
0.97961753606796265 0.21003609895706177 0.059241767972707748
0.99971973896026611 0.20331670343875885 0.041895084083080292
1 0.19976991415023804 0.034512687474489212
0.0053981109522283077 0.38642704486846924 0.065797008574008942
0.047781523317098618 0.37897399067878723 0.062461525201797485
0.1176583394408226 0.36789789795875549 0.058628201484680176
0.20690487325191498 0.35949221253395081 0.053750280290842056
0.31745007634162903 0.35469961166381836 0.049054957926273346
0.449075847864151 0.35161259770393372 0.04605662077665329
0.5881379246711731 0.34587967395782471 0.046827249228954315
0.71819514036178589 0.33696341514587402 0.052243549376726151
0.82813018560409546 0.33416321873664856 0.059086430817842484
0.91623473167419434 0.33147439360618591 0.057930905371904373
0.97710180282592773 0.32284179329872131 0.048915743827819824
0.99967914819717407 0.31311073899269104 0.040774744004011154
1 0.30515679717063904 0.034741658717393875
0.0076629188843071461 0.50235193967819214 0.060277678072452545
0.042816746979951859 0.49176153540611267 0.051942113786935806
0.10903157293796539 0.4827059805393219 0.047216512262821198
0.196968674659729 0.47744640707969666 0.044664762914180756
0.30615046620368958 0.47162139415740967 0.043807655572891235
0.43511861562728882 0.46431273221969604 0.042919952422380447
0.57206493616104126 0.45736238360404968 0.041735630482435226
0.70299375057220459 0.45051434636116028 0.042206048965454102
0.81538808345794678 0.44785487651824951 0.044012285768985748
0.90865850448608398 0.44418501853942871 0.045712489634752274
0.976695716381073 0.43606963753700256 0.047912269830703735
0.99996143579483032 0.42635205388069153 0.047823738306760788
1 0.41697454452514648 0.041490696370601654
0.0047149057500064373 0.61342364549636841 0.052811656147241592
0.03658294677734375 0.60545438528060913 0.044658150523900986
0.099653638899326324 0.60028243064880371 0.04113808274269104
0.18580661714076996 0.59753584861755371 0.040629114955663681
0.29320302605628967 0.59152680635452271 0.041533555835485458
0.41953060030937195 0.58254706859588623 0.041992530226707458
0.5540621280670166 0.57375937700271606 0.040023054927587509
0.68411737680435181 0.56711995601654053 0.03789825364947319
0.79865306615829468 0.56331950426101685 0.036703657358884811
0.89794743061065674 0.55994731187820435 0.041652679443359375
0.97592878341674805 0.55308550596237183 0.054218456149101257
1 0.54346102476119995 0.058873523026704788
1 0.53276342153549194 0.050394453108310699
0.0014196807751432061 0.71995025873184204 0.044279135763645172
0.031595956534147263 0.71719831228256226 0.039559651166200638
0.094068460166454315 0.71494454145431519 0.0382065549492836
0.17728498578071594 0.71359544992446899 0.039801757782697678
0.28102949261665344 0.70915627479553223 0.042784206569194794
0.40447291731834412 0.70051950216293335 0.042605351656675339
0.53840690851211548 0.68972450494766235 0.041103273630142212
0.66832244396209717 0.68062293529510498 0.038134258240461349
0.78520196676254272 0.6754460334777832 0.036003038287162781
0.88682740926742554 0.67312777042388916 0.040200624614953995
0.96948772668838501 0.66902118921279907 0.05514487624168396
1 0.66040259599685669 0.062466461211442947
1 0.64827120304107666 0.053780276328325272
0.00017736098379828036 0.81885749101638794 0.035088706761598587
0.024564286693930626 0.82257741689682007 0.032864529639482498
0.086544215679168701 0.82365167140960693 0.03447844460606575
0.16790184378623962 0.82335782051086426 0.039299294352531433
0.26909545063972473 0.82008439302444458 0.044532641768455505
0.39043202996253967 0.81164830923080444 0.046131342649459839
0.52460044622421265 0.79932785034179688 0.044551864266395569
0.65748119354248047 0.78707283735275269 0.041767239570617676
0.776691734790802 0.78023421764373779 0.040361754596233368
0.87914443016052246 0.77963447570800781 0.045476712286472321
0.96322733163833618 0.77936488389968872 0.058000810444355011
0.99973541498184204 0.77267670631408691 0.063805960118770599
1 0.75916475057601929 0.053735185414552689
3.7339155824156478e-05 0.90303468704223633 0.025625385344028473
0.019672004505991936 0.91390734910964966 0.024829130619764328
0.077665172517299652 0.91862928867340088 0.027958186343312263
0.15711234509944916 0.91994529962539673 0.036836378276348114
0.2554074227809906 0.91794967651367188 0.050664369016885757
0.37447366118431091 0.91055679321289062 0.056465763598680496
0.51057010889053345 0.89774966239929199 0.052721001207828522
0.64745450019836426 0.88408792018890381 0.047326374799013138
0.76926296949386597 0.87655985355377197 0.046179782599210739
0.87223291397094727 0.87729424238204956 0.053502265363931656
0.9580034613609314 0.8798096776008606 0.066547304391860962
0.99931365251541138 0.87536382675170898 0.069904804229736328
1 0.86110162734985352 0.054483212530612946
0.000596095051150769 0.96148747205734253 0.017246725037693977
0.021532619372010231 0.97610539197921753 0.017552109435200691
0.072471797466278076 0.98390370607376099 0.020830536261200905
0.14696794748306274 0.98681855201721191 0.033456556499004364
0.24101263284683228 0.98655545711517334 0.058114323765039444
0.35739657282829285 0.98323947191238403 0.073246344923973083
0.49372294545173645 0.97447246313095093 0.061825994402170181
0.63269448280334473 0.9645233154296875 0.048949074000120163
0.75674861669540405 0.95785415172576904 0.046158134937286377
0.86151641607284546 0.95707964897155762 0.054047841578722
0.94976770877838135 0.95916396379470825 0.067781843245029449
0.99811273813247681 0.95619052648544312 0.070216849446296692
1 0.94460433721542358 0.051268260926008224
0.0023743424098938704 0.99148327112197876 0.010616601444780827
0.025685179978609085 0.99904388189315796 0.011617339216172695
0.070020712912082672 0.99999570846557617 0.014889780431985855
0.13891984522342682 1 0.02649962529540062
0.23010596632957458 1 0.047923054546117783
0.34368076920509338 1 0.061446469277143478
0.47646549344062805 1 0.053355585783720016
0.61355340480804443 0.99968850612640381 0.041254095733165741
0.73882603645324707 0.99875545501708984 0.037402506917715073
0.84643018245697021 0.99778354167938232 0.042001821100711823
0.9351009726524353 0.99813318252563477 0.05014718696475029
0.99119186401367188 0.99738532304763794 0.050137761980295181
0.99999767541885376 0.99470335245132446 0.037205085158348083
0.001366349752061069 0.99981546401977539 0.0064842673018574715
0.02367706224322319 1 0.007103639654815197
0.066747687757015228 1 0.0090256482362747192
0.13354404270648956 1 0.014104761183261871
0.22303526103496552 1 0.024057110771536827
0.33347833156585693 1 0.031536206603050232
0.46092751622200012 1 0.030348176136612892
0.59285742044448853 1 0.025448832660913467
0.7168998122215271 1 0.022471409291028976
0.82562994956970215 1 0.02343425340950489
0.91398870944976807 1 0.026272254064679146
0.97316861152648926 1 0.02548612654209137
0.99725306034088135 1 0.01903095655143261
0.015168343670666218 0 0.18695518374443054
0.074333474040031433 0 0.18178452551364899
0.15225927531719208 0 0.17734003067016602
0.25498941540718079 0 0.17194564640522003
0.38034406304359436 0 0.1656070202589035
0.52010440826416016 0 0.1590900719165802
0.6589350700378418 0 0.15123298764228821
0.7810712456703186 0 0.14143368601799011
0.88095086812973022 0 0.13250231742858887
0.95917540788650513 0 0.13142240047454834
0.99817764759063721 0 0.13396219909191132
1 0 0.13175399601459503
1 0 0.12763170897960663
0.0096139796078205109 0.030797187238931656 0.17878730595111847
0.065043039619922638 0.023923866450786591 0.17375063896179199
0.14211851358413696 0.022673888131976128 0.16903482377529144
0.24116529524326324 0.023130768910050392 0.16342678666114807
0.36353862285614014 0.019816769286990166 0.15643477439880371
0.5019068717956543 0.017364323139190674 0.15079987049102783
0.64182031154632568 0.012680577114224434 0.14496439695358276
0.76452106237411499 0.0094152865931391716 0.13737873733043671
0.86288148164749146 0.0089625194668769836 0.12885397672653198
0.94306892156600952 0.0074144103564321995 0.13006302714347839
0.99159902334213257 0.0071229524910449982 0.13212165236473083
1 0.0096668023616075516 0.12356604635715485
0.99921596050262451 0.018496869131922722 0.11765096336603165
0.0042421678081154823 0.13666991889476776 0.16735579073429108
0.052970528602600098 0.12770015001296997 0.16519850492477417
0.12951041758060455 0.12111528962850571 0.16152235865592957
0.2263060063123703 0.11831820756196976 0.15487033128738403
0.34485378861427307 0.11562663316726685 0.14591965079307556
0.48079818487167358 0.11277471482753754 0.13826939463615417
0.61972153186798096 0.10430216789245605 0.13415884971618652
0.74382221698760986 0.09383130818605423 0.13212284445762634
0.84653306007385254 0.088449098169803619 0.12978459894657135
0.93130224943161011 0.084687508642673492 0.12982068955898285
0.98619532585144043 0.083378702402114868 0.12318749725818634
1 0.08550707995891571 0.11064634472131729
0.9991154670715332 0.090970315039157867 0.1059514507651329
0.0017248266376554966 0.26187482476234436 0.15460565686225891
0.044105887413024902 0.25523322820663452 0.15382145345211029
0.11822168529033661 0.24643151462078094 0.15123389661312103
0.21139612793922424 0.24142053723335266 0.14416998624801636
0.3255995512008667 0.23903931677341461 0.13440367579460144
0.46023780107498169 0.2382158637046814 0.12526397407054901
0.60019034147262573 0.23095640540122986 0.12105268239974976
0.72846633195877075 0.21728426218032837 0.1226932480931282
0.83626288175582886 0.20827794075012207 0.12388717383146286
0.92454981803894043 0.20258636772632599 0.12206127494573593
0.98362207412719727 0.19749167561531067 0.11168182641267776
1 0.19196885824203491 0.10078510642051697
0.99990391731262207 0.18788184225559235 0.097033709287643433
0.0033674801234155893 0.3840077817440033 0.14651349186897278
0.041881293058395386 0.37509319186210632 0.14195923507213593
0.11030648648738861 0.36503034830093384 0.13801448047161102
0.20000182092189789 0.35946744680404663 0.13215640187263489
0.31120941042900085 0.35629889369010925 0.12459175288677216
0.44436997175216675 0.35255640745162964 0.11699550598859787
0.58566498756408691 0.34565338492393494 0.11252529919147491
0.7184828519821167 0.33448079228401184 0.11219102144241333
0.83026164770126343 0.32760822772979736 0.11269421875476837
0.91988784074783325 0.32082870602607727 0.10816484689712524
0.98111271858215332 0.31181913614273071 0.10095880180597305
1 0.30286851525306702 0.097501941025257111
1 0.29473766684532166 0.093780621886253357
0.0049949195235967636 0.50021374225616455 0.14021937549114227
0.037284970283508301 0.48845192790031433 0.13139119744300842
0.10140585899353027 0.47864767909049988 0.12576226890087128
0.1889483779668808 0.47420448064804077 0.12170950323343277
0.29896485805511475 0.46937578916549683 0.11726110428571701
0.43022820353507996 0.46230322122573853 0.1121448427438736
0.57060712575912476 0.45532897114753723 0.1077171191573143
0.7043338418006897 0.44746637344360352 0.10504662245512009
0.81823313236236572 0.4432503879070282 0.10282375663518906
0.91174417734146118 0.43739816546440125 0.099221788346767426
0.97913634777069092 0.42842623591423035 0.09937547892332077
1 0.41851973533630371 0.10136521607637405
1 0.40866997838020325 0.096867628395557404
0.0026285958010703325 0.61230045557022095 0.13235040009021759
0.030455285683274269 0.60214793682098389 0.12340054661035538
0.091309778392314911 0.59501552581787109 0.11789624392986298
0.17681370675563812 0.59173130989074707 0.11439772695302963
0.28520846366882324 0.58603477478027344 0.1115330383181572
0.41429814696311951 0.57787764072418213 0.10761363059282303
0.55274420976638794 0.56957483291625977 0.10346989333629608
0.68534249067306519 0.56274378299713135 0.099732972681522369
0.80037093162536621 0.55937939882278442 0.094561479985713959
0.89861959218978882 0.55537229776382446 0.092680789530277252
0.97582107782363892 0.54825830459594727 0.1021057590842247
1 0.5382002592086792 0.10771603882312775
1 0.52703732252120972 0.10041934996843338
0.00026370777050033212 0.7209242582321167 0.12347035109996796
0.024305261671543121 0.71417230367660522 0.11669319123029709
0.08552812784910202 0.70831263065338135 0.1125531792640686
0.16837213933467865 0.70537745952606201 0.10967373102903366
0.27326464653015137 0.70143347978591919 0.10626955330371857
0.39972063899040222 0.69365721940994263 0.10134097933769226
0.53716760873794556 0.68383181095123291 0.096843421459197998
0.66957223415374756 0.67514705657958984 0.092329494655132294
0.78577655553817749 0.67065703868865967 0.085535041987895966
0.88474756479263306 0.66939467191696167 0.081675164401531219
0.96885389089584351 0.66587680578231812 0.093835629522800446
1 0.65669804811477661 0.10285544395446777
1 0.64378815889358521 0.095592841506004333
0 0.82318210601806641 0.11331754177808762
0.017074255272746086 0.82157868146896362 0.10823780298233032
0.078669138252735138 0.81698668003082275 0.10529670119285583
0.16046454012393951 0.81434625387191772 0.10334694385528564
0.26255702972412109 0.81106209754943848 0.099435828626155853
0.38671952486038208 0.80405205488204956 0.092396706342697144
0.52432781457901001 0.79300248622894287 0.088402844965457916
0.65938538312911987 0.78108823299407959 0.085447587072849274
0.77722203731536865 0.77455717325210571 0.080434121191501617
0.8770977258682251 0.77497678995132446 0.078540965914726257
0.96360564231872559 0.77637279033660889 0.086968429386615753
0.9999578595161438 0.76943159103393555 0.091991811990737915
1 0.75498843193054199 0.083300299942493439
0 0.91237711906433105 0.10246232151985168
0.011641617864370346 0.91871964931488037 0.098352424800395966
0.069698736071586609 0.91673141717910767 0.094498157501220703
0.15057432651519775 0.91444671154022217 0.092567622661590576
0.25046065449714661 0.91055107116699219 0.091394387185573578
0.37290790677070618 0.90370172262191772 0.084258571267127991
0.51195025444030762 0.8928530216217041 0.082549437880516052
0.65138107538223267 0.87953919172286987 0.080960199236869812
0.77087551355361938 0.87212944030761719 0.078900322318077087
0.86882174015045166 0.8743470311164856 0.078645773231983185
0.95482993125915527 0.87851870059967041 0.082151778042316437
0.99914038181304932 0.872306227684021 0.081237480044364929
1 0.85839015245437622 0.072368457913398743
1.2027516277157702e-05 0.97379064559936523 0.090690657496452332
0.011545832268893719 0.9857829213142395 0.08824591338634491
0.062775768339633942 0.98682546615600586 0.083495840430259705
0.14014267921447754 0.9864199161529541 0.081684097647666931
0.23718738555908203 0.98226439952850342 0.088763624429702759
0.35702359676361084 0.97746998071670532 0.089044280350208282
0.49613624811172485 0.97163468599319458 0.083428956568241119
0.63752806186676025 0.96532714366912842 0.076681710779666901
0.75902444124221802 0.95899450778961182 0.073720715939998627
0.8576047420501709 0.95717108249664307 0.074879571795463562
0.94366234540939331 0.95787656307220459 0.075159840285778046
0.99757486581802368 0.95267415046691895 0.071985401213169098
1 0.9444693922996521 0.065124139189720154
0.0010906144743785262 0.99783468246459961 0.078568734228610992
0.015884997323155403 0.99999541044235229 0.077678576111793518
0.05798136442899704 1 0.075754068791866302
0.12914478778839111 1 0.076345779001712799
0.22376787662506104 1 0.083539597690105438
0.3409460186958313 1 0.086304590106010437
0.47768488526344299 1 0.079820074141025543
0.61793315410614014 0.99998635053634644 0.070783115923404694
0.74304062128067017 0.99909728765487671 0.066694296896457672
0.84800899028778076 0.99739378690719604 0.066037572920322418
0.93704891204833984 0.99602794647216797 0.064998835325241089
0.9939112663269043 0.9947015643119812 0.06162363663315773
1 0.99508428573608398 0.0565311498939991
0.00024701288202777505 1 0.06934821605682373
0.013446254655718803 1 0.068454638123512268
0.052665185183286667 0.99992555379867554 0.067378103733062744
0.12073832750320435 0.9992491602897644 0.066772937774658203
0.21312941610813141 0.99911999702453613 0.067291602492332458
0.3266853392124176 0.99991035461425781 0.066935911774635315
0.45866656303405762 1 0.065049938857555389
0.59574860334396362 1 0.062242113053798676
0.7227361798286438 1 0.058106172829866409
0.83289581537246704 1 0.054137345403432846
0.92387169599533081 1 0.052342373877763748
0.98367536067962646 1 0.051279913634061813
0.9996674656867981 1 0.049658935517072678
0.016476904973387718 0 0.27991864085197449
0.073638841509819031 1.9746668840525672e-05 0.27453657984733582
0.15122216939926147 0.00089142745127901435 0.26925557851791382
0.25416749715805054 0.00014832441229373217 0.26213333010673523
0.37919753789901733 0 0.25386667251586914
0.51766586303710938 0 0.24636244773864746
0.65630543231964111 0 0.23897841572761536
0.78045642375946045 0 0.22992061078548431
0.88273340463638306 0 0.22191993892192841
0.95989209413528442 0 0.21989887952804565
0.99823969602584839 0 0.2208077609539032
1 0 0.21772295236587524
1 0 0.21200929582118988
0.0096554625779390335 0.031784489750862122 0.27052527666091919
0.062760926783084869 0.029412049800157547 0.26491373777389526
0.13918940722942352 0.030727162957191467 0.25962063670158386
0.23922143876552582 0.028734378516674042 0.25299593806266785
0.36094483733177185 0.026637088507413864 0.24509644508361816
0.49911198019981384 0.021954840049147606 0.23827852308750153
0.63870698213577271 0.014298053458333015 0.23267900943756104
0.76360929012298584 0.010952265001833439 0.22519548237323761
0.86729341745376587 0.01114832516759634 0.21789355576038361
0.94820719957351685 0.0094336718320846558 0.21849694848060608
0.99480193853378296 0.0072050807066261768 0.2201957106590271
1 0.0090302862226963043 0.21200746297836304
0.99999064207077026 0.014915555715560913 0.2030692845582962
0.004129327367991209 0.13943502306938171 0.25806006789207458
0.051123481243848801 0.13020835816860199 0.253805011510849
0.1270291656255722 0.12388694286346436 0.24965298175811768
0.22443906962871552 0.12337817251682281 0.24352972209453583
0.3424382209777832 0.122344009578228 0.23478905856609344
0.47773930430412292 0.1159050315618515 0.22664560377597809
0.61693412065505981 0.10538741201162338 0.22150653600692749
0.74345177412033081 0.098430350422859192 0.21685685217380524
0.85021650791168213 0.093228675425052643 0.21265840530395508
0.93683308362960815 0.085290886461734772 0.21341827511787415
0.99131685495376587 0.080475732684135437 0.21290944516658783
1 0.080027922987937927 0.20224247872829437
0.99997901916503906 0.084329254925251007 0.19220587611198425
0.002161422511562705 0.26635107398033142 0.24515354633331299
0.043359734117984772 0.25601640343666077 0.24173553287982941
0.11639975756406784 0.24760539829730988 0.23893484473228455
0.21064050495624542 0.24743840098381042 0.23356176912784576
0.32495537400245667 0.2454991340637207 0.2240092009305954
0.4575955867767334 0.23916414380073547 0.21442435681819916
0.59659135341644287 0.23051244020462036 0.20888350903987885
0.72600406408309937 0.22310405969619751 0.20642563700675964
0.83758902549743652 0.21295613050460815 0.2043120265007019
0.92873549461364746 0.20001679658889771 0.20311674475669861
0.98840641975402832 0.19132979214191437 0.20006789267063141
1 0.18428526818752289 0.19046130776405334
1 0.18064956367015839 0.18159282207489014
0.0039069978520274162 0.38564795255661011 0.23544527590274811
0.042072895914316177 0.37549003958702087 0.23062461614608765
0.10850649327039719 0.36564812064170837 0.22753043472766876
0.19872580468654633 0.36215516924858093 0.22250065207481384
0.31004178524017334 0.36033713817596436 0.21398727595806122
0.44155937433242798 0.35566571354866028 0.20530427992343903
0.58161252737045288 0.3487376868724823 0.19963277876377106
0.71469980478286743 0.34091836214065552 0.19736257195472717
0.82966750860214233 0.33136859536170959 0.19520880281925201
0.92162775993347168 0.3193129301071167 0.19076511263847351
0.98296070098876953 0.30778375267982483 0.18590264022350311
1 0.29764428734779358 0.18051400780677795
1 0.28970953822135925 0.17406009137630463
0.006371726281940937 0.4998106062412262 0.22787228226661682
0.038763996213674545 0.48861119151115417 0.22110594809055328
0.099448293447494507 0.47790160775184631 0.21665318310260773
0.18632185459136963 0.47236821055412292 0.21213312447071075
0.29596012830734253 0.4695776104927063 0.2055622786283493
0.42679962515830994 0.46490019559860229 0.19835302233695984
0.56743752956390381 0.45876947045326233 0.19357459247112274
0.70274865627288818 0.45197561383247375 0.19219768047332764
0.81952303647994995 0.44518810510635376 0.18996188044548035
0.91228604316711426 0.43676024675369263 0.18325479328632355
0.97727060317993164 0.42640432715415955 0.17952296137809753
0.99996709823608398 0.41588956117630005 0.17734837532043457
1 0.40600490570068359 0.17087481915950775
0.0031705668661743402 0.61173748970031738 0.21986904740333557
0.030125502496957779 0.60064190626144409 0.21256071329116821
0.088306069374084473 0.59081602096557617 0.2071392685174942
0.17316006124019623 0.58532965183258057 0.20260171592235565
0.28209635615348816 0.58137840032577515 0.19705869257450104
0.41178184747695923 0.57590943574905396 0.19072872400283813
