assets/lut/others faded alt.cube
# Created by: G'MIC (https://gmic.eu)
TITLE "faded_alt"
# LUT size
LUT_3D_SIZE 5
# Data domain
DOMAIN_MIN 0.0 0.0 0.0
DOMAIN_MAX 1.0 1.0 1.0
# LUT data points
0.034325648099184036 0.036369577050209045 0.027907248586416245
0.12966755032539368 0.071132510900497437 0.072886630892753601
0.22228406369686127 0.10248883068561554 0.11423993855714798
0.3166082501411438 0.13782943785190582 0.15828521549701691
0.4065990149974823 0.17279411852359772 0.20177076756954193
0.21645554900169373 0.26043510437011719 0.19936731457710266
0.30948612093925476 0.29360273480415344 0.24229620397090912
0.40254116058349609 0.32419431209564209 0.28429025411605835
0.49722573161125183 0.35879713296890259 0.32738706469535828
0.58857172727584839 0.39482524991035461 0.3702748715877533
0.39633196592330933 0.48223990201950073 0.36545082926750183
0.48478776216506958 0.50882899761199951 0.40970811247825623
0.58146208524703979 0.54330003261566162 0.45176774263381958
0.67693227529525757 0.57869446277618408 0.49056446552276611
0.76270174980163574 0.60567879676818848 0.52952903509140015
0.57878690958023071 0.7142673134803772 0.53435581922531128
0.6682853102684021 0.74430245161056519 0.57865095138549805
0.77559465169906616 0.78626871109008789 0.62043571472167969
0.86924558877944946 0.80987632274627686 0.66249281167984009
0.91741347312927246 0.81878125667572021 0.6976439356803894
0.75582677125930786 0.93119555711746216 0.702553391456604
0.84768682718276978 0.96464765071868896 0.74612176418304443
0.94512778520584106 0.98963499069213867 0.78622668981552124
0.99450677633285522 0.98302584886550903 0.82890880107879639
0.9905388355255127 0.95673757791519165 0.86552304029464722
0.083570726215839386 0.097170494496822357 0.10355212539434433
0.17515526711940765 0.12735354900360107 0.14685489237308502
0.26584550738334656 0.15585172176361084 0.18852096796035767
0.35600683093070984 0.18897737562656403 0.23003897070884705
0.44810295104980469 0.22335310280323029 0.27279669046401978
0.26419210433959961 0.31670418381690979 0.27309742569923401
0.3556462824344635 0.34552037715911865 0.31468474864959717
0.44691485166549683 0.3766474723815918 0.35873952507972717
0.53546631336212158 0.40952286124229431 0.40022632479667664
0.63023430109024048 0.44691550731658936 0.44299444556236267
0.44293117523193359 0.5356142520904541 0.44162651896476746
0.52882200479507446 0.56492257118225098 0.48020097613334656
0.62883460521697998 0.6044427752494812 0.52546858787536621
0.71657806634902954 0.63360792398452759 0.564461350440979
0.81121748685836792 0.66659259796142578 0.60567867755889893
0.62136197090148926 0.76034665107727051 0.61093944311141968
0.70572018623352051 0.79698318243026733 0.6466670036315918
0.8173757791519165 0.85346931219100952 0.68997299671173096
0.91524755954742432 0.88022869825363159 0.73540675640106201
0.96534281969070435 0.90653449296951294 0.77434897422790527
0.80515199899673462 0.98387330770492554 0.77997881174087524
0.89385271072387695 0.9919745922088623 0.8186761736869812
0.97006547451019287 0.99997574090957642 0.85918951034545898
0.99954336881637573 1 0.90308141708374023
0.99989497661590576 1 0.94336819648742676
0.12953813374042511 0.14905603229999542 0.17180678248405457
0.21925769746303558 0.17951327562332153 0.21611712872982025
0.30833747982978821 0.209870845079422 0.25892883539199829
0.39786869287490845 0.24491031467914581 0.30113166570663452
0.49222028255462646 0.27611750364303589 0.34548693895339966
0.30644470453262329 0.36787682771682739 0.34248179197311401
0.39798027276992798 0.40025174617767334 0.38662651181221008
0.48929131031036377 0.43439441919326782 0.42968210577964783
0.58144772052764893 0.46409603953361511 0.47245797514915466
0.67581498622894287 0.49743357300758362 0.51627522706985474
0.48261424899101257 0.59053176641464233 0.51050633192062378
0.57284486293792725 0.63065481185913086 0.55221152305603027
0.67650598287582397 0.66867929697036743 0.59760338068008423
0.76982492208480835 0.68315190076828003 0.64213818311691284
0.85584932565689087 0.71715301275253296 0.68466687202453613
0.66311299800872803 0.82236635684967041 0.67888855934143066
0.75169873237609863 0.85311293601989746 0.71763193607330322
0.8587871789932251 0.89820569753646851 0.76343703269958496
0.93969756364822388 0.90915912389755249 0.8082963228225708
0.98218518495559692 0.94741141796112061 0.84456813335418701
0.84730833768844604 0.99824219942092896 0.84726691246032715
0.93645966053009033 0.98792308568954468 0.88580501079559326
0.9853593111038208 0.99849921464920044 0.92913496494293213
0.99755978584289551 0.99857151508331299 0.97455960512161255
1 0.99989610910415649 0.99843919277191162
0.1709790825843811 0.20274011790752411 0.24460111558437347
0.26218587160110474 0.23361895978450775 0.29025465250015259
0.34949752688407898 0.26451307535171509 0.33029964566230774
0.44552752375602722 0.29953828454017639 0.36987018585205078
0.5407148003578186 0.33233192563056946 0.41540473699569702
0.35245457291603088 0.42455312609672546 0.41701856255531311
0.44243329763412476 0.4575880765914917 0.46248948574066162
0.53437435626983643 0.49361291527748108 0.50183564424514771
0.63348567485809326 0.52622836828231812 0.54278087615966797
0.72483921051025391 0.55615782737731934 0.5857728123664856
0.52553790807723999 0.64834779500961304 0.58084148168563843
0.61816096305847168 0.70233738422393799 0.62721419334411621
0.72625541687011719 0.7410549521446228 0.66919493675231934
0.82494175434112549 0.75472700595855713 0.71092683076858521
0.89803725481033325 0.77464276552200317 0.75186187028884888
0.70430785417556763 0.87781822681427002 0.74765467643737793
0.80018192529678345 0.93994283676147461 0.7976381778717041
0.90671437978744507 0.96663939952850342 0.83675503730773926
0.97657352685928345 0.97602611780166626 0.87405508756637573
0.99872851371765137 0.96889251470565796 0.91618376970291138
0.89218932390213013 0.99963593482971191 0.91100609302520752
0.97541797161102295 1 0.95710116624832153
0.99729287624359131 0.99920344352722168 0.99203664064407349
1 0.99112725257873535 1
1 0.99453061819076538 1
0.21543040871620178 0.25772523880004883 0.31634226441383362
0.30826032161712646 0.29132482409477234 0.36357960104942322
0.39675083756446838 0.32357659935951233 0.40322014689445496
0.49356180429458618 0.35873055458068848 0.44356676936149597
0.58391135931015015 0.38548398017883301 0.48490285873413086
0.39675244688987732 0.4832938015460968 0.48606374859809875
0.48812362551689148 0.50931644439697266 0.53277814388275146
0.57987940311431885 0.54318779706954956 0.57437574863433838
0.68321233987808228 0.58634793758392334 0.614307701587677
0.76507806777954102 0.6130785346031189 0.65388631820678711
0.56939435005187988 0.71769118309020996 0.64968115091323853
0.65877872705459595 0.74713540077209473 0.69725316762924194
0.76511520147323608 0.77454006671905518 0.73984384536743164
0.87502562999725342 0.81583857536315918 0.7803109884262085
0.95252323150634766 0.83658164739608765 0.82145357131958008
0.74868488311767578 0.94476199150085449 0.81393647193908691
0.83603179454803467 0.96288305521011353 0.86065953969955444
0.93214499950408936 0.98813712596893311 0.90022861957550049
0.99645966291427612 0.99372154474258423 0.94424712657928467
1 0.97344517707824707 0.98515522480010986
0.93385422229766846 1 0.97302341461181641
0.99719619750976562 0.99908906221389771 0.99981027841567993
1 0.99738395214080811 1
1 1 1
1 1 1
