assets/lut/others vibrant cromeish.cube
# Created by: G'MIC (https://gmic.eu)
TITLE "vibrant_cromeish"
# LUT size
LUT_3D_SIZE 7
# Data domain
DOMAIN_MIN 0.0 0.0 0.0
DOMAIN_MAX 1.0 1.0 1.0
# LUT data points
0.0158857312053442 0.0011258143931627274 0.097568660974502563
0.15393531322479248 0.002412070520222187 0.092004604637622833
0.38341456651687622 7.9345700214616954e-05 0.087155237793922424
0.65929466485977173 0 0.083456002175807953
0.87861895561218262 0 0.070614278316497803
0.99857467412948608 0 0.072065733373165131
1 0.00070049811620265245 0.057624697685241699
0.0062504187226295471 0.14695727825164795 0.082614496350288391
0.13580074906349182 0.13091734051704407 0.080444067716598511
0.34967198967933655 0.11619795113801956 0.069891959428787231
0.62222963571548462 0.10411206632852554 0.072708144783973694
0.84745776653289795 0.097819581627845764 0.083078853785991669
0.9859083890914917 0.093424506485462189 0.071130894124507904
0.99986636638641357 0.10379421710968018 0.040944583714008331
0.0053981109522283077 0.38642704486846924 0.065797008574008942
0.1176583394408226 0.36789789795875549 0.058628201484680176
0.31745007634162903 0.35469961166381836 0.049054957926273346
0.5881379246711731 0.34587967395782471 0.046827249228954315
0.82813018560409546 0.33416321873664856 0.059086430817842484
0.97710180282592773 0.32284179329872131 0.048915743827819824
1 0.30515679717063904 0.034741658717393875
0.0047149057500064373 0.61342364549636841 0.052811656147241592
0.099653638899326324 0.60028243064880371 0.04113808274269104
0.29320302605628967 0.59152680635452271 0.041533555835485458
0.5540621280670166 0.57375937700271606 0.040023054927587509
0.79865306615829468 0.56331950426101685 0.036703657358884811
0.97592878341674805 0.55308550596237183 0.054218456149101257
1 0.53276342153549194 0.050394453108310699
0.00017736098379828036 0.81885749101638794 0.035088706761598587
0.086544215679168701 0.82365167140960693 0.03447844460606575
0.26909545063972473 0.82008439302444458 0.044532641768455505
0.52460044622421265 0.79932785034179688 0.044551864266395569
0.776691734790802 0.78023421764373779 0.040361754596233368
0.96322733163833618 0.77936488389968872 0.058000810444355011
1 0.75916475057601929 0.053735185414552689
0.000596095051150769 0.96148747205734253 0.017246725037693977
0.072471797466278076 0.98390370607376099 0.020830536261200905
0.24101263284683228 0.98655545711517334 0.058114323765039444
0.49372294545173645 0.97447246313095093 0.061825994402170181
0.75674861669540405 0.95785415172576904 0.046158134937286377
0.94976770877838135 0.95916396379470825 0.067781843245029449
1 0.94460433721542358 0.051268260926008224
0.001366349752061069 0.99981546401977539 0.0064842673018574715
0.066747687757015228 1 0.0090256482362747192
0.22303526103496552 1 0.024057110771536827
0.46092751622200012 1 0.030348176136612892
0.7168998122215271 1 0.022471409291028976
0.91398870944976807 1 0.026272254064679146
0.99725306034088135 1 0.01903095655143261
0.016476904973387718 0 0.27991864085197449
0.15122216939926147 0.00089142745127901435 0.26925557851791382
0.37919753789901733 0 0.25386667251586914
0.65630543231964111 0 0.23897841572761536
0.88273340463638306 0 0.22191993892192841
0.99823969602584839 0 0.2208077609539032
1 0 0.21200929582118988
0.004129327367991209 0.13943502306938171 0.25806006789207458
0.1270291656255722 0.12388694286346436 0.24965298175811768
0.3424382209777832 0.122344009578228 0.23478905856609344
0.61693412065505981 0.10538741201162338 0.22150653600692749
0.85021650791168213 0.093228675425052643 0.21265840530395508
0.99131685495376587 0.080475732684135437 0.21290944516658783
0.99997901916503906 0.084329254925251007 0.19220587611198425
0.0039069978520274162 0.38564795255661011 0.23544527590274811
0.10850649327039719 0.36564812064170837 0.22753043472766876
0.31004178524017334 0.36033713817596436 0.21398727595806122
0.58161252737045288 0.3487376868724823 0.19963277876377106
0.82966750860214233 0.33136859536170959 0.19520880281925201
0.98296070098876953 0.30778375267982483 0.18590264022350311
1 0.28970953822135925 0.17406009137630463
0.0031705668661743402 0.61173748970031738 0.21986904740333557
0.088306069374084473 0.59081602096557617 0.2071392685174942
0.28209635615348816 0.58137840032577515 0.19705869257450104
0.55158275365829468 0.56932926177978516 0.18631891906261444
0.80423945188522339 0.55849623680114746 0.1828901469707489
0.97063320875167847 0.54655754566192627 0.17512975633144379
1 0.52565634250640869 0.1673356294631958
0 0.82397598028182983 0.20041534304618835
0.075836613774299622 0.80450940132141113 0.19097232818603516
0.25933891534805298 0.79965460300445557 0.17911668121814728
0.52371501922607422 0.78838932514190674 0.16026464104652405
0.7759358286857605 0.77559518814086914 0.15131749212741852
0.9611055850982666 0.77555114030838013 0.14815437793731689
1 0.75458413362503052 0.13696187734603882
0 0.98182731866836548 0.1780117005109787
0.061042230576276779 0.98150968551635742 0.168232262134552
0.23611141741275787 0.97565895318984985 0.15839631855487823
0.49592161178588867 0.9695320725440979 0.14258891344070435
0.75545006990432739 0.96256411075592041 0.13424167037010193
0.93825525045394897 0.95534968376159668 0.12209571152925491
1 0.94241774082183838 0.10935089737176895
0 1 0.15359745919704437
0.044751126319169998 0.99897700548171997 0.1471143364906311
0.20852063596248627 0.99453777074813843 0.13819339871406555
0.45895436406135559 0.99970811605453491 0.1287887841463089
0.72542673349380493 1 0.12066712975502014
0.92924737930297852 0.99884629249572754 0.10821636766195297
1 1 0.10441402345895767
0.02309722825884819 0 0.4640166163444519
0.1558678150177002 0 0.45095154643058777
0.37603795528411865 0 0.43716505169868469
0.65087050199508667 0 0.42901319265365601
0.88120198249816895 0 0.41770917177200317
0.99791967868804932 0 0.40924936532974243
1 0 0.39855581521987915
0.0055353650823235512 0.14351335167884827 0.43764260411262512
0.1229611411690712 0.12585921585559845 0.42549210786819458
0.33678030967712402 0.11522499471902847 0.41692924499511719
0.61362558603286743 0.097042351961135864 0.41269651055335999
0.85217845439910889 0.087481826543807983 0.40457186102867126
0.98896735906600952 0.076015695929527283 0.39696043729782104
0.99986559152603149 0.078818932175636292 0.38022267818450928
0.0034550984855741262 0.3865082859992981 0.41434961557388306
0.10529915243387222 0.36760127544403076 0.4055732786655426
0.30742481350898743 0.35549375414848328 0.39628159999847412
0.57745647430419922 0.34071558713912964 0.38691136240959167
0.82905358076095581 0.3269343376159668 0.38196811079978943
0.98239529132843018 0.30415558815002441 0.37278008460998535
0.9996299147605896 0.28703930974006653 0.35711938142776489
0.0011169433128088713 0.61510181427001953 0.39903503656387329
0.084825150668621063 0.59300792217254639 0.38804376125335693
0.2806517481803894 0.58298736810684204 0.37640264630317688
0.54993605613708496 0.56842923164367676 0.36838898062705994
0.80413913726806641 0.55722987651824951 0.36368346214294434
0.96933740377426147 0.54544460773468018 0.3524472713470459
1 0.5284426212310791 0.33592751622200012
5.2418428822420537e-05 0.82673102617263794 0.37989059090614319
0.071536585688591003 0.8024294376373291 0.36956137418746948
0.25963091850280762 0.80151116847991943 0.36085152626037598
0.52472102642059326 0.78059571981430054 0.34783539175987244
0.77618151903152466 0.77510970830917358 0.33983609080314636
0.95183092355728149 0.77268314361572266 0.32834711670875549
1 0.76016116142272949 0.30813601613044739
0.00035799812758341432 0.9908180832862854 0.35796704888343811
0.059766266494989395 0.98605787754058838 0.34796237945556641
0.23528632521629333 0.98423033952713013 0.34399828314781189
0.49334239959716797 0.97198987007141113 0.32891139388084412
0.74992519617080688 0.97048026323318481 0.31955081224441528
0.93622809648513794 0.95363754034042358 0.30982744693756104
1 0.94326317310333252 0.28761032223701477
0 1 0.33385646343231201
0.038253858685493469 0.99761027097702026 0.32439300417900085
0.20155279338359833 0.99750328063964844 0.31466656923294067
0.45586243271827698 0.99946480989456177 0.30813524127006531
0.72404813766479492 0.99932962656021118 0.29791596531867981
0.9289623498916626 0.99881458282470703 0.29145130515098572
1 1 0.28165522217750549
0.019818205386400223 0 0.63556903600692749
0.1561657190322876 0 0.627330482006073
0.37627214193344116 0 0.61725354194641113
0.64858889579772949 0 0.60581135749816895
0.87236219644546509 0 0.5988578200340271
0.99508076906204224 0 0.59330588579177856
1 0 0.58726352453231812
0.00437901820987463 0.1344466358423233 0.61062335968017578
0.11668027937412262 0.1415400505065918 0.59648686647415161
0.33357974886894226 0.11108821630477905 0.59223675727844238
0.6114766001701355 0.07623792439699173 0.58563226461410522
0.8436395525932312 0.073150232434272766 0.57649862766265869
0.98629176616668701 0.079722657799720764 0.56738632917404175
0.99862390756607056 0.077658683061599731 0.55986064672470093
0.001940499059855938 0.37797996401786804 0.58711773157119751
0.10158770531415939 0.36371773481369019 0.5759422779083252
0.30715233087539673 0.34023720026016235 0.57151830196380615
0.57661163806915283 0.31728640198707581 0.56354355812072754
0.82381337881088257 0.31158888339996338 0.55506771802902222
0.9758116602897644 0.30620813369750977 0.54708397388458252
0.99709290266036987 0.28622579574584961 0.53758132457733154
0.0057776505127549171 0.61028271913528442 0.57099252939224243
0.090893670916557312 0.5898776650428772 0.56282740831375122
0.28423970937728882 0.57921558618545532 0.55524247884750366
0.55051028728485107 0.56238752603530884 0.54734295606613159
0.80674755573272705 0.55007237195968628 0.53635585308074951
0.97805941104888916 0.5399705171585083 0.52655297517776489
0.99997788667678833 0.52654242515563965 0.51799291372299194
0.0074272006750106812 0.83118718862533569 0.55414801836013794
0.076463021337985992 0.81117194890975952 0.54327571392059326
0.25977998971939087 0.80352962017059326 0.53865343332290649
0.52493059635162354 0.7846372127532959 0.53046888113021851
0.78071755170822144 0.77021890878677368 0.51989114284515381
0.96004188060760498 0.76005095243453979 0.51002269983291626
1 0.75454145669937134 0.49786186218261719
0.0019331838702782989 0.99107080698013306 0.53230756521224976
0.061265937983989716 0.98381072282791138 0.51852154731750488
0.23087956011295319 0.97775733470916748 0.51580321788787842
0.49010634422302246 0.97498613595962524 0.50776678323745728
0.74789571762084961 0.96591180562973022 0.49919512867927551
0.93915259838104248 0.95472019910812378 0.49134355783462524
0.99995452165603638 0.95098984241485596 0.47934815287590027
0 1 0.51004117727279663
0.03760102391242981 0.99922096729278564 0.4964388906955719
0.19722126424312592 0.99920344352722168 0.49016544222831726
0.44813793897628784 1 0.48557397723197937
0.7143251895904541 1 0.47500532865524292
0.91834861040115356 0.99989479780197144 0.46895071864128113
1 1 0.46318155527114868
0.013893097639083862 0 0.80380994081497192
0.1471727192401886 0 0.81193482875823975
0.36846661567687988 0 0.80190348625183105
0.64350199699401855 0 0.78589683771133423
0.87157034873962402 0 0.78468376398086548
0.9979255199432373 0 0.78305524587631226
1 0 0.77695649862289429
0.0071397367864847183 0.12204907089471817 0.79675209522247314
0.11986145377159119 0.11291301995515823 0.78958010673522949
0.33203071355819702 0.093257993459701538 0.78399366140365601
0.60648423433303833 0.071080721914768219 0.77246522903442383
0.83908075094223022 0.076190873980522156 0.75925135612487793
0.99057811498641968 0.086862005293369293 0.7422105073928833
0.9988282322883606 0.080045290291309357 0.73784583806991577
0.0025737688411027193 0.36014854907989502 0.77038383483886719
0.0996222123503685 0.34661766886711121 0.7600787878036499
0.30438479781150818 0.32876589894294739 0.76364427804946899
0.5709691047668457 0.30708882212638855 0.7566683292388916
0.81281167268753052 0.30640861392021179 0.73814141750335693
0.97855174541473389 0.30893382430076599 0.72163689136505127
0.99998366832733154 0.28412792086601257 0.71564233303070068
0.0012686336413025856 0.60307258367538452 0.75193756818771362
0.084118649363517761 0.58116638660430908 0.74475598335266113
0.2801474928855896 0.56982910633087158 0.74941879510879517
0.54663950204849243 0.55713307857513428 0.73821979761123657
0.79581636190414429 0.54452276229858398 0.71210163831710815
0.97414553165435791 0.53195828199386597 0.69966429471969604
1 0.51734656095504761 0.69916486740112305
0.002778281457722187 0.8195921778678894 0.73310643434524536
0.071407794952392578 0.79580819606781006 0.72507405281066895
0.2553010880947113 0.79712033271789551 0.72437852621078491
0.52080786228179932 0.79183220863342285 0.71125990152359009
0.77797365188598633 0.77133047580718994 0.69159108400344849
0.95490407943725586 0.74875724315643311 0.68234682083129883
1 0.73940885066986084 0.68045675754547119
3.7698184314649552e-05 0.98467159271240234 0.70730143785476685
0.054345615208148956 0.97837162017822266 0.69219011068344116
0.22816257178783417 0.97322815656661987 0.69145488739013672
0.48618039488792419 0.9744986891746521 0.68336695432662964
0.74762660264968872 0.96540570259094238 0.67278718948364258
0.93238508701324463 0.94961661100387573 0.66379141807556152
0.99980944395065308 0.943919837474823 0.65786600112915039
0 1 0.68768101930618286
0.036235779523849487 0.99746209383010864 0.67301654815673828
0.20051942765712738 0.99999380111694336 0.66781157255172729
0.44847884774208069 1 0.66578233242034912
0.71318131685256958 1 0.65574324131011963
0.9173198938369751 0.99984210729598999 0.64562475681304932
1 1 0.63829636573791504
0.0095733189955353737 8.4013096056878567e-05 0.91616368293762207
0.13886325061321259 0 0.93645656108856201
0.36130347847938538 0 0.93041133880615234
0.63543814420700073 0 0.92641687393188477
0.862740159034729 0 0.92977720499038696
0.99514639377593994 0 0.92338889837265015
1 0 0.92120778560638428
0.0086794830858707428 0.11845529824495316 0.93028360605239868
0.1182321310043335 0.11216019093990326 0.93009603023529053
0.32898646593093872 0.097591802477836609 0.92514675855636597
0.60272693634033203 0.077494770288467407 0.9213365912437439
0.83543479442596436 0.090253300964832306 0.91856306791305542
0.97689896821975708 0.082978703081607819 0.89686298370361328
0.99785912036895752 0.076661035418510437 0.90606135129928589
0.0081200990825891495 0.36192712187767029 0.93115466833114624
0.10039355605840683 0.35125663876533508 0.91609740257263184
0.29831919074058533 0.33457037806510925 0.91239875555038452
0.56840211153030396 0.31347617506980896 0.91150486469268799
0.81118166446685791 0.31003755331039429 0.90342843532562256
0.97019225358963013 0.29895225167274475 0.89588332176208496
1 0.27853083610534668 0.89268285036087036
0.0034785550087690353 0.60251307487487793 0.92039722204208374
0.085708245635032654 0.58532941341400146 0.91309106349945068
0.27161264419555664 0.57260483503341675 0.90674400329589844
0.54256731271743774 0.55758035182952881 0.90463638305664062
0.78946149349212646 0.54380011558532715 0.89133143424987793
0.96665012836456299 0.53130781650543213 0.88074111938476562
1 0.51647293567657471 0.87367594242095947
5.8880974393105134e-05 0.81565839052200317 0.89827173948287964
0.068118810653686523 0.79364550113677979 0.89676064252853394
0.24674259126186371 0.7978176474571228 0.88207519054412842
0.51156681776046753 0.79722219705581665 0.87456786632537842
0.76892328262329102 0.77528661489486694 0.86830681562423706
0.95550858974456787 0.74925130605697632 0.861175537109375
1 0.74449414014816284 0.85473871231079102
0.00011979645205428824 0.98241013288497925 0.88002848625183105
0.057578891515731812 0.97647184133529663 0.88566678762435913
0.22457991540431976 0.97799444198608398 0.86874425411224365
0.47882580757141113 0.98108088970184326 0.85103493928909302
0.7416536808013916 0.96994125843048096 0.84486562013626099
0.93609040975570679 0.94333130121231079 0.84427744150161743
1 0.94098281860351562 0.83709150552749634
0 1 0.86295527219772339
0.045148856937885284 0.99893659353256226 0.86643368005752563
0.20572552084922791 0.99998325109481812 0.85412847995758057
0.44954457879066467 1 0.84195756912231445
0.71254777908325195 1 0.83345359563827515
0.92223262786865234 1 0.82723259925842285
1 1 0.81483274698257446
0.014177494682371616 0 0.9286080002784729
0.14401599764823914 0 0.93478858470916748
0.36199876666069031 0 0.92934572696685791
0.63163334131240845 0 0.93417966365814209
0.85736501216888428 0 0.94103723764419556
0.98913013935089111 0 0.93940329551696777
1 0 0.95603060722351074
0.0047117047943174839 0.10573796182870865 0.93043559789657593
0.11593936383724213 0.1048382893204689 0.92395687103271484
0.3275873064994812 0.092796757817268372 0.91752451658248901
0.60097622871398926 0.084755390882492065 0.92520248889923096
0.8333430290222168 0.096694469451904297 0.92558515071868896
0.9865487813949585 0.079460799694061279 0.91888618469238281
1 0.074699044227600098 0.9541136622428894
0.00066618080018088222 0.35132375359535217 0.93662965297698975
0.095856592059135437 0.34246373176574707 0.92607110738754272
0.29627007246017456 0.32774657011032104 0.92567330598831177
0.55992621183395386 0.31612232327461243 0.93813216686248779
0.80058056116104126 0.3159690797328949 0.94644278287887573
0.97108155488967896 0.29515242576599121 0.9554632306098938
1 0.27705425024032593 0.97547727823257446
6.8933826696593314e-05 0.59543603658676147 0.94296294450759888
0.080527544021606445 0.5841219425201416 0.93281936645507812
0.26691901683807373 0.57162761688232422 0.92690694332122803
0.52705168724060059 0.55929070711135864 0.95033162832260132
0.77548301219940186 0.54581981897354126 0.97748148441314697
0.95539098978042603 0.5281633734703064 0.99087405204772949
1 0.51273709535598755 0.98967814445495605
0 0.81075102090835571 0.93651914596557617
0.062468137592077255 0.80164521932601929 0.92578613758087158
0.24336943030357361 0.80147325992584229 0.92099523544311523
0.49802485108375549 0.79299193620681763 0.9492805004119873
0.75032776594161987 0.77276057004928589 0.98100221157073975
0.93889075517654419 0.75015532970428467 0.9917597770690918
1 0.73959219455718994 0.98801100254058838
0 0.97038096189498901 0.93748348951339722
0.053763087838888168 0.96236163377761841 0.93934065103530884
0.2241397351026535 0.96550238132476807 0.93897718191146851
0.47438892722129822 0.96276646852493286 0.95556545257568359
0.73092520236968994 0.95004713535308838 0.97464239597320557
0.92033559083938599 0.92827963829040527 0.98776412010192871
0.99741584062576294 0.92337340116500854 0.98172128200531006
0 1 0.95464092493057251
0.055979382246732712 0.99958419799804688 0.96759170293807983
0.21625027060508728 0.99756890535354614 0.96669799089431763
0.45069113373756409 0.99809843301773071 0.96705347299575806
0.70044809579849243 1 0.97122454643249512
0.89992183446884155 0.99981099367141724 0.97401624917984009
0.99250304698944092 0.99982261657714844 0.96076673269271851
