assets/lut/others retro.cube
# Created by: G'MIC (https://gmic.eu)
TITLE "retro"
# LUT size
LUT_3D_SIZE 5
# Data domain
DOMAIN_MIN 0.0 0.0 0.0
DOMAIN_MAX 1.0 1.0 1.0
# LUT data points
0.42751917243003845 0.26730060577392578 0.10516621917486191
0.52638280391693115 0.2818903923034668 0.1314549446105957
0.62309902906417847 0.3020818829536438 0.14576241374015808
0.72132772207260132 0.32754004001617432 0.1605919748544693
0.81708633899688721 0.35884848237037659 0.18953803181648254
0.42607954144477844 0.34339255094528198 0.10481462627649307
0.52605372667312622 0.36043497920036316 0.12638524174690247
0.62097024917602539 0.37752118706703186 0.14160338044166565
0.71886259317398071 0.39835426211357117 0.1554720401763916
0.81563597917556763 0.42749130725860596 0.18535742163658142
0.42184948921203613 0.41558659076690674 0.10124778002500534
0.52195942401885986 0.43382176756858826 0.11791595816612244
0.61549085378646851 0.45286273956298828 0.13916303217411041
0.71409386396408081 0.47509470582008362 0.16210407018661499
0.80919593572616577 0.49970635771751404 0.19050827622413635
0.43790808320045471 0.50270754098892212 0.11467865854501724
0.52796220779418945 0.51321351528167725 0.11583491414785385
0.61967474222183228 0.53070318698883057 0.13542601466178894
0.71932947635650635 0.55392640829086304 0.16247725486755371
0.81133830547332764 0.57560646533966064 0.1892741322517395
0.45855295658111572 0.599403977394104 0.14826114475727081
0.53795093297958374 0.60355871915817261 0.13526228070259094
0.62582844495773315 0.61473560333251953 0.14428529143333435
0.72089618444442749 0.63313478231430054 0.16527555882930756
0.81066536903381348 0.65203815698623657 0.18806391954421997
0.45548391342163086 0.29370543360710144 0.20837017893791199
0.5518302321434021 0.30825614929199219 0.22882558405399323
0.64614689350128174 0.32966309785842896 0.24729242920875549
0.74548846483230591 0.35571584105491638 0.26644617319107056
0.84509766101837158 0.37633511424064636 0.2873748242855072
0.4457344114780426 0.36227008700370789 0.20270004868507385
0.54438400268554688 0.38100543618202209 0.22472880780696869
0.64130902290344238 0.40331181883811951 0.24439586699008942
0.74147313833236694 0.42830049991607666 0.26449021697044373
0.84174126386642456 0.45109570026397705 0.2878129780292511
0.44660526514053345 0.43694111704826355 0.19904704391956329
0.54082208871841431 0.45289859175682068 0.21545735001564026
0.63528764247894287 0.47368398308753967 0.23743030428886414
0.73383563756942749 0.49747619032859802 0.26220020651817322
0.83175289630889893 0.5208742618560791 0.28703141212463379
0.46951916813850403 0.528644859790802 0.20777605473995209
0.5549958348274231 0.5342223048210144 0.21120396256446838
0.63989973068237305 0.54860252141952515 0.23267890512943268
0.73479819297790527 0.57069683074951172 0.25891339778900146
0.83024269342422485 0.59433919191360474 0.28395715355873108
0.49156111478805542 0.62741822004318237 0.23328402638435364
0.57128989696502686 0.62857496738433838 0.23795568943023682
0.64899623394012451 0.63184660673141479 0.24354171752929688
0.73859399557113647 0.64865988492965698 0.26121583580970764
0.83099234104156494 0.67163622379302979 0.28312090039253235
0.46465966105461121 0.30143126845359802 0.28878507018089294
0.56350445747375488 0.32004913687705994 0.31196606159210205
0.657481849193573 0.34579947590827942 0.33690935373306274
0.75500762462615967 0.37312215566635132 0.36105480790138245
0.85616320371627808 0.38462677597999573 0.37579217553138733
0.46323153376579285 0.37954595685005188 0.29321885108947754
0.5594598650932312 0.39853125810623169 0.31632247567176819
0.65638476610183716 0.4241776168346405 0.34068578481674194
0.75694465637207031 0.45128226280212402 0.36450469493865967
0.85765701532363892 0.46888789534568787 0.38145089149475098
0.47201982140541077 0.4624345600605011 0.29997420310974121
0.55874979496002197 0.47531437873840332 0.31520703434944153
0.65147709846496582 0.49550223350524902 0.33728525042533875
0.75231587886810303 0.51922613382339478 0.36070072650909424
0.85101670026779175 0.53988480567932129 0.37861311435699463
0.49440941214561462 0.55478912591934204 0.30902093648910522
0.57203406095504761 0.55754727125167847 0.31587627530097961
0.65417027473449707 0.56734293699264526 0.33332982659339905
0.75017458200454712 0.58812415599822998 0.35612431168556213
0.84852653741836548 0.61140245199203491 0.37588465213775635
0.51288646459579468 0.6482354998588562 0.32845398783683777
0.58871448040008545 0.64495635032653809 0.33121713995933533
0.66204261779785156 0.64322257041931152 0.33809924125671387
0.75262904167175293 0.6619458794593811 0.35637474060058594
0.8492659330368042 0.68758195638656616 0.3771359920501709
0.46588870882987976 0.30297276377677917 0.36594107747077942
0.5647396445274353 0.32267510890960693 0.3884836733341217
0.65977895259857178 0.34658285975456238 0.41427260637283325
0.75668615102767944 0.37027266621589661 0.43832093477249146
0.85339641571044922 0.38378411531448364 0.45544701814651489
0.48005959391593933 0.39503508806228638 0.38694310188293457
0.57336187362670898 0.41139641404151917 0.40378895401954651
0.670421302318573 0.43492257595062256 0.42781689763069153
0.77186262607574463 0.46168345212936401 0.45367446541786194
0.86967039108276367 0.48107311129570007 0.47040674090385437
0.49483060836791992 0.48515629768371582 0.40253683924674988
0.57863450050354004 0.49461749196052551 0.40976467728614807
0.67369681596755981 0.51460027694702148 0.43300211429595947
0.77808433771133423 0.54103702306747437 0.46018850803375244
0.8752753734588623 0.56292825937271118 0.47527581453323364
0.51372724771499634 0.57610666751861572 0.40930163860321045
0.59064197540283203 0.57850301265716553 0.41347745060920715
0.67638731002807617 0.59060072898864746 0.43473809957504272
0.77554720640182495 0.61326462030410767 0.4599449634552002
0.87496834993362427 0.63657373189926147 0.47589901089668274
0.53197586536407471 0.66894519329071045 0.42710953950881958
0.60714244842529297 0.66586309671401978 0.42932280898094177
0.68118596076965332 0.66555690765380859 0.43865033984184265
0.77344489097595215 0.68393325805664062 0.45758917927742004
0.87288498878479004 0.70858848094940186 0.47509381175041199
0.46114003658294678 0.30096986889839172 0.44210052490234375
0.56040167808532715 0.32064881920814514 0.46359583735466003
0.65748059749603271 0.34181392192840576 0.48835784196853638
0.75994402170181274 0.36563923954963684 0.51684093475341797
0.85995215177536011 0.38348519802093506 0.54019421339035034
0.48561820387840271 0.40098899602890015 0.47050821781158447
0.58040863275527954 0.41697224974632263 0.48406282067298889
0.68003720045089722 0.43948686122894287 0.50830447673797607
0.78487610816955566 0.46683141589164734 0.53778398036956787
0.88450199365615845 0.48803246021270752 0.55875265598297119
0.50513780117034912 0.49577504396438599 0.48873114585876465
0.59230786561965942 0.50498229265213013 0.49108967185020447
0.69338244199752808 0.5288882851600647 0.52053540945053101
0.79983687400817871 0.55900955200195312 0.5540652871131897
0.89797842502593994 0.58331942558288574 0.57013106346130371
0.52564644813537598 0.59018123149871826 0.50030899047851562
0.60719215869903564 0.59414589405059814 0.50104296207427979
0.70271438360214233 0.61496978998184204 0.53493249416351318
0.80179774761199951 0.64002496004104614 0.56456607580184937
0.8997185230255127 0.66167211532592773 0.57735711336135864
0.54638808965682983 0.68707752227783203 0.52399516105651855
0.62535291910171509 0.68780606985092163 0.5273582935333252
0.70122802257537842 0.69107133150100708 0.53996920585632324
0.7953566312789917 0.70952624082565308 0.56028264760971069
0.89569664001464844 0.73114508390426636 0.57446253299713135
