assets/lut/others rotated.cube
# Created by: G'MIC (https://gmic.eu)
TITLE "rotated"
# LUT size
LUT_3D_SIZE 13
# Data domain
DOMAIN_MIN 0.0 0.0 0.0
DOMAIN_MAX 1.0 1.0 1.0
# LUT data points
0.011783345602452755 0.023298494517803192 0.013148738071322441
0.053042050451040268 0.014496298506855965 0.035593025386333466
0.12270195037126541 0.0084762126207351685 0.093018338084220886
0.20448119938373566 0.005636267364025116 0.172323077917099
0.30126583576202393 0.0027956794947385788 0.2771819531917572
0.38455876708030701 0.00032601450220681727 0.34966567158699036
0.45518326759338379 0.00024512797244824469 0.42831158638000488
0.53332853317260742 0.0019348144996911287 0.50840860605239868
0.62511128187179565 0.00018059225112665445 0.60067880153656006
0.7144324779510498 0 0.68994075059890747
0.81015723943710327 0 0.78271543979644775
0.90881282091140747 0 0.8792576789855957
0.97677016258239746 0 0.94567197561264038
0.012421611696481705 0.080756001174449921 0.010925008915364742
0.059592034667730331 0.058673035353422165 0.016625259071588516
0.13320334255695343 0.015862572938203812 0.023342013359069824
0.20575703680515289 0.010613684542477131 0.070191912353038788
0.29268002510070801 0.0086596766486763954 0.15132138133049011
0.38020521402359009 0.0058468091301620007 0.23088651895523071
0.45526787638664246 0.0049108616076409817 0.3084094226360321
0.53880482912063599 0.0045863729901611805 0.3865090012550354
0.63051819801330566 0.004492785781621933 0.47362515330314636
0.72443670034408569 0.0024014939554035664 0.56475830078125
0.82128942012786865 0.00095795275410637259 0.67544448375701904
0.91132187843322754 0.00023642147425562143 0.75712233781814575
0.98119050264358521 0.00021820068650413305 0.84237968921661377
0.0057555404491722584 0.14590135216712952 0.0025360407307744026
0.058182224631309509 0.11911187320947647 0.0087317973375320435
0.1419776976108551 0.06411278247833252 0.011235794052481651
0.21098649501800537 0.02835388109087944 0.018966659903526306
0.28905323147773743 0.01380621176213026 0.048554275184869766
0.37658557295799255 0.011834955774247646 0.11133455485105515
0.45536863803863525 0.0095139900222420692 0.18412373960018158
0.54212003946304321 0.0077720643021166325 0.24898044764995575
0.63348537683486938 0.0090633770450949669 0.34559744596481323
0.72749090194702148 0.0060038249939680099 0.43445268273353577
0.81664508581161499 0.0028897454030811787 0.51020115613937378
0.91051924228668213 0.00054663862101733685 0.60119009017944336
0.98430413007736206 0.0030244714580476284 0.70028984546661377
0.0087609384208917618 0.22256180644035339 0.0024458493571728468
0.069262005388736725 0.21029475331306458 0.0081307059153914452
0.16156980395317078 0.17667891085147858 0.01884116418659687
0.23252572119235992 0.1278417706489563 0.017521457746624947
0.30118611454963684 0.059985816478729248 0.016603058204054832
0.37595263123512268 0.018525442108511925 0.037197772413492203
0.45341706275939941 0.0094393407925963402 0.068038985133171082
0.54240697622299194 0.0090437792241573334 0.12599439918994904
0.63859879970550537 0.0063825869001448154 0.21766954660415649
0.73491930961608887 0.0046834759414196014 0.29889991879463196
0.82039594650268555 0.0057496465742588043 0.3768022358417511
0.90969741344451904 0.0020387985277920961 0.46041959524154663
0.98208564519882202 0.0024229611735790968 0.54121881723403931
0.0077196457423269749 0.30559933185577393 0.004050819668918848
0.065890610218048096 0.29842469096183777 0.0094650713726878166
0.17569930851459503 0.28224414587020874 0.01870625838637352
0.25632581114768982 0.24909932911396027 0.021082140505313873
0.31916356086730957 0.17953480780124664 0.020083708688616753
0.37972936034202576 0.10646374523639679 0.024405745789408684
0.45554575324058533 0.057274177670478821 0.018101725727319717
0.54761636257171631 0.021824406459927559 0.033614184707403183
0.6388477087020874 0.0075569301843643188 0.074930556118488312
0.72934436798095703 0.0059355045668780804 0.1492595374584198
0.8151208758354187 0.0065268869511783123 0.23349989950656891
0.90724301338195801 0.0046971640549600124 0.30639466643333435
0.97913914918899536 0.0040338854305446148 0.39295792579650879
0.0052340938709676266 0.38512814044952393 0.0047085033729672432
0.056245438754558563 0.38192635774612427 0.0086999181658029556
0.17242738604545593 0.37326833605766296 0.01438033115118742
0.27324214577674866 0.36107727885246277 0.016953201964497566
0.35150861740112305 0.31522700190544128 0.019729703664779663
0.39948982000350952 0.23184764385223389 0.019214389845728874
0.45723643898963928 0.17040339112281799 0.017281940206885338
0.538993239402771 0.1001850813627243 0.017136832699179649
0.64579695463180542 0.030106756836175919 0.023809036239981651
0.73449981212615967 0.010612457990646362 0.045549117028713226
0.82065695524215698 0.008778650313615799 0.098203651607036591
0.9090735912322998 0.010735201649367809 0.1731238067150116
0.97502142190933228 0.010591050609946251 0.2719968855381012
0.010324814356863499 0.45797345042228699 0.0054044085554778576
0.065036728978157043 0.4571496844291687 0.0091931810602545738
0.16558228433132172 0.45983120799064636 0.0077508813701570034
0.27954381704330444 0.45650443434715271 0.015127833001315594
0.40096992254257202 0.44773507118225098 0.021261701360344887
0.46724942326545715 0.38516169786453247 0.024726748466491699
0.49683618545532227 0.30565077066421509 0.024534488096833229
0.54877609014511108 0.2187366783618927 0.025136416777968407
0.64805740118026733 0.13988038897514343 0.027747225016355515
0.73883640766143799 0.069755285978317261 0.016255995258688927
0.83003151416778564 0.022570531815290451 0.024633251130580902
0.91401296854019165 0.012388027273118496 0.074130594730377197
0.97233575582504272 0.0091341054067015648 0.15293240547180176
0.0093854265287518501 0.54028224945068359 0.0040728850290179253
0.058393113315105438 0.54089248180389404 0.0057776356115937233
0.16151255369186401 0.54278832674026489 0.0056729037314653397
0.27105939388275146 0.54438298940658569 0.010884722694754601
0.40464961528778076 0.54207533597946167 0.018422698602080345
0.52203172445297241 0.5191115140914917 0.023637734353542328
0.5487561821937561 0.44234564900398254 0.023387355729937553
0.57870489358901978 0.34821122884750366 0.02327759750187397
0.65034395456314087 0.27288368344306946 0.02935505285859108
0.73308515548706055 0.20621483027935028 0.021865187212824821
0.82588142156600952 0.10897420346736908 0.016566406935453415
0.91651564836502075 0.044392529875040054 0.01677551306784153
0.97325420379638672 0.020447585731744766 0.028934868052601814
0.0097729554399847984 0.63110536336898804 0.0013132132589817047
0.057181593030691147 0.63184624910354614 0.001259343815036118
0.16113832592964172 0.63071674108505249 0.0035268296487629414
0.27108651399612427 0.63544315099716187 0.0088017778471112251
0.39707827568054199 0.63572371006011963 0.010099777951836586
0.52379292249679565 0.62668526172637939 0.0094059361144900322
0.60196655988693237 0.60265171527862549 0.0088205672800540924
0.64324659109115601 0.53052616119384766 0.01514727994799614
0.66797500848770142 0.42617636919021606 0.030461689457297325
0.73530566692352295 0.33549883961677551 0.028689036145806313
0.81929105520248413 0.24600052833557129 0.021751344203948975
0.90528029203414917 0.16531439125537872 0.024351591244339943
0.97415006160736084 0.089799009263515472 0.016199702396988869
0.014925654046237469 0.72421574592590332 0.00012368595344014466
0.06930851936340332 0.72528535127639771 0
0.1694524884223938 0.72544670104980469 0.0012078528525307775
0.28476479649543762 0.73388803005218506 0.0063172285445034504
0.40725234150886536 0.73136425018310547 0.0067469729110598564
0.5147172212600708 0.72521120309829712 0.0066422703675925732
0.61846262216567993 0.72455000877380371 0.010571244172751904
0.71305269002914429 0.69760853052139282 0.016733774915337563
0.73247396945953369 0.59320110082626343 0.029454892501235008
0.7572561502456665 0.48313426971435547 0.030980173498392105
0.82251805067062378 0.39812415838241577 0.031671367585659027
0.909312903881073 0.30863586068153381 0.029908005148172379
0.98418188095092773 0.2190413624048233 0.023355536162853241
0.018001047894358635 0.82259553670883179 7.4678311648312956e-05
0.059698231518268585 0.8303077220916748 0.00036450554034672678
0.1580624133348465 0.82622051239013672 0.0030492446385324001
0.28445261716842651 0.82587718963623047 0.0027469859924167395
0.41164752840995789 0.82238775491714478 0.0033611373510211706
0.52779203653335571 0.8168332576751709 0.0088829193264245987
0.62615013122558594 0.81838202476501465 0.0081723229959607124
0.75137913227081299 0.82054871320724487 0.011573043651878834
0.81565505266189575 0.76472902297973633 0.024041164666414261
0.81980699300765991 0.63355809450149536 0.030744081363081932
0.85712403059005737 0.53448158502578735 0.033777259290218353
0.92002671957015991 0.45218563079833984 0.030320694670081139
0.97939771413803101 0.37355923652648926 0.028020268306136131
0.017367478460073471 0.91213566064834595 0.00066277000587433577
0.066433697938919067 0.92374312877655029 0.0026207119226455688
0.16770303249359131 0.91637527942657471 0.0061025135219097137
0.28130641579627991 0.91336697340011597 0.0042171254754066467
0.39604294300079346 0.91470932960510254 0.003415021812543273
0.54058903455734253 0.90687102079391479 0.010641643777489662
0.65747714042663574 0.90512436628341675 0.010986896231770515
0.76998180150985718 0.91051644086837769 0.01069768238812685
0.87267422676086426 0.89813530445098877 0.018497826531529427
0.9120711088180542 0.82028424739837646 0.026504412293434143
0.92252010107040405 0.71023333072662354 0.03414979949593544
0.94493627548217773 0.60557621717453003 0.03405221551656723
0.97796154022216797 0.50582480430603027 0.037566300481557846
0.018553804606199265 0.97206753492355347 0.00023336971935350448
0.087104097008705139 0.98331671953201294 0.0028198540676385164
0.18002957105636597 0.98424327373504639 0.0054776659235358238
0.27903711795806885 0.97880691289901733 0.0048002353869378567
0.40020698308944702 0.98013567924499512 0.0038193047512322664
0.53967469930648804 0.97902011871337891 0.01148116122931242
0.66264635324478149 0.97186785936355591 0.010990756563842297
0.77963817119598389 0.97322213649749756 0.0074710170738399029
0.89751112461090088 0.97621691226959229 0.012651510536670685
0.97810417413711548 0.96460902690887451 0.016757126897573471
0.979389488697052 0.88289612531661987 0.024492107331752777
0.97910851240158081 0.75926476716995239 0.039304126054048538
0.98631894588470459 0.65279209613800049 0.045041266828775406
0.0073541528545320034 0.019028907641768456 0.055760685354471207
0.043312296271324158 0.027955567464232445 0.066883295774459839
0.11188864707946777 0.025163568556308746 0.12623651325702667
0.18435017764568329 0.015696447342634201 0.19870568811893463
0.2681306004524231 0.0085708023980259895 0.29181686043739319
0.34331658482551575 0.0064644608646631241 0.37286224961280823
0.42607715725898743 0.007066390011459589 0.45437943935394287
0.51020628213882446 0.0072940303944051266 0.53785890340805054
0.59569817781448364 0.0023388583213090897 0.63185060024261475
0.68049073219299316 0.0011777242179960012 0.7183869481086731
0.77672851085662842 0.0027533138636499643 0.80725139379501343
0.88139814138412476 0.0035329333040863276 0.89816474914550781
0.96342021226882935 0.0032000523060560226 0.97125232219696045
0.0090162390843033791 0.077984601259231567 0.021106526255607605
0.052278719842433929 0.068600103259086609 0.047461714595556259
0.12212889641523361 0.049834441393613815 0.092441543936729431
0.19763445854187012 0.035861160606145859 0.1689041405916214
0.28636515140533447 0.031889881938695908 0.26087519526481628
0.36759865283966064 0.027021968737244606 0.34690415859222412
0.44491085410118103 0.021913506090641022 0.42504402995109558
0.53047525882720947 0.022754460573196411 0.5009540319442749
0.62091982364654541 0.018637698143720627 0.59960591793060303
0.72076964378356934 0.0094179790467023849 0.6977003812789917
0.81007468700408936 0.0071627600118517876 0.77991950511932373
0.90115797519683838 0.0052609760314226151 0.86878877878189087
0.97545742988586426 0.0032009049318730831 0.94983339309692383
0.0057473424822092056 0.13963900506496429 0.0064988979138433933
0.053457103669643402 0.13103200495243073 0.030858626589179039
0.13560059666633606 0.1093105673789978 0.057404521852731705
0.20754976570606232 0.071861669421195984 0.094650954008102417
0.28484651446342468 0.049452316015958786 0.15806455910205841
0.36730161309242249 0.044961966574192047 0.24244087934494019
0.44889777898788452 0.036936458200216293 0.3129267692565918
0.54056304693222046 0.030744604766368866 0.37465932965278625
0.63441026210784912 0.033240478485822678 0.48223313689231873
0.73200255632400513 0.025290723890066147 0.58027833700180054
0.81780713796615601 0.016391260549426079 0.65231513977050781
0.90740180015563965 0.012669477611780167 0.7467002272605896
0.9785236120223999 0.0085399998351931572 0.84808266162872314
0.0070602865889668465 0.21175457537174225 0.0045978771522641182
0.055686533451080322 0.20691207051277161 0.022528151050209999
0.14623609185218811 0.19942189753055573 0.050424151122570038
0.22276696562767029 0.1675935685634613 0.065187610685825348
0.29161456227302551 0.096098072826862335 0.074707120656967163
0.36710712313652039 0.057900432497262955 0.12611223757266998
0.44985884428024292 0.047201957553625107 0.17627424001693726
0.54298484325408936 0.043459035456180573 0.24351149797439575
0.63983172178268433 0.035821445286273956 0.34798341989517212
0.73921161890029907 0.024654313921928406 0.43721571564674377
0.82389461994171143 0.025872772559523582 0.51637059450149536
0.90673089027404785 0.023803172633051872 0.59930479526519775
0.98152703046798706 0.012746309861540794 0.67883950471878052
0.0096739074215292931 0.29497295618057251 0.0077098025940358639
0.049920294433832169 0.29098579287528992 0.025597935542464256
0.14516887068748474 0.28890010714530945 0.052739866077899933
0.24390313029289246 0.28121674060821533 0.064380377531051636
0.31353932619094849 0.21635378897190094 0.072499200701713562
0.3764224648475647 0.13757367432117462 0.076221734285354614
0.45521628856658936 0.084691785275936127 0.072375327348709106
0.54680955410003662 0.05668189749121666 0.12079419940710068
0.64222663640975952 0.04413248598575592 0.21127180755138397
0.73581898212432861 0.032348811626434326 0.29496628046035767
0.82010090351104736 0.028586069121956825 0.37567910552024841
0.90755307674407959 0.024590436369180679 0.44655507802963257
0.98292398452758789 0.022041933611035347 0.5340580940246582
0.0097744809463620186 0.38392180204391479 0.010682857595384121
0.0420684814453125 0.37844157218933105 0.028216253966093063
0.14701414108276367 0.37384042143821716 0.039820443838834763
0.26215061545372009 0.36875495314598083 0.052575413137674332
0.35839653015136719 0.34114032983779907 0.071017123758792877
0.40194624662399292 0.26173797249794006 0.069301486015319824
0.45739427208900452 0.19397424161434174 0.065078482031822205
0.54092776775360107 0.12203297019004822 0.066415600478649139
0.63920444250106812 0.07140456885099411 0.10139837861061096
0.73377281427383423 0.04186268150806427 0.1609933078289032
0.81952106952667236 0.035134918987751007 0.23819072544574738
0.90937763452529907 0.033884190022945404 0.3144233226776123
0.97402942180633545 0.038613472133874893 0.40676096081733704
0.010968122631311417 0.45872336626052856 0.012672274373471737
0.03370208665728569 0.45853865146636963 0.020616898313164711
0.14599303901195526 0.46039873361587524 0.029725078493356705
0.26527151465415955 0.45589983463287354 0.053627673536539078
0.38633260130882263 0.44638830423355103 0.072104059159755707
0.45786175131797791 0.3995932936668396 0.075450345873832703
0.48840051889419556 0.33959195017814636 0.078633278608322144
0.54444146156311035 0.2589317262172699 0.081605680286884308
0.64196562767028809 0.17490564286708832 0.085128873586654663
0.73325711488723755 0.096008256077766418 0.074812449514865875
0.82415938377380371 0.055510099977254868 0.11571130156517029
0.91531985998153687 0.047264982014894485 0.1980748176574707
0.97490167617797852 0.042964950203895569 0.28060850501060486
0.01173191424459219 0.54247719049453735 0.010419927537441254
0.026886479929089546 0.54696202278137207 0.011739633977413177
0.1289403885602951 0.54822909832000732 0.02601572684943676
0.25099462270736694 0.54378312826156616 0.052054699510335922
0.38389173150062561 0.53824836015701294 0.066933616995811462
0.49783381819725037 0.52741855382919312 0.073070287704467773
0.53957414627075195 0.47515293955802917 0.072751916944980621
0.57845795154571533 0.38962802290916443 0.079405732452869415
0.64978444576263428 0.30765646696090698 0.089166931807994843
0.72712749242782593 0.2369353175163269 0.077783189713954926
0.81857603788375854 0.14582790434360504 0.068463221192359924
0.90774190425872803 0.085870109498500824 0.090885311365127563
0.97084009647369385 0.05677521601319313 0.13029676675796509
0.013645142316818237 0.63658797740936279 0.0048981313593685627
0.025637203827500343 0.64156240224838257 0.0070876325480639935
0.12313149869441986 0.63727223873138428 0.025858994573354721
0.24509522318840027 0.6371760368347168 0.045466914772987366
0.37722861766815186 0.63642382621765137 0.051127668470144272
0.49740630388259888 0.63108658790588379 0.054114054888486862
0.58343744277954102 0.61283296346664429 0.05733509361743927
0.6398080587387085 0.5444178581237793 0.071559295058250427
0.66690564155578613 0.45200476050376892 0.094740845263004303
0.73261183500289917 0.35773074626922607 0.087857626378536224
0.81830519437789917 0.27750340104103088 0.07572917640209198
0.90688294172286987 0.18824025988578796 0.067829817533493042
0.97549021244049072 0.11934529989957809 0.068836897611618042
0.017966236919164658 0.73117893934249878 0.0030226015951484442
0.032592084258794785 0.7310912013053894 0.0046246247366070747
0.11681026220321655 0.72646909952163696 0.015269634313881397
0.24265894293785095 0.73066514730453491 0.032037053257226944
0.37761229276657104 0.73251312971115112 0.039029739797115326
0.48788714408874512 0.73045593500137329 0.04293283075094223
0.5932125449180603 0.72456502914428711 0.051809601485729218
0.69512152671813965 0.70033150911331177 0.068727843463420868
0.73231279850006104 0.61035138368606567 0.086685508489608765
0.76003271341323853 0.50016051530838013 0.089645549654960632
0.82297545671463013 0.4285145103931427 0.088599339127540588
0.91094624996185303 0.33195239305496216 0.079865582287311554
0.9826664924621582 0.25476729869842529 0.084542185068130493
0.013907249085605145 0.82999402284622192 0.00028801712323911488
0.022815210744738579 0.82662832736968994 0.001800970989279449
0.11232458055019379 0.81971246004104614 0.01284631434828043
0.24368155002593994 0.82367658615112305 0.02443612739443779
0.37842753529548645 0.82755708694458008 0.032190106809139252
0.48101010918617249 0.82111901044845581 0.042206227779388428
0.59212630987167358 0.81836843490600586 0.050747334957122803
0.7208855152130127 0.81506955623626709 0.062162764370441437
0.80576902627944946 0.77358639240264893 0.078076742589473724
0.82359111309051514 0.66975194215774536 0.086177065968513489
0.84981942176818848 0.57515585422515869 0.096227072179317474
0.91836261749267578 0.48877006769180298 0.095574893057346344
0.97872602939605713 0.39238971471786499 0.093722715973854065
0.011796285398304462 0.91980576515197754 0.0019027709495276213
0.021909093484282494 0.91756176948547363 0.0052936780266463757
0.11604920774698257 0.91325908899307251 0.020546259358525276
0.23698708415031433 0.91756993532180786 0.024887878447771072
0.35568809509277344 0.91878390312194824 0.0287349633872509
0.48895210027694702 0.90558278560638428 0.042310737073421478
0.6099732518196106 0.90095669031143188 0.046120766550302505
0.73836088180541992 0.9035029411315918 0.050935123115777969
0.85489898920059204 0.90019994974136353 0.068166919052600861
0.9079088568687439 0.84820449352264404 0.078958712518215179
0.91810840368270874 0.74350178241729736 0.095267400145530701
0.94255101680755615 0.64731639623641968 0.10672203451395035
0.97972410917282104 0.53999197483062744 0.10829014331102371
0.0078546414151787758 0.97710740566253662 0.0013231763150542974
0.022194208577275276 0.9771883487701416 0.002119595417752862
0.11110135167837143 0.9744408130645752 0.015054605901241302
0.23319923877716064 0.97136008739471436 0.022803124040365219
0.35671332478523254 0.97580862045288086 0.0269139613956213
0.50562167167663574 0.97678929567337036 0.038793541491031647
0.62773352861404419 0.97321468591690063 0.043112587183713913
0.74250137805938721 0.97672337293624878 0.048455782234668732
0.86442899703979492 0.98242795467376709 0.056294340640306473
0.94979071617126465 0.96705025434494019 0.066535666584968567
0.97742378711700439 0.9028245210647583 0.078809373080730438
0.98010289669036865 0.79422527551651001 0.10025845468044281
0.99180585145950317 0.68407291173934937 0.11081520467996597
0.010120271705091 0.026766698807477951 0.13064035773277283
0.043617803603410721 0.03936908021569252 0.12622629106044769
0.094704046845436096 0.036937415599822998 0.15426464378833771
0.15094394981861115 0.02367330901324749 0.20224921405315399
0.22711135447025299 0.022513056173920631 0.2803475558757782
0.30379855632781982 0.02425517700612545 0.36834490299224854
0.38563445210456848 0.020944632589817047 0.45153450965881348
0.47177973389625549 0.01889566145837307 0.53494298458099365
0.55893409252166748 0.013060176745057106 0.62991750240325928
0.65076100826263428 0.011804752983152866 0.72431272268295288
0.74530988931655884 0.010633775033056736 0.81363683938980103
0.84715956449508667 0.0085031846538186073 0.89960718154907227
0.93536239862442017 0.0074994256719946861 0.96830719709396362
0.0082189971581101418 0.098920322954654694 0.09522971510887146
0.043682128190994263 0.091833062469959259 0.11128746718168259
0.10526382178068161 0.082968451082706451 0.14671418070793152
0.17781992256641388 0.068544544279575348 0.20383551716804504
0.25557631254196167 0.057548269629478455 0.28088152408599854
0.33566948771476746 0.055060353130102158 0.36638554930686951
0.41829180717468262 0.045999146997928619 0.44640663266181946
0.50329816341400146 0.041567079722881317 0.52269047498703003
0.59308576583862305 0.042728349566459656 0.62754565477371216
0.68804627656936646 0.032701857388019562 0.72373586893081665
0.77807140350341797 0.024308942258358002 0.81450766324996948
0.87526857852935791 0.020659742876887321 0.89678418636322021
0.95691901445388794 0.014025205746293068 0.96838301420211792
0.0084746712818741798 0.14928747713565826 0.02836964838206768
0.048551462590694427 0.14176519215106964 0.066419310867786407
0.12157118320465088 0.13649594783782959 0.11164335161447525
0.19996647536754608 0.12464315444231033 0.17954181134700775
0.28316333889961243 0.10553807020187378 0.26472353935241699
0.36411687731742859 0.095835156738758087 0.3436008095741272
0.44890600442886353 0.083529405295848846 0.41702395677566528
0.54185593128204346 0.076178200542926788 0.50641369819641113
0.63171756267547607 0.083659976720809937 0.60221010446548462
0.72685295343399048 0.07003338634967804 0.69753658771514893
0.81268060207366943 0.05427570641040802 0.78778892755508423
0.90476256608963013 0.048497952520847321 0.87891125679016113
0.98012244701385498 0.046437282115221024 0.95841401815414429
0.0094376504421234131 0.21284149587154388 0.014070548117160797
0.054856814444065094 0.20737540721893311 0.05259978398680687
0.13573877513408661 0.20753903687000275 0.10297275334596634
0.21396325528621674 0.19572645425796509 0.13916826248168945
0.28702381253242493 0.14992848038673401 0.18214316666126251
0.37082844972610474 0.12091612070798874 0.23739379644393921
0.45640486478805542 0.11056831479072571 0.30187883973121643
0.54503411054611206 0.10528802126646042 0.38935652375221252
0.64066988229751587 0.097868017852306366 0.48847246170043945
0.73828667402267456 0.081387780606746674 0.57921648025512695
0.82282882928848267 0.079542763531208038 0.66127383708953857
0.90776097774505615 0.074800528585910797 0.77525132894515991
0.98048287630081177 0.064991086721420288 0.84731024503707886
