assets/lut/others vintage brighter.cube
# Created by: G'MIC (https://gmic.eu)
TITLE "vintage_brighter"
# LUT size
LUT_3D_SIZE 13
# Data domain
DOMAIN_MIN 0.0 0.0 0.0
DOMAIN_MAX 1.0 1.0 1.0
# LUT data points
0 0 0.18483360111713409
0.0038094464689493179 0.00047646317398175597 0.18940629065036774
0.066335223615169525 0.00011765723320422694 0.1881241649389267
0.17364081740379333 0 0.18491023778915405
0.2845815122127533 4.9007641791831702e-05 0.1849018782377243
0.38855201005935669 0.00046790626947768033 0.18608972430229187
0.49080926179885864 1.4002182979311328e-05 0.18615196645259857
0.59629660844802856 0 0.18641009926795959
0.70580494403839111 0 0.18834775686264038
0.81482791900634766 0 0.1894887387752533
0.91874837875366211 0.0001036550456774421 0.18866300582885742
0.99358904361724854 2.7809890525531955e-05 0.18475714325904846
1 0 0.17786890268325806
0 0.0088884839788079262 0.18429221212863922
0.0037809184286743402 0.013829698786139488 0.18714749813079834
0.062983870506286621 0.012596534565091133 0.18620172142982483
0.17387636005878448 0.008316459134221077 0.1841636449098587
0.28816533088684082 0.011727546341717243 0.18541334569454193
0.39172118902206421 0.015777138993144035 0.18660897016525269
0.49150589108467102 0.01135615911334753 0.18631142377853394
0.5956350564956665 0.008405991829931736 0.18646125495433807
0.70461767911911011 0.011015185154974461 0.18861263990402222
0.81227606534957886 0.011915079317986965 0.19000701606273651
0.91407686471939087 0.0064220651984214783 0.18960446119308472
0.99187791347503662 0.0023773941211402416 0.18594054877758026
1 0.0099980225786566734 0.18054328858852386
0.00075845158426091075 0.061070207506418228 0.18350943922996521
0.0031286203302443027 0.065768331289291382 0.1859903484582901
0.055873870849609375 0.066835604608058929 0.18616245687007904
0.16233223676681519 0.065334722399711609 0.18673326075077057
0.28007155656814575 0.068199500441551208 0.18895526230335236
0.38793513178825378 0.070181719958782196 0.18897160887718201
0.49144172668457031 0.068534702062606812 0.18726462125778198
0.59788519144058228 0.068281896412372589 0.18693360686302185
0.7074626088142395 0.072648018598556519 0.18837831914424896
0.81413966417312622 0.074793733656406403 0.18975594639778137
0.91160440444946289 0.06874808669090271 0.18959765136241913
0.98673409223556519 0.061786007136106491 0.18624897301197052
1 0.072888441383838654 0.18182334303855896
0.00075922947144135833 0.15294270217418671 0.18429473042488098
0.0056255566887557507 0.15514357388019562 0.18599288165569305
0.053465511649847031 0.15514297783374786 0.18668092787265778
0.14880496263504028 0.15343813598155975 0.18843522667884827
0.26313188672065735 0.15331409871578217 0.18966084718704224
0.37646359205245972 0.15386645495891571 0.18925382196903229
0.48722738027572632 0.15498475730419159 0.18738676607608795
0.59897089004516602 0.15847845375537872 0.18643200397491455
0.71260392665863037 0.16486331820487976 0.18681085109710693
0.82088899612426758 0.17105892300605774 0.18747715651988983
0.91455703973770142 0.17278194427490234 0.18680155277252197
0.98089265823364258 0.17004258930683136 0.18504607677459717
0.99990665912628174 0.17296701669692993 0.18258839845657349
0.00070711021544411778 0.26546397805213928 0.18545243144035339
0.0045822444371879101 0.26777103543281555 0.18614865839481354
0.048701565712690353 0.2643454372882843 0.18658991158008575
0.13730695843696594 0.25880491733551025 0.18784499168395996
0.24825374782085419 0.25529909133911133 0.18859493732452393
0.36435991525650024 0.25524327158927917 0.18767337501049042
0.48091891407966614 0.2585388720035553 0.1862608939409256
0.59861844778060913 0.26412642002105713 0.18561987578868866
0.71763277053833008 0.27180179953575134 0.18546740710735321
0.82947242259979248 0.27970203757286072 0.18517413735389709
0.92209821939468384 0.28530141711235046 0.18461264669895172
0.97955024242401123 0.2845100462436676 0.18478530645370483
0.99815851449966431 0.28293558955192566 0.18412624299526215
0.00062193028861656785 0.38279670476913452 0.18610645830631256
0.0015691121807321906 0.38531631231307983 0.18615196645259857
0.04350612685084343 0.37974980473518372 0.1861996054649353
0.13219839334487915 0.37102892994880676 0.18682260811328888
0.24181482195854187 0.36569184064865112 0.18690912425518036
0.3586277961730957 0.36583808064460754 0.18614925444126129
0.47693344950675964 0.3705039918422699 0.18507184088230133
0.59818780422210693 0.37718310952186584 0.18429569900035858
0.72102731466293335 0.38387677073478699 0.18457438051700592
0.83705013990402222 0.38937783241271973 0.18529148399829865
0.93093991279602051 0.39267036318778992 0.18650099635124207
0.98537725210189819 0.39216503500938416 0.18759125471115112
0.99885803461074829 0.39067363739013672 0.18671397864818573
0 0.49192893505096436 0.18624803423881531
0.0019425336504355073 0.49402949213981628 0.18615448474884033
0.047019045799970627 0.48925331234931946 0.18615196645259857
0.13664913177490234 0.4821811318397522 0.18617762625217438
0.24604587256908417 0.47733542323112488 0.18615663051605225
0.36190634965896606 0.478456050157547 0.18595923483371735
0.4791472852230072 0.48501956462860107 0.18450962007045746
0.59994477033615112 0.49239373207092285 0.18356214463710785
0.7248578667640686 0.49738019704818726 0.18482564389705658
0.84318125247955322 0.4983820915222168 0.18650712072849274
0.93959891796112061 0.49724730849266052 0.1886371374130249
0.99353814125061035 0.49545648694038391 0.18975983560085297
1 0.49522602558135986 0.18859435617923737
0 0.59398794174194336 0.18585966527462006
0.0021231856662780046 0.59667104482650757 0.18608972430229187
0.053612187504768372 0.59551608562469482 0.18603372573852539
0.14752136170864105 0.59171080589294434 0.18620622158050537
0.25866609811782837 0.5881035327911377 0.18731121718883514
0.37422537803649902 0.58997118473052979 0.18727648258209229
0.48904496431350708 0.59908849000930786 0.1863766610622406
0.6072353720664978 0.60791605710983276 0.18566156923770905
0.72943627834320068 0.61048692464828491 0.18612675368785858
0.84554803371429443 0.60777133703231812 0.18682132661342621
0.93997257947921753 0.6024596095085144 0.18825589120388031
0.99341428279876709 0.59909284114837646 0.1892630010843277
1 0.59955513477325439 0.1883627325296402
0 0.69528007507324219 0.18473170697689056
0.0021418551914393902 0.70224714279174805 0.18488845229148865
0.059805955737829208 0.70508843660354614 0.18509382009506226
0.15968665480613708 0.70353317260742188 0.18621404469013214
0.27344989776611328 0.69982999563217163 0.18845908343791962
0.38894426822662354 0.70126020908355713 0.18976059556007385
0.50035154819488525 0.71334332227706909 0.18974609673023224
0.61458539962768555 0.72353702783584595 0.18924970924854279
0.73224025964736938 0.72490048408508301 0.18850022554397583
0.84367173910140991 0.71805566549301147 0.18736562132835388
0.93271839618682861 0.70874834060668945 0.18640166521072388
0.98555785417556763 0.70384258031845093 0.18660944700241089
0.99952781200408936 0.70398980379104614 0.18651244044303894
0 0.79354065656661987 0.1843610405921936
0.002152551431208849 0.80909514427185059 0.18475796282291412
0.064562104642391205 0.81639295816421509 0.1850113719701767
0.16897940635681152 0.81667822599411011 0.18644244968891144
0.28275510668754578 0.81385523080825806 0.18909239768981934
0.39544808864593506 0.81594169139862061 0.19128754734992981
0.50371354818344116 0.82739496231079102 0.19270242750644684
0.61507433652877808 0.83675342798233032 0.1926916241645813
0.73085147142410278 0.8349643349647522 0.1912408173084259
0.84111732244491577 0.82441806793212891 0.18894091248512268
0.92876249551773071 0.81276160478591919 0.1866048276424408
0.98223006725311279 0.806571364402771 0.18615487217903137
0.99921625852584839 0.80523353815078735 0.18631765246391296
0 0.87874621152877808 0.18542446196079254
0.002207841956987977 0.90231716632843018 0.18665587902069092
0.068647183477878571 0.91487270593643188 0.18671363592147827
0.17590643465518951 0.91813439130783081 0.1871689110994339
0.28719541430473328 0.91765308380126953 0.18873788416385651
0.3944631814956665 0.91937613487243652 0.19135755300521851
0.49885636568069458 0.92795610427856445 0.19365029036998749
0.60780948400497437 0.93520832061767578 0.19435156881809235
0.72534173727035522 0.9291425347328186 0.19354294240474701
0.83957433700561523 0.91615945100784302 0.19135516881942749
0.93226289749145508 0.90631920099258423 0.18948931992053986
0.9882972240447998 0.90055108070373535 0.18887405097484589
0.99997663497924805 0.89580255746841431 0.18821808695793152
0 0.93968713283538818 0.18647964298725128
0.0029269498772919178 0.96338963508605957 0.18957453966140747
0.073616623878479004 0.98029977083206177 0.18946906924247742
0.18114043772220612 0.98769980669021606 0.18793411552906036
0.28933283686637878 0.98866355419158936 0.18769297003746033
0.39178076386451721 0.9880291223526001 0.18955974280834198
0.49261367321014404 0.99042093753814697 0.1916983425617218
0.59960567951202393 0.99377906322479248 0.19321835041046143
0.71913987398147583 0.98737627267837524 0.19309933483600616
0.83754533529281616 0.97832828760147095 0.19241084158420563
0.93637269735336304 0.97342139482498169 0.19152443110942841
0.99415755271911621 0.97041076421737671 0.19118167459964752
1 0.96653127670288086 0.18902453780174255
0 0.97913014888763428 0.18468482792377472
0.00340296421200037 0.99507367610931396 0.19010442495346069
0.076335936784744263 0.99984562397003174 0.19023886322975159
0.18185509741306305 1 0.18791817128658295
0.28739306330680847 1 0.1862606555223465
0.38903400301933289 1 0.18613813817501068
0.49051585793495178 1 0.18635751307010651
0.59826421737670898 1 0.18673712015151978
0.71557152271270752 0.99999064207077026 0.18785592913627625
0.83205628395080566 0.99968492984771729 0.18944250047206879
0.93182379007339478 0.99931508302688599 0.1903887540102005
0.99372017383575439 0.99909138679504395 0.18986871838569641
1 0.99897009134292603 0.18618734180927277
0 0 0.26712790131568909
0.003674481064081192 0 0.27129003405570984
0.063416436314582825 0 0.27100661396980286
0.16452838480472565 0 0.26860776543617249
0.27531862258911133 0 0.26764383912086487
0.38332420587539673 0 0.26801469922065735
0.48917368054389954 0 0.26801469922065735
0.59662932157516479 0 0.26856517791748047
0.70541256666183472 0 0.26950061321258545
0.81265610456466675 0 0.27056190371513367
0.91404849290847778 0 0.26957452297210693
0.99169737100601196 0 0.2665802538394928
1 0 0.26046502590179443
0 0.005407250951975584 0.26693731546401978
0.0032398896291851997 0.0063010570593178272 0.26986464858055115
0.058841824531555176 0.0054803588427603245 0.26937872171401978
0.16150513291358948 0.0043377745896577835 0.26776102185249329
0.2750803530216217 0.0052226348780095577 0.26783639192581177
0.38387659192085266 0.0063354042358696461 0.2684120237827301
0.48894393444061279 0.0054751676507294178 0.26819965243339539
0.59592115879058838 0.0047213085927069187 0.26864278316497803
0.70463716983795166 0.0051842634566128254 0.26988548040390015
0.81037753820419312 0.0046252980828285217 0.2711397111415863
0.9096982479095459 0.0025630875024944544 0.27043810486793518
0.98973113298416138 0.0026244968175888062 0.26814144849777222
1 0.0079858666285872459 0.26357114315032959
0 0.056700389832258224 0.26631772518157959
0.0028186275158077478 0.056829504668712616 0.26840707659721375
0.053658057004213333 0.056578751653432846 0.268728107213974
0.15302678942680359 0.055363912135362625 0.26856446266174316
0.26758116483688354 0.057429399341344833 0.26884225010871887
0.37924385070800781 0.059491850435733795 0.26886925101280212
0.48746979236602783 0.060152031481266022 0.26882714033126831
0.59702843427658081 0.061373047530651093 0.2688153088092804
0.70779991149902344 0.064375922083854675 0.26982089877128601
0.81463956832885742 0.065497048199176788 0.27097052335739136
0.91251617670059204 0.063257165253162384 0.27041742205619812
0.98824787139892578 0.06367696076631546 0.26848259568214417
1 0.073656357824802399 0.26513376832008362
0 0.14442886412143707 0.26638206839561462
0.0030229007825255394 0.14446933567523956 0.26814091205596924
0.050556391477584839 0.14386889338493347 0.26881128549575806
0.14309093356132507 0.14238230884075165 0.26886656880378723
0.25513431429862976 0.14289574325084686 0.26887255907058716
0.36961725354194641 0.14527523517608643 0.26887255907058716
0.48296928405761719 0.14835767447948456 0.26883763074874878
0.59801018238067627 0.15305361151695251 0.26882937550544739
0.71283191442489624 0.15919771790504456 0.26956358551979065
0.82385873794555664 0.16472257673740387 0.270323246717453
0.92111301422119141 0.16807770729064941 0.2702648937702179
0.98896920680999756 0.16966445744037628 0.26911598443984985
1 0.17354817688465118 0.26681876182556152
0 0.25410091876983643 0.26721328496932983
0.0029196795076131821 0.25442373752593994 0.26817184686660767
0.04804045706987381 0.25212210416793823 0.26881128549575806
0.13535374402999878 0.24853789806365967 0.26885741949081421
0.24443364143371582 0.24719697237014771 0.26887255907058716
0.36015546321868896 0.2494371235370636 0.2688538134098053
0.47723355889320374 0.25430178642272949 0.26864749193191528
0.59633606672286987 0.26103177666664124 0.26853194832801819
0.7168116569519043 0.26832404732704163 0.26920351386070251
0.83251780271530151 0.27531996369361877 0.27020660042762756
0.93052947521209717 0.28051188588142395 0.27064996957778931
0.99193435907363892 0.28186184167861938 0.27106150984764099
1 0.28188690543174744 0.26940485835075378
0 0.37024736404418945 0.26816502213478088
0.0023880752269178629 0.37158513069152832 0.26873698830604553
0.046774979680776596 0.36763030290603638 0.26881128549575806
0.1334734708070755 0.36244219541549683 0.26881292462348938
0.24080671370029449 0.36015751957893372 0.26883286237716675
0.35587665438652039 0.36302098631858826 0.26898163557052612
0.4745575487613678 0.36917313933372498 0.26857578754425049
0.59540724754333496 0.3763214647769928 0.26868978142738342
0.71933895349502563 0.38215181231498718 0.26937812566757202
0.83851116895675659 0.38665273785591125 0.27048540115356445
0.93746429681777954 0.38952904939651489 0.27160009741783142
0.99436342716217041 0.38992011547088623 0.27290937304496765
1 0.38959178328514099 0.27145573496818542
0 0.48220038414001465 0.26847249269485474
0.0022419649176299572 0.48376321792602539 0.26879844069480896
0.05024293065071106 0.48079174757003784 0.26868253946304321
0.13934279978275299 0.47656401991844177 0.26889929175376892
0.24694134294986725 0.47488111257553101 0.26937416195869446
0.36111277341842651 0.47941002249717712 0.26977935433387756
0.47774562239646912 0.48704829812049866 0.26950046420097351
0.59861552715301514 0.49389445781707764 0.26950377225875854
0.72325891256332397 0.49770042300224304 0.270050048828125
0.84334474802017212 0.49688240885734558 0.27065423130989075
0.94144910573959351 0.49543851613998413 0.27162104845046997
0.99534696340560913 0.49398514628410339 0.27286955714225769
1 0.49402692914009094 0.27177658677101135
0 0.58898699283599854 0.26778930425643921
0.0021379059180617332 0.59141850471496582 0.26789820194244385
0.056039445102214813 0.59121900796890259 0.26790502667427063
0.15010727941989899 0.59043043851852417 0.26898366212844849
0.25900489091873169 0.59077674150466919 0.27022916078567505
0.37300845980644226 0.5953260064125061 0.27092745900154114
0.48803499341011047 0.60436642169952393 0.27115681767463684
0.60691243410110474 0.61158692836761475 0.27099272608757019
0.72978121042251587 0.61255538463592529 0.27058166265487671
0.84758937358856201 0.60770511627197266 0.27021366357803345
0.94276636838912964 0.60150730609893799 0.26999104022979736
0.99529635906219482 0.59784901142120361 0.27026689052581787
1 0.59868389368057251 0.27002504467964172
0 0.69391012191772461 0.26677900552749634
0.0021379059180617332 0.69897276163101196 0.26653531193733215
0.061259429901838303 0.70238256454467773 0.26689434051513672
0.16084229946136475 0.70582103729248047 0.26898923516273499
0.27210992574691772 0.70660775899887085 0.27121624350547791
0.38559794425964355 0.71127438545227051 0.27293193340301514
0.49893814325332642 0.72060239315032959 0.2737242579460144
0.61547881364822388 0.728046715259552 0.27320194244384766
0.73583304882049561 0.72725093364715576 0.27167394757270813
0.85030937194824219 0.71938693523406982 0.26974624395370483
0.94198721647262573 0.70898771286010742 0.26770204305648804
0.9939085841178894 0.70310139656066895 0.26693505048751831
1 0.70450824499130249 0.26818960905075073
0 0.79570335149765015 0.26679712533950806
0.0022341709118336439 0.80713915824890137 0.26653513312339783
0.065602324903011322 0.81524312496185303 0.26706400513648987
0.1689736545085907 0.82004112005233765 0.26966780424118042
0.28051474690437317 0.82153052091598511 0.27218836545944214
0.39249807596206665 0.82532757520675659 0.27464479207992554
0.50332045555114746 0.83349573612213135 0.27572622895240784
0.61811614036560059 0.83937019109725952 0.27560237050056458
0.73740017414093018 0.8371397852897644 0.27384781837463379
0.85100525617599487 0.82830262184143066 0.27080971002578735
0.94176840782165527 0.817737877368927 0.26781934499740601
0.99333208799362183 0.81157678365707397 0.26632827520370483
1 0.81140285730361938 0.26810434460639954
0 0.8855559229850769 0.26841923594474792
0.0026167626492679119 0.90525883436203003 0.26979991793632507
0.069887332618236542 0.91748142242431641 0.27025002241134644
0.17470777034759521 0.92231756448745728 0.27114108204841614
0.28462046384811401 0.92311638593673706 0.27302706241607666
0.39303898811340332 0.92473632097244263 0.27502730488777161
0.50123649835586548 0.92963212728500366 0.27690041065216064
0.61449044942855835 0.93319463729858398 0.277191162109375
0.73402184247970581 0.92999964952468872 0.27572733163833618
0.84969162940979004 0.92339956760406494 0.27336257696151733
0.9433218240737915 0.91947293281555176 0.27115854620933533
0.99474501609802246 0.91742527484893799 0.27039510011672974
1 0.91266816854476929 0.27062514424324036
0 0.95165455341339111 0.26987096667289734
0.0031030243262648582 0.97446352243423462 0.27301648259162903
0.073933348059654236 0.98696631193161011 0.27356129884719849
0.17859853804111481 0.99079889059066772 0.27274546027183533
0.28621050715446472 0.99093574285507202 0.27275672554969788
0.39114534854888916 0.9897611141204834 0.2739352285861969
0.49673023819923401 0.99010521173477173 0.2751157283782959
0.60843735933303833 0.99006813764572144 0.2756401002407074
0.72819292545318604 0.9882240891456604 0.2752845287322998
0.84522461891174316 0.98756074905395508 0.27465993165969849
0.94171243906021118 0.98959159851074219 0.27402311563491821
0.99489313364028931 0.99087083339691162 0.27382579445838928
1 0.98742592334747314 0.27250862121582031
0 0.99130439758300781 0.26763799786567688
0.0037790783680975437 0.9995582103729248 0.27277228236198425
0.076291792094707489 1 0.27367794513702393
0.17962965369224548 1 0.27227017283439636
0.2850705087184906 1 0.27093976736068726
0.38904651999473572 1 0.27061808109283447
0.49398547410964966 1 0.27002280950546265
0.60462445020675659 1 0.2699887752532959
0.72175389528274536 1 0.27088996767997742
0.83579474687576294 1 0.27224171161651611
0.93075525760650635 1 0.2731054425239563
0.98933506011962891 1 0.27263948321342468
1 1 0.26977622509002686
0 0 0.34612217545509338
0.0047638388350605965 0 0.34999671578407288
0.064883016049861908 0 0.34999999403953552
0.16188728809356689 0 0.34984156489372253
0.27128058671951294 0 0.34729307889938354
0.38115313649177551 0 0.34607842564582825
0.48977270722389221 0 0.34607842564582825
0.59885239601135254 0 0.34648004174232483
0.70787423849105835 0 0.34953349828720093
0.81417608261108398 0 0.3499988317489624
0.91368973255157471 0 0.34908819198608398
0.9913063645362854 0 0.34579873085021973
1 0 0.33973947167396545
0 0.0050795311108231544 0.34655314683914185
0.0029214296955615282 0.0042926715686917305 0.34993600845336914
0.05887439101934433 0.0035851721186190844 0.34997531771659851
0.15721385180950165 0.0029213698580861092 0.3491344153881073
0.26849555969238281 0.0028970607090741396 0.34635207056999207
0.37938365340232849 0.0034567739348858595 0.34607842564582825
0.48852533102035522 0.0035494635812938213 0.34607842564582825
0.5984070897102356 0.0035028494894504547 0.34720313549041748
0.70811128616333008 0.0036249498371034861 0.34998467564582825
0.81454050540924072 0.0032147874590009451 0.34999999403953552
0.91416651010513306 0.0026825848035514355 0.34999915957450867
0.99099791049957275 0.0036524455063045025 0.3480319082736969
1 0.0089448820799589157 0.34349799156188965
0 0.056031964719295502 0.3458963930606842
0.0022989909630268812 0.053299307823181152 0.34836563467979431
0.054172888398170471 0.05249316617846489 0.34950944781303406
0.15027163922786713 0.051485847681760788 0.34774520993232727
0.26156178116798401 0.052416078746318817 0.34607842564582825
0.37424561381340027 0.05489635095000267 0.34607842564582825
0.48586335778236389 0.057586491107940674 0.34607842564582825
0.59807753562927246 0.060814414173364639 0.3479037880897522
0.71043622493743896 0.062732875347137451 0.34998467564582825
0.81915807723999023 0.064272396266460419 0.34999999403953552
0.91847831010818481 0.066053725779056549 0.34999999403953552
0.99142146110534668 0.07066771388053894 0.34851127862930298
1 0.079030431807041168 0.34524276852607727
0 0.14084532856941223 0.34601658582687378
0.0032813576981425285 0.13997301459312439 0.34617924690246582
0.052852001041173935 0.13804835081100464 0.34664139151573181
0.14312277734279633 0.13717545568943024 0.34619629383087158
0.25218385457992554 0.13865980505943298 0.34616070985794067
0.36613920331001282 0.14244766533374786 0.34624817967414856
0.48063668608665466 0.14775684475898743 0.34710517525672913
0.59709906578063965 0.1538456529378891 0.34945908188819885
0.71371549367904663 0.15956056118011475 0.34998995065689087
0.82616251707077026 0.16466648876667023 0.34999999403953552
0.92561095952987671 0.17035864293575287 0.34999999403953552
0.99274545907974243 0.17572136223316193 0.3497454822063446
1 0.17829108238220215 0.3471890389919281
0 0.24701856076717377 0.34607842564582825
0.0034857357386499643 0.24684490263462067 0.34607842564582825
0.052141614258289337 0.24494306743144989 0.34607842564582825
0.13887950778007507 0.24348430335521698 0.34610643982887268
0.24529479444026947 0.24390794336795807 0.34759047627449036
0.35921615362167358 0.24828328192234039 0.34913867712020874
0.4751112163066864 0.25506821274757385 0.34975656867027283
0.59340375661849976 0.26250156760215759 0.3499298095703125
0.71400958299636841 0.26907205581665039 0.34999999403953552
0.83115667104721069 0.27481544017791748 0.35026806592941284
0.93140053749084473 0.27999871969223022 0.35154339671134949
0.99382108449935913 0.28302863240242004 0.35211732983589172
1 0.28353503346443176 0.35018375515937805
0 0.36120548844337463 0.34611108899116516
0.0034715840592980385 0.36209774017333984 0.34725505113601685
0.053808700293302536 0.35995882749557495 0.34766390919685364
0.14051750302314758 0.35872888565063477 0.34805753827095032
0.24511162936687469 0.35890600085258484 0.34951716661453247
0.35696375370025635 0.36348286271095276 0.34991279244422913
0.47177562117576599 0.37074610590934753 0.34997057914733887
0.59048604965209961 0.37739068269729614 0.35024088621139526
0.71277475357055664 0.38234895467758179 0.35107207298278809
0.83327072858810425 0.38554620742797852 0.35208207368850708
0.93401873111724854 0.38775736093521118 0.35358288884162903
0.99364477396011353 0.38866385817527771 0.35392141342163086
1 0.38850706815719604 0.35252851247787476
0 0.47525450587272644 0.3474847674369812
0.0035538317169994116 0.47637972235679626 0.34976279735565186
0.058329682797193527 0.4751775860786438 0.34980276226997375
0.14846956729888916 0.4745604395866394 0.34985962510108948
0.25276464223861694 0.47652256488800049 0.34997165203094482
0.36282309889793396 0.48208272457122803 0.35001444816589355
0.47624367475509644 0.48953166604042053 0.35087540745735168
0.59304332733154297 0.4945356547832489 0.35220739245414734
0.71523445844650269 0.49672988057136536 0.35229861736297607
0.83622926473617554 0.49576908349990845 0.35211724042892456
