assets/lut/others cinematic 03.cube
# Created by: G'MIC (https://gmic.eu)
TITLE "cinematic_03"
# LUT size
LUT_3D_SIZE 13
# Data domain
DOMAIN_MIN 0.0 0.0 0.0
DOMAIN_MAX 1.0 1.0 1.0
# LUT data points
0.063248202204704285 0.068948633968830109 0.063786692917346954
0.079850278794765472 0.070586077868938446 0.067559666931629181
0.13113208115100861 0.070539616048336029 0.069785833358764648
0.19173631072044373 0.072047784924507141 0.07139122486114502
0.25204047560691833 0.079983748495578766 0.071434587240219116
0.31289955973625183 0.096009336411952972 0.069688878953456879
0.36818605661392212 0.11377065628767014 0.066090933978557587
0.41393959522247314 0.12802855670452118 0.065721414983272552
0.45694950222969055 0.14749230444431305 0.067307263612747192
0.50180923938751221 0.17268972098827362 0.069405891001224518
0.54355168342590332 0.19707800447940826 0.070588238537311554
0.57589316368103027 0.21338647603988647 0.068650491535663605
0.60333544015884399 0.22547240555286407 0.066715657711029053
0.061820011585950851 0.067919053137302399 0.068213097751140594
0.078554265201091766 0.070867843925952911 0.070532433688640594
0.14055033028125763 0.074346654117107391 0.071023665368556976
0.20813475549221039 0.08707892894744873 0.072707816958427429
0.27749931812286377 0.1071050763130188 0.071426570415496826
0.3417971134185791 0.1308719664812088 0.068666554987430573
0.39282017946243286 0.14525662362575531 0.066373325884342194
0.43342596292495728 0.15318150818347931 0.067571647465229034
0.46959337592124939 0.16512636840343475 0.068294614553451538
0.50495970249176025 0.17720358073711395 0.069421835243701935
0.54292929172515869 0.19645912945270538 0.070588238537311554
0.57439219951629639 0.21526791155338287 0.070291660726070404
0.60159105062484741 0.23132295906543732 0.069166235625743866
0.064675226807594299 0.080606333911418915 0.070568397641181946
0.072521314024925232 0.088596120476722717 0.070489831268787384
0.1385832279920578 0.099970676004886627 0.068873040378093719
0.22060059010982513 0.11230232566595078 0.069581739604473114
0.29727771878242493 0.13653463125228882 0.070007786154747009
0.3657035231590271 0.16754023730754852 0.06841355562210083
0.42146611213684082 0.18772916495800018 0.0651274174451828
0.46794614195823669 0.20419546961784363 0.067175336182117462
0.50374418497085571 0.21464076638221741 0.06989625096321106
0.52667099237442017 0.20632779598236084 0.070567518472671509
0.55311650037765503 0.20907963812351227 0.070588238537311554
0.57928633689880371 0.22360408306121826 0.071173451840877533
0.60534083843231201 0.24205414950847626 0.072884544730186462
0.068905085325241089 0.10639383643865585 0.070330359041690826
0.07195580005645752 0.1171463280916214 0.070408537983894348
0.12885004281997681 0.14118865132331848 0.068179205060005188
0.22712151706218719 0.1536179780960083 0.067748412489891052
0.31241446733474731 0.16409942507743835 0.070090167224407196
0.38320678472518921 0.19307041168212891 0.068910099565982819
0.44735914468765259 0.22551287710666656 0.066316567361354828
0.50320875644683838 0.2534700334072113 0.071984142065048218
0.54693245887756348 0.27001869678497314 0.07802911102771759
0.57287514209747314 0.26332074403762817 0.077878467738628387
0.58424019813537598 0.24534779787063599 0.074827872216701508
0.59586852788925171 0.24241584539413452 0.074812904000282288
0.61652988195419312 0.25805377960205078 0.07740619033575058
0.064391672611236572 0.13430203497409821 0.068096935749053955
0.059399083256721497 0.14410437643527985 0.071301735937595367
0.11115794628858566 0.17466209828853607 0.0712127685546875
0.23320254683494568 0.21312586963176727 0.071285054087638855
0.33411872386932373 0.21622946858406067 0.07150714099407196
0.40400606393814087 0.22370553016662598 0.065593138337135315
0.46944284439086914 0.25634172558784485 0.067734785377979279
0.52923232316970825 0.28817370533943176 0.079076029360294342
0.58202457427978516 0.31087484955787659 0.089321285486221313
0.62006443738937378 0.31811189651489258 0.090842962265014648
0.62902885675430298 0.29671990871429443 0.086267389357089996
0.62240701913833618 0.27183675765991211 0.082004532217979431
0.62945014238357544 0.26956894993782043 0.081336736679077148
0.060077711939811707 0.1688903272151947 0.071292906999588013
0.048275038599967957 0.17477385699748993 0.073165848851203918
0.091278582811355591 0.20322838425636292 0.073383942246437073
0.22005857527256012 0.25972548127174377 0.075223378837108612
0.34946954250335693 0.28958979249000549 0.079902783036231995
0.42823097109794617 0.27967363595962524 0.071736343204975128
0.48787882924079895 0.28494027256965637 0.069004416465759277
0.54891175031661987 0.31412595510482788 0.082487799227237701
0.60879528522491455 0.34464949369430542 0.095946371555328369
0.65635955333709717 0.36300820112228394 0.10255657881498337
0.67546647787094116 0.35598856210708618 0.10224862396717072
0.66044247150421143 0.31974732875823975 0.095070675015449524
0.64756959676742554 0.28796908259391785 0.087429419159889221
0.064527086913585663 0.20984494686126709 0.074245885014533997
0.051414638757705688 0.21380265057086945 0.073097527027130127
0.07656097412109375 0.23221579194068909 0.072708860039710999
0.18185423314571381 0.28055942058563232 0.073684900999069214
0.33557218313217163 0.34141594171524048 0.089009903371334076
0.45044106245040894 0.36218267679214478 0.10174279659986496
0.51609152555465698 0.34810402989387512 0.09413522481918335
0.57316535711288452 0.35420742630958557 0.095246285200119019
0.63294810056686401 0.37837237119674683 0.10408459603786469
0.68307191133499146 0.39750280976295471 0.110606849193573
0.71150851249694824 0.40588730573654175 0.11386910080909729
0.70595782995223999 0.3828883171081543 0.10913195461034775
0.68471747636795044 0.33727926015853882 0.098969355225563049
0.069960139691829681 0.25087994337081909 0.069261349737644196
0.060664907097816467 0.25708359479904175 0.06850326806306839
0.061486590653657913 0.26299953460693359 0.07006092369556427
0.12845742702484131 0.29368117451667786 0.071089603006839752
0.27562627196311951 0.35822254419326782 0.085733093321323395
0.42866402864456177 0.41663157939910889 0.11758599430322647
0.53779715299606323 0.43475615978240967 0.13179615139961243
0.60849404335021973 0.42786383628845215 0.12727130949497223
0.66399723291397095 0.42500603199005127 0.12108755856752396
0.70605576038360596 0.42944204807281494 0.11808027327060699
0.73622423410415649 0.44250267744064331 0.12060227990150452
0.74494063854217529 0.4416205883026123 0.12112714350223541
0.73351281881332397 0.41094276309013367 0.11524813622236252
0.072225116193294525 0.28922700881958008 0.065507970750331879
0.067955136299133301 0.29883819818496704 0.065917342901229858
0.062932811677455902 0.30299270153045654 0.067917123436927795
0.090575195848941803 0.31684577465057373 0.068834744393825531
0.17227022349834442 0.35370996594429016 0.077039472758769989
0.32069087028503418 0.41830664873123169 0.10530359297990799
0.49089044332504272 0.48018985986709595 0.1430862694978714
0.62096589803695679 0.50544959306716919 0.1603991687297821
0.68907326459884644 0.48858174681663513 0.1467280387878418
0.72437334060668945 0.46781161427497864 0.12775839865207672
0.75116753578186035 0.47447863221168518 0.12726688385009766
0.76702457666397095 0.48314130306243896 0.13118641078472137
0.76899152994155884 0.47376438975334167 0.13001598417758942
0.070973865687847137 0.32586681842803955 0.070119105279445648
0.071618355810642242 0.33815205097198486 0.070685908198356628
0.07072526216506958 0.34482446312904358 0.071018502116203308
0.076282590627670288 0.3489454984664917 0.068997353315353394
0.094583295285701752 0.35706895589828491 0.066559948027133942
0.17170320451259613 0.39047110080718994 0.07360280305147171
0.33550244569778442 0.45831918716430664 0.10887153446674347
0.55319470167160034 0.54073405265808105 0.16358490288257599
0.68667656183242798 0.5578729510307312 0.17177972197532654
0.73769783973693848 0.52631831169128418 0.14363428950309753
0.76420730352401733 0.51853352785110474 0.1385510116815567
0.7807508111000061 0.52225250005722046 0.1399366706609726
0.78883939981460571 0.52141880989074707 0.14059464633464813
0.068058818578720093 0.36003255844116211 0.081681318581104279
0.071186035871505737 0.37227866053581238 0.081713102757930756
0.072794847190380096 0.37921497225761414 0.079355843365192413
0.076031044125556946 0.38233700394630432 0.075895063579082489
0.088685281574726105 0.38807889819145203 0.072093039751052856
0.12366774678230286 0.40185418725013733 0.068462163209915161
0.19615283608436584 0.43208929896354675 0.075463250279426575
0.37629610300064087 0.51009362936019897 0.12286777794361115
0.6100536584854126 0.59039080142974854 0.17632079124450684
0.73549878597259521 0.59862262010574341 0.17609669268131256
0.78692680597305298 0.5822066068649292 0.16235852241516113
0.79189610481262207 0.56209731101989746 0.1456737220287323
0.79766941070556641 0.56121927499771118 0.14625108242034912
0.061908826231956482 0.3895016610622406 0.095816642045974731
0.064562372863292694 0.39857009053230286 0.094051748514175415
0.068197138607501984 0.40452408790588379 0.090392276644706726
0.080729417502880096 0.41183209419250488 0.08795464038848877
0.1074138730764389 0.42378398776054382 0.087535738945007324
0.14212149381637573 0.43649092316627502 0.085137069225311279
0.16841267049312592 0.44428837299346924 0.076940082013607025
0.2334202378988266 0.47440114617347717 0.083965986967086792
0.41236978769302368 0.54893571138381958 0.12879484891891479
0.67003440856933594 0.63476842641830444 0.19293312728404999
0.80640769004821777 0.64554142951965332 0.19863888621330261
0.7984769344329834 0.59765899181365967 0.15377894043922424
0.79817312955856323 0.59096592664718628 0.14748001098632812
0.05485973134636879 0.41607850790023804 0.10839281231164932
0.058443315327167511 0.42311945557594299 0.10636135935783386
0.065205894410610199 0.4291776716709137 0.10276399552822113
0.082875899970531464 0.43860143423080444 0.10047188401222229
0.11252951622009277 0.45133313536643982 0.099553965032100677
0.14644131064414978 0.4634324312210083 0.096558846533298492
0.17828299105167389 0.47425457835197449 0.091060608625411987
0.21576429903507233 0.49063113331794739 0.087633483111858368
0.26157334446907043 0.51548779010772705 0.089140601456165314
0.44965985417366028 0.58889055252075195 0.14063824713230133
0.72662913799285889 0.67124879360198975 0.20919832587242126
0.80961596965789795 0.65736091136932373 0.19245985150337219
0.80721932649612427 0.63301765918731689 0.16655653715133667
0.06562449038028717 0.068709038197994232 0.070619054138660431
0.068452410399913788 0.069517053663730621 0.072620227932929993
0.10852132737636566 0.070548862218856812 0.072871670126914978
0.17259654402732849 0.073039963841438293 0.073840349912643433
0.23631402850151062 0.084822483360767365 0.075500190258026123
0.3042759895324707 0.10603387653827667 0.074243970215320587
0.37139484286308289 0.13024699687957764 0.069316595792770386
0.4259972870349884 0.15052765607833862 0.068075872957706451
0.47212252020835876 0.17094366252422333 0.069384589791297913
0.51647233963012695 0.18931177258491516 0.071797281503677368
0.55638784170150757 0.20715330541133881 0.073057420551776886
0.58632361888885498 0.22071130573749542 0.072450436651706696
0.6113399863243103 0.23112009465694427 0.07115490734577179
0.064687095582485199 0.06779809296131134 0.073692560195922852
0.071345053613185883 0.070913307368755341 0.077374480664730072
0.12590822577476501 0.078217238187789917 0.077697038650512695
0.19856740534305573 0.091493867337703705 0.074189700186252594
0.27144467830657959 0.10846223682165146 0.07132595032453537
0.33825790882110596 0.13305105268955231 0.071627236902713776
0.39496776461601257 0.15250672399997711 0.069833911955356598
0.44204974174499512 0.16486449539661407 0.069650448858737946
0.48246538639068604 0.1812441349029541 0.069835856556892395
0.51979547739028931 0.19124670326709747 0.071687035262584686
0.55626893043518066 0.20615510642528534 0.073070824146270752
0.58344113826751709 0.22063925862312317 0.07339700311422348
0.60709929466247559 0.23403471708297729 0.073095507919788361
0.065154865384101868 0.084233105182647705 0.07700037956237793
0.06679254025220871 0.089741230010986328 0.079985633492469788
0.12860864400863647 0.1037529855966568 0.076737962663173676
0.2162872701883316 0.12242156267166138 0.070398785173892975
0.29643347859382629 0.14302976429462433 0.06713346391916275
0.36708834767341614 0.16978055238723755 0.067868880927562714
0.42345172166824341 0.18894562125205994 0.065100379288196564
0.46944776177406311 0.19947773218154907 0.069534122943878174
0.50491714477539062 0.20752230286598206 0.072948768734931946
0.52997821569442749 0.20068803429603577 0.072979316115379333
0.55846428871154785 0.20738017559051514 0.073361404240131378
0.58321738243103027 0.22191587090492249 0.075427919626235962
0.60744547843933105 0.23959594964981079 0.077498398721218109
0.068515822291374207 0.11306674778461456 0.081390529870986938
0.064103849232196808 0.11957629024982452 0.083201855421066284
0.10549690574407578 0.13787074387073517 0.07870890200138092
0.2101244330406189 0.15745173394680023 0.076440177857875824
0.31070029735565186 0.17494001984596252 0.075205095112323761
0.38760781288146973 0.20266903936862946 0.070726968348026276
0.44943392276763916 0.22997353971004486 0.066642001271247864
0.50239884853363037 0.25069621205329895 0.07480747252702713
0.54287093877792358 0.25968283414840698 0.082499638199806213
0.56707906723022461 0.24834926426410675 0.082114458084106445
0.58163821697235107 0.23472918570041656 0.079474791884422302
0.5952562689781189 0.23551702499389648 0.079911068081855774
0.61743021011352539 0.25367045402526855 0.082111760973930359
0.066111184656620026 0.14316141605377197 0.085266798734664917
0.056749112904071808 0.150933638215065 0.089061260223388672
0.091871492564678192 0.17207270860671997 0.086768239736557007
0.20426067709922791 0.20534695684909821 0.086551189422607422
0.32391512393951416 0.22476617991924286 0.084363512694835663
0.4050004780292511 0.23525983095169067 0.073764890432357788
0.47004455327987671 0.26205772161483765 0.072122611105442047
0.53039920330047607 0.29269853234291077 0.084414340555667877
0.58235621452331543 0.31410548090934753 0.096421726047992706
0.61982721090316772 0.31583681702613831 0.098042353987693787
0.62882727384567261 0.29189878702163696 0.092902116477489471
0.62117487192153931 0.26691547036170959 0.087491847574710846
0.6332818865776062 0.27073615789413452 0.086268000304698944
0.063488572835922241 0.1791374534368515 0.093548715114593506
0.053251422941684723 0.18294014036655426 0.09479832649230957
0.087465949356555939 0.20283123850822449 0.092211149632930756
0.19608592987060547 0.25036334991455078 0.092525243759155273
0.32760846614837646 0.28839004039764404 0.095953233540058136
0.41976431012153625 0.28493222594261169 0.086237110197544098
0.48971760272979736 0.29502749443054199 0.083050087094306946
0.55267387628555298 0.32405659556388855 0.092145912349224091
0.61252433061599731 0.35352048277854919 0.10564112663269043
0.66126871109008789 0.3675084114074707 0.11224064230918884
0.67592954635620117 0.35328394174575806 0.10883244872093201
0.65494269132614136 0.31051754951477051 0.098391123116016388
0.64631384611129761 0.28345468640327454 0.090440042316913605
0.066850639879703522 0.21801435947418213 0.097424104809761047
0.057433798909187317 0.21962329745292664 0.095236502587795258
0.078444205224514008 0.23171773552894592 0.090835407376289368
0.16493320465087891 0.27333763241767883 0.087737470865249634
0.30349412560462952 0.33235457539558411 0.10309681296348572
0.43276450037956238 0.36560153961181641 0.12299822270870209
0.51532882452011108 0.36019077897071838 0.11495159566402435
0.57403993606567383 0.36122196912765503 0.10509607940912247
0.63428562879562378 0.38362935185432434 0.11221536248922348
0.68719065189361572 0.4014115035533905 0.11999970674514771
0.71423983573913574 0.40610185265541077 0.12115146219730377
0.7046428918838501 0.37815144658088684 0.11308088153600693
0.68227183818817139 0.32918035984039307 0.10176316648721695
0.072421476244926453 0.25629067420959473 0.090619347989559174
0.066864341497421265 0.26124733686447144 0.088574230670928955
0.070464596152305603 0.26589655876159668 0.085565023124217987
0.12510132789611816 0.29301708936691284 0.081646636128425598
0.24993200600147247 0.35301345586776733 0.097625553607940674
0.40778025984764099 0.41650742292404175 0.13352224230766296
0.52900600433349609 0.43673554062843323 0.14570149779319763
0.6022568941116333 0.42598828673362732 0.13232618570327759
0.65789830684661865 0.42238080501556396 0.1237548366189003
0.70600080490112305 0.43005448579788208 0.12372828274965286
0.74037235975265503 0.44642940163612366 0.12805142998695374
0.74965542554855347 0.44443479180335999 0.12779329717159271
0.73614245653152466 0.40917548537254333 0.12071727961301804
0.073801867663860321 0.29120084643363953 0.082572802901268005
0.073261037468910217 0.301592618227005 0.082916587591171265
0.07162291556596756 0.3075958788394928 0.080783665180206299
0.096005097031593323 0.32179024815559387 0.077025018632411957
0.16821207106113434 0.35698103904724121 0.083336144685745239
0.30082786083221436 0.41384604573249817 0.10949134081602097
0.47485482692718506 0.47688895463943481 0.14866745471954346
0.61604791879653931 0.50546801090240479 0.16565869748592377
0.68392890691757202 0.48703005909919739 0.14924782514572144
0.72412014007568359 0.46970191597938538 0.13342100381851196
0.75528454780578613 0.47943395376205444 0.13467356562614441
0.77269524335861206 0.48898160457611084 0.13896067440509796
0.77401846647262573 0.4768679141998291 0.13781046867370605
0.073218688368797302 0.32716575264930725 0.085759073495864868
0.074828743934631348 0.33991628885269165 0.085013806819915771
0.077396214008331299 0.34986048936843872 0.081436693668365479
0.085190683603286743 0.35770711302757263 0.075180172920227051
0.10078189522027969 0.36602982878684998 0.069947980344295502
0.15619504451751709 0.38913643360137939 0.075286865234375
0.31587859988212585 0.45548298954963684 0.11399850249290466
0.53693455457687378 0.53947752714157104 0.16778130829334259
0.68237698078155518 0.56054419279098511 0.17719012498855591
0.73915833234786987 0.53229343891143799 0.15203191339969635
0.7664414644241333 0.52411669492721558 0.14404430985450745
0.78472721576690674 0.52819442749023438 0.14681731164455414
0.79288119077682495 0.5248292088508606 0.14809761941432953
0.070845708250999451 0.36280640959739685 0.098922386765480042
0.073812477290630341 0.37469974160194397 0.096576869487762451
0.077401556074619293 0.38403677940368652 0.090019896626472473
0.083536766469478607 0.39107012748718262 0.083376459777355194
0.091510578989982605 0.39572861790657043 0.07855718582868576
0.11013823747634888 0.40175673365592957 0.074463099241256714
0.16983936727046967 0.42546743154525757 0.081124968826770782
0.34687882661819458 0.5013468861579895 0.12455002963542938
0.60153877735137939 0.59110450744628906 0.17995348572731018
0.73731458187103271 0.60484820604324341 0.18281623721122742
0.78277301788330078 0.58474183082580566 0.16440927982330322
0.79332679510116577 0.5667763352394104 0.15158934891223907
0.79932087659835815 0.56207209825515747 0.15173287689685822
0.066310733556747437 0.3940587043762207 0.1146046370267868
0.068319790065288544 0.40284740924835205 0.11097613722085953
0.071730323135852814 0.40914270281791687 0.10371418297290802
0.084812343120574951 0.41839569807052612 0.099454768002033234
0.10732196271419525 0.42958512902259827 0.098746247589588165
0.13253910839557648 0.43757307529449463 0.095501527190208435
0.15784740447998047 0.44362899661064148 0.088524565100669861
0.22493399679660797 0.47334551811218262 0.094180211424827576
0.40623623132705688 0.54842323064804077 0.13520173728466034
0.6617695689201355 0.63354325294494629 0.19431732594966888
0.79571843147277832 0.64124894142150879 0.19455499947071075
0.79930537939071655 0.60049176216125488 0.15803512930870056
0.799061119556427 0.59180402755737305 0.15201002359390259
0.061060529202222824 0.4219205379486084 0.12803733348846436
0.063327133655548096 0.42856526374816895 0.12486976385116577
0.069050043821334839 0.43429774045944214 0.11873731762170792
0.085166826844215393 0.44378897547721863 0.11504951864480972
0.11074753105640411 0.45539167523384094 0.1126445084810257
0.14135310053825378 0.46566808223724365 0.10859990119934082
0.17410440742969513 0.47658845782279968 0.10385541617870331
0.20778420567512512 0.49131673574447632 0.098004423081874847
0.25784492492675781 0.51616257429122925 0.098837621510028839
0.43763577938079834 0.58671683073043823 0.14569307863712311
0.73413074016571045 0.67683416604995728 0.21667385101318359
0.81043893098831177 0.65841454267501831 0.19515237212181091
0.80761998891830444 0.63356214761734009 0.16988357901573181
0.069410435855388641 0.067015752196311951 0.100371353328228
0.065132066607475281 0.067513681948184967 0.10143746435642242
0.087576143443584442 0.071655616164207458 0.098923824727535248
0.14589397609233856 0.075521029531955719 0.096071548759937286
0.20896065235137939 0.091110855340957642 0.097919285297393799
0.28446188569068909 0.11778049916028976 0.098257862031459808
0.36493605375289917 0.14752373099327087 0.093909472227096558
0.43063673377037048 0.17426051199436188 0.093108534812927246
0.48393464088439941 0.19568523764610291 0.092646472156047821
0.53069001436233521 0.20922556519508362 0.09055723249912262
0.57055497169494629 0.22098547220230103 0.088947296142578125
0.59991532564163208 0.23133595287799835 0.085351087152957916
0.62273919582366943 0.23981903493404388 0.080992832779884338
0.070341192185878754 0.067960880696773529 0.098291151225566864
0.065077014267444611 0.073869548738002777 0.10662604123353958
0.095568083226680756 0.084692768752574921 0.10974004119634628
0.16898384690284729 0.09625205397605896 0.10399094969034195
0.24548062682151794 0.1146356612443924 0.099410831928253174
0.31876543164253235 0.14315184950828552 0.10127937793731689
0.3879285454750061 0.16867221891880035 0.09973251074552536
0.44719585776329041 0.18828067183494568 0.097407922148704529
0.49653792381286621 0.20698127150535583 0.094859115779399872
0.53944283723831177 0.21676768362522125 0.092153973877429962
0.57524281740188599 0.22600296139717102 0.089712642133235931
0.59873467683792114 0.23360888659954071 0.085697188973426819
0.61700785160064697 0.24182650446891785 0.081463910639286041
0.070529639720916748 0.084464021027088165 0.099463053047657013
0.064096830785274506 0.093991465866565704 0.11045249551534653
0.10242181271314621 0.11081254482269287 0.11975060403347015
0.19103646278381348 0.13202808797359467 0.11482033878564835
0.28070774674415588 0.15196751058101654 0.10135786980390549
0.35800516605377197 0.17625609040260315 0.098035909235477448
0.42072433233261108 0.19783242046833038 0.093927733600139618
0.47295421361923218 0.21082153916358948 0.095842115581035614
0.51521927118301392 0.2211461067199707 0.09563109278678894
0.54929029941558838 0.22301077842712402 0.09140632301568985
0.57809925079345703 0.22718615829944611 0.087653383612632751
0.59691262245178223 0.23282666504383087 0.086478278040885925
0.61565637588500977 0.24312300980091095 0.085139796137809753
0.073339544236660004 0.11865786463022232 0.11031034588813782
0.066335387527942657 0.12778204679489136 0.11791983246803284
0.085314959287643433 0.14192453026771545 0.12181182205677032
0.1842474639415741 0.16565625369548798 0.12347804009914398
0.30171197652816772 0.18866543471813202 0.11467254906892776
0.38820156455039978 0.21238012611865997 0.10236680507659912
0.45169636607170105 0.23599702119827271 0.094707563519477844
0.50542867183685303 0.25297814607620239 0.098205909132957458
0.54664474725723267 0.26234188675880432 0.10065172612667084
0.57343596220016479 0.25243625044822693 0.096246875822544098
0.58756744861602783 0.23630110919475555 0.090866371989250183
0.60141193866729736 0.23579859733581543 0.088638633489608765
0.62356913089752197 0.25174471735954285 0.087954774498939514
0.070705965161323547 0.15838693082332611 0.12623810768127441
0.061943564563989639 0.16492484509944916 0.1293749064207077
