assets/lut/others sunny alt.cube
# Created by: G'MIC (https://gmic.eu)
TITLE "sunny_alt"
# LUT size
LUT_3D_SIZE 7
# Data domain
DOMAIN_MIN 0.0 0.0 0.0
DOMAIN_MAX 1.0 1.0 1.0
# LUT data points
0.22090359032154083 0.030882352963089943 0.03333466500043869
0.28291347622871399 0.034568965435028076 0.03244921937584877
0.36849454045295715 0.034282416105270386 0.034202799201011658
0.48301804065704346 0.030882352963089943 0.034878600388765335
0.6216881275177002 0.030882352963089943 0.032552815973758698
0.78339171409606934 0.030882352963089943 0.030922025442123413
0.95353037118911743 0.031630095094442368 0.032444555312395096
0.21729782223701477 0.18745838105678558 0.034007351845502853
0.28091856837272644 0.18659009039402008 0.032937157899141312
0.36943051218986511 0.18319791555404663 0.032406825572252274
0.48563915491104126 0.18139553070068359 0.032535180449485779
0.62494409084320068 0.18261700868606567 0.032319236546754837
0.78419047594070435 0.18517938256263733 0.030882352963089943
0.95110231637954712 0.18921568989753723 0.031712371855974197
0.21965427696704865 0.3438841700553894 0.033210784196853638
0.285043865442276 0.34013310074806213 0.032874342054128647
0.37337660789489746 0.33578431606292725 0.032751239836215973
0.48873588442802429 0.33570423722267151 0.034514348953962326
0.62722355127334595 0.33701637387275696 0.034803923219442368
0.78451424837112427 0.33629986643791199 0.034803681075572968
0.95215499401092529 0.34052267670631409 0.034556280821561813
0.22289285063743591 0.50579941272735596 0.035312652587890625
0.28956794738769531 0.50078493356704712 0.035190042108297348
0.37328022718429565 0.49669826030731201 0.035531211644411087
0.48550510406494141 0.49900099635124207 0.036328781396150589
0.62545371055603027 0.49953949451446533 0.035881489515304565
0.78439891338348389 0.49784210324287415 0.037639155983924866
0.95414763689041138 0.4978485107421875 0.037349969148635864
0.22364488244056702 0.65668076276779175 0.036292806267738342
0.2906150221824646 0.6544269323348999 0.035329196602106094
0.37258827686309814 0.65233373641967773 0.03497517853975296
0.48246338963508606 0.65443092584609985 0.034868545830249786
0.625 0.65279430150985718 0.035173483192920685
0.78407859802246094 0.6514514684677124 0.038558047264814377
0.95038396120071411 0.65094596147537231 0.039409831166267395
0.22079798579216003 0.76460552215576172 0.034904271364212036
0.28726840019226074 0.76650625467300415 0.034769695252180099
0.37138062715530396 0.76487904787063599 0.033522140234708786
0.48199060559272766 0.76739269495010376 0.032476447522640228
0.62368237972259521 0.76289451122283936 0.033789929002523422
0.78503072261810303 0.76295769214630127 0.035861954092979431
0.95230573415756226 0.76800143718719482 0.036596380174160004
0.22482943534851074 0.82240772247314453 0.034123841673135757
0.28928697109222412 0.82221734523773193 0.033576592803001404
0.37303012609481812 0.81973040103912354 0.032887179404497147
0.48301881551742554 0.820900559425354 0.032190375030040741
0.62453514337539673 0.82094931602478027 0.030882352963089943
0.78592371940612793 0.82268798351287842 0.033247344195842743
0.95041799545288086 0.8233637809753418 0.035288147628307343
0.22287321090698242 0.030860811471939087 0.19164271652698517
0.28338342905044556 0.029711270704865456 0.1918756365776062
0.36682847142219543 0.030882352963089943 0.19153638184070587
0.48408988118171692 0.030882352963089943 0.18910786509513855
0.62302678823471069 0.030882352963089943 0.18834331631660461
0.78572171926498413 0.030882352963089943 0.18707025051116943
0.95301401615142822 0.032821100205183029 0.18912141025066376
0.22122655808925629 0.18337120115756989 0.19313725829124451
0.28466019034385681 0.18012997508049011 0.19291704893112183
0.36869964003562927 0.18317057192325592 0.18921568989753723
0.48332676291465759 0.18546122312545776 0.18791644275188446
0.62317168712615967 0.1856217235326767 0.18592844903469086
0.78564465045928955 0.18529412150382996 0.18382284045219421
0.95349240303039551 0.18717287480831146 0.18815687298774719
0.22094297409057617 0.34153971076011658 0.19313725829124451
0.28624039888381958 0.33677405118942261 0.19313725829124451
0.3717329204082489 0.33581876754760742 0.19217245280742645
0.48438963294029236 0.33987525105476379 0.19000248610973358
0.62159353494644165 0.34361979365348816 0.18900972604751587
0.78275191783905029 0.33818304538726807 0.18861253559589386
0.95590269565582275 0.33824774622917175 0.19266597926616669
0.22175244987010956 0.50400400161743164 0.19313725829124451
0.28877666592597961 0.50030350685119629 0.19496959447860718
0.37240162491798401 0.4980238676071167 0.19381830096244812
0.48398789763450623 0.50107955932617188 0.19300590455532074
0.62220591306686401 0.50108164548873901 0.19172832369804382
0.78257864713668823 0.49737057089805603 0.19231024384498596
0.95654934644699097 0.49726203083992004 0.19486811757087708
0.22100801765918732 0.65520638227462769 0.19296962022781372
0.28879955410957336 0.65545898675918579 0.19313725829124451
0.37269523739814758 0.65467661619186401 0.19313725829124451
0.48240736126899719 0.65626215934753418 0.19192765653133392
0.62266236543655396 0.65439033508300781 0.19068752229213715
0.78409940004348755 0.65169823169708252 0.19320383667945862
0.95386838912963867 0.65143221616744995 0.19330804049968719
0.21798938512802124 0.76567059755325317 0.1907985508441925
0.28524059057235718 0.7664526104927063 0.19251328706741333
0.37014344334602356 0.7667427659034729 0.19217036664485931
0.48052603006362915 0.76957571506500244 0.18922735750675201
0.62109637260437012 0.76609772443771362 0.18874672055244446
0.78512495756149292 0.76369071006774902 0.19253411889076233
0.95464229583740234 0.76279574632644653 0.19206872582435608
0.21832290291786194 0.82651656866073608 0.18455883860588074
0.28483074903488159 0.82005095481872559 0.18822988867759705
0.36996844410896301 0.81893420219421387 0.18882116675376892
0.48225316405296326 0.82255393266677856 0.18728187680244446
0.62278574705123901 0.82365196943283081 0.18580697476863861
0.78512263298034668 0.82358068227767944 0.1892821341753006
0.95432865619659424 0.82122302055358887 0.18884563446044922
0.2241421639919281 0.030224069952964783 0.3285929262638092
0.28570747375488281 0.028762204572558403 0.32865166664123535
0.36829519271850586 0.031171850860118866 0.32837551832199097
0.48517525196075439 0.031789083033800125 0.32592889666557312
0.62512660026550293 0.030882352963089943 0.32576131820678711
0.78753060102462769 0.030793312937021255 0.32648769021034241
0.95463556051254272 0.030882352963089943 0.32646435499191284
0.22431808710098267 0.18017210066318512 0.33121579885482788
0.28755885362625122 0.17745098471641541 0.32902732491493225
0.37089318037033081 0.18398655951023102 0.32669413089752197
0.48532867431640625 0.18738760054111481 0.32483664155006409
0.62669187784194946 0.18412639200687408 0.32432597875595093
0.78932356834411621 0.18137255311012268 0.32433578372001648
0.95938557386398315 0.18140405416488647 0.32789760828018188
0.22390791773796082 0.33585450053215027 0.33206391334533691
0.28933218121528625 0.33367535471916199 0.33218717575073242
0.37361571192741394 0.33578622341156006 0.32978072762489319
0.48584112524986267 0.33960500359535217 0.32841071486473083
0.62520593404769897 0.33767232298851013 0.32733845710754395
0.78541821241378784 0.33578431606292725 0.32515096664428711
0.95709913969039917 0.33578431606292725 0.32828876376152039
0.22270207107067108 0.49710571765899658 0.33284017443656921
0.2899814248085022 0.49695295095443726 0.33362892270088196
0.37444454431533813 0.49692806601524353 0.33226558566093445
0.4866582453250885 0.4975992739200592 0.33129572868347168
0.62580186128616333 0.49596035480499268 0.33050495386123657
0.78423404693603516 0.49538359045982361 0.32828450202941895
0.95461606979370117 0.49607843160629272 0.3282475471496582
0.22131332755088806 0.65004760026931763 0.33166640996932983
0.29023587703704834 0.65235245227813721 0.33425244688987732
0.37566152215003967 0.6524854302406311 0.33238071203231812
0.48627111315727234 0.65175038576126099 0.33094078302383423
0.62543952465057373 0.65123140811920166 0.32933151721954346
0.78504902124404907 0.6503676176071167 0.33020460605621338
0.95428919792175293 0.65034741163253784 0.3269931972026825
0.2198202908039093 0.76479744911193848 0.32968190312385559
0.28873056173324585 0.76635760068893433 0.33282384276390076
0.37446421384811401 0.76915538311004639 0.33204030990600586
0.48519501090049744 0.76572650671005249 0.3292381763458252
0.625 0.7655637264251709 0.32827001810073853
0.78508156538009644 0.76404768228530884 0.33152467012405396
0.95440053939819336 0.7608298659324646 0.32862913608551025
0.21803002059459686 0.82741087675094604 0.31912767887115479
0.2864450216293335 0.82150673866271973 0.32324326038360596
0.3739507794380188 0.82284837961196899 0.32514294981956482
0.48629727959632874 0.82073092460632324 0.32375878095626831
0.62550348043441772 0.82365196943283081 0.3252142071723938
0.78560549020767212 0.8236505389213562 0.33002099394798279
0.95434451103210449 0.8195996880531311 0.33079612255096436
0.22469113767147064 0.030869428068399429 0.43411815166473389
0.28608220815658569 0.029975935816764832 0.43320471048355103
0.36633017659187317 0.030882352963089943 0.43214818835258484
0.48237577080726624 0.030882352963089943 0.43224379420280457
0.62371551990509033 0.030333096161484718 0.43328911066055298
0.78214877843856812 0.030036792159080505 0.43371567130088806
0.9541391134262085 0.030882352963089943 0.43389010429382324
0.22767524421215057 0.1800130158662796 0.4360310435295105
0.29068952798843384 0.17796498537063599 0.43551987409591675
0.37167924642562866 0.1812848299741745 0.4353635311126709
0.48479169607162476 0.18385213613510132 0.43397364020347595
0.62814509868621826 0.18137255311012268 0.43296569585800171
0.78882086277008057 0.18109989166259766 0.43350017070770264
0.95919597148895264 0.18137255311012268 0.43727093935012817
0.22703790664672852 0.33191096782684326 0.43652153015136719
0.29293331503868103 0.33308863639831543 0.43763265013694763
0.37401959300041199 0.33572289347648621 0.4351356029510498
0.48584124445915222 0.33709478378295898 0.43419447541236877
0.62580543756484985 0.33724218606948853 0.43426564335823059
0.78682863712310791 0.33830824494361877 0.43299385905265808
0.96051657199859619 0.33873081207275391 0.43428173661231995
0.22519482672214508 0.49332985281944275 0.43772414326667786
0.29264813661575317 0.49519863724708557 0.43826696276664734
0.37412738800048828 0.49529120326042175 0.43464156985282898
0.48694929480552673 0.49623399972915649 0.4348771870136261
0.628273606300354 0.49635499715805054 0.43780738115310669
0.78540831804275513 0.49983668327331543 0.43507066369056702
0.95687389373779297 0.49946579337120056 0.43416684865951538
0.22464185953140259 0.65002882480621338 0.43740424513816833
0.29264345765113831 0.65020930767059326 0.43922325968742371
0.37515217065811157 0.64974981546401978 0.43761071562767029
0.48709136247634888 0.64899402856826782 0.43724086880683899
0.62667167186737061 0.65103352069854736 0.43805146217346191
0.78413796424865723 0.65259891748428345 0.43805146217346191
0.95330810546875 0.64968645572662354 0.43742832541465759
0.22217270731925964 0.76525419950485229 0.4364871084690094
0.2896440327167511 0.76552987098693848 0.44125056266784668
0.37270474433898926 0.76676476001739502 0.43862652778625488
0.48449715971946716 0.7647741436958313 0.43705806136131287
0.62502270936965942 0.76583576202392578 0.43795183300971985
0.78335297107696533 0.76556140184402466 0.43884414434432983
0.9529339075088501 0.76254504919052124 0.43541634082794189
0.22122523188591003 0.82757580280303955 0.42747285962104797
0.28949776291847229 0.82365196943283081 0.43434447050094604
0.37335097789764404 0.82365196943283081 0.43189948797225952
0.48552030324935913 0.82326191663742065 0.42998555302619934
0.62612628936767578 0.82365661859512329 0.43272697925567627
0.78515136241912842 0.82365196943283081 0.4371601939201355
0.95398950576782227 0.82012009620666504 0.43529516458511353
0.22446355223655701 0.030882352963089943 0.50147587060928345
0.28376546502113342 0.030882352963089943 0.50224596261978149
0.36665812134742737 0.030882352963089943 0.50117570161819458
0.48346987366676331 0.030882352963089943 0.50143557786941528
0.62513023614883423 0.030607694759964943 0.50119590759277344
0.78438407182693481 0.029600391164422035 0.50137811899185181
0.9545554518699646 0.030882352963089943 0.50465893745422363
0.22827042639255524 0.18201807141304016 0.50311094522476196
0.29288294911384583 0.18384808301925659 0.50593972206115723
0.37212443351745605 0.18524421751499176 0.50427234172821045
0.48362994194030762 0.18529412150382996 0.50369536876678467
0.62500715255737305 0.18362841010093689 0.50249773263931274
0.78510242700576782 0.18159469962120056 0.50280952453613281
0.95683330297470093 0.18336474895477295 0.50770539045333862
0.22738589346408844 0.33578431606292725 0.50217139720916748
0.2942802906036377 0.33677524328231812 0.50514757633209229
0.37321993708610535 0.34037578105926514 0.50199121236801147
0.48351716995239258 0.34317502379417419 0.5013498067855835
0.62220090627670288 0.34363719820976257 0.5020332932472229
0.78288203477859497 0.34381827712059021 0.50272047519683838
0.95731490850448608 0.34201851487159729 0.5057716965675354
0.22567401826381683 0.49505159258842468 0.50241553783416748
0.29269945621490479 0.49632483720779419 0.50429409742355347
0.37373006343841553 0.49789348244667053 0.5006784200668335
0.48554268479347229 0.50074207782745361 0.50047594308853149
0.62498444318771362 0.50328946113586426 0.50268995761871338
0.78336787223815918 0.50560027360916138 0.50459235906600952
0.9546130895614624 0.50283080339431763 0.50586616992950439
0.22509860992431641 0.65169370174407959 0.50264173746109009
0.29062670469284058 0.65121036767959595 0.5050511360168457
0.37344768643379211 0.65059685707092285 0.50232994556427002
0.48677173256874084 0.65176588296890259 0.50213623046875
0.62551039457321167 0.65439069271087646 0.50491833686828613
0.78194558620452881 0.65564835071563721 0.50644379854202271
0.95043408870697021 0.65316188335418701 0.50692582130432129
0.22090251743793488 0.76548242568969727 0.50115293264389038
0.28627714514732361 0.76535898447036743 0.5059436559677124
0.36745646595954895 0.76548421382904053 0.50394135713577271
0.48219597339630127 0.76513975858688354 0.50279372930526733
0.625 0.76431477069854736 0.5046735405921936
0.78192830085754395 0.76552873849868774 0.5059436559677124
0.95269608497619629 0.76617527008056641 0.50216662883758545
0.2201153039932251 0.82736492156982422 0.49589258432388306
0.28712785243988037 0.82366830110549927 0.50298988819122314
0.36814215779304504 0.8203926682472229 0.49967941641807556
0.48232758045196533 0.81973040103912354 0.49771082401275635
0.62571781873703003 0.81973040103912354 0.50003939867019653
0.78555679321289062 0.81979870796203613 0.50428241491317749
0.95428919792175293 0.82081800699234009 0.50281155109405518
0.21795767545700073 0.030877295881509781 0.53649502992630005
0.28255018591880798 0.030892405658960342 0.53839790821075439
0.36825981736183167 0.030882352963089943 0.53774374723434448
0.48553839325904846 0.030882352963089943 0.53890573978424072
0.62704098224639893 0.030865836888551712 0.53782421350479126
0.78587949275970459 0.029671179130673409 0.53582984209060669
0.95315772294998169 0.030882352963089943 0.54047673940658569
0.21975380182266235 0.18674007058143616 0.53729057312011719
0.28649386763572693 0.18556301295757294 0.54005950689315796
0.36960974335670471 0.1833583265542984 0.54011136293411255
0.48644784092903137 0.18170540034770966 0.54288393259048462
0.62872850894927979 0.18137255311012268 0.54235637187957764
0.78504902124404907 0.18117281794548035 0.53836119174957275
0.95417666435241699 0.18141183257102966 0.54096966981887817
0.2215324193239212 0.33974233269691467 0.53781414031982422
0.28914755582809448 0.33970588445663452 0.54015541076660156
0.37124043703079224 0.33969053626060486 0.53993630409240723
0.48517689108848572 0.34034773707389832 0.54027992486953735
0.62576699256896973 0.34116128087043762 0.54024213552474976
0.78472745418548584 0.34124583005905151 0.53924119472503662
0.95664095878601074 0.33938196301460266 0.54118996858596802
0.22445562481880188 0.49838972091674805 0.54031622409820557
0.29091879725456238 0.49901768565177917 0.54077440500259399
0.37284970283508301 0.49977704882621765 0.53857725858688354
0.48552119731903076 0.50217175483703613 0.53647410869598389
0.625 0.50399291515350342 0.53704047203063965
0.783641517162323 0.50467830896377563 0.53856068849563599
0.95634722709655762 0.50149679183959961 0.54094827175140381
0.22493475675582886 0.6543651819229126 0.54017931222915649
0.29010084271430969 0.65545177459716797 0.5397762656211853
0.37388035655021667 0.65578144788742065 0.53712195158004761
0.48743873834609985 0.65656405687332153 0.53637182712554932
0.62563073635101318 0.65464323759078979 0.5370214581489563
0.78209167718887329 0.65389519929885864 0.53848040103912354
0.95374017953872681 0.65338999032974243 0.53977459669113159
0.22007974982261658 0.76734453439712524 0.53737431764602661
0.28538942337036133 0.76964777708053589 0.53926104307174683
0.36938551068305969 0.76875209808349609 0.5384671688079834
0.48513138294219971 0.76887524127960205 0.53847318887710571
0.62712907791137695 0.76372236013412476 0.53714984655380249
0.78453695774078369 0.76429468393325806 0.53842592239379883
0.95294225215911865 0.76604253053665161 0.53802025318145752
0.21891079843044281 0.82876157760620117 0.53378307819366455
0.28478008508682251 0.82813513278961182 0.53716135025024414
0.36702120304107666 0.82280617952346802 0.53559035062789917
0.48269426822662354 0.82348954677581787 0.53426909446716309
0.62892156839370728 0.82320374250411987 0.53424763679504395
0.78781980276107788 0.82530218362808228 0.53765499591827393
0.95453894138336182 0.82790994644165039 0.53743880987167358
0.21243520081043243 0.026666529476642609 0.55638569593429565
0.28470069169998169 0.030768584460020065 0.55742740631103516
0.36901670694351196 0.030882352963089943 0.55580407381057739
0.48450836539268494 0.030882352963089943 0.55661314725875854
0.62424182891845703 0.030882352963089943 0.5562625527381897
0.78129726648330688 0.03044109046459198 0.55542111396789551
0.94866091012954712 0.028196072205901146 0.55803543329238892
0.2123015969991684 0.18329997360706329 0.55979198217391968
0.28142789006233215 0.18522410094738007 0.56004512310028076
0.36854547262191772 0.18137255311012268 0.55975359678268433
0.48762989044189453 0.18137255311012268 0.56286615133285522
0.62944388389587402 0.18137255311012268 0.56253921985626221
0.78416436910629272 0.18137255311012268 0.55879896879196167
0.95159822702407837 0.17929011583328247 0.56036758422851562
0.2152184396982193 0.3377564549446106 0.56138080358505249
0.28486940264701843 0.33969810605049133 0.56111747026443481
0.36930948495864868 0.33708798885345459 0.55984950065612793
0.48622041940689087 0.33700165152549744 0.56045258045196533
0.62801533937454224 0.33762416243553162 0.55877596139907837
0.78504902124404907 0.33735445141792297 0.55772799253463745
0.95548462867736816 0.33407509326934814 0.56002533435821533
0.22045880556106567 0.49245092272758484 0.56397056579589844
0.28903007507324219 0.49785143136978149 0.56100642681121826
0.37173545360565186 0.50038552284240723 0.55677086114883423
0.48550471663475037 0.50096678733825684 0.55485337972640991
0.62509799003601074 0.50004118680953979 0.55313950777053833
0.7846684455871582 0.49856400489807129 0.55544251203536987
0.95532488822937012 0.49385753273963928 0.5590701699256897
0.22259218990802765 0.64127850532531738 0.56397056579589844
0.29070159792900085 0.651347815990448 0.55936592817306519
0.37473595142364502 0.65518593788146973 0.55421304702758789
0.48907136917114258 0.65411198139190674 0.55429303646087646
0.62791121006011963 0.64966720342636108 0.5541001558303833
0.78450018167495728 0.64613425731658936 0.55543631315231323
0.95428919792175293 0.64359802007675171 0.55761617422103882
0.22227326035499573 0.75315588712692261 0.56393557786941528
0.29017341136932373 0.76517552137374878 0.56078475713729858
0.37348508834838867 0.76454168558120728 0.55666947364807129
0.48800504207611084 0.76317161321640015 0.55651605129241943
0.62902116775512695 0.75832456350326538 0.55533087253570557
0.78624653816223145 0.75732523202896118 0.55625718832015991
0.95428919792175293 0.75745898485183716 0.55703991651535034
0.22447860240936279 0.81841164827346802 0.56174623966217041
0.29036495089530945 0.82576566934585571 0.56077384948730469
0.37073591351509094 0.82058346271514893 0.55622106790542603
0.48484987020492554 0.8185240626335144 0.55410027503967285
0.63010746240615845 0.8213801383972168 0.55410569906234741
0.78940778970718384 0.82493919134140015 0.55661708116531372
0.95544922351837158 0.82561576366424561 0.55645900964736938
