assets/lut/others extreme.cube
# Created by: G'MIC (https://gmic.eu)
TITLE "extreme"
# LUT size
LUT_3D_SIZE 5
# Data domain
DOMAIN_MIN 0.0 0.0 0.0
DOMAIN_MAX 1.0 1.0 1.0
# LUT data points
0.0039215688593685627 0.0085753193125128746 0.055003896355628967
0.13334634900093079 0.0040659136138856411 0.075872339308261871
0.49455699324607849 0.0061572357080876827 0.053506635129451752
0.71329659223556519 0.010648615658283234 0.1037851944565773
0.94401603937149048 0.0054116044193506241 0.064749985933303833
0.00027088838396593928 0.13982908427715302 0.065425679087638855
0.11185335367918015 0.12657523155212402 0.059276655316352844
0.50228303670883179 0.12448151409626007 0.068981513381004333
0.72420269250869751 0.12285801023244858 0.065394625067710876
0.94575327634811401 0.10676576197147369 0.056982286274433136
0.0019427879014983773 0.48752734065055847 0.058517277240753174
0.13510538637638092 0.48760873079299927 0.070481091737747192
0.49465298652648926 0.48878094553947449 0.061715546995401382
0.72529202699661255 0.47679513692855835 0.064343199133872986
0.9478258490562439 0.48041513562202454 0.070473797619342804
0.0050901523791253567 0.72572827339172363 0.068864248692989349
0.13375204801559448 0.71921038627624512 0.067825958132743835
0.50038063526153564 0.72434967756271362 0.057736862450838089
0.72118479013442993 0.72582429647445679 0.071846425533294678
0.94872242212295532 0.73945403099060059 0.064175009727478027
0.0029054379556328058 0.94853430986404419 0.079572446644306183
0.11835552752017975 0.92914086580276489 0.061678927391767502
0.49219986796379089 0.94639354944229126 0.061294198036193848
0.72437912225723267 0.95523160696029663 0.0680060014128685
0.93939554691314697 0.94066756963729858 0.059598121792078018
0.0041402033530175686 0.0091184275224804878 0.44745257496833801
0.1261105090379715 0.0059164459817111492 0.45415997505187988
0.4883439838886261 0.0032695096451789141 0.46684625744819641
0.71824389696121216 0.0070185493677854538 0.45983198285102844
0.95066136121749878 0.0075543271377682686 0.46140196919441223
0.0039287791587412357 0.15207231044769287 0.45532780885696411
0.13600526750087738 0.12452363967895508 0.45528662204742432
0.49213260412216187 0.11841487139463425 0.44895043969154358
0.71913349628448486 0.12470267713069916 0.45902693271636963
0.94847911596298218 0.1230158805847168 0.4499436616897583
0.0024225572124123573 0.48346239328384399 0.47707760334014893
0.1346333920955658 0.48947504162788391 0.45330318808555603
0.48833838105201721 0.48844701051712036 0.44992300868034363
0.72887730598449707 0.48625439405441284 0.44897046685218811
0.94185107946395874 0.48801299929618835 0.4502767026424408
0.00054613000247627497 0.72509193420410156 0.4726264476776123
0.11807641386985779 0.72498738765716553 0.46074166893959045
0.4888419508934021 0.72729825973510742 0.44358879327774048
0.72759157419204712 0.72333097457885742 0.47241693735122681
0.94134801626205444 0.73100310564041138 0.45528045296669006
0.0030989851802587509 0.95550417900085449 0.46763664484024048
0.11366626620292664 0.9486348032951355 0.45187649130821228
0.49242246150970459 0.93118870258331299 0.46069270372390747
0.71616619825363159 0.93442487716674805 0.4556286633014679
0.95527631044387817 0.95121645927429199 0.46033260226249695
0.0026459188666194677 0.0017926533473655581 0.10313034057617188
0.1139235720038414 0.0035975887440145016 0.11213121563196182
0.49261406064033508 0.0026396806351840496 0.10834215581417084
0.7221912145614624 0.0026299869641661644 0.11088689416646957
0.94789034128189087 0.0025108486879616976 0.12523815035820007
0.0015306061832234263 0.10891471058130264 0.11292275786399841
0.1071617603302002 0.11370813846588135 0.13238571584224701
0.49321416020393372 0.11447677761316299 0.1433337926864624
0.72342348098754883 0.11022163927555084 0.13329580426216125
0.94271355867385864 0.11664775758981705 0.12893792986869812
0.00077317183604463935 0.48501947522163391 0.16023215651512146
0.1146056056022644 0.48715311288833618 0.10568735748529434
0.49001109600067139 0.48378652334213257 0.13648302853107452
0.73109036684036255 0.48927977681159973 0.10181645303964615
0.95207828283309937 0.48226940631866455 0.12812952697277069
0.00086725270375609398 0.73241579532623291 0.10919002443552017
0.11046823114156723 0.73055148124694824 0.11784346401691437
0.48995175957679749 0.72367405891418457 0.13764688372612
0.72154098749160767 0.72855937480926514 0.11889259517192841
0.94697672128677368 0.73164075613021851 0.12662151455879211
0.00042735080933198333 0.95530766248703003 0.11310826987028122
0.11342810839414597 0.95107555389404297 0.1276182234287262
0.48569190502166748 0.95483052730560303 0.12989011406898499
0.72316759824752808 0.95073765516281128 0.14757193624973297
0.94964599609375 0.95380514860153198 0.12519742548465729
0.0033256979659199715 0.0065612043254077435 0.91845327615737915
0.12022006511688232 0.0044950000010430813 0.90786945819854736
0.49635547399520874 0.0045404918491840363 0.90618467330932617
0.73242294788360596 0.0034008999355137348 0.91418361663818359
0.95215052366256714 0.0044211591593921185 0.94143277406692505
0.0019230562029406428 0.12187858670949936 0.91708803176879883
0.11877331882715225 0.12885765731334686 0.92070865631103516
0.49823394417762756 0.11912725120782852 0.90350580215454102
0.7287784218788147 0.11780890822410583 0.9310373067855835
0.93117713928222656 0.12509049475193024 0.91015136241912842
0.00073680502828210592 0.4705793559551239 0.9197881817817688
0.11485984921455383 0.47933667898178101 0.90002554655075073
0.48534318804740906 0.48549044132232666 0.91410499811172485
0.72751528024673462 0.482688307762146 0.92025589942932129
0.94583421945571899 0.48555120825767517 0.92702454328536987
0.00070262234658002853 0.72383254766464233 0.92145270109176636
0.12759341299533844 0.72893339395523071 0.9255988597869873
0.48847711086273193 0.72510230541229248 0.89493829011917114
0.72387367486953735 0.7319328784942627 0.91625314950942993
0.95225191116333008 0.72523707151412964 0.9141547679901123
0.00071779137942939997 0.95376193523406982 0.9163396954536438
0.12653195858001709 0.95408958196640015 0.91941726207733154
0.48502627015113831 0.94256424903869629 0.90124762058258057
0.71780252456665039 0.9515349268913269 0.92676323652267456
0.944865882396698 0.9502905011177063 0.91762769222259521
0.00055326573783531785 0.0055710738524794579 0.86865633726119995
0.11907495558261871 0.0038241217844188213 0.88336652517318726
0.49427720904350281 0.0041864281520247459 0.87568122148513794
0.7260555624961853 0.0020506614819169044 0.88867431879043579
0.9532051682472229 0.0045448453165590763 0.89814621210098267
0.0038599201943725348 0.11540572345256805 0.88044005632400513
0.11566802114248276 0.11119202524423599 0.87306350469589233
0.49532979726791382 0.11668897420167923 0.85416489839553833
0.72706735134124756 0.11733066290616989 0.85433715581893921
0.94258707761764526 0.11091284453868866 0.85368573665618896
0.0012845058226957917 0.47824516892433167 0.87513500452041626
0.11423248797655106 0.48153302073478699 0.87870496511459351
0.49718627333641052 0.4853578507900238 0.86438572406768799
0.72352117300033569 0.48627260327339172 0.87218767404556274
0.95588654279708862 0.47823339700698853 0.88093936443328857
0.0032681932207196951 0.73343592882156372 0.86705702543258667
0.12185615301132202 0.72829663753509521 0.85921239852905273
0.48580825328826904 0.72852736711502075 0.87318885326385498
0.72090959548950195 0.73104864358901978 0.86730587482452393
0.94871503114700317 0.72270190715789795 0.87717700004577637
0.0015622008359059691 0.94502383470535278 0.88186299800872803
0.11370852589607239 0.95297515392303467 0.87363332509994507
0.4984702467918396 0.94703102111816406 0.88634473085403442
0.7262994647026062 0.94879651069641113 0.85672378540039062
0.94603449106216431 0.94797182083129883 0.87614887952804565
