assets/lut/others rotate vibrant.cube
# Created by: G'MIC (https://gmic.eu)
TITLE "rotate_vibrant"
# LUT size
LUT_3D_SIZE 5
# Data domain
DOMAIN_MIN 0.0 0.0 0.0
DOMAIN_MAX 1.0 1.0 1.0
# LUT data points
0.029937729239463806 0.039736445993185043 0.035994064062833786
0.0054999259300529957 0.16742764413356781 0.23232389986515045
0.0016499238554388285 0.34229245781898499 0.42084798216819763
0 0.55304419994354248 0.62127530574798584
0.014554984867572784 0.74219310283660889 0.80753463506698608
0.013102453202009201 0.11372146755456924 0.14059692621231079
0.23670876026153564 0.21159754693508148 0.046522386372089386
0.38023769855499268 0.018439767882227898 0.41203022003173828
0.20080342888832092 0.029830588027834892 0.65380346775054932
0.065248571336269379 0.10412891209125519 0.84543716907501221
0.0061976863071322441 0.22874270379543304 0.25084033608436584
0.053508341312408447 0.37448593974113464 0.044335115700960159
0.47446563839912415 0.43915316462516785 0.04742412269115448
0.68292301893234253 0.031966894865036011 0.27739030122756958
0.81746625900268555 0.028693689033389091 0.84837031364440918
0.0039487951435148716 0.3399016261100769 0.36641445755958557
0.015189451165497303 0.48782798647880554 0.19587425887584686
0.22609862685203552 0.61092239618301392 0.0240199975669384
0.69803202152252197 0.6618119478225708 0.039256434887647629
0.92171353101730347 0.098094090819358826 0.091594696044921875
0.0063598784618079662 0.45880722999572754 0.47742614150047302
0.021571693941950798 0.60379517078399658 0.31696143746376038
0.044896382838487625 0.71410322189331055 0.05326080322265625
0.43912979960441589 0.83394724130630493 0.033513028174638748
0.93576610088348389 0.89969712495803833 0.037630792707204819
0.078062646090984344 0.25555509328842163 0.23549598455429077
0.02358296699821949 0.23270267248153687 0.24052059650421143
0.0021519230213016272 0.36285331845283508 0.36231955885887146
0.009263940155506134 0.56793713569641113 0.56981188058853149
0.023866390809416771 0.74372422695159912 0.74439483880996704
0.23692020773887634 0.20210175216197968 0.094370327889919281
0.20117183029651642 0.24415931105613708 0.26467075943946838
0.067216925323009491 0.3589150607585907 0.45054110884666443
0.10001505166292191 0.57035619020462036 0.65049797296524048
0.20943447947502136 0.77588903903961182 0.84266787767410278
0.33685162663459778 0.058048892766237259 0.34004819393157959
0.1100301668047905 0.31164532899856567 0.33442747592926025
0.46157249808311462 0.42897364497184753 0.2497415691614151
0.61321341991424561 0.19574327766895294 0.62915831804275513
0.44703021645545959 0.25531229376792908 0.87928491830825806
0.18980896472930908 0.05651237815618515 0.49209138751029968
0.066820688545703888 0.41011250019073486 0.43838793039321899
0.23094086349010468 0.59961533546447754 0.23768483102321625
0.69825464487075806 0.64875960350036621 0.25744974613189697
0.91598856449127197 0.26131373643875122 0.46608105301856995
0.075155280530452728 0.084236770868301392 0.59904080629348755
0.12052399665117264 0.53580069541931152 0.55085402727127075
0.21234406530857086 0.71438097953796387 0.36926096677780151
0.46104276180267334 0.83316123485565186 0.23901309072971344
0.94250977039337158 0.90223550796508789 0.2608952522277832
0.11254563927650452 0.48831209540367126 0.4347350001335144
0.063447557389736176 0.40529716014862061 0.40802192687988281
0.0071249720640480518 0.32834267616271973 0.32380008697509766
0.010450908914208412 0.52032136917114258 0.52000850439071655
0.028831258416175842 0.70155036449432373 0.70388144254684448
0.15526972711086273 0.49581983685493469 0.16341233253479004
0.27661982178688049 0.48835614323616028 0.46401780843734741
0.10067538172006607 0.43001171946525574 0.431783527135849
0.12978383898735046 0.59008288383483887 0.60176759958267212
0.21684493124485016 0.78301715850830078 0.79287075996398926
0.46976357698440552 0.45421686768531799 0.14339418709278107
0.4744030237197876 0.43314063549041748 0.31291818618774414
0.44565817713737488 0.48691755533218384 0.50385934114456177
0.4127669632434845 0.6279563307762146 0.68820440769195557
0.45744505524635315 0.80180376768112183 0.87789297103881836
0.5985226035118103 0.10756352543830872 0.30726754665374756
0.55616217851638794 0.23150895535945892 0.56773829460144043
0.41465747356414795 0.56828707456588745 0.57451128959655762
0.70478624105453491 0.66682976484298706 0.48992946743965149
0.8682476282119751 0.49417221546173096 0.86286860704421997
0.6778939962387085 0.089474953711032867 0.68026232719421387
0.41711136698722839 0.25104436278343201 0.71577912569046021
0.40625572204589844 0.65012127161026001 0.67488092184066772
0.507945716381073 0.8279184103012085 0.48926067352294922
0.93678539991378784 0.90190845727920532 0.4980626106262207
0.1648983508348465 0.71532827615737915 0.67689996957778931
0.11922034621238708 0.6491093635559082 0.64663863182067871
0.066691681742668152 0.548564612865448 0.54935961961746216
0.0093699134886264801 0.47152978181838989 0.4711003303527832
0.025071073323488235 0.64614897966384888 0.64641267061233521
0.18385019898414612 0.73220741748809814 0.36601743102073669
0.32595682144165039 0.72840017080307007 0.6959415078163147
0.22726355493068695 0.63849705457687378 0.6406170129776001
0.077908381819725037 0.54349231719970703 0.54168921709060669
0.17803581058979034 0.72106528282165527 0.7189289927482605
0.35159140825271606 0.73294919729232788 0.1872984766960144
0.40056142210960388 0.72096675634384155 0.38469353318214417
0.50920772552490234 0.72237646579742432 0.69423627853393555
0.39517670869827271 0.65006744861602783 0.64915496110916138
0.45630139112472534 0.82164996862411499 0.82703316211700439
0.70785653591156006 0.6687970757484436 0.17943692207336426
0.7052384614944458 0.66020089387893677 0.34604743123054504
0.70750069618225098 0.68070119619369507 0.54361885786056519
0.70339959859848022 0.73276591300964355 0.73654550313949585
0.70428574085235596 0.85291427373886108 0.90608501434326172
0.83386409282684326 0.18979856371879578 0.19296860694885254
0.83557212352752686 0.32282403111457825 0.50267493724822998
0.79483526945114136 0.52079987525939941 0.78488975763320923
0.70124620199203491 0.78455400466918945 0.81338310241699219
0.9469064474105835 0.90217286348342896 0.73619168996810913
0.21562068164348602 0.94762986898422241 0.92127507925033569
0.16776810586452484 0.85824352502822876 0.85346972942352295
0.10224872827529907 0.7559809684753418 0.75791901350021362
0.054638493806123734 0.68623226881027222 0.68758881092071533
0.011299537494778633 0.59823662042617798 0.59592270851135254
0.22184199094772339 0.93203151226043701 0.56421846151351929
0.38181257247924805 0.94770306348800659 0.91855794191360474
0.31676837801933289 0.8587106466293335 0.86415231227874756
0.24876327812671661 0.77011895179748535 0.7773318886756897
0.13376082479953766 0.66059893369674683 0.65968352556228638
0.25582048296928406 0.9450727105140686 0.25109055638313293
0.41411849856376648 0.94517290592193604 0.59336847066879272
0.56814533472061157 0.94499129056930542 0.91164320707321167
0.49588736891746521 0.85672396421432495 0.85847169160842896
0.40770673751831055 0.74972504377365112 0.74764019250869751
0.59769517183303833 0.94099181890487671 0.23653522133827209
0.58274537324905396 0.94633430242538452 0.40598315000534058
0.63302832841873169 0.93648725748062134 0.6108519434928894
0.74657303094863892 0.93900012969970703 0.91267812252044678
0.683685302734375 0.85899597406387329 0.8567163348197937
0.94115108251571655 0.90135866403579712 0.21915386617183685
0.94166034460067749 0.91564488410949707 0.3988402783870697
0.92768752574920654 0.89096564054489136 0.5878480076789856
0.93993830680847168 0.90690922737121582 0.77734112739562988
0.96352869272232056 0.94841605424880981 0.95297008752822876
