assets/lut/others k tone vintage kodachrome.cube
# Created by: G'MIC (https://gmic.eu)
TITLE "k_tone_vintage_kodachrome"
# LUT size
LUT_3D_SIZE 13
# Data domain
DOMAIN_MIN 0.0 0.0 0.0
DOMAIN_MAX 1.0 1.0 1.0
# LUT data points
0.021502954885363579 0.027457742020487785 0.023699920624494553
0.060318067669868469 0.032700169831514359 0.023982523009181023
0.10536304861307144 0.03791230171918869 0.021085163578391075
0.16363868117332458 0.041809637099504471 0.0079915216192603111
0.30715391039848328 0.032566353678703308 0.0020177355036139488
0.49423712491989136 0.020699864253401756 0.00038039262290112674
0.66793578863143921 0.026827674359083176 0
0.79204040765762329 0.032864931970834732 0
0.84380286931991577 0.035508040338754654 0
0.88309645652770996 0.034981939941644669 0
0.90924817323684692 0.039199303835630417 0
0.91983824968338013 0.049496967345476151 0
0.92478984594345093 0.05636228621006012 0
0.016605198383331299 0.054041650146245956 0.034809038043022156
0.048174958676099777 0.056129753589630127 0.030468974262475967
0.096069857478141785 0.056806318461894989 0.020179418846964836
0.15159706771373749 0.05540798231959343 0.0068454816937446594
0.30493012070655823 0.051318958401679993 6.306965951807797e-05
0.50543051958084106 0.048522606492042542 0
0.68349283933639526 0.057907000184059143 0
0.80981218814849854 0.062749169766902924 0
0.86526888608932495 0.068326376378536224 0
0.90518015623092651 0.069383196532726288 0
0.93509376049041748 0.071130163967609406 0
0.9497222900390625 0.080489948391914368 0
0.9521489143371582 0.08804040402173996 0
0.013593950308859348 0.083650611340999603 0.046841476112604141
0.028534324839711189 0.083171427249908447 0.042075600475072861
0.076133802533149719 0.08466077595949173 0.029893089085817337
0.15105408430099487 0.087755359709262848 0.011507715098559856
0.30397030711174011 0.0849432572722435 0.0019710466731339693
0.52525782585144043 0.082823418080806732 0
0.71056091785430908 0.094267934560775757 0
0.83657318353652954 0.10177104920148849 0
0.89269775152206421 0.11327477544546127 0
0.92804908752441406 0.11780475080013275 0
0.95367676019668579 0.12168239802122116 0
0.97684973478317261 0.12500487267971039 0
0.97175657749176025 0.13689416646957397 0
0.011116760782897472 0.11356686055660248 0.057075873017311096
0.013892738148570061 0.11344409734010696 0.052796397358179092
0.049647744745016098 0.11723916977643967 0.039152678102254868
0.13531015813350677 0.12687544524669647 0.015488673001527786
0.27712744474411011 0.13843415677547455 0.0043440423905849457
0.46036297082901001 0.15689778327941895 0.0010210971813648939
0.6408085823059082 0.17136450111865997 0
0.78222084045410156 0.17573004961013794 0
0.87317574024200439 0.17785178124904633 0
0.90666937828063965 0.18281681835651398 0
0.9286799430847168 0.18994307518005371 0
0.93123215436935425 0.20148134231567383 0
0.92856544256210327 0.21381327509880066 0
0.0090143242850899696 0.16878050565719604 0.078263193368911743
0.0098007498309016228 0.17796319723129272 0.074861042201519012
0.023122929036617279 0.18271993100643158 0.053577437996864319
0.08431708812713623 0.19128063321113586 0.023902608081698418
0.2381097823381424 0.21708610653877258 0.0085494397208094597
0.42776784300804138 0.2485857754945755 0.0026194404345005751
0.59244823455810547 0.27238857746124268 0
0.7006726861000061 0.28229203820228577 0
0.77691030502319336 0.29196655750274658 0
0.81013882160186768 0.29549843072891235 0.00093059166101738811
0.82696425914764404 0.29657450318336487 0.0035666371695697308
0.82867890596389771 0.3095586895942688 0.001122702844440937
0.83019596338272095 0.3253244161605835 0
0.015106590464711189 0.25775584578514099 0.12584416568279266
0.010968481190502644 0.26953274011611938 0.11573110520839691
0.013825689442455769 0.27335932850837708 0.087789364159107208
0.036596231162548065 0.27792790532112122 0.042397070676088333
0.18825025856494904 0.30560535192489624 0.010169129818677902
0.41596680879592896 0.34861442446708679 0.002264359500259161
0.60921627283096313 0.38377270102500916 0
0.71688544750213623 0.40368083119392395 0
0.79436314105987549 0.41912385821342468 0
0.82480639219284058 0.42133909463882446 0.0020521425176411867
0.83854222297668457 0.41875359416007996 0.0039310529828071594
0.85265505313873291 0.42349296808242798 0.0029371671844273806
0.86571091413497925 0.43358200788497925 0.00047879686462692916
0.024593980982899666 0.3495485782623291 0.17791019380092621
0.014983502216637135 0.36589425802230835 0.17020462453365326
0.0081298081204295158 0.3777344822883606 0.14863711595535278
0.022709820419549942 0.38567265868186951 0.07986614853143692
0.15817262232303619 0.41370484232902527 0.0073984931223094463
0.40034663677215576 0.46780133247375488 0.0028755785897374153
0.62486368417739868 0.51609623432159424 0
0.75001853704452515 0.53979122638702393 0
0.82525616884231567 0.54971396923065186 0
0.85965442657470703 0.54916363954544067 0.0021976097486913204
0.88063144683837891 0.54349613189697266 0.0039215688593685627
0.89831650257110596 0.54294806718826294 0.0038889865390956402
0.90914124250411987 0.54986530542373657 0.0029510497115552425
0.029922500252723694 0.43532273173332214 0.22507314383983612
0.017630035057663918 0.45067539811134338 0.21365241706371307
0.010159810073673725 0.46760684251785278 0.1952156126499176
0.018993496894836426 0.48169794678688049 0.097793012857437134
0.17108628153800964 0.51420998573303223 0.011328155174851418
0.40939575433731079 0.57058566808700562 0.0034547245595604181
0.64269828796386719 0.62710475921630859 0
0.78372347354888916 0.65274786949157715 4.487879323278321e-06
0.85542398691177368 0.65690159797668457 0.0020072339102625847
0.89272463321685791 0.65778583288192749 0.0053518856875598431
0.91699296236038208 0.65931636095046997 0.0046154842711985111
0.93836921453475952 0.6597055196762085 0.0039556017145514488
0.94710057973861694 0.66296380758285522 0.0039215688593685627
0.014972686767578125 0.48635187745094299 0.24489635229110718
0.01081110630184412 0.50376749038696289 0.22417201101779938
0.013864973559975624 0.52311074733734131 0.19077445566654205
0.041301891207695007 0.54161864519119263 0.076406143605709076
0.21799099445343018 0.58087193965911865 0.010687375441193581
0.44805505871772766 0.6356775164604187 0.0012088401708751917
0.65459620952606201 0.6924673318862915 0.00039870318141765893
0.80618155002593994 0.72441887855529785 0.0011651432141661644
0.87633210420608521 0.72918683290481567 0.009398740716278553
0.91741573810577393 0.72766947746276855 0.018757779151201248
0.94436335563659668 0.73598229885101318 0.01336542796343565
0.96518397331237793 0.74566668272018433 0.0051192636601626873
0.97257697582244873 0.74842941761016846 0.0039822445251047611
0.007250677328556776 0.53106677532196045 0.25816485285758972
0.0080213658511638641 0.54716897010803223 0.22055967152118683
0.016437500715255737 0.56677097082138062 0.15866389870643616
0.068987376987934113 0.59213370084762573 0.043616935610771179
0.28217130899429321 0.6380646824836731 0.0066072503104805946
0.50233912467956543 0.68858444690704346 0.0013613682240247726
0.68725019693374634 0.73901563882827759 0.0031514037400484085
0.83157479763031006 0.77187341451644897 0.0035291635431349277
0.90224874019622803 0.78323459625244141 0.012856995686888695
0.94396275281906128 0.78649711608886719 0.029403507709503174
0.96996206045150757 0.7926490306854248 0.018438780680298805
0.98615568876266479 0.79967635869979858 0.0058792415075004101
0.99250620603561401 0.80623137950897217 0.0086792744696140289
0.018083535134792328 0.58311367034912109 0.27961832284927368
0.01349481288343668 0.59249341487884521 0.22861117124557495
0.02295977994799614 0.6083991527557373 0.12962424755096436
0.12946689128875732 0.64090234041213989 0.021167755126953125
0.37112191319465637 0.68729180097579956 0.0046643726527690887
0.56820142269134521 0.73346072435379028 0.0044195884838700294
0.73349654674530029 0.77539432048797607 0.0089203184470534325
0.86229807138442993 0.80463403463363647 0.0088951410725712776
0.93441402912139893 0.81845921277999878 0.0059815798886120319
0.97541874647140503 0.8268735408782959 0.01731567457318306
0.99353659152984619 0.83450210094451904 0.034273542463779449
0.99889671802520752 0.84213858842849731 0.07637304812669754
0.99997663497924805 0.85078728199005127 0.14985288679599762
0.025937756523489952 0.63299548625946045 0.30385801196098328
0.022027168422937393 0.64106595516204834 0.23085907101631165
0.063094586133956909 0.65664589405059814 0.10999525338411331
0.2674160897731781 0.693869948387146 0.05443897470831871
0.48774275183677673 0.73746579885482788 0.038221336901187897
0.65352839231491089 0.77781468629837036 0.03747851774096489
0.79644197225570679 0.81357735395431519 0.049938276410102844
0.90074378252029419 0.83772116899490356 0.079558879137039185
0.9590495228767395 0.85273087024688721 0.11763064563274384
0.99051475524902344 0.86457580327987671 0.1786734014749527
0.99931615591049194 0.87311238050460815 0.24677425622940063
0.99999982118606567 0.88254117965698242 0.33950152993202209
0.99994808435440063 0.8906857967376709 0.41442382335662842
0.023942446336150169 0.67563158273696899 0.34015998244285583
0.053844962269067764 0.69337064027786255 0.28487253189086914
0.22407028079032898 0.72281414270401001 0.24547407031059265
0.43584710359573364 0.76193726062774658 0.24418002367019653
0.60854768753051758 0.79769784212112427 0.24732422828674316
0.74161869287490845 0.82869839668273926 0.25761964917182922
0.84651005268096924 0.85571634769439697 0.29492703080177307
0.92494630813598633 0.87679553031921387 0.34954115748405457
0.96802437305450439 0.8906177282333374 0.4040626585483551
0.99114233255386353 0.90208101272583008 0.46927496790885925
0.99850082397460938 0.91103488206863403 0.52204340696334839
0.99749672412872314 0.92041337490081787 0.58581256866455078
0.99619042873382568 0.92723661661148071 0.63268107175827026
0.021281836554408073 0.032740034162998199 0.049408499151468277
0.052736587822437286 0.034557238221168518 0.046518690884113312
0.096572756767272949 0.035909496247768402 0.039833713322877884
0.1832311600446701 0.030028160661458969 0.018474278971552849
0.32676136493682861 0.018737522885203362 0.0057781143113970757
0.50196695327758789 0.012552912347018719 0.0025771495420485735
0.67438244819641113 0.016915414482355118 0.0008529513725079596
0.80415016412734985 0.018498647958040237 0
0.86057066917419434 0.021140318363904953 0
0.89929986000061035 0.021077115088701248 0
0.9264523983001709 0.023370033130049706 0
0.93898504972457886 0.030330074951052666 0
0.94276618957519531 0.031535070389509201 0
0.016900215297937393 0.055580556392669678 0.056292902678251266
0.043565832078456879 0.056679312139749527 0.051850218325853348
0.087410077452659607 0.056403275579214096 0.040278282016515732
0.15338753163814545 0.05191822350025177 0.020710889250040054
0.29415056109428406 0.043760936707258224 0.0042145820334553719
0.49213376641273499 0.038854785263538361 0.0019703884609043598
0.67459797859191895 0.042130444198846817 0.00016081567446235567
0.81175309419631958 0.034010179340839386 0
0.88036185503005981 0.035063426941633224 0
0.92388719320297241 0.034880336374044418 0
0.95164352655410767 0.038947012275457382 0
0.96087181568145752 0.053408559411764145 0
0.96803897619247437 0.049002837389707565 0
0.013809233903884888 0.083264186978340149 0.064919173717498779
0.028201129287481308 0.082447782158851624 0.056271452456712723
0.07341284304857254 0.083015009760856628 0.043389562517404556
0.15140743553638458 0.08311869204044342 0.025059210136532784
0.26879602670669556 0.083537891507148743 0.004719169344753027
0.48564589023590088 0.080121554434299469 0.00025326598552055657
0.68833434581756592 0.080465890467166901 2.7645335649140179e-05
0.8266371488571167 0.081045173108577728 0
0.90499341487884521 0.087120622396469116 0
0.94777202606201172 0.088436514139175415 0
0.97374987602233887 0.092034943401813507 0
0.97972893714904785 0.10139640420675278 0
0.98361015319824219 0.10572740435600281 0
0.012128418311476707 0.11578460037708282 0.074938304722309113
0.017192795872688293 0.11514555662870407 0.064887702465057373
0.051527809351682663 0.1198822483420372 0.050210751593112946
0.13623790442943573 0.12741608917713165 0.028463251888751984
0.26068383455276489 0.13910847902297974 0.0089701935648918152
0.43705868721008301 0.15297625958919525 0.0011479096719995141
0.63489037752151489 0.16028481721878052 0
0.79765623807907104 0.16333512961864471 0
0.89168071746826172 0.16427184641361237 0
0.93843096494674683 0.16511532664299011 0
0.95707350969314575 0.17194667458534241 0
0.96299880743026733 0.18112371861934662 0
0.96601301431655884 0.19048380851745605 0
0.010031666606664658 0.17146468162536621 0.091687910258769989
0.01332778949290514 0.18051354587078094 0.083326183259487152
0.028737101703882217 0.18791657686233521 0.060771133750677109
0.086716443300247192 0.19421346485614777 0.030125262215733528
0.2290416955947876 0.21292535960674286 0.01161487028002739
0.41999319195747375 0.2423003613948822 0.0034147074911743402
0.58813029527664185 0.26443269848823547 7.7131684520281851e-05
0.70396244525909424 0.28118795156478882 0
0.78137975931167603 0.28610792756080627 0
0.8231208324432373 0.28730335831642151 3.5903033790418704e-07
0.83539599180221558 0.29174718260765076 0.00011865952546941116
0.84525209665298462 0.3005422055721283 0
0.85232013463973999 0.31207633018493652 0
0.012183948419988155 0.25477957725524902 0.13289082050323486
0.0094684828072786331 0.26518154144287109 0.1174127608537674
0.016619902104139328 0.2737269401550293 0.090746290981769562
0.036251578480005264 0.27741041779518127 0.039729546755552292
0.18539324402809143 0.30404311418533325 0.011419572867453098
0.41133573651313782 0.34541791677474976 0.0038939979858696461
0.6059873104095459 0.3779672384262085 0.00052526139188557863
0.72215360403060913 0.39919325709342957 0
0.7966303825378418 0.41257065534591675 0
0.83269375562667847 0.4136618971824646 2.8722427032334963e-06
0.84803849458694458 0.41118147969245911 0.00022600959346164018
0.86509793996810913 0.41460227966308594 0.0006651036674156785
0.87778890132904053 0.42455431818962097 4.513310341280885e-05
0.01693350076675415 0.34519276022911072 0.18485791981220245
0.0097307246178388596 0.35651007294654846 0.16878844797611237
0.0058628604747354984 0.37114992737770081 0.14794415235519409
0.021060509607195854 0.38225555419921875 0.071090772747993469
0.16117747128009796 0.41800370812416077 0.010842147283256054
0.40050432085990906 0.46821117401123047 0.0029413709416985512
0.61797505617141724 0.50941741466522217 1.8759334125206806e-05
0.75523233413696289 0.53300470113754272 0
0.83537429571151733 0.54528379440307617 0
0.86917704343795776 0.54375439882278442 0.00038719925214536488
0.89058369398117065 0.53579795360565186 0.0030568141955882311
0.91125112771987915 0.53818333148956299 0.0043465709313750267
0.92702442407608032 0.5489005446434021 0.00097322650253772736
0.018423102796077728 0.43389013409614563 0.23773594200611115
0.0099285794422030449 0.44832754135131836 0.21844339370727539
0.0041237925179302692 0.46738702058792114 0.1957823634147644
0.017042376101016998 0.48272082209587097 0.10029894113540649
0.17093776166439056 0.51859110593795776 0.020794019103050232
0.41325059533119202 0.57365518808364868 0.003440797096118331
0.64392882585525513 0.62861740589141846 4.1961669921875e-05
0.78820341825485229 0.65369433164596558 0.00029806996462866664
0.86840260028839111 0.65892487764358521 0.0019778981804847717
0.90337944030761719 0.66104978322982788 0.0029083401896059513
0.92884880304336548 0.66068530082702637 0.0039782952517271042
0.94995641708374023 0.6638069748878479 0.0046368767507374287
0.96108382940292358 0.66489154100418091 0.0037127027753740549
0.01050993986427784 0.49519443511962891 0.26781916618347168
0.0066355387680232525 0.51226860284805298 0.24091403186321259
0.0057615842670202255 0.53241086006164551 0.2010224461555481
0.036549046635627747 0.55282044410705566 0.10724853724241257
0.20968201756477356 0.58867955207824707 0.01821054145693779
0.44975748658180237 0.64207649230957031 0.0019694010261446238
0.66225862503051758 0.69578975439071655 0.0034869324881583452
0.80923062562942505 0.72498756647109985 0.0040270336903631687
0.88854986429214478 0.72898119688034058 0.0076987920328974724
0.93005138635635376 0.73518353700637817 0.011073767207562923
0.95468908548355103 0.74258995056152344 0.0066642011515796185
0.9725000262260437 0.75103658437728882 0.00400543212890625
0.9812624454498291 0.754230797290802 0.0047263801097869873
0.0051386966370046139 0.54879951477050781 0.29268378019332886
0.0044681625440716743 0.56445038318634033 0.25556489825248718
0.0077126896940171719 0.5832640528678894 0.19901898503303528
0.051759518682956696 0.60451674461364746 0.077005170285701752
0.26017940044403076 0.64489549398422241 0.0098076611757278442
0.49786779284477234 0.69515597820281982 0.0017070246394723654
0.69591063261032104 0.7440304160118103 0.0032860101200640202
0.83675050735473633 0.77534276247024536 0.0055280500091612339
0.91260784864425659 0.78696417808532715 0.0083879660815000534
0.95725804567337036 0.79366391897201538 0.013925873674452305
0.98016005754470825 0.80160856246948242 0.0098941726610064507
0.99286144971847534 0.81048965454101562 0.014333478175103664
0.99748402833938599 0.819710373878479 0.051679141819477081
0.017693478614091873 0.59973299503326416 0.31701239943504333
0.0096732946112751961 0.61126738786697388 0.27563923597335815
0.014266324229538441 0.6283143162727356 0.19158062338829041
0.10706038773059845 0.6529197096824646 0.068098001182079315
0.35948875546455383 0.69650495052337646 0.016270102933049202
0.56975382566452026 0.74335557222366333 0.0071684746071696281
0.74527060985565186 0.78499627113342285 0.015069849789142609
0.86917603015899658 0.81261879205703735 0.023121088743209839
0.93977177143096924 0.82779616117477417 0.038927774876356125
0.98320120573043823 0.83756470680236816 0.05756714940071106
0.99819213151931763 0.84658843278884888 0.094325512647628784
0.99997478723526001 0.85531884431838989 0.17284213006496429
1 0.86504387855529785 0.27113798260688782
0.032083414494991302 0.65279096364974976 0.35181856155395508
0.025121621787548065 0.66128259897232056 0.31892940402030945
0.064595438539981842 0.68190461397171021 0.23824602365493774
0.25685352087020874 0.71585601568222046 0.17556144297122955
0.48194590210914612 0.75476396083831787 0.14111034572124481
0.65278416872024536 0.79239064455032349 0.13734570145606995
0.79113376140594482 0.8237493634223938 0.16284959018230438
0.89465010166168213 0.84991550445556641 0.20408788323402405
0.95458084344863892 0.86574620008468628 0.25482368469238281
0.98785829544067383 0.87695109844207764 0.3120054304599762
0.99850153923034668 0.88569766283035278 0.36787384748458862
0.99995654821395874 0.89437603950500488 0.43549001216888428
0.9999387264251709 0.90315496921539307 0.50521570444107056
0.023761838674545288 0.70392626523971558 0.42284080386161804
0.052913933992385864 0.72130048274993896 0.39651775360107422
0.21167121827602386 0.74939912557601929 0.37261372804641724
0.44074517488479614 0.78500735759735107 0.36912542581558228
0.61101287603378296 0.81720650196075439 0.37542262673377991
0.73995178937911987 0.8448413610458374 0.39021804928779602
0.84354764223098755 0.86858832836151123 0.42383044958114624
0.91687178611755371 0.88893377780914307 0.46571347117424011
0.96268367767333984 0.90263485908508301 0.50869953632354736
0.98659652471542358 0.91214412450790405 0.5529816746711731
0.99535053968429565 0.92095321416854858 0.60101783275604248
0.99629276990890503 0.92990249395370483 0.6480337381362915
0.99607843160629272 0.93744879961013794 0.69403845071792603
0.018120545893907547 0.037295427173376083 0.079057969152927399
0.046109788119792938 0.035454228520393372 0.083844192326068878
0.089353986084461212 0.030964002013206482 0.079344764351844788
0.19248902797698975 0.019329564645886421 0.055030103772878647
0.34022670984268188 0.0058877682313323021 0.023342117667198181
0.51654767990112305 0.0036003859713673592 0.0087866391986608505
0.68712395429611206 0.0060645011253654957 0.0035491643939167261
0.81247842311859131 0.0070441453717648983 0.0020877912174910307
0.87275642156600952 0.0079819774255156517 0.00099954043980687857
0.90940481424331665 0.0083095179870724678 0.0010513305896893144
0.94125068187713623 0.0084032099694013596 0
0.95304566621780396 0.011169014498591423 0
0.9514346718788147 0.012135554105043411 0
0.013799704611301422 0.05586019903421402 0.081378117203712463
0.038398068398237228 0.056554771959781647 0.082018099725246429
0.079640135169029236 0.055956177413463593 0.077074132859706879
0.16470122337341309 0.047518696635961533 0.056008730083703995
0.29874423146247864 0.030319333076477051 0.02131277322769165
0.48414814472198486 0.021023694425821304 0.0055299345403909683
0.6707451343536377 0.019132651388645172 0.0020123200956732035
0.81831735372543335 0.0097445016726851463 0.0019816977437585592
0.89506685733795166 0.0094006853178143501 0.00031991099240258336
0.93725407123565674 0.0094022862613201141 1.9447477370704291e-06
0.96546053886413574 0.01141541451215744 0
0.97404235601425171 0.020991666242480278 0
0.98324429988861084 0.012670210562646389 0.00013613233750220388
0.012444514781236649 0.08364289253950119 0.091156899929046631
0.023430200293660164 0.081969514489173889 0.082185350358486176
0.064521074295043945 0.081387311220169067 0.073628172278404236
0.13768988847732544 0.080170482397079468 0.054415669292211533
0.26130509376525879 0.073561303317546844 0.019406113773584366
0.46076598763465881 0.065387070178985596 0.0050447201356291771
0.67684072256088257 0.048622161149978638 0.0017224031034857035
0.84096479415893555 0.03509458526968956 0.00022937550966162235
0.92846220731735229 0.036973167210817337 7.901659409981221e-05
0.97131240367889404 0.032462894916534424 0
0.98726761341094971 0.032859399914741516 0
0.98805755376815796 0.035297617316246033 0
0.99324256181716919 0.039904292672872543 9.1403140686452389e-05
0.011995397508144379 0.12052227556705475 0.10238451510667801
0.016046890988945961 0.11751297861337662 0.088177591562271118
0.043758034706115723 0.11924143880605698 0.071958921849727631
0.1183493509888649 0.12567901611328125 0.050797838717699051
0.24565970897674561 0.13426592946052551 0.024377845227718353
0.42082634568214417 0.13842740654945374 0.0052498164586722851
0.66061651706695557 0.12909635901451111 0.000225770243559964
0.84668684005737305 0.11961079388856888 0
0.94462722539901733 0.11494710296392441 0
0.98574918508529663 0.10930835455656052 0
0.99237406253814697 0.10894984751939774 0
0.99338942766189575 0.11464719474315643 0
0.99262493848800659 0.12266251444816589 0
0.010571797378361225 0.17728123068809509 0.11664672195911407
0.016715105623006821 0.18349228799343109 0.10451685637235641
0.035233039408922195 0.19020608067512512 0.081562474370002747
0.083285510540008545 0.19217336177825928 0.048523083329200745
0.22955471277236938 0.20948298275470734 0.020306291058659554
0.41149663925170898 0.2316630631685257 0.0075318431481719017
0.5890737771987915 0.24664272367954254 0.0019074383890256286
0.73255878686904907 0.25299263000488281 2.1990606910549104e-05
0.82582277059555054 0.25243225693702698 0
0.88673251867294312 0.24795587360858917 0
0.90713059902191162 0.24882204830646515 0
0.92092514038085938 0.25492340326309204 1.5557981896563433e-05
0.92438352108001709 0.26641204953193665 1.5557981896563433e-05
0.0087702730670571327 0.25813084840774536 0.1521926075220108
0.014278307557106018 0.26748931407928467 0.13348467648029327
0.024308836087584496 0.27350378036499023 0.10119955241680145
0.03811958059668541 0.27874019742012024 0.052841052412986755
0.1824868768453598 0.30306044220924377 0.017358383163809776
0.40369924902915955 0.34005871415138245 0.005617986898869276
0.60238218307495117 0.36956477165222168 0.0030998978763818741
0.72746539115905762 0.38541406393051147 0.00029473399627022445
0.80362594127655029 0.39162778854370117 0.00037487255758605897
0.84239083528518677 0.38912004232406616 0.00029691809322685003
0.86218023300170898 0.39065274596214294 0.0026565552689135075
0.88066977262496948 0.39583787322044373 0.0046046087518334389
