assets/lut/others vintage brighter.cube
# Created by: G'MIC (https://gmic.eu)
TITLE "vintage_brighter"
# LUT size
LUT_3D_SIZE 5
# Data domain
DOMAIN_MIN 0.0 0.0 0.0
DOMAIN_MAX 1.0 1.0 1.0
# LUT data points
0 0 0.18483360111713409
0.17364081740379333 0 0.18491023778915405
0.49080926179885864 1.4002182979311328e-05 0.18615196645259857
0.81482791900634766 0 0.1894887387752533
1 0 0.17786890268325806
0.00075922947144135833 0.15294270217418671 0.18429473042488098
0.14880496263504028 0.15343813598155975 0.18843522667884827
0.48722738027572632 0.15498475730419159 0.18738676607608795
0.82088899612426758 0.17105892300605774 0.18747715651988983
0.99990665912628174 0.17296701669692993 0.18258839845657349
0 0.49192893505096436 0.18624803423881531
0.13664913177490234 0.4821811318397522 0.18617762625217438
0.4791472852230072 0.48501956462860107 0.18450962007045746
0.84318125247955322 0.4983820915222168 0.18650712072849274
1 0.49522602558135986 0.18859435617923737
0 0.79354065656661987 0.1843610405921936
0.16897940635681152 0.81667822599411011 0.18644244968891144
0.50371354818344116 0.82739496231079102 0.19270242750644684
0.84111732244491577 0.82441806793212891 0.18894091248512268
0.99921625852584839 0.80523353815078735 0.18631765246391296
0 0.97913014888763428 0.18468482792377472
0.18185509741306305 1 0.18791817128658295
0.49051585793495178 1 0.18635751307010651
0.83205628395080566 0.99968492984771729 0.18944250047206879
1 0.99897009134292603 0.18618734180927277
0 0 0.42192381620407104
0.1660524308681488 0 0.42635509371757507
0.49220532178878784 0 0.42201095819473267
0.81759321689605713 0 0.42486429214477539
1 0 0.41548633575439453
0 0.14171096682548523 0.42104831337928772
0.1470155268907547 0.13775491714477539 0.42273449897766113
0.48140281438827515 0.15088075399398804 0.42304602265357971
0.82816648483276367 0.16693256795406342 0.42683348059654236
1 0.17971132695674896 0.42364367842674255
0 0.47423669695854187 0.42337918281555176
0.15858009457588196 0.47671663761138916 0.42504611611366272
0.47536304593086243 0.49271181225776672 0.42791292071342468
0.83033561706542969 0.49609375 0.42939198017120361
1 0.49220490455627441 0.42797338962554932
0 0.80903619527816772 0.42733815312385559
0.17706671357154846 0.83523887395858765 0.43112745881080627
0.4995238184928894 0.8431239128112793 0.43387618660926819
0.84790325164794922 0.83007335662841797 0.42840442061424255
0.99999517202377319 0.81703519821166992 0.42526724934577942
0 0.99905800819396973 0.42306420207023621
0.17908428609371185 1 0.43114367127418518
0.49506613612174988 1 0.4302469789981842
0.82472109794616699 1 0.42853069305419922
0.99046623706817627 1 0.42402917146682739
0 0 0.61779499053955078
0.16442333161830902 0 0.61976665258407593
0.49350073933601379 0 0.61465573310852051
0.82142156362533569 0 0.61816215515136719
1 0 0.61002534627914429
0 0.15546867251396179 0.61781597137451172
0.14943534135818481 0.16208934783935547 0.61609917879104614
0.48750025033950806 0.16269750893115997 0.61717242002487183
0.83342999219894409 0.16644541919231415 0.62381821870803833
1 0.17620003223419189 0.61905550956726074
0 0.49030280113220215 0.61658412218093872
0.15924680233001709 0.49170711636543274 0.61642760038375854
0.48487883806228638 0.49536848068237305 0.62163937091827393
0.83638733625411987 0.49843433499336243 0.62688708305358887
1 0.49310755729675293 0.62327271699905396
0 0.81366533041000366 0.6221807599067688
0.17883069813251495 0.84271132946014404 0.62635082006454468
0.49325832724571228 0.84544837474822998 0.62519186735153198
0.8287731409072876 0.83545184135437012 0.62718814611434937
1 0.82204157114028931 0.62319529056549072
0 0.98767685890197754 0.61427795886993408
0.18329347670078278 1 0.62221908569335938
0.49045398831367493 1 0.62337660789489746
0.80684995651245117 1 0.6228753924369812
0.99942809343338013 1 0.61370539665222168
0 0 0.74586391448974609
0.16865913569927216 0 0.74435544013977051
0.49268642067909241 0 0.74020278453826904
0.8232303261756897 0 0.74335241317749023
1 0.013044140301644802 0.74324554204940796
0.00029804004589095712 0.16872575879096985 0.75324958562850952
0.16925366222858429 0.17267030477523804 0.74489045143127441
0.49819228053092957 0.1800597757101059 0.74534070491790771
0.8260427713394165 0.17377366125583649 0.75089824199676514
1 0.1846768856048584 0.74782413244247437
0 0.4964122474193573 0.75204306840896606
0.17524479329586029 0.49430105090141296 0.75033926963806152
0.50006222724914551 0.49506005644798279 0.74957942962646484
0.82585853338241577 0.49818712472915649 0.75319772958755493
1 0.49259927868843079 0.74681603908538818
0 0.80007278919219971 0.74568146467208862
0.17995007336139679 0.81129992008209229 0.74790817499160767
0.49340611696243286 0.82536691427230835 0.75018447637557983
0.81263178586959839 0.8252028226852417 0.74755972623825073
1 0.81003868579864502 0.74511241912841797
0 0.99818223714828491 0.74065768718719482
0.18086688220500946 1 0.75186717510223389
0.49260863661766052 1 0.7516624927520752
0.80621474981307983 1 0.74535256624221802
1 1 0.73770862817764282
0 0.0046321945264935493 0.82721728086471558
0.17332766950130463 3.7339155824156478e-05 0.8300289511680603
0.49922481179237366 0.0032329484820365906 0.82552289962768555
0.81196725368499756 0 0.82515376806259155
0.9992600679397583 0 0.82791250944137573
0 0.18152204155921936 0.83026039600372314
0.16902719438076019 0.16254790127277374 0.82875204086303711
0.50141781568527222 0.17795398831367493 0.82707273960113525
0.80517297983169556 0.16277453303337097 0.82639110088348389
0.99863576889038086 0.15398737788200378 0.82711303234100342
0 0.49202442169189453 0.83074039220809937
0.16998250782489777 0.49089351296424866 0.82800817489624023
0.49395844340324402 0.48531365394592285 0.82876837253570557
0.81409108638763428 0.49463021755218506 0.82905155420303345
1 0.48325243592262268 0.82192611694335938
0 0.78850281238555908 0.82530033588409424
0.17001926898956299 0.8178633451461792 0.82728826999664307
0.49199116230010986 0.81102931499481201 0.82771396636962891
0.81384509801864624 0.81359493732452393 0.82475948333740234
1 0.79242396354675293 0.82248091697692871
0 0.97344315052032471 0.82022607326507568
0.17253036797046661 1 0.83463811874389648
0.49389010667800903 1 0.83633899688720703
0.81606161594390869 1 0.82983291149139404
1 0.99047499895095825 0.82167941331863403
