assets/lut/others cinematic 01.cube
# Created by: G'MIC (https://gmic.eu)
TITLE "cinematic_01"
# LUT size
LUT_3D_SIZE 5
# Data domain
DOMAIN_MIN 0.0 0.0 0.0
DOMAIN_MAX 1.0 1.0 1.0
# LUT data points
0.091301649808883667 0.063649363815784454 0.062112260609865189
0.18991652131080627 0.07062859833240509 0.060874626040458679
0.381418377161026 0.080408252775669098 0.059795979410409927
0.61974197626113892 0.10838820785284042 0.069213524460792542
0.82266390323638916 0.1263129711151123 0.070511773228645325
0.09041982889175415 0.16288551688194275 0.065090551972389221
0.20065605640411377 0.16435433924198151 0.061940241605043411
0.39953204989433289 0.17913240194320679 0.058417033404111862
0.63395440578460693 0.21788579225540161 0.06904003769159317
0.84725725650787354 0.25336745381355286 0.081668511033058167
0.094585224986076355 0.29039677977561951 0.07979341596364975
0.19075161218643188 0.31477516889572144 0.073042698204517365
0.4823138415813446 0.33876335620880127 0.069429181516170502
0.69504022598266602 0.37160322070121765 0.076052285730838776
0.8909839391708374 0.41585361957550049 0.094156615436077118
0.1072283610701561 0.48959338665008545 0.12328363955020905
0.20251692831516266 0.5197594165802002 0.10357719659805298
0.49954679608345032 0.56725597381591797 0.09802950918674469
0.73350614309310913 0.59555530548095703 0.094806060194969177
0.90985143184661865 0.60570400953292847 0.11575275659561157
0.14201110601425171 0.69693076610565186 0.16527603566646576
0.2481108158826828 0.7360108494758606 0.14056624472141266
0.50663286447525024 0.77819705009460449 0.12060818821191788
0.7002454400062561 0.80221277475357056 0.12529361248016357
0.89565032720565796 0.81782984733581543 0.13268181681632996
0.098389208316802979 0.067131176590919495 0.13957351446151733
0.18796521425247192 0.069562084972858429 0.13969628512859344
0.39112988114356995 0.078968629240989685 0.12874861061573029
0.63208305835723877 0.10697190463542938 0.13203354179859161
0.82614356279373169 0.13373735547065735 0.14644864201545715
0.090385660529136658 0.16208796203136444 0.17058970034122467
0.15896213054656982 0.17450949549674988 0.17676970362663269
0.41770175099372864 0.19500431418418884 0.15537068247795105
0.65143942832946777 0.23201853036880493 0.16052669286727905
0.84596556425094604 0.27583664655685425 0.18375714123249054
0.0999283567070961 0.31891351938247681 0.22458462417125702
0.1675792783498764 0.3311082124710083 0.2080119401216507
0.4965851902961731 0.37417227029800415 0.14771938323974609
0.71153908967971802 0.41649875044822693 0.17617565393447876
0.87454599142074585 0.46611177921295166 0.22540216147899628
0.12651596963405609 0.52959656715393066 0.27223306894302368
0.18006204068660736 0.53916662931442261 0.24670080840587616
0.47454115748405457 0.60112422704696655 0.19969180226325989
0.73611205816268921 0.62763106822967529 0.19694811105728149
0.9046587347984314 0.64490687847137451 0.2304011732339859
0.16233386099338531 0.72014826536178589 0.30727162957191467
0.22598759829998016 0.73812216520309448 0.28426459431648254
0.48837897181510925 0.80234545469284058 0.2637384831905365
0.70245820283889771 0.82925492525100708 0.24053952097892761
0.90520501136779785 0.84703284502029419 0.23938447237014771
0.10342836380004883 0.079510271549224854 0.25943103432655334
0.16693036258220673 0.077614098787307739 0.26085808873176575
0.33243075013160706 0.084042586386203766 0.24140505492687225
0.62974965572357178 0.11337682604789734 0.23091427981853485
0.82277065515518188 0.14727114140987396 0.26665899157524109
0.089308284223079681 0.15708516538143158 0.30012461543083191
0.1505558043718338 0.17168143391609192 0.31380188465118408
0.35340562462806702 0.20746360719203949 0.31383460760116577
0.661784827709198 0.25188741087913513 0.31244567036628723
0.85378754138946533 0.29878515005111694 0.34702470898628235
0.091736048460006714 0.2969418466091156 0.34925630688667297
0.15458700060844421 0.32834073901176453 0.37658441066741943
0.32014614343643188 0.392905592918396 0.41343668103218079
0.67316412925720215 0.48111087083816528 0.44260480999946594
0.88039904832839966 0.50610393285751343 0.44370904564857483
0.12173206359148026 0.56495243310928345 0.4775393009185791
0.19622533023357391 0.58353561162948608 0.47796911001205444
0.39470085501670837 0.6231619119644165 0.45755404233932495
0.72173750400543213 0.67514288425445557 0.41484016180038452
0.91066008806228638 0.69777655601501465 0.45640215277671814
0.16760410368442535 0.7642214298248291 0.52360683679580688
0.25451767444610596 0.7740052342414856 0.51151126623153687
0.48389282822608948 0.83400750160217285 0.47868058085441589
0.71413898468017578 0.87719559669494629 0.44424328207969666
0.90666598081588745 0.88754987716674805 0.4208819568157196
0.11471521854400635 0.091595306992530823 0.42924588918685913
0.1907164603471756 0.089574344456195831 0.42995384335517883
0.27421623468399048 0.088307157158851624 0.43102580308914185
0.58787041902542114 0.1236017718911171 0.38457426428794861
0.81645554304122925 0.1618453711271286 0.41221052408218384
0.090693451464176178 0.16457518935203552 0.47568017244338989
0.15048427879810333 0.17309334874153137 0.49943816661834717
0.27578166127204895 0.20384147763252258 0.51180291175842285
0.63945895433425903 0.27621835470199585 0.48956257104873657
0.8438228964805603 0.31282860040664673 0.52047669887542725
0.096762984991073608 0.31481018662452698 0.53485286235809326
0.15956614911556244 0.34278169274330139 0.56597709655761719
0.2519039511680603 0.37981018424034119 0.61154282093048096
0.68519264459609985 0.50178068876266479 0.62355464696884155
0.88020044565200806 0.53003430366516113 0.64037501811981201
0.1042984277009964 0.50659161806106567 0.60999202728271484
0.1790105402469635 0.53077238798141479 0.63428384065628052
0.3093622624874115 0.58774381875991821 0.67027401924133301
0.72033500671386719 0.71988129615783691 0.69479072093963623
0.90961927175521851 0.7427295446395874 0.71409773826599121
0.15625689923763275 0.77385258674621582 0.73428159952163696
0.24598406255245209 0.78820550441741943 0.72820353507995605
0.40343651175498962 0.84921634197235107 0.75178319215774536
0.73053950071334839 0.91684824228286743 0.72535455226898193
0.92044174671173096 0.92343878746032715 0.67244088649749756
0.11790318042039871 0.095449782907962799 0.62898331880569458
0.21526718139648438 0.12011582404375076 0.63078957796096802
0.30478611588478088 0.1104397177696228 0.6229131817817688
0.56793051958084106 0.1409020870923996 0.61552298069000244
0.80089098215103149 0.17729103565216064 0.60094171762466431
0.093425244092941284 0.17579874396324158 0.68229305744171143
0.15754488110542297 0.18983922898769379 0.69705694913864136
0.28720328211784363 0.23535712063312531 0.71884423494338989
0.59699344635009766 0.28981921076774597 0.73160368204116821
0.82517403364181519 0.32666340470314026 0.69896245002746582
0.097916670143604279 0.33161240816116333 0.74368685483932495
0.16840775310993195 0.362964928150177 0.7717059850692749
0.26459372043609619 0.39266788959503174 0.80906671285629272
0.64143902063369751 0.50624138116836548 0.84629762172698975
0.86996328830718994 0.53441786766052246 0.82817721366882324
0.10695130378007889 0.50106668472290039 0.80340558290481567
0.18677161633968353 0.53059101104736328 0.82942181825637817
0.31121346354484558 0.57845622301101685 0.86171650886535645
0.66603696346282959 0.7072184681892395 0.92192256450653076
0.91679936647415161 0.75632190704345703 0.93389034271240234
0.14635725319385529 0.70309150218963623 0.86938917636871338
0.22820885479450226 0.72743821144104004 0.88272428512573242
0.36374694108963013 0.7801666259765625 0.91757577657699585
0.69627094268798828 0.90231585502624512 0.9697563648223877
0.93021035194396973 0.94889545440673828 0.96406060457229614
