assets/lut/others blue mono.cube
# Created by: G'MIC (https://gmic.eu)
TITLE "blue_mono"
# LUT size
LUT_3D_SIZE 13
# Data domain
DOMAIN_MIN 0.0 0.0 0.0
DOMAIN_MAX 1.0 1.0 1.0
# LUT data points
0.030908502638339996 0.048396166414022446 0.14408838748931885
0.046322256326675415 0.075945056974887848 0.21911948919296265
0.06221403181552887 0.10462146997451782 0.29499396681785583
0.081738479435443878 0.13700529932975769 0.37347027659416199
0.10684607923030853 0.17552781105041504 0.4505494236946106
0.13851824402809143 0.22138434648513794 0.52324503660202026
0.1735747754573822 0.27111941576004028 0.59131783246994019
0.20981410145759583 0.32021161913871765 0.65428239107131958
0.24099624156951904 0.36230769753456116 0.70989018678665161
0.26734301447868347 0.39752990007400513 0.75796693563461304
0.29878288507461548 0.44197097420692444 0.80204743146896362
0.34795108437538147 0.51587605476379395 0.84625202417373657
0.4165918231010437 0.62252837419509888 0.89064258337020874
0.034409601241350174 0.05054822564125061 0.14651462435722351
0.049294579774141312 0.077792182564735413 0.22104981541633606
0.065267644822597504 0.10656116157770157 0.29791858792304993
0.084830008447170258 0.1396348625421524 0.37882527709007263
0.10970502346754074 0.17859794199466705 0.45805978775024414
0.14090986549854279 0.22427362203598022 0.53227794170379639
0.17602628469467163 0.27340078353881836 0.60086756944656372
0.21079091727733612 0.32171037793159485 0.66330814361572266
0.24276067316532135 0.36525020003318787 0.71822720766067505
0.27214774489402771 0.40557855367660522 0.76579105854034424
0.30714470148086548 0.45579904317855835 0.80952787399291992
0.35746467113494873 0.53200584650039673 0.85272324085235596
0.42402383685112 0.63524693250656128 0.89657485485076904
0.038897659629583359 0.05276324599981308 0.15173910558223724
0.053691234439611435 0.080306306481361389 0.22804452478885651
0.070118650794029236 0.10987288504838943 0.30600184202194214
0.090258501470088959 0.14405912160873413 0.38688012957572937
0.11544195562601089 0.18363752961158752 0.46588441729545593
0.14583706855773926 0.22844876348972321 0.54062843322753906
0.17918549478054047 0.27597638964653015 0.60906034708023071
0.21279296278953552 0.32310101389884949 0.67038965225219727
0.24489250779151917 0.36797124147415161 0.72419208288192749
0.27743050456047058 0.41391918063163757 0.77113574743270874
0.31642106175422668 0.47119536995887756 0.81380540132522583
0.36874675750732422 0.55092895030975342 0.85641324520111084
0.43461146950721741 0.65284013748168945 0.90020358562469482
0.041848260909318924 0.055295277386903763 0.15986284613609314
0.057445675134658813 0.083879433572292328 0.23830372095108032
0.075082294642925262 0.11469973623752594 0.31739449501037598
0.09631386399269104 0.14998188614845276 0.39751964807510376
0.12227316200733185 0.1902351975440979 0.47559365630149841
0.15243613719940186 0.23439066112041473 0.54966521263122559
0.18461692333221436 0.28072655200958252 0.61691123247146606
0.21676737070083618 0.32642391324043274 0.67686337232589722
0.24829500913619995 0.37188446521759033 0.72919124364852905
0.28227481245994568 0.42129266262054443 0.77496743202209473
0.32381278276443481 0.48287713527679443 0.81643277406692505
0.37849923968315125 0.5662606954574585 0.85848450660705566
0.44565993547439575 0.67060995101928711 0.90273213386535645
0.042226321995258331 0.057346373796463013 0.1664101630449295
0.058394607156515121 0.087710842490196228 0.24699988961219788
0.078251078724861145 0.12048851698637009 0.32780683040618896
0.10174015909433365 0.15751864016056061 0.40813979506492615
0.12936849892139435 0.19878271222114563 0.48614460229873657
0.16054879128932953 0.24323023855686188 0.55917650461196899
0.19261354207992554 0.28839200735092163 0.62520307302474976
0.22306960821151733 0.33295407891273499 0.68362367153167725
0.25332614779472351 0.37810969352722168 0.73468208312988281
0.2873934805393219 0.42945724725723267 0.7796434760093689
0.33101183176040649 0.49435076117515564 0.82049185037612915
0.38751831650733948 0.57973986864089966 0.8618512749671936
0.45477533340454102 0.68364322185516357 0.90532809495925903
0.042083874344825745 0.059788260608911514 0.17222179472446442
0.058460056781768799 0.091587960720062256 0.25433367490768433
0.080591477453708649 0.12642940878868103 0.33655881881713867
0.10591690987348557 0.16547767817974091 0.41808027029037476
0.13578516244888306 0.20849862694740295 0.4961942732334137
0.16893759369850159 0.25379309058189392 0.56880074739456177
0.2020808607339859 0.29887112975120544 0.63414567708969116
0.23187015950679779 0.34234505891799927 0.69123005867004395
0.26044252514839172 0.3867211639881134 0.74094521999359131
0.29433539509773254 0.43937912583351135 0.78551512956619263
0.3395354151725769 0.5068134069442749 0.82641839981079102
0.39678829908370972 0.59291017055511475 0.86700791120529175
0.46257740259170532 0.69281315803527832 0.90830802917480469
0.042368270456790924 0.063078857958316803 0.18065434694290161
0.059030719101428986 0.095452219247817993 0.26166355609893799
0.081098549067974091 0.13149528205394745 0.34418514370918274
0.10793501883745193 0.17239914834499359 0.42699092626571655
0.14023683965206146 0.2174413651227951 0.50623875856399536
0.1755133718252182 0.26413890719413757 0.57841265201568604
0.20987175405025482 0.30945682525634766 0.64297491312026978
0.23963972926139832 0.35209128260612488 0.69836336374282837
0.2678932249546051 0.39653283357620239 0.74705559015274048
0.30266767740249634 0.45039594173431396 0.79120081663131714
0.34887427091598511 0.5196651816368103 0.83234918117523193
0.4062187671661377 0.60549646615982056 0.87263566255569458
0.47059464454650879 0.70227313041687012 0.91217124462127686
0.043076161295175552 0.066793300211429596 0.19074040651321411
0.059447478502988815 0.098499804735183716 0.26870477199554443
0.080438114702701569 0.13484896719455719 0.35114008188247681
0.10773798823356628 0.17706103622913361 0.43541541695594788
0.1414693146944046 0.22380034625530243 0.51514285802841187
0.17890083789825439 0.27228206396102905 0.58783251047134399
0.2138744443655014 0.31761893630027771 0.65104341506958008
0.24410815536975861 0.36004945635795593 0.70520639419555664
0.27447220683097839 0.40537390112876892 0.75303250551223755
0.3113553524017334 0.46173539757728577 0.79698801040649414
0.35879132151603699 0.53332197666168213 0.83872008323669434
0.41595706343650818 0.61885344982147217 0.87870603799819946
0.47860607504844666 0.71257984638214111 0.91663104295730591
0.045222055166959763 0.070719711482524872 0.20319955050945282
0.060745537281036377 0.10151783376932144 0.27817022800445557
0.080440446734428406 0.1375361829996109 0.35979640483856201
0.10621987283229828 0.17909808456897736 0.44342383742332458
0.13987623155117035 0.22570683062076569 0.52178823947906494
0.17896310985088348 0.27620324492454529 0.59482324123382568
0.21513862907886505 0.32262885570526123 0.65801149606704712
0.2468440979719162 0.36583754420280457 0.71165925264358521
0.27980956435203552 0.41364836692810059 0.75927954912185669
0.31963980197906494 0.47342011332511902 0.8034975528717041
0.36907953023910522 0.54790967702865601 0.84569334983825684
0.42608228325843811 0.6335071325302124 0.88515055179595947
0.48653745651245117 0.72321408987045288 0.92133820056915283
0.048094026744365692 0.074242793023586273 0.21694852411746979
0.064986661076545715 0.10677629709243774 0.29578176140785217
0.084176264703273773 0.14224702119827271 0.37555485963821411
0.10684545338153839 0.18087431788444519 0.45305284857749939
0.13702744245529175 0.22493025660514832 0.52621299028396606
0.17604885995388031 0.27547076344490051 0.59844231605529785
0.21403324604034424 0.32419750094413757 0.66230648756027222
0.24899949133396149 0.37097814679145813 0.71688783168792725
0.28521665930747986 0.42265105247497559 0.76523137092590332
0.32800030708312988 0.48623389005661011 0.81020998954772949
0.37942105531692505 0.56392741203308105 0.85283112525939941
0.43625876307487488 0.64900541305541992 0.89172190427780151
0.49386584758758545 0.73421788215637207 0.92536741495132446
0.050987977534532547 0.077359803020954132 0.22911989688873291
0.071191482245922089 0.11343573778867722 0.31446191668510437
0.091902367770671844 0.15031926333904266 0.39644548296928406
0.11335404217243195 0.18758833408355713 0.46806064248085022
0.14078217744827271 0.22910529375076294 0.53562170267105103
0.17711354792118073 0.27766472101211548 0.60328370332717896
0.21524950861930847 0.32760614156723022 0.66571855545043945
0.25251093506813049 0.37816038727760315 0.72074007987976074
0.29210296273231506 0.43430426716804504 0.77006232738494873
0.33728796243667603 0.50100517272949219 0.81524866819381714
0.38970330357551575 0.57970654964447021 0.85764753818511963
0.44568660855293274 0.66331726312637329 0.89557743072509766
0.50166648626327515 0.74553918838500977 0.92798531055450439
0.054047033190727234 0.081199094653129578 0.23655708134174347
0.076498769223690033 0.11952610313892365 0.32604220509529114
0.099884569644927979 0.15878951549530029 0.40922516584396362
0.12316016107797623 0.19756247103214264 0.4807732105255127
0.15077598392963409 0.23942197859287262 0.54623991250991821
0.18446238338947296 0.28608494997024536 0.60940104722976685
0.22127880156040192 0.33614814281463623 0.66872489452362061
0.25968471169471741 0.38923487067222595 0.72318905591964722
0.30128610134124756 0.44853910803794861 0.77229076623916626
0.34757581353187561 0.51692986488342285 0.81740957498550415
0.39946886897087097 0.59418559074401855 0.85883080959320068
0.45451569557189941 0.67583233118057251 0.89608913660049438
0.510417640209198 0.75780051946640015 0.92874276638031006
0.056553591042757034 0.085964277386665344 0.23822797834873199
0.080725453794002533 0.12600222229957581 0.32769888639450073
0.10582283139228821 0.16651040315628052 0.41098347306251526
0.13208192586898804 0.20775958895683289 0.48431119322776794
0.1613323986530304 0.25117331743240356 0.55076307058334351
0.19441573321819305 0.2981593906879425 0.61297619342803955
0.23072457313537598 0.34865039587020874 0.67031079530715942
0.26953795552253723 0.40356966853141785 0.72317296266555786
0.31186264753341675 0.46453619003295898 0.77169317007064819
0.35860937833786011 0.53300970792770386 0.81616419553756714
0.40957450866699219 0.60857886075973511 0.85702848434448242
0.46368202567100525 0.68838983774185181 0.89385300874710083
0.51964068412780762 0.77023088932037354 0.9271010160446167
0.031154124066233635 0.050550557672977448 0.14835318922996521
0.047210425138473511 0.078451968729496002 0.22640013694763184
0.065110258758068085 0.10772272944450378 0.3038928210735321
0.085163146257400513 0.14097431302070618 0.38148385286331177
0.1100362166762352 0.17976090312004089 0.45725792646408081
0.14063934981822968 0.22485139966011047 0.5292397141456604
0.17589695751667023 0.27415281534194946 0.59750419855117798
0.21159078180789948 0.32354620099067688 0.66051000356674194
0.24390022456645966 0.36740496754646301 0.71609723567962646
0.27160951495170593 0.40492403507232666 0.76319926977157593
0.30316424369812012 0.45015659928321838 0.80529183149337769
0.35350528359413147 0.52660304307937622 0.84944272041320801
0.42246606945991516 0.6342347264289856 0.89559745788574219
0.03415386751294136 0.053502626717090607 0.15182122588157654
0.05012207105755806 0.081010736525058746 0.22995829582214355
0.067180603742599487 0.11024274677038193 0.30871108174324036
0.087492145597934723 0.14388507604598999 0.38793084025382996
0.11246809363365173 0.18334659934043884 0.4652256965637207
0.1431785374879837 0.22890445590019226 0.53862732648849487
0.17818476259708405 0.27847570180892944 0.60726100206375122
0.21426886320114136 0.32836261391639709 0.67007887363433838
0.24812418222427368 0.37460675835609436 0.72542047500610352
0.27866724133491516 0.41653540730476379 0.77245241403579712
0.31330996751785278 0.46636503934860229 0.81414598226547241
0.36370706558227539 0.54257476329803467 0.85674917697906494
0.43069422245025635 0.64646315574645996 0.90111285448074341
0.038170129060745239 0.056475933641195297 0.15989527106285095
0.054005507379770279 0.0839972123503685 0.23847141861915588
0.071492217481136322 0.11361278593540192 0.3175884485244751
0.091868624091148376 0.14837239682674408 0.39688292145729065
0.11712149530649185 0.18851172924041748 0.47443181276321411
0.14732800424098969 0.23372296988964081 0.54764842987060547
0.18128061294555664 0.28202900290489197 0.61549234390258789
0.21609838306903839 0.33059841394424438 0.6770026683807373
0.24998340010643005 0.37756767868995667 0.73090600967407227
0.28352919220924377 0.42444664239883423 0.77734750509262085
0.32269787788391113 0.48127219080924988 0.81923919916152954
0.37542334198951721 0.56072157621383667 0.86130982637405396
0.44154256582260132 0.66245979070663452 0.90461498498916626
0.041276700794696808 0.059541214257478714 0.17109046876430511
0.057872354984283447 0.087706081569194794 0.25013673305511475
0.075874000787734985 0.11846279352903366 0.32944318652153015
0.097195222973823547 0.15437500178813934 0.40824764966964722
0.12305670231580734 0.19504265487194061 0.48481494188308716
0.15314850211143494 0.23973159492015839 0.55706381797790527
0.18585319817066193 0.28645017743110657 0.62313520908355713
0.21866871416568756 0.33273565769195557 0.68236595392227173
0.25136342644691467 0.37883970141410828 0.7343706488609314
0.28635865449905396 0.42829334735870361 0.77987289428710938
0.32919910550117493 0.49081230163574219 0.821735680103302
0.38483965396881104 0.57458412647247314 0.8635219931602478
0.45203086733818054 0.67765194177627563 0.90687555074691772
0.04265926405787468 0.06176694855093956 0.17870496213436127
0.058703284710645676 0.091788366436958313 0.26012888550758362
0.079015277326107025 0.12456876039505005 0.34059876203536987
0.10255850851535797 0.16184818744659424 0.41982674598693848
0.12988054752349854 0.20357611775398254 0.49589365720748901
0.16067694127559662 0.24824324250221252 0.56658023595809937
0.19257310032844543 0.29356396198272705 0.6304858922958374
0.22344474494457245 0.33755415678024292 0.68730342388153076
0.25419634580612183 0.38150119781494141 0.73750633001327515
0.28897958993911743 0.43208715319633484 0.78214085102081299
0.33411714434623718 0.49775168299674988 0.82380509376525879
0.39236718416213989 0.58496719598770142 0.86564481258392334
0.46078181266784668 0.68914902210235596 0.90879327058792114
0.043026451021432877 0.06401379406452179 0.18467646837234497
0.061388801783323288 0.096038669347763062 0.2682308554649353
0.081977203488349915 0.13090501725673676 0.35060557723045349
0.10704389214515686 0.1701376736164093 0.43078708648681641
0.13676998019218445 0.21352185308933258 0.50686395168304443
0.16896346211433411 0.25900965929031372 0.57639938592910767
0.20086976885795593 0.30361393094062805 0.63809919357299805
0.23018249869346619 0.34546306729316711 0.69255852699279785
0.25904437899589539 0.3872847855091095 0.74120146036148071
0.29364150762557983 0.43762892484664917 0.7854621410369873
0.33980658650398254 0.50566041469573975 0.82717061042785645
0.39985299110412598 0.59478539228439331 0.8693048357963562
0.46839287877082825 0.69841653108596802 0.91176784038543701
0.043715983629226685 0.06766471266746521 0.19448022544384003
0.062302563339471817 0.10019896179437637 0.2768709659576416
0.083221971988677979 0.13664761185646057 0.35979282855987549
0.11024270206689835 0.17785340547561646 0.44148850440979004
0.14228855073451996 0.22321334481239319 0.51804584264755249
0.17657636106014252 0.26989835500717163 0.58690154552459717
0.20886059105396271 0.31412544846534729 0.64660078287124634
0.23726502060890198 0.3543093204498291 0.69881522655487061
0.26540035009384155 0.39478173851966858 0.74623483419418335
0.30022081732749939 0.44595938920974731 0.79017806053161621
0.34799408912658691 0.51623433828353882 0.83249038457870483
0.40868723392486572 0.60668373107910156 0.8746103048324585
0.47665855288505554 0.7088320255279541 0.91611891984939575
0.045520078390836716 0.071071922779083252 0.20452660322189331
0.062718108296394348 0.10400320589542389 0.28584983944892883
0.084190309047698975 0.14115215837955475 0.36939233541488647
0.11184131354093552 0.18396438658237457 0.45241913199424744
0.14601840078830719 0.23097428679466248 0.52965593338012695
0.18238560855388641 0.27893441915512085 0.59874242544174194
0.21502600610256195 0.32242819666862488 0.65740501880645752
0.24294711649417877 0.36116302013397217 0.70763599872589111
0.27158138155937195 0.40235236287117004 0.75314295291900635
0.30839607119560242 0.45620822906494141 0.79671621322631836
0.35771334171295166 0.53008580207824707 0.8396841287612915
0.4190366268157959 0.62151551246643066 0.88169163465499878
0.48519521951675415 0.72050249576568604 0.92163735628128052
0.047652959823608398 0.07425931841135025 0.21627220511436462
0.064846634864807129 0.10751952975988388 0.2971554696559906
0.08563009649515152 0.14482124149799347 0.38028961420059204
0.11248029768466949 0.18738965690135956 0.46281898021697998
0.14715534448623657 0.23475019633769989 0.53937983512878418
0.18549972772598267 0.2843872606754303 0.6093636155128479
0.2186407744884491 0.32752454280853271 0.66784167289733887
0.24683377146720886 0.3658912181854248 0.71678417921066284
0.27712723612785339 0.40912792086601257 0.76153290271759033
0.31620055437088013 0.46703505516052246 0.80473017692565918
0.36835739016532898 0.54516065120697021 0.84825891256332397
0.42975416779518127 0.63803869485855103 0.89033323526382446
0.49320617318153381 0.73261439800262451 0.92778664827346802
0.050542045384645462 0.077047668397426605 0.22915442287921906
0.068842627108097076 0.11187223345041275 0.31252893805503845
0.089561775326728821 0.14922723174095154 0.39503592252731323
0.11456350982189178 0.1898152083158493 0.47351449728012085
0.14646627008914948 0.23495294153690338 0.54671406745910645
0.1838916540145874 0.2836863100528717 0.61526381969451904
0.21857361495494843 0.32865995168685913 0.67466849088668823
0.24979785084724426 0.37026870250701904 0.72471117973327637
0.28309524059295654 0.41775625944137573 0.77014505863189697
0.32504057884216309 0.48003062605857849 0.81363809108734131
0.37940877676010132 0.56269568204879761 0.85789543390274048
0.44137173891067505 0.6568748950958252 0.89976966381072998
0.50104188919067383 0.74496150016784668 0.93409758806228638
0.053313806653022766 0.078707873821258545 0.24018779397010803
0.073722869157791138 0.11655917018651962 0.32855042815208435
0.09584382176399231 0.15548557043075562 0.41212373971939087
0.12004583328962326 0.19511598348617554 0.48692011833190918
0.14941732585430145 0.23807378113269806 0.55548226833343506
0.18443922698497772 0.28464055061340332 0.62071949243545532
0.21979478001594543 0.33116069436073303 0.67943066358566284
0.25419294834136963 0.37793669104576111 0.73103505373001099
0.29103177785873413 0.43046718835830688 0.7776796817779541
0.33593648672103882 0.49726280570030212 0.82180732488632202
0.39102935791015625 0.58103394508361816 0.86554604768753052
0.45133045315742493 0.67229819297790527 0.90580558776855469
0.50852304697036743 0.75617015361785889 0.93782520294189453
0.05493578314781189 0.081772148609161377 0.24689607322216034
0.077864766120910645 0.12123139202594757 0.33836722373962402
0.10199471563100815 0.16197535395622253 0.42360714077949524
0.12748463451862335 0.20282687246799469 0.49771022796630859
0.15672503411769867 0.24553659558296204 0.56439685821533203
0.19010928273200989 0.29136544466018677 0.62693297863006592
0.22530126571655273 0.3389798104763031 0.68396532535552979
0.26174041628837585 0.3894248902797699 0.73537617921829224
0.30137300491333008 0.44677338004112244 0.78241449594497681
0.34765273332595825 0.51517558097839355 0.82653969526290894
0.40132585167884827 0.59612631797790527 0.86836165189743042
0.45883113145828247 0.68225371837615967 0.90660965442657471
0.51620835065841675 0.76626664400100708 0.93935930728912354
0.056647326797246933 0.08509458601474762 0.24896273016929626
0.080854199826717377 0.12646642327308655 0.34067842364311218
0.10703178495168686 0.16854383051395416 0.42555913329124451
0.13480766117572784 0.21122080087661743 0.50122302770614624
0.16553832590579987 0.25551387667655945 0.56860405206680298
0.1987394243478775 0.30194422602653503 0.62987089157104492
0.23395708203315735 0.35088410973548889 0.68601042032241821
0.2713019847869873 0.40388336777687073 0.73704898357391357
0.31252583861351013 0.46379142999649048 0.7838749885559082
0.3590272068977356 0.53261685371398926 0.82740479707717896
0.41114544868469238 0.61018544435501099 0.86799412965774536
0.4670407772064209 0.69274449348449707 0.905007004737854
0.52415674924850464 0.77653723955154419 0.93825763463973999
0.031352292746305466 0.052870206534862518 0.15154001116752625
0.049936674535274506 0.081433452665805817 0.23287831246852875
0.068566851317882538 0.11176446825265884 0.31239473819732666
0.089885547757148743 0.14592114090919495 0.38936775922775269
0.11469268798828125 0.18509566783905029 0.46328341960906982
0.144373819231987 0.22929118573665619 0.53414618968963623
0.17874540388584137 0.27801811695098877 0.60216939449310303
0.21522609889507294 0.32834896445274353 0.6658136248588562
0.24965965747833252 0.37567386031150818 0.72198385000228882
0.27948465943336487 0.41709211468696594 0.76860326528549194
0.31115221977233887 0.46296820044517517 0.80880153179168701
0.36242219805717468 0.54124623537063599 0.85217463970184326
0.43142890930175781 0.64928251504898071 0.89890283346176147
0.034014429897069931 0.056501604616641998 0.1558585911989212
0.051255185157060623 0.084873363375663757 0.23787221312522888
0.070276446640491486 0.11507918685674667 0.31830421090126038
0.091376751661300659 0.14985378086566925 0.39629295468330383
0.11637952923774719 0.18973483145236969 0.47151854634284973
0.14669016003608704 0.23489998281002045 0.54373985528945923
0.18166522681713104 0.28442376852035522 0.61247378587722778
0.21884000301361084 0.33572161197662354 0.67572736740112305
0.25546044111251831 0.38621506094932556 0.73205757141113281
0.28886696696281433 0.43243536353111267 0.77916353940963745
0.32309538125991821 0.48161166906356812 0.81917786598205566
0.37368223071098328 0.55842453241348267 0.86063313484191895
0.44026100635528564 0.66120749711990356 0.90462231636047363
0.037326693534851074 0.0599338598549366 0.16606299579143524
0.054590277373790741 0.088257059454917908 0.24756401777267456
0.073259197175502777 0.11903568357229233 0.32777327299118042
0.094440475106239319 0.15438051521778107 0.40573877096176147
0.11958989500999451 0.19494098424911499 0.48123133182525635
0.14981874823570251 0.24006904661655426 0.55344444513320923
0.18416266143321991 0.2888028621673584 0.62106209993362427
0.22042809426784515 0.33884850144386292 0.68274694681167603
0.25641259551048279 0.38839530944824219 0.73725765943527222
0.29211977124214172 0.43792274594306946 0.78399157524108887
0.33216443657875061 0.4956020712852478 0.82532757520675659
0.38486996293067932 0.57443118095397949 0.86623311042785645
0.45045822858810425 0.67432099580764771 0.90864831209182739
0.040700875222682953 0.063205674290657043 0.17964912950992584
0.058122433722019196 0.092142872512340546 0.26039829850196838
0.076997928321361542 0.12351012974977493 0.34004038572311401
0.098603762686252594 0.15974153578281403 0.41776114702224731
0.12436053901910782 0.20090760290622711 0.49259275197982788
0.15426589548587799 0.24572151899337769 0.56340885162353516
0.18746602535247803 0.29288789629936218 0.62858003377914429
0.22162063419818878 0.34031674265861511 0.68742483854293823
0.25595870614051819 0.38744553923606873 0.73944121599197388
0.29258760809898376 0.43832054734230042 0.78523880243301392
0.33696547150611877 0.50181251764297485 0.8272596001625061
0.39336395263671875 0.58517104387283325 0.86878037452697754
0.46000537276268005 0.68582785129547119 0.91079831123352051
0.04308503121137619 0.066100209951400757 0.19079281389713287
0.060617782175540924 0.096127845346927643 0.27223539352416992
0.080272942781448364 0.12895798683166504 0.35234475135803223
0.10337451100349426 0.16650202870368958 0.43007314205169678
0.13052569329738617 0.20854030549526215 0.50405102968215942
0.160874143242836 0.25349411368370056 0.57288634777069092
