assets/lut/others summer alt.cube
# Created by: G'MIC (https://gmic.eu)
TITLE "summer_alt"
# LUT size
LUT_3D_SIZE 13
# Data domain
DOMAIN_MIN 0.0 0.0 0.0
DOMAIN_MAX 1.0 1.0 1.0
# LUT data points
0.043161399662494659 0.022163135930895805 0.23835371434688568
0.14284643530845642 0.023096391931176186 0.23805247247219086
0.24018557369709015 0.02402191236615181 0.23727087676525116
0.33459770679473877 0.024446643888950348 0.23695524036884308
0.42457497119903564 0.024820230901241302 0.23767927289009094
0.50952184200286865 0.025138780474662781 0.23918889462947845
0.58874702453613281 0.025475027039647102 0.24042777717113495
0.66167032718658447 0.025683892890810966 0.24050244688987732
0.72861522436141968 0.026297325268387794 0.24016445875167847
0.79196399450302124 0.026999305933713913 0.23940537869930267
0.85297077894210815 0.0268707275390625 0.23897059261798859
0.9110906720161438 0.026315741240978241 0.23897759616374969
0.96899509429931641 0.025518201291561127 0.2396240234375
0.044319692999124527 0.085454054176807404 0.23880720138549805
0.14432717859745026 0.086693271994590759 0.23904024064540863
0.2429039478302002 0.087351463735103607 0.23824967443943024
0.33625620603561401 0.087715193629264832 0.23775707185268402
0.42617958784103394 0.087944671511650085 0.23810750246047974
0.51079708337783813 0.088674344122409821 0.23881159722805023
0.58944344520568848 0.089743368327617645 0.23977610468864441
0.66196829080581665 0.090318627655506134 0.2398897111415863
0.72882360219955444 0.090501956641674042 0.23927146196365356
0.7919430136680603 0.09086531400680542 0.23865637183189392
0.85301262140274048 0.090781912207603455 0.23872165381908417
0.9110906720161438 0.090494818985462189 0.23897059261798859
0.96899509429931641 0.090012326836585999 0.23897759616374969
0.046037293970584869 0.1512254923582077 0.23980662226676941
0.14586390554904938 0.15170662105083466 0.23984798789024353
0.24335901439189911 0.15211355686187744 0.23886196315288544
0.33616945147514343 0.15214304625988007 0.23803010582923889
0.42605105042457581 0.15206681191921234 0.23755151033401489
0.51021873950958252 0.15273813903331757 0.2378121018409729
0.58809763193130493 0.15383155643939972 0.23817986249923706
0.6602059006690979 0.15478436648845673 0.23822282254695892
0.72717684507369995 0.15560212731361389 0.23780995607376099
0.79037749767303467 0.15579427778720856 0.23756414651870728
0.85190033912658691 0.15554942190647125 0.23783932626247406
0.9110906720161438 0.15488412976264954 0.23865592479705811
0.96906894445419312 0.15429720282554626 0.23897059261798859
0.046446077525615692 0.21914444863796234 0.24050244688987732
0.14587725698947906 0.21899743378162384 0.24040502309799194
0.2421620786190033 0.21860614418983459 0.23922771215438843
0.33535701036453247 0.21748213469982147 0.23777884244918823
0.42501366138458252 0.21726812422275543 0.23707018792629242
0.50873690843582153 0.21877650916576385 0.2368963211774826
0.58620679378509521 0.22005686163902283 0.23713649809360504
0.65800303220748901 0.22109071910381317 0.23731094598770142
0.72492814064025879 0.22251099348068237 0.23692919313907623
0.78863441944122314 0.22253629565238953 0.23667655885219574
0.85056012868881226 0.22160071134567261 0.23758690059185028
0.91109228134155273 0.22076486051082611 0.23856730759143829
0.97082972526550293 0.22031153738498688 0.23925602436065674
0.046184703707695007 0.28886234760284424 0.2409660816192627
0.14306603372097015 0.28794169425964355 0.24077199399471283
0.23957571387290955 0.28713890910148621 0.23964093625545502
0.33434608578681946 0.28645449876785278 0.23784850537776947
0.4235902726650238 0.28632178902626038 0.23674696683883667
0.50678443908691406 0.28732037544250488 0.23658087849617004
0.58389270305633545 0.28948143124580383 0.23659022152423859
0.65576672554016113 0.29069548845291138 0.23707990348339081
0.72323018312454224 0.29124116897583008 0.23730860650539398
0.78762567043304443 0.29105111956596375 0.23755344748497009
0.8502923846244812 0.29028409719467163 0.23829610645771027
0.91130340099334717 0.28908714652061462 0.23935122787952423
0.97239547967910767 0.28842711448669434 0.24000264704227448
0.044323775917291641 0.36075398325920105 0.24128638207912445
0.14295342564582825 0.35990411043167114 0.24124787747859955
0.23944717645645142 0.35924389958381653 0.24044488370418549
0.33252149820327759 0.3585103452205658 0.23876546323299408
0.4214177131652832 0.35858771204948425 0.23749646544456482
0.50452142953872681 0.36102882027626038 0.23700425028800964
0.58175784349441528 0.36217814683914185 0.237217977643013
0.65388727188110352 0.36307111382484436 0.23788347840309143
0.72195702791213989 0.36342623829841614 0.23853006958961487
0.78692823648452759 0.36294898390769958 0.23905742168426514
0.85020869970321655 0.36202499270439148 0.23972900211811066
0.9119337797164917 0.3604130744934082 0.24037176370620728
0.97281396389007568 0.35957545042037964 0.24071851372718811
0.042684458196163177 0.43529412150382996 0.2415902316570282
0.14273726940155029 0.43529412150382996 0.24188196659088135
0.23851069808006287 0.43529412150382996 0.24119614064693451
0.33085015416145325 0.43529412150382996 0.24016973376274109
0.41959360241889954 0.43566739559173584 0.23863767087459564
0.50272464752197266 0.43807730078697205 0.23795017600059509
0.58006292581558228 0.43921568989753723 0.23828525841236115
0.65231227874755859 0.43921568989753723 0.23912143707275391
0.72072672843933105 0.43921568989753723 0.24016556143760681
0.78642988204956055 0.43920168280601501 0.24101041257381439
0.85017174482345581 0.43722772598266602 0.2411980926990509
0.91231292486190796 0.4353349506855011 0.24125584959983826
0.97299134731292725 0.43529412150382996 0.24108918011188507
0.042524509131908417 0.51447027921676636 0.24209615588188171
0.14196257293224335 0.51393944025039673 0.24277505278587341
0.23774556815624237 0.51447540521621704 0.24164561927318573
0.33039262890815735 0.5155029296875 0.24091142416000366
0.41874173283576965 0.51677453517913818 0.23982515931129456
0.50201022624969482 0.51783913373947144 0.2382749617099762
0.57944941520690918 0.51868903636932373 0.23901312053203583
0.65135884284973145 0.51910597085952759 0.24047712981700897
0.71982961893081665 0.51847356557846069 0.2423279881477356
0.78576749563217163 0.51738351583480835 0.24274182319641113
0.85002613067626953 0.51633661985397339 0.24236804246902466
0.91212743520736694 0.51507765054702759 0.2414022833108902
0.97283029556274414 0.51477855443954468 0.24053901433944702
0.042524509131908417 0.59592628479003906 0.24135515093803406
0.14228422939777374 0.59604936838150024 0.24210503697395325
0.2383418083190918 0.59677338600158691 0.24139271676540375
0.3306182324886322 0.598285973072052 0.24077044427394867
0.41922590136528015 0.59959667921066284 0.2394881546497345
0.50235199928283691 0.60062462091445923 0.23816485702991486
0.57956206798553467 0.6018221378326416 0.23887266218662262
0.65129768848419189 0.60189759731292725 0.24106565117835999
0.71945542097091675 0.60057634115219116 0.24296504259109497
0.78561949729919434 0.59969204664230347 0.24328367412090302
0.84968477487564087 0.59867364168167114 0.24253198504447937
0.91165834665298462 0.59763473272323608 0.24093127250671387
0.97224050760269165 0.59753382205963135 0.23949176073074341
0.043345045298337936 0.68032574653625488 0.23942545056343079
0.14291661977767944 0.68091922998428345 0.24094702303409576
0.23928439617156982 0.68223041296005249 0.2410164475440979
0.331624835729599 0.68344485759735107 0.24020588397979736
0.42047172784805298 0.68454223871231079 0.2384016215801239
0.50347614288330078 0.68608564138412476 0.23736947774887085
0.58074331283569336 0.68626570701599121 0.23796415328979492
0.65277057886123657 0.6862025260925293 0.24047650396823883
0.72088444232940674 0.68601953983306885 0.24269326031208038
0.78645247220993042 0.68443459272384644 0.24294871091842651
0.85005295276641846 0.68370169401168823 0.24215354025363922
0.91115492582321167 0.68301934003829956 0.24015030264854431
0.97059226036071777 0.68306601047515869 0.23776537179946899
0.044783707708120346 0.76810634136199951 0.23773974180221558
0.14295342564582825 0.76856428384780884 0.24000479280948639
0.2394607812166214 0.76935094594955444 0.24050244688987732
0.33313760161399841 0.77081400156021118 0.23963652551174164
0.42193946242332458 0.77147984504699707 0.23777669668197632
0.50579619407653809 0.77272778749465942 0.2372298389673233
0.58343654870986938 0.77279412746429443 0.23778274655342102
0.65552544593811035 0.77279412746429443 0.24011144042015076
0.72366714477539062 0.77268189191818237 0.24208974838256836
0.78883790969848633 0.77138930559158325 0.24278636276721954
0.85147637128829956 0.7709496021270752 0.24174164235591888
0.9110906720161438 0.77048593759536743 0.23978035151958466
0.96909546852111816 0.77055472135543823 0.23731696605682373
0.045818701386451721 0.8574521541595459 0.23686070740222931
0.14295342564582825 0.8582763671875 0.23981286585330963
0.2394607812166214 0.85845589637756348 0.24051003158092499
0.33359637856483459 0.85919076204299927 0.23956573009490967
0.42284989356994629 0.85982686281204224 0.23781055212020874
0.50764840841293335 0.85998773574829102 0.23779197037220001
0.5860249400138855 0.86010152101516724 0.23916953802108765
0.6586078405380249 0.86007118225097656 0.24073776602745056
0.72682482004165649 0.85998773574829102 0.2419806569814682
0.79172217845916748 0.85983872413635254 0.2426971048116684
0.85320919752120972 0.85920286178588867 0.24188166856765747
0.91177678108215332 0.85894346237182617 0.24062688648700714
0.96936851739883423 0.85917425155639648 0.23888620734214783
0.045632008463144302 0.94748812913894653 0.23643697798252106
0.14295342564582825 0.94803160429000854 0.23991765081882477
0.23917762935161591 0.94803923368453979 0.24116483330726624
0.33224612474441528 0.94811153411865234 0.23985899984836578
0.42193472385406494 0.94863289594650269 0.23817402124404907
0.50837880373001099 0.94877451658248901 0.23895338177680969
0.58758902549743652 0.94877451658248901 0.24062244594097137
0.66015291213989258 0.94877451658248901 0.24170391261577606
0.72880536317825317 0.94877451658248901 0.24250437319278717
0.79374170303344727 0.94857203960418701 0.24289216101169586
0.85496598482131958 0.94809287786483765 0.24251584708690643
0.91368478536605835 0.94803923368453979 0.24183051288127899
0.97007691860198975 0.94813024997711182 0.24105106294155121
0.044013392180204391 0.023301951587200165 0.28084981441497803
0.14314831793308258 0.024552842602133751 0.28074324131011963
0.2410794198513031 0.025173980742692947 0.27989593148231506
0.33546063303947449 0.025574598461389542 0.27959546446800232
0.42569231986999512 0.025526562705636024 0.28044939041137695
0.51064532995223999 0.025490196421742439 0.28196620941162109
0.58975231647491455 0.025520533323287964 0.28298085927963257
0.66272205114364624 0.026204695925116539 0.28323113918304443
0.73016202449798584 0.026287483051419258 0.28285270929336548
0.79366093873977661 0.026264026761054993 0.2818942666053772
0.85319560766220093 0.025901360437273979 0.28139883279800415
0.91153895854949951 0.025459857657551765 0.28137841820716858
0.96899509429931641 0.024804672226309776 0.28148826956748962
0.04507133737206459 0.086955368518829346 0.28119710087776184
0.14398573338985443 0.088381417095661163 0.28153634071350098
0.24273964762687683 0.089396290481090546 0.28096571564674377
0.33646857738494873 0.089550450444221497 0.2804933488368988
0.42664662003517151 0.08923754096031189 0.28069871664047241
0.51194405555725098 0.08942248672246933 0.28172659873962402
0.59139245748519897 0.08972042053937912 0.2825143039226532
0.66323316097259521 0.090275846421718597 0.28266188502311707
0.73043972253799438 0.090318687260150909 0.28230226039886475
0.79358983039855957 0.09031958132982254 0.28143137693405151
0.85318624973297119 0.090188093483448029 0.28073021769523621
0.9110906720161438 0.089368559420108795 0.28075122833251953
0.96899509429931641 0.088149324059486389 0.28137841820716858
0.046418268233537674 0.15314298868179321 0.28252521157264709
0.14408238232135773 0.15396444499492645 0.28231373429298401
0.24119725823402405 0.15402425825595856 0.28159493207931519
0.33579418063163757 0.15340238809585571 0.28066584467887878
0.42616152763366699 0.15293686091899872 0.28043460845947266
0.51103240251541138 0.15294118225574493 0.28063508868217468
0.58933132886886597 0.15361140668392181 0.28116452693939209
0.66198271512985229 0.15430614352226257 0.28136506676673889
0.72891813516616821 0.15463344752788544 0.28091061115264893
0.79216170310974121 0.15464609861373901 0.28041011095046997
0.85313421487808228 0.15425208210945129 0.28050908446311951
0.9110906720161438 0.15350060164928436 0.2806670069694519
0.96924209594726562 0.15272802114486694 0.2813381552696228
0.04636051133275032 0.22111658751964569 0.28298842906951904
0.14321821928024292 0.22115470468997955 0.28280758857727051
0.23966941237449646 0.22031669318675995 0.28178256750106812
0.33480772376060486 0.21931058168411255 0.28051218390464783
0.42528381943702698 0.21881023049354553 0.2797304093837738
0.50978350639343262 0.21899412572383881 0.27957093715667725
0.58793503046035767 0.21995826065540314 0.27983212471008301
0.65991216897964478 0.22077272832393646 0.28003981709480286
0.72710263729095459 0.22085924446582794 0.2798883318901062
0.79068458080291748 0.22079680860042572 0.27984067797660828
0.8526037335395813 0.22056630253791809 0.28030043840408325
0.91154271364212036 0.21937523782253265 0.28106498718261719
0.97245341539382935 0.2190125584602356 0.28174707293510437
0.044749435037374496 0.29035297036170959 0.28352537751197815
0.14237463474273682 0.29000154137611389 0.28338691592216492
0.23915833234786987 0.28900378942489624 0.28216254711151123
0.33343353867530823 0.28761717677116394 0.28070983290672302
0.42377790808677673 0.28717249631881714 0.27944394946098328
0.50784623622894287 0.28786447644233704 0.27904412150382996
0.58567827939987183 0.28954190015792847 0.27905890345573425
0.65801125764846802 0.29047688841819763 0.27957445383071899
0.72563272714614868 0.29060101509094238 0.27986714243888855
0.78988164663314819 0.29033413529396057 0.28023818135261536
0.8523329496383667 0.289174884557724 0.28097072243690491
0.9131699800491333 0.28783765435218811 0.28202351927757263
0.97291666269302368 0.28709185123443604 0.28262770175933838
0.042839378118515015 0.36205300688743591 0.28441685438156128
0.14147156476974487 0.36132532358169556 0.28430774807929993
0.23856894671916962 0.36048570275306702 0.28313839435577393
0.33209121227264404 0.35967153310775757 0.28153035044670105
0.42218494415283203 0.35974583029747009 0.28013083338737488
0.50627171993255615 0.36161673069000244 0.27928799390792847
0.58395087718963623 0.36218631267547607 0.27922731637954712
0.65616804361343384 0.36295735836029053 0.27991068363189697
0.72426819801330566 0.36304602026939392 0.28075885772705078
0.78951841592788696 0.36230111122131348 0.28132107853889465
0.85241484642028809 0.36092090606689453 0.28204873204231262
0.91428101062774658 0.35939422249794006 0.28291589021682739
0.9738084077835083 0.35872814059257507 0.28357362747192383
0.042525585740804672 0.435649573802948 0.28583544492721558
0.1406196802854538 0.43532195687294006 0.28574129939079285
0.23806124925613403 0.43529412150382996 0.28449621796607971
0.33136370778083801 0.43529412150382996 0.28301605582237244
0.42107346653938293 0.43579339981079102 0.28140562772750854
0.50484377145767212 0.438588947057724 0.28044450283050537
0.58251404762268066 0.43921568989753723 0.28038755059242249
0.65473395586013794 0.43921568989753723 0.28113865852355957
0.72309833765029907 0.43921568989753723 0.28164961934089661
0.78896325826644897 0.43867689371109009 0.28239670395851135
0.8526189923286438 0.43536049127578735 0.2831854522228241
0.91478449106216431 0.43529412150382996 0.28369128704071045
0.97557097673416138 0.43529412150382996 0.28376224637031555
0.042267996817827225 0.51500391960144043 0.28712296485900879
0.14037932455539703 0.51442188024520874 0.28699752688407898
0.23839928209781647 0.51461052894592285 0.28586441278457642
0.33117413520812988 0.51546931266784668 0.28420230746269226
0.4206886887550354 0.5166248083114624 0.28268182277679443
0.50413888692855835 0.51773744821548462 0.28154292702674866
0.58135217428207397 0.51861822605133057 0.28140026330947876
0.65354549884796143 0.51907873153686523 0.28176763653755188
0.72190171480178833 0.518146812915802 0.28311476111412048
0.7881961464881897 0.51693999767303467 0.28434473276138306
0.85252386331558228 0.51513469219207764 0.28428170084953308
0.91486269235610962 0.51351195573806763 0.28382855653762817
0.97575384378433228 0.51314491033554077 0.28376224637031555
0.041676793247461319 0.59679359197616577 0.2875683605670929
0.14083480834960938 0.59650427103042603 0.28730347752571106
0.23926356434822083 0.59682762622833252 0.28623950481414795
0.33183035254478455 0.59807717800140381 0.28431791067123413
0.42133745551109314 0.59919220209121704 0.28305914998054504
0.50455659627914429 0.60012716054916382 0.28205254673957825
0.58136945962905884 0.60108137130737305 0.2819400429725647
0.652904212474823 0.60180717706680298 0.28257995843887329
0.72129148244857788 0.60039627552032471 0.28469130396842957
0.78726226091384888 0.59916436672210693 0.28538799285888672
0.85193878412246704 0.59745389223098755 0.28479295969009399
0.91451400518417358 0.59602111577987671 0.28382155299186707
0.97482508420944214 0.59572058916091919 0.28334355354309082
0.041742675006389618 0.68209803104400635 0.28608620166778564
0.14179439842700958 0.68215090036392212 0.28626087307929993
0.2394607812166214 0.68223041296005249 0.28521075844764709
0.33335712552070618 0.68294912576675415 0.28386086225509644
0.42241773009300232 0.68406099081039429 0.28264179825782776
0.50594758987426758 0.68515175580978394 0.28146570920944214
0.58239704370498657 0.68613916635513306 0.28160315752029419
0.65337741374969482 0.68615198135375977 0.28254413604736328
0.72146010398864746 0.68591839075088501 0.28435340523719788
0.78724569082260132 0.68411314487457275 0.28511291742324829
0.85162961483001709 0.68253797292709351 0.28426828980445862
0.91368567943572998 0.68155407905578613 0.28329604864120483
0.97323548793792725 0.68085145950317383 0.28232356905937195
0.043032746762037277 0.76983106136322021 0.28325864672660828
0.14276820421218872 0.7695888876914978 0.28426563739776611
0.2394607812166214 0.76982337236404419 0.28421109914779663
0.33437544107437134 0.77065885066986084 0.28333958983421326
0.42382249236106873 0.77109384536743164 0.28204649686813354
0.50693768262863159 0.77183020114898682 0.28080379962921143
0.58391499519348145 0.77278131246566772 0.28118622303009033
0.65531587600708008 0.77279412746429443 0.28242456912994385
0.72298157215118408 0.77262222766876221 0.28361737728118896
0.78872334957122803 0.77120530605316162 0.28450220823287964
0.85210371017456055 0.77002978324890137 0.28388673067092896
0.91302841901779175 0.7688525915145874 0.28309464454650879
0.97280311584472656 0.76855343580245972 0.28170859813690186
0.044545866549015045 0.85885804891586304 0.28191050887107849
0.14295342564582825 0.85859531164169312 0.28365024924278259
0.2394607812166214 0.85859280824661255 0.28394213318824768
0.3346199095249176 0.85908752679824829 0.28304669260978699
0.42438575625419617 0.85933756828308105 0.28142675757408142
0.50889396667480469 0.85990846157073975 0.28085905313491821
0.58693581819534302 0.85998773574829102 0.28209331631660461
0.65849137306213379 0.86002629995346069 0.28300729393959045
0.72627180814743042 0.86000484228134155 0.28390771150588989
0.7911217212677002 0.85964679718017578 0.28453955054283142
0.85323268175125122 0.85865122079849243 0.28416520357131958
0.91433978080749512 0.85814064741134644 0.28364580869674683
0.97288358211517334 0.85769665241241455 0.28315469622612
0.044829409569501877 0.94803923368453979 0.28184473514556885
0.14295342564582825 0.94803923368453979 0.28411328792572021
0.2394607812166214 0.94803923368453979 0.28451019525527954
0.33419635891914368 0.94803923368453979 0.28328439593315125
0.42343413829803467 0.94804298877716064 0.28120273351669312
0.50899028778076172 0.94834226369857788 0.28173556923866272
0.58822345733642578 0.94877451658248901 0.28310087323188782
0.66077089309692383 0.94877451658248901 0.28417569398880005
0.72879195213317871 0.94877451658248901 0.28476768732070923
0.79334896802902222 0.94834798574447632 0.28504422307014465
0.85471916198730469 0.94803923368453979 0.28497344255447388
0.91501224040985107 0.94755417108535767 0.28484469652175903
0.97291415929794312 0.94725507497787476 0.28446254134178162
0.043263349682092667 0.024555161595344543 0.32245075702667236
0.1428857147693634 0.025481937453150749 0.32296398282051086
0.23947012424468994 0.02647419273853302 0.32281482219696045
0.33439412713050842 0.026642981916666031 0.32285526394844055
0.42471981048583984 0.026248259469866753 0.32376128435134888
0.50960934162139893 0.02566172368824482 0.32493782043457031
0.58847355842590332 0.025490196421742439 0.32572859525680542
0.66172128915786743 0.025507310405373573 0.32622548937797546
0.72951847314834595 0.025515088811516762 0.32572063803672791
0.79332906007766724 0.025508865714073181 0.32495683431625366
0.85318702459335327 0.025490196421742439 0.32363030314445496
0.9112238883972168 0.025101052597165108 0.32260262966156006
0.96899509429931641 0.024246141314506531 0.32276150584220886
0.043880805373191833 0.089240655303001404 0.32355734705924988
0.14279916882514954 0.090536527335643768 0.32396799325942993
0.23948179185390472 0.09080524742603302 0.32387116551399231
0.33495968580245972 0.090453267097473145 0.32321056723594666
0.42577305436134338 0.089852474629878998 0.32419747114181519
0.51083695888519287 0.089483164250850677 0.3248114287853241
0.58974659442901611 0.089250959455966949 0.32551836967468262
0.66291171312332153 0.089265547692775726 0.32589644193649292
0.73023337125778198 0.089498333632946014 0.32554039359092712
0.79371410608291626 0.089536257088184357 0.32492002844810486
0.85318624973297119 0.08909810334444046 0.32377809286117554
0.9110906720161438 0.088255025446414948 0.32305732369422913
0.96899509429931641 0.087193839251995087 0.32263296842575073
0.044046889990568161 0.1556093841791153 0.32401144504547119
0.14134767651557922 0.15648451447486877 0.32424873113632202
0.23837225139141083 0.15612690150737762 0.3243563175201416
0.33376452326774597 0.15479350090026855 0.32343614101409912
0.42550045251846313 0.1534045934677124 0.32319760322570801
0.51043391227722168 0.15294118225574493 0.32379215955734253
0.58879822492599487 0.15329228341579437 0.32447043061256409
0.66223925352096558 0.15361654758453369 0.32499030232429504
0.72952008247375488 0.15384933352470398 0.32495406270027161
0.79302465915679932 0.15382151305675507 0.32441139221191406
0.85318624973297119 0.15335956215858459 0.32370603084564209
0.91109216213226318 0.15262925624847412 0.32327014207839966
0.96951067447662354 0.15202672779560089 0.3234521746635437
0.042910169810056686 0.22341212630271912 0.32401961088180542
0.13942801952362061 0.22387769818305969 0.3241482675075531
0.23632922768592834 0.22292459011077881 0.32403555512428284
0.33237886428833008 0.22076831758022308 0.32315999269485474
0.42428106069564819 0.2191382497549057 0.32242333889007568
0.50983309745788574 0.21899509429931641 0.32234552502632141
0.5882103443145752 0.2197033017873764 0.32270684838294983
0.66087871789932251 0.2207331657409668 0.3231939971446991
0.72831088304519653 0.22077205777168274 0.32352688908576965
0.79220348596572876 0.22072751820087433 0.3235933780670166
0.85318899154663086 0.21952010691165924 0.32396450638771057
0.91308498382568359 0.21899609267711639 0.32446417212486267
0.97285783290863037 0.21899509429931641 0.32463067770004272
0.041722614318132401 0.2923831045627594 0.32408842444419861
0.13850061595439911 0.29243618249893188 0.32455706596374512
0.23553556203842163 0.29116755723953247 0.32416784763336182
0.33205083012580872 0.28916662931442261 0.32305687665939331
0.42355415225028992 0.28778010606765747 0.3217720091342926
0.50879251956939697 0.28867450356483459 0.32126638293266296
0.58739513158798218 0.28981629014015198 0.32155072689056396
