assets/lut/others cinematic 03.cube
# Created by: G'MIC (https://gmic.eu)
TITLE "cinematic_03"
# LUT size
LUT_3D_SIZE 7
# Data domain
DOMAIN_MIN 0.0 0.0 0.0
DOMAIN_MAX 1.0 1.0 1.0
# LUT data points
0.063248202204704285 0.068948633968830109 0.063786692917346954
0.13113208115100861 0.070539616048336029 0.069785833358764648
0.25204047560691833 0.079983748495578766 0.071434587240219116
0.36818605661392212 0.11377065628767014 0.066090933978557587
0.45694950222969055 0.14749230444431305 0.067307263612747192
0.54355168342590332 0.19707800447940826 0.070588238537311554
0.60333544015884399 0.22547240555286407 0.066715657711029053
0.064675226807594299 0.080606333911418915 0.070568397641181946
0.1385832279920578 0.099970676004886627 0.068873040378093719
0.29727771878242493 0.13653463125228882 0.070007786154747009
0.42146611213684082 0.18772916495800018 0.0651274174451828
0.50374418497085571 0.21464076638221741 0.06989625096321106
0.55311650037765503 0.20907963812351227 0.070588238537311554
0.60534083843231201 0.24205414950847626 0.072884544730186462
0.064391672611236572 0.13430203497409821 0.068096935749053955
0.11115794628858566 0.17466209828853607 0.0712127685546875
0.33411872386932373 0.21622946858406067 0.07150714099407196
0.46944284439086914 0.25634172558784485 0.067734785377979279
0.58202457427978516 0.31087484955787659 0.089321285486221313
0.62902885675430298 0.29671990871429443 0.086267389357089996
0.62945014238357544 0.26956894993782043 0.081336736679077148
0.064527086913585663 0.20984494686126709 0.074245885014533997
0.07656097412109375 0.23221579194068909 0.072708860039710999
0.33557218313217163 0.34141594171524048 0.089009903371334076
0.51609152555465698 0.34810402989387512 0.09413522481918335
0.63294810056686401 0.37837237119674683 0.10408459603786469
0.71150851249694824 0.40588730573654175 0.11386910080909729
0.68471747636795044 0.33727926015853882 0.098969355225563049
0.072225116193294525 0.28922700881958008 0.065507970750331879
0.062932811677455902 0.30299270153045654 0.067917123436927795
0.17227022349834442 0.35370996594429016 0.077039472758769989
0.49089044332504272 0.48018985986709595 0.1430862694978714
0.68907326459884644 0.48858174681663513 0.1467280387878418
0.75116753578186035 0.47447863221168518 0.12726688385009766
0.76899152994155884 0.47376438975334167 0.13001598417758942
0.068058818578720093 0.36003255844116211 0.081681318581104279
0.072794847190380096 0.37921497225761414 0.079355843365192413
0.088685281574726105 0.38807889819145203 0.072093039751052856
0.19615283608436584 0.43208929896354675 0.075463250279426575
0.6100536584854126 0.59039080142974854 0.17632079124450684
0.78692680597305298 0.5822066068649292 0.16235852241516113
0.79766941070556641 0.56121927499771118 0.14625108242034912
0.05485973134636879 0.41607850790023804 0.10839281231164932
0.065205894410610199 0.4291776716709137 0.10276399552822113
0.11252951622009277 0.45133313536643982 0.099553965032100677
0.17828299105167389 0.47425457835197449 0.091060608625411987
0.26157334446907043 0.51548779010772705 0.089140601456165314
0.72662913799285889 0.67124879360198975 0.20919832587242126
0.80721932649612427 0.63301765918731689 0.16655653715133667
0.069410435855388641 0.067015752196311951 0.100371353328228
0.087576143443584442 0.071655616164207458 0.098923824727535248
0.20896065235137939 0.091110855340957642 0.097919285297393799
0.36493605375289917 0.14752373099327087 0.093909472227096558
0.48393464088439941 0.19568523764610291 0.092646472156047821
0.57055497169494629 0.22098547220230103 0.088947296142578125
0.62273919582366943 0.23981903493404388 0.080992832779884338
0.070529639720916748 0.084464021027088165 0.099463053047657013
0.10242181271314621 0.11081254482269287 0.11975060403347015
0.28070774674415588 0.15196751058101654 0.10135786980390549
0.42072433233261108 0.19783242046833038 0.093927733600139618
0.51521927118301392 0.2211461067199707 0.09563109278678894
0.57809925079345703 0.22718615829944611 0.087653383612632751
0.61565637588500977 0.24312300980091095 0.085139796137809753
0.070705965161323547 0.15838693082332611 0.12623810768127441
0.073746353387832642 0.17440275847911835 0.12569864094257355
0.3007657527923584 0.23213426768779755 0.12432838976383209
0.47392469644546509 0.2753387987613678 0.10354292392730713
0.58542418479919434 0.31919011473655701 0.11197931319475174
0.62153846025466919 0.27829134464263916 0.10031174123287201
0.63600426912307739 0.26594537496566772 0.089782699942588806
0.06840776652097702 0.23372484743595123 0.14144609868526459
0.071022748947143555 0.23275281488895416 0.13001947104930878
0.25396057963371277 0.31936967372894287 0.13097338378429413
0.51328086853027344 0.37772241234779358 0.15003731846809387
0.64321082830429077 0.39229080080986023 0.12769883871078491
0.72306764125823975 0.41326466202735901 0.13166727125644684
0.68308788537979126 0.32516020536422729 0.10468450933694839
0.070334941148757935 0.29805955290794373 0.12306786328554153
0.065052077174186707 0.3095126748085022 0.11275997012853622
0.13930457830429077 0.34968990087509155 0.10266026854515076
0.45860087871551514 0.47509059309959412 0.15939399600028992
0.68487036228179932 0.49250555038452148 0.1562025249004364
0.76270824670791626 0.4895172119140625 0.14747118949890137
0.78146415948867798 0.48485675454139709 0.14610981941223145
0.070334732532501221 0.3667413592338562 0.12331865727901459
0.077161960303783417 0.38841882348060608 0.10566377639770508
0.09339471161365509 0.40299421548843384 0.086564190685749054
0.16741248965263367 0.42863786220550537 0.092389501631259918
0.60130858421325684 0.59461307525634766 0.18903073668479919
0.7883104681968689 0.5915030837059021 0.17066666483879089
0.80346119403839111 0.57115828990936279 0.1601874977350235
0.066321820020675659 0.42815980315208435 0.1485544741153717
0.073828451335430145 0.44179710745811462 0.13616035878658295
0.10424523800611496 0.45855677127838135 0.12643566727638245
0.16965226829051971 0.47932720184326172 0.11695317178964615
0.24160610139369965 0.51298493146896362 0.10583601146936417
0.71146237850189209 0.66886442899703979 0.20888239145278931
0.81387031078338623 0.63972955942153931 0.17648719251155853
0.070037484169006348 0.09061305969953537 0.17417751252651215
0.062801957130432129 0.094503425061702728 0.16899295151233673
0.1426270604133606 0.11024706810712814 0.16176599264144897
0.32626202702522278 0.15652008354663849 0.15147030353546143
0.48411086201667786 0.21939702332019806 0.15918795764446259
0.60032075643539429 0.25837570428848267 0.15559212863445282
0.66501766443252563 0.27177926898002625 0.13715995848178864
0.070588238537311554 0.1154816597700119 0.17479121685028076
0.066000379621982574 0.13461601734161377 0.19301521778106689
0.17832364141941071 0.17085537314414978 0.20194542407989502
0.38886043429374695 0.22054392099380493 0.18818108737468719
0.5314631462097168 0.26827678084373474 0.18179914355278015
0.63451659679412842 0.29258862137794495 0.17247019708156586
0.67284846305847168 0.28899854421615601 0.14285373687744141
0.071752823889255524 0.15310484170913696 0.18558865785598755
0.058777302503585815 0.17624667286872864 0.20558390021324158
0.19353024661540985 0.23939649760723114 0.24230249226093292
0.47619634866714478 0.3159586489200592 0.24815680086612701
0.60661613941192627 0.33054295182228088 0.20690856873989105
0.65927791595458984 0.30251434445381165 0.16415189206600189
0.68482989072799683 0.29045763611793518 0.13138328492641449
0.074392698705196381 0.2551790177822113 0.24239645898342133
0.064386509358882904 0.26520675420761108 0.23852831125259399
0.1498965322971344 0.30222213268280029 0.22723479568958282
0.48822832107543945 0.40409588813781738 0.24813154339790344
0.68046069145202637 0.44010254740715027 0.22044640779495239
0.74283415079116821 0.42254462838172913 0.18462145328521729
0.68993335962295532 0.31437388062477112 0.12139047682285309
0.071896299719810486 0.34377181529998779 0.26177984476089478
0.066249758005142212 0.34733450412750244 0.2441801130771637
0.076414234936237335 0.35157951712608337 0.22412414848804474
0.37376832962036133 0.47062191367149353 0.22377327084541321
0.69742405414581299 0.52247732877731323 0.20869298279285431
0.78039354085922241 0.5138736367225647 0.17381568253040314
0.78075563907623291 0.48930951952934265 0.15006247162818909
0.068879477679729462 0.38815879821777344 0.18585380911827087
0.07325395941734314 0.39796021580696106 0.16562296450138092
0.083786427974700928 0.41148048639297485 0.14555902779102325
0.15291833877563477 0.43904939293861389 0.12850120663642883
0.58818840980529785 0.60400915145874023 0.20595428347587585
0.79691076278686523 0.59952366352081299 0.18101304769515991
0.80661898851394653 0.58103567361831665 0.16588591039180756
0.069251999258995056 0.43734732270240784 0.17792260646820068
0.076364628970623016 0.4517579972743988 0.16450229287147522
0.098515301942825317 0.46765393018722534 0.15714326500892639
0.15157179534435272 0.48823830485343933 0.14624947309494019
0.21591399610042572 0.51707231998443604 0.12985646724700928
0.72036606073379517 0.68543547391891479 0.23218661546707153
0.81362289190292358 0.64284491539001465 0.18480950593948364
0.070574231445789337 0.14154604077339172 0.24954807758331299
0.068289361894130707 0.14091472327709198 0.22666938602924347
0.076779790222644806 0.14984758198261261 0.22200076282024384
0.25961703062057495 0.19021540880203247 0.20199422538280487
0.46633654832839966 0.23114477097988129 0.1798708587884903
0.60339146852493286 0.28046807646751404 0.20480279624462128
0.70431375503540039 0.29104220867156982 0.24878159165382385
0.070588238537311554 0.16784065961837769 0.26248031854629517
0.07068132609128952 0.18236495554447174 0.2712741494178772
0.09062531590461731 0.1896398514509201 0.26195886731147766
0.29843461513519287 0.2368151843547821 0.24128381907939911
0.50743162631988525 0.26837536692619324 0.20639662444591522
0.64936596155166626 0.31474295258522034 0.25325441360473633
0.74010390043258667 0.32052129507064819 0.27837207913398743
0.070596851408481598 0.18694081902503967 0.26127570867538452
0.070720985531806946 0.20890624821186066 0.28315296769142151
0.098344005644321442 0.250449538230896 0.318564772605896
0.36898225545883179 0.334197998046875 0.34056353569030762
0.58866918087005615 0.36540961265563965 0.31275293231010437
0.6963161826133728 0.34345757961273193 0.28430342674255371
0.77517741918563843 0.35516217350959778 0.30182856321334839
0.071971237659454346 0.25236248970031738 0.30498829483985901
0.070100076496601105 0.25315672159194946 0.30035227537155151
0.082635156810283661 0.29565152525901794 0.33490580320358276
0.37871482968330383 0.42708155512809753 0.41781625151634216
0.69813024997711182 0.49964159727096558 0.42288604378700256
0.78617995977401733 0.47152897715568542 0.3765312135219574
0.78147214651107788 0.37040680646896362 0.30058002471923828
0.085772477090358734 0.37731972336769104 0.38153806328773499
0.095376230776309967 0.38700351119041443 0.37620943784713745
0.11157403141260147 0.40828162431716919 0.38489449024200439
0.25835996866226196 0.46977022290229797 0.3828338086605072
0.71172565221786499 0.59645318984985352 0.37220290303230286
0.83217376470565796 0.5959775447845459 0.32333987951278687
0.83490896224975586 0.55241894721984863 0.28866660594940186
0.11290323734283447 0.46512877941131592 0.37511563301086426
0.11607999354600906 0.46300452947616577 0.35604429244995117
0.12545764446258545 0.4750194251537323 0.35527125000953674
0.11766034364700317 0.47109073400497437 0.32316604256629944
0.52924913167953491 0.62196975946426392 0.31240871548652649
0.82197368144989014 0.6409839391708374 0.25050646066665649
0.82411277294158936 0.60266286134719849 0.19751498103141785
0.076078198850154877 0.45899152755737305 0.24437722563743591
0.081647403538227081 0.46635764837265015 0.23547036945819855
0.091509021818637848 0.47352445125579834 0.21105895936489105
0.13665269315242767 0.49695008993148804 0.18076916038990021
0.22332295775413513 0.53138643503189087 0.16252471506595612
0.73307758569717407 0.69732385873794556 0.24928291141986847
0.82126933336257935 0.65554571151733398 0.19723986089229584
0.070588238537311554 0.20789973437786102 0.33586162328720093
0.072062760591506958 0.2092791348695755 0.31431293487548828
0.07046864926815033 0.20952983200550079 0.29914987087249756
0.18483582139015198 0.25759938359260559 0.31353077292442322
0.44947150349617004 0.29103478789329529 0.28377828001976013
0.60148435831069946 0.29662454128265381 0.27124816179275513
0.69644910097122192 0.29782581329345703 0.31383547186851501
0.070588238537311554 0.22742924094200134 0.34971714019775391
0.071622483432292938 0.23135925829410553 0.35000675916671753
0.068368576467037201 0.23420096933841705 0.33337497711181641
0.18652279675006866 0.28138026595115662 0.3447938859462738
0.48264020681381226 0.3184669017791748 0.31829240918159485
0.62980353832244873 0.32016843557357788 0.31494364142417908
0.72880613803863525 0.32879069447517395 0.36175578832626343
0.070588238537311554 0.2487567812204361 0.35428810119628906
0.070460930466651917 0.26465943455696106 0.37181851267814636
0.0714707151055336 0.27343875169754028 0.38154882192611694
0.2160990983247757 0.33080735802650452 0.40745741128921509
0.52236813306808472 0.37542498111724854 0.4020838737487793
0.65799105167388916 0.34222474694252014 0.34629526734352112
0.75887250900268555 0.36850392818450928 0.41107776761054993
0.068994037806987762 0.26914995908737183 0.35790783166885376
0.066379472613334656 0.28220364451408386 0.37198689579963684
0.080357678234577179 0.31626835465431213 0.407225102186203
0.25131228566169739 0.40824556350708008 0.48787212371826172
0.61357009410858154 0.50053530931472778 0.54673248529434204
0.73351430892944336 0.44493091106414795 0.48113477230072021
0.78744316101074219 0.39864435791969299 0.47278705239295959
0.077524818480014801 0.33290621638298035 0.39882555603981018
0.085581928491592407 0.35249316692352295 0.41344970464706421
0.10128320753574371 0.38637164235115051 0.44002363085746765
0.18472380936145782 0.44474825263023376 0.49080440402030945
0.65707600116729736 0.66180688142776489 0.62424969673156738
0.83560454845428467 0.68263483047485352 0.61964792013168335
0.85381591320037842 0.62900364398956299 0.59223300218582153
0.14710380136966705 0.48716440796852112 0.50049561262130737
0.15839675068855286 0.4964384138584137 0.50200110673904419
0.18792876601219177 0.52614778280258179 0.52630585432052612
0.18611828982830048 0.54133129119873047 0.5454908013343811
0.45066630840301514 0.67179018259048462 0.56901931762695312
0.85838204622268677 0.7664451003074646 0.53664833307266235
0.87180429697036743 0.73645347356796265 0.48865431547164917
0.1723913848400116 0.56427210569381714 0.49614080786705017
0.1805848628282547 0.57239848375320435 0.49395275115966797
0.18992580473423004 0.58281773328781128 0.4949544370174408
0.19034108519554138 0.58242613077163696 0.47699585556983948
0.1973530650138855 0.60019421577453613 0.46489262580871582
0.70207339525222778 0.75593769550323486 0.43499696254730225
0.86419349908828735 0.72444349527359009 0.32636585831642151
0.070609778165817261 0.27621424198150635 0.4208349883556366
0.073862679302692413 0.27518779039382935 0.41226533055305481
0.080886229872703552 0.27397781610488892 0.39498907327651978
0.1207033172249794 0.29275399446487427 0.41065743565559387
0.3439946174621582 0.36949926614761353 0.4778275191783905
0.61086845397949219 0.37600964307785034 0.50338852405548096
0.71065539121627808 0.36241823434829712 0.49893346428871155
0.070591822266578674 0.28383922576904297 0.428681880235672
0.076869428157806396 0.28708389401435852 0.42848122119903564
0.088072292506694794 0.2948337197303772 0.42344370484352112
0.12077904492616653 0.304475337266922 0.42540439963340759
0.38591572642326355 0.39982408285140991 0.51685249805450439
0.65048563480377197 0.4011765718460083 0.54154807329177856
0.730427086353302 0.38318738341331482 0.53953129053115845
0.070123828947544098 0.29415196180343628 0.4307701587677002
0.072174683213233948 0.29871603846549988 0.44016614556312561
0.085990965366363525 0.30735617876052856 0.44439148902893066
0.12455067038536072 0.31980150938034058 0.4436987042427063
0.41015264391899109 0.42158156633377075 0.54311871528625488
0.66965597867965698 0.42426306009292603 0.5767633318901062
0.74880802631378174 0.40378263592720032 0.56559687852859497
0.070142321288585663 0.31381353735923767 0.4358399510383606
0.075379393994808197 0.3319699764251709 0.45684248208999634
0.090986825525760651 0.34809723496437073 0.47247225046157837
0.15023928880691528 0.37142658233642578 0.49633044004440308
0.46902436017990112 0.4686410129070282 0.61094522476196289
0.70163470506668091 0.4478834867477417 0.61084723472595215
0.76896554231643677 0.42134636640548706 0.59335219860076904
0.080460973083972931 0.36284774541854858 0.45666530728340149
0.092557527124881744 0.38452151417732239 0.47761687636375427
0.10903589427471161 0.40148007869720459 0.49219214916229248
0.16252709925174713 0.44253799319267273 0.53489977121353149
0.54772460460662842 0.63395720720291138 0.72162365913391113
0.79606914520263672 0.64884310960769653 0.73881727457046509
0.821827232837677 0.54844629764556885 0.67310911417007446
0.12025619298219681 0.44000387191772461 0.5049784779548645
0.1403580904006958 0.45921432971954346 0.52156811952590942
0.16109909117221832 0.47827276587486267 0.54132038354873657
0.1750146746635437 0.50088882446289062 0.56517273187637329
0.39156532287597656 0.63101804256439209 0.66796863079071045
0.8368268609046936 0.8237566351890564 0.78895127773284912
0.87668561935424805 0.83360928297042847 0.79349565505981445
0.18475326895713806 0.548980712890625 0.58429861068725586
0.20560888946056366 0.56674802303314209 0.59995245933532715
0.21480396389961243 0.57512158155441284 0.6085551381111145
0.23359119892120361 0.59302842617034912 0.62122398614883423
0.23300221562385559 0.60725599527359009 0.63803201913833618
0.67995184659957886 0.81725180149078369 0.75188654661178589
0.87674731016159058 0.84665626287460327 0.71406829357147217
0.066743664443492889 0.32351124286651611 0.49252533912658691
0.07344556599855423 0.32388287782669067 0.48854449391365051
0.086800895631313324 0.32247492671012878 0.4752960205078125
0.11537785083055496 0.33728313446044922 0.48544102907180786
0.27905184030532837 0.40421351790428162 0.56640440225601196
0.59710162878036499 0.43320292234420776 0.65602487325668335
0.73424136638641357 0.41992601752281189 0.66299039125442505
0.069900959730148315 0.32978984713554382 0.49296468496322632
0.077702507376670837 0.33403441309928894 0.49472010135650635
0.08629772812128067 0.3348749577999115 0.48883518576622009
0.1059829443693161 0.3371880054473877 0.48494765162467957
0.31203702092170715 0.42499640583992004 0.59345656633377075
0.62449651956558228 0.44819849729537964 0.67200332880020142
0.74685722589492798 0.42934808135032654 0.67331874370574951
0.071010053157806396 0.33406856656074524 0.48989215493202209
0.081538453698158264 0.34145742654800415 0.49639785289764404
0.094482824206352234 0.34710663557052612 0.50415825843811035
0.10599599778652191 0.34742885828018188 0.49648144841194153
0.34203526377677917 0.44464609026908875 0.62040042877197266
0.66353482007980347 0.4689997136592865 0.69765377044677734
0.75678616762161255 0.44037309288978577 0.67453360557556152
0.07665397971868515 0.34999153017997742 0.49799534678459167
0.082874968647956848 0.34783312678337097 0.50271141529083252
0.094491876661777496 0.35400894284248352 0.51327264308929443
0.11563225835561752 0.36953854560852051 0.5254935622215271
0.36927056312561035 0.46889954805374146 0.64873343706130981
0.68591225147247314 0.48861402273178101 0.71913129091262817
0.77578926086425781 0.46157673001289368 0.69839274883270264
0.096412450075149536 0.39743036031723022 0.52146029472351074
0.10580573230981827 0.39802420139312744 0.52828836441040039
0.12142133712768555 0.41438516974449158 0.54551136493682861
0.13314859569072723 0.42621251940727234 0.55992436408996582
0.41946685314178467 0.54547470808029175 0.70008403062820435
0.72134697437286377 0.55313748121261597 0.75671935081481934
0.80212306976318359 0.50516462326049805 0.72458767890930176
0.12634159624576569 0.45487526059150696 0.5510062575340271
0.14522354304790497 0.4699016809463501 0.56021320819854736
0.16958484053611755 0.49200916290283203 0.58070236444473267
0.187247633934021 0.51699841022491455 0.60243529081344604
0.28262019157409668 0.57911330461502075 0.66861510276794434
0.81685280799865723 0.81367498636245728 0.84143555164337158
0.87106990814208984 0.80265498161315918 0.8358612060546875
0.16358417272567749 0.528606116771698 0.59954577684402466
0.18405245244503021 0.54310601949691772 0.60627180337905884
0.19870175421237946 0.55240243673324585 0.61504298448562622
0.21656869351863861 0.5688973069190979 0.63402950763702393
0.2294374406337738 0.58273863792419434 0.64928680658340454
0.60699570178985596 0.76877361536026001 0.78655123710632324
0.88007485866546631 0.87707042694091797 0.85505157709121704
