assets/lut/others natural vivid.cube
# Created by: G'MIC (https://gmic.eu)
TITLE "natural_vivid"
# LUT size
LUT_3D_SIZE 5
# Data domain
DOMAIN_MIN 0.0 0.0 0.0
DOMAIN_MAX 1.0 1.0 1.0
# LUT data points
0.048474524170160294 0.055370539426803589 0.18709363043308258
0.20858095586299896 0.071567922830581665 0.19434908032417297
0.47633504867553711 0.068918205797672272 0.18225492537021637
0.71304780244827271 0.072526685893535614 0.19092193245887756
0.85531973838806152 0.066857360303401947 0.19016128778457642
0.058112230151891708 0.25391072034835815 0.18402878940105438
0.20817062258720398 0.25093162059783936 0.1912597268819809
0.47338610887527466 0.25040611624717712 0.18588635325431824
0.71156704425811768 0.24726574122905731 0.18546260893344879
0.85906863212585449 0.24952533841133118 0.19793461263179779
0.057977326214313507 0.47587108612060547 0.18138252198696136
0.207049161195755 0.47754496335983276 0.18779240548610687
0.47900295257568359 0.47821629047393799 0.18916602432727814
0.71121156215667725 0.47843137383460999 0.18662826716899872
0.85514706373214722 0.48196756839752197 0.18117727339267731
0.064348690211772919 0.69712835550308228 0.18615506589412689
0.20898036658763885 0.69798523187637329 0.18997323513031006
0.4774327278137207 0.69683182239532471 0.19019982218742371
0.71033746004104614 0.69854837656021118 0.18492519855499268
0.85686510801315308 0.69325578212738037 0.18012680113315582
0.064290545880794525 0.85165584087371826 0.19068093597888947
0.20296239852905273 0.85122549533843994 0.18755105137825012
0.47242629528045654 0.85122549533843994 0.1926470547914505
0.71211022138595581 0.8510323166847229 0.18794545531272888
0.85514706373214722 0.84970897436141968 0.18326407670974731
0.064196459949016571 0.059246812015771866 0.34812664985656738
0.20843647420406342 0.072223111987113953 0.34655234217643738
0.4764399528503418 0.072217278182506561 0.35329535603523254
0.71530139446258545 0.071447305381298065 0.35190543532371521
0.85906863212585449 0.063464432954788208 0.35076874494552612
0.065347559750080109 0.25466316938400269 0.34856557846069336
0.21205931901931763 0.25006094574928284 0.35048133134841919
0.47556871175765991 0.24631227552890778 0.35130009055137634
0.71184515953063965 0.25246447324752808 0.34587359428405762
0.85514706373214722 0.24804791808128357 0.3501981794834137
0.061673332005739212 0.47952300310134888 0.34201127290725708
0.2076733410358429 0.48204851150512695 0.34589460492134094
0.47647058963775635 0.47525119781494141 0.34406301379203796
0.71270740032196045 0.47701266407966614 0.34981617331504822
0.85547584295272827 0.47443047165870667 0.3498721718788147
0.06204649806022644 0.69747185707092285 0.34722721576690674
0.20771673321723938 0.702117919921875 0.34589460492134094
0.47879883646965027 0.69957166910171509 0.35060814023017883
0.7158011794090271 0.69607609510421753 0.35354986786842346
0.85528922080993652 0.69561028480529785 0.35317167639732361
0.065227657556533813 0.85176980495452881 0.34773224592208862
0.20830020308494568 0.85514718294143677 0.34590995311737061
0.47455599904060364 0.84992772340774536 0.34621748328208923
0.71267569065093994 0.85199147462844849 0.34794443845748901
0.85909134149551392 0.8506169319152832 0.34641197323799133
0.066338934004306793 0.068835161626338959 0.50839293003082275
0.20841877162456512 0.067122273147106171 0.50497794151306152
0.47634583711624146 0.064953133463859558 0.50845396518707275
0.71238869428634644 0.069220401346683502 0.50574463605880737
0.85787409543991089 0.067523941397666931 0.50972330570220947
0.06855475902557373 0.25312355160713196 0.51116788387298584
0.20910455286502838 0.25267142057418823 0.50521939992904663
0.47181692719459534 0.24847127497196198 0.50471973419189453
0.71222984790802002 0.24702037870883942 0.50527215003967285
0.85543525218963623 0.25331932306289673 0.50922507047653198
0.061974260956048965 0.47837302088737488 0.50506103038787842
0.20506548881530762 0.47843137383460999 0.50835824012756348
0.47388562560081482 0.47806531190872192 0.50506836175918579
0.71625465154647827 0.47439166903495789 0.50929790735244751
0.86279022693634033 0.47855040431022644 0.50769549608230591
0.062869369983673096 0.6938512921333313 0.50956439971923828
0.2061336487531662 0.70100373029708862 0.51068413257598877
0.47559893131256104 0.7000119686126709 0.5084606409072876
0.71363836526870728 0.69496446847915649 0.50760060548782349
0.86221075057983398 0.69325584173202515 0.5110170841217041
0.059745099395513535 0.84997189044952393 0.51066046953201294
0.20451356470584869 0.85207706689834595 0.51080656051635742
0.47220462560653687 0.85445201396942139 0.50869345664978027
0.71079391241073608 0.8551936149597168 0.50704658031463623
0.85910606384277344 0.85647571086883545 0.50708544254302979
0.061413828283548355 0.05951353907585144 0.6515953540802002
0.20774160325527191 0.07154420018196106 0.65222954750061035
0.47400954365730286 0.071747817099094391 0.65519446134567261
0.71302551031112671 0.072083674371242523 0.65436983108520508
0.85537934303283691 0.064936302602291107 0.6541324257850647
0.059776995331048965 0.25322869420051575 0.6468091607093811
0.20446628332138062 0.2510952353477478 0.64657247066497803
0.47244605422019958 0.24510498344898224 0.65104061365127563
0.71238112449645996 0.2461884468793869 0.65206694602966309
0.85813337564468384 0.25519558787345886 0.65196907520294189
0.061868749558925629 0.4792291522026062 0.64763510227203369
0.2103322446346283 0.4744667112827301 0.64880013465881348
0.47631198167800903 0.47130903601646423 0.6471131443977356
0.71550244092941284 0.47699445486068726 0.6501505970954895
0.85833126306533813 0.48271307349205017 0.64866966009140015
0.063454106450080872 0.7035374641418457 0.65339404344558716
0.20439112186431885 0.69748580455780029 0.65559989213943481
0.47610536217689514 0.69516140222549438 0.65446585416793823
0.71444463729858398 0.69545334577560425 0.65651887655258179
0.85906863212585449 0.69504415988922119 0.65636211633682251
0.060426287353038788 0.85493993759155273 0.64813005924224854
0.20352944731712341 0.85074812173843384 0.65309685468673706
0.47280687093734741 0.85081368684768677 0.65297436714172363
0.71183681488037109 0.85714876651763916 0.65318864583969116
0.85937029123306274 0.85786491632461548 0.65602022409439087
0.056154333055019379 0.069947004318237305 0.7861519455909729
0.20843939483165741 0.071783743798732758 0.7861519455909729
0.47720259428024292 0.060878843069076538 0.78970742225646973
0.71427381038665771 0.07284119725227356 0.79007351398468018
0.85600876808166504 0.071913503110408783 0.79083973169326782
0.063828475773334503 0.2531275749206543 0.78650331497192383
0.20936451852321625 0.25166884064674377 0.78634679317474365
0.47550690174102783 0.25175994634628296 0.78616267442703247
0.71236276626586914 0.25233849883079529 0.78537023067474365
0.85819298028945923 0.25217115879058838 0.78869372606277466
0.062935635447502136 0.47733035683631897 0.78807491064071655
0.21120412647724152 0.47977152466773987 0.78395754098892212
0.47751495242118835 0.47988486289978027 0.78431230783462524
0.71586728096008301 0.47885391116142273 0.78530251979827881
0.85906863212585449 0.47542479634284973 0.78394603729248047
0.067405104637145996 0.70050972700119019 0.78505569696426392
0.20815058052539825 0.69503235816955566 0.78369700908660889
0.47892951965332031 0.69863617420196533 0.79017239809036255
0.71809124946594238 0.69594496488571167 0.78797751665115356
0.85970747470855713 0.69238024950027466 0.78599494695663452
0.065009132027626038 0.85275137424468994 0.78319418430328369
0.20535854995250702 0.85790902376174927 0.78900551795959473
0.47249779105186462 0.85108190774917603 0.78216099739074707
0.70994728803634644 0.85808068513870239 0.78167110681533813
0.85887181758880615 0.85250765085220337 0.7857699990272522
