assets/lut/others 60s.cube
# Created by: G'MIC (https://gmic.eu)
TITLE "60s"
# LUT size
LUT_3D_SIZE 5
# Data domain
DOMAIN_MIN 0.0 0.0 0.0
DOMAIN_MAX 1.0 1.0 1.0
# LUT data points
0.46053346991539001 0.12877112627029419 0.49975848197937012
0.50653892755508423 0.13150125741958618 0.50019234418869019
0.76924949884414673 0.13917352259159088 0.4999639093875885
0.92215436697006226 0.13988319039344788 0.50191861391067505
0.83661478757858276 0.15054984390735626 0.51188725233078003
0.44695666432380676 0.31801033020019531 0.49899512529373169
0.49144130945205688 0.30703252553939819 0.50214272737503052
0.7799612283706665 0.3259223997592926 0.50260525941848755
0.93194502592086792 0.33933404088020325 0.50674170255661011
0.87339329719543457 0.35903686285018921 0.51255851984024048
0.42879810929298401 0.72219330072402954 0.49797070026397705
0.50856876373291016 0.72442805767059326 0.51370865106582642
0.77729356288909912 0.72884052991867065 0.49544218182563782
0.92222601175308228 0.73912250995635986 0.49783137440681458
0.88589096069335938 0.76629394292831421 0.521270751953125
0.38698270916938782 0.92468887567520142 0.51025325059890747
0.51438629627227783 0.92256534099578857 0.51641499996185303
0.79371017217636108 0.93132883310317993 0.49556124210357666
0.92349714040756226 0.93208259344100952 0.49746882915496826
0.90848690271377563 0.94485771656036377 0.51854139566421509
0.40489262342453003 0.89565187692642212 0.5281253457069397
0.54982548952102661 0.91943782567977905 0.53411644697189331
0.82426291704177856 0.90095514059066772 0.53420805931091309
0.95774233341217041 0.90535634756088257 0.53802371025085449
0.93691080808639526 0.93631547689437866 0.54300165176391602
0.35505574941635132 0.15328292548656464 0.57445144653320312
0.45267727971076965 0.18305538594722748 0.56808894872665405
0.75965160131454468 0.18613582849502563 0.57770568132400513
0.91280615329742432 0.19273410737514496 0.58604884147644043
0.91930735111236572 0.19493730366230011 0.62224096059799194
0.36075851321220398 0.29520723223686218 0.58183079957962036
0.49737471342086792 0.33027675747871399 0.62137854099273682
0.79978609085083008 0.34184876084327698 0.62082910537719727
0.9443962574005127 0.34970894455909729 0.6382630467414856
0.94042938947677612 0.38655897974967957 0.65650719404220581
0.36052173376083374 0.72090417146682739 0.59991657733917236
0.51374191045761108 0.73651027679443359 0.63496249914169312
0.79382997751235962 0.74714994430541992 0.64214855432510376
0.93966662883758545 0.76259428262710571 0.63897722959518433
0.94206136465072632 0.79056686162948608 0.65848630666732788
0.3650851845741272 0.917164146900177 0.60793858766555786
0.53940141201019287 0.9294394850730896 0.63284629583358765
0.81237441301345825 0.93069553375244141 0.64042240381240845
0.93839943408966064 0.92660224437713623 0.64612150192260742
0.93233084678649902 0.95474535226821899 0.66160708665847778
0.38153320550918579 0.91194760799407959 0.65800994634628296
0.56470745801925659 0.92522257566452026 0.67396759986877441
0.85564815998077393 0.9274134635925293 0.68698835372924805
0.96432691812515259 0.92364412546157837 0.68219625949859619
0.94650423526763916 0.93875807523727417 0.68388581275939941
0.33409512042999268 0.17428356409072876 0.7921760082244873
0.47383356094360352 0.17398491501808167 0.81060004234313965
0.76243680715560913 0.18217475712299347 0.79853922128677368
0.92378848791122437 0.17506605386734009 0.82277137041091919
0.90992742776870728 0.1878264844417572 0.83398914337158203
0.3344462513923645 0.30825597047805786 0.80742096900939941
0.51069730520248413 0.34907689690589905 0.83941912651062012
0.79828310012817383 0.35509249567985535 0.84372246265411377
0.94083154201507568 0.36453193426132202 0.85004842281341553
0.93238502740859985 0.39580646157264709 0.87545514106750488
0.35829636454582214 0.7216256856918335 0.8177715539932251
0.5180811882019043 0.75044864416122437 0.84375578165054321
0.8161846399307251 0.76183313131332397 0.85103410482406616
0.94380313158035278 0.77212035655975342 0.85902994871139526
0.92728620767593384 0.81190758943557739 0.88892489671707153
0.35334256291389465 0.91719192266464233 0.82573741674423218
0.52544218301773071 0.93091613054275513 0.84829294681549072
0.81256991624832153 0.94263696670532227 0.85698014497756958
0.94600576162338257 0.93671363592147827 0.8625863790512085
0.94284224510192871 0.95859169960021973 0.87794786691665649
0.38062819838523865 0.91624528169631958 0.87223434448242188
0.57380938529968262 0.91531813144683838 0.89434468746185303
0.86201971769332886 0.9300844669342041 0.89645379781723022
0.96824109554290771 0.91970884799957275 0.9008062481880188
0.95964688062667847 0.91911983489990234 0.90484786033630371
0.33870568871498108 0.17141921818256378 0.92162102460861206
0.49841579794883728 0.18181847035884857 0.93172144889831543
0.77149289846420288 0.19401091337203979 0.9203752875328064
0.91663086414337158 0.16526342928409576 0.9320186972618103
0.89691221714019775 0.18656384944915771 0.94030642509460449
0.36521455645561218 0.33327201008796692 0.93217021226882935
0.52740418910980225 0.36556807160377502 0.95721197128295898
0.81070911884307861 0.35864916443824768 0.95532387495040894
0.94297915697097778 0.37566453218460083 0.95554715394973755
0.92961251735687256 0.40678644180297852 0.96697705984115601
0.37524330615997314 0.74546676874160767 0.94037884473800659
0.54133313894271851 0.76669508218765259 0.95510959625244141
0.82281136512756348 0.7714771032333374 0.95851230621337891
0.94155114889144897 0.78208738565444946 0.96176904439926147
0.91203773021697998 0.80363458395004272 0.97477889060974121
0.37682381272315979 0.92270833253860474 0.94644957780838013
0.53742742538452148 0.93039274215698242 0.95814031362533569
0.80751466751098633 0.93172621726989746 0.9579043984413147
0.94545549154281616 0.94236832857131958 0.96365678310394287
0.91877663135528564 0.96026402711868286 0.97266751527786255
0.40521842241287231 0.9054408073425293 0.96880626678466797
0.55592638254165649 0.90408062934875488 0.97034925222396851
0.84285664558410645 0.9099077582359314 0.97182983160018921
0.96439820528030396 0.91701352596282959 0.97334259748458862
0.93084019422531128 0.91272848844528198 0.98010271787643433
0.42815089225769043 0.19458159804344177 0.9688878059387207
0.51806867122650146 0.21564726531505585 0.96672481298446655
0.80055373907089233 0.19980902969837189 0.97939801216125488
0.92734313011169434 0.21224263310432434 0.9735448956489563
0.88858848810195923 0.22462481260299683 0.97533661127090454
0.46882757544517517 0.35988152027130127 0.98020732402801514
0.56462782621383667 0.38274267315864563 0.99217146635055542
0.80998200178146362 0.37583115696907043 0.99291431903839111
0.93715870380401611 0.38533821702003479 0.99245339632034302
0.87494474649429321 0.40639352798461914 0.99485379457473755
0.48611107468605042 0.76363790035247803 0.98655837774276733
0.56771981716156006 0.78000485897064209 0.98524963855743408
0.82305538654327393 0.78715687990188599 0.99138420820236206
0.93789345026016235 0.79087787866592407 0.99114221334457397
0.85528111457824707 0.79302525520324707 0.99586248397827148
0.51274460554122925 0.93394273519515991 0.98410940170288086
0.57550787925720215 0.92726373672485352 0.98934477567672729
0.81319701671600342 0.93925935029983521 0.99200248718261719
0.93636596202850342 0.95029020309448242 0.9938589334487915
0.85475641489028931 0.95127981901168823 0.99480772018432617
0.53944563865661621 0.97941404581069946 0.98559087514877319
0.56805944442749023 0.97702139616012573 0.98974323272705078
0.81792694330215454 0.98496890068054199 0.99218606948852539
0.93702369928359985 0.97400116920471191 0.99607843160629272
0.83056622743606567 0.99145251512527466 0.99565118551254272
