assets/lut/others cinematic 02.cube
# Created by: G'MIC (https://gmic.eu)
TITLE "cinematic_02"
# LUT size
LUT_3D_SIZE 13
# Data domain
DOMAIN_MIN 0.0 0.0 0.0
DOMAIN_MAX 1.0 1.0 1.0
# LUT data points
0.11225370317697525 0.1079602986574173 0.10229682177305222
0.12079747766256332 0.10811237990856171 0.10340821743011475
0.13600638508796692 0.10928521305322647 0.10506574064493179
0.16032376885414124 0.11178009957075119 0.10783227533102036
0.20575736463069916 0.11301331222057343 0.11065912991762161
0.27715387940406799 0.11178053170442581 0.11357486248016357
0.36948654055595398 0.11043885350227356 0.11585612595081329
0.47727254033088684 0.11140558868646622 0.11628727614879608
0.58995693922042847 0.11308435350656509 0.11889529973268509
0.69456255435943604 0.11776863783597946 0.12806186079978943
0.78234660625457764 0.13211126625537872 0.14709220826625824
0.85364210605621338 0.1618809700012207 0.17886652052402496
0.91409313678741455 0.20788928866386414 0.2231922447681427
0.11221617460250854 0.1174398809671402 0.10390140116214752
0.12067184597253799 0.11801488697528839 0.10562662035226822
0.13747924566268921 0.11905637383460999 0.10713611543178558
0.16540835797786713 0.12208736687898636 0.10903860628604889
0.20960299670696259 0.12740015983581543 0.11124294251203537
0.27870908379554749 0.13109388947486877 0.11422071605920792
0.37094858288764954 0.13515402376651764 0.1171480193734169
0.47988760471343994 0.14067353308200836 0.11766644567251205
0.59256619215011597 0.14642298221588135 0.11935625225305557
0.69566470384597778 0.15368905663490295 0.12699262797832489
0.78239613771438599 0.1679815798997879 0.14519569277763367
0.8522980809211731 0.1960262656211853 0.17746707797050476
0.91214466094970703 0.23892907798290253 0.22295127809047699
0.11428514122962952 0.13323879241943359 0.10520673543214798
0.12281160801649094 0.13561640679836273 0.10683215409517288
0.1411958634853363 0.1381576806306839 0.10753867775201797
0.17185796797275543 0.14170804619789124 0.1090988889336586
0.21801251173019409 0.15063291788101196 0.1101420521736145
0.28869029879570007 0.16193056106567383 0.11249206960201263
0.38254261016845703 0.17426221072673798 0.11492335051298141
0.49039468169212341 0.18688318133354187 0.11625231802463531
0.60019087791442871 0.19804337620735168 0.11970310658216476
0.69968438148498535 0.20856210589408875 0.12797415256500244
0.78232771158218384 0.22373688220977783 0.14633093774318695
0.84992295503616333 0.2476402223110199 0.17996665835380554
0.90797287225723267 0.28422605991363525 0.22746962308883667
0.11685062199831009 0.16531069576740265 0.10781580954790115
0.12717714905738831 0.17023639380931854 0.10789651423692703
0.14616993069648743 0.17486745119094849 0.10782379657030106
0.17990896105766296 0.17767953872680664 0.10921303182840347
0.23115108907222748 0.18728244304656982 0.11004739254713058
0.30673539638519287 0.20645110309123993 0.1101604551076889
0.40209627151489258 0.22958691418170929 0.11051896214485168
0.50760149955749512 0.25105693936347961 0.1117686852812767
0.61240100860595703 0.26746129989624023 0.11636174470186234
0.7059975266456604 0.28166574239730835 0.12648956477642059
0.78336226940155029 0.29665207862854004 0.14708049595355988
0.84820395708084106 0.31564158201217651 0.18450219929218292
0.90364545583724976 0.34433108568191528 0.23614604771137238
0.11682293564081192 0.2267615795135498 0.10749220103025436
0.1305670440196991 0.23251894116401672 0.10802797973155975
0.15414206683635712 0.23851944506168365 0.10763940215110779
0.19399692118167877 0.24230320751667023 0.10702076554298401
0.25290140509605408 0.25174453854560852 0.10611214488744736
0.33305281400680542 0.27409970760345459 0.10469850897789001
0.42888158559799194 0.30335986614227295 0.10353321582078934
0.53021645545959473 0.33048379421234131 0.10465618968009949
0.62772232294082642 0.3503701388835907 0.1101224273443222
0.71349996328353882 0.36558923125267029 0.12317973375320435
0.78575563430786133 0.37960824370384216 0.1487223207950592
0.84733587503433228 0.39484202861785889 0.19164961576461792
0.90091300010681152 0.41698792576789856 0.24815221130847931
0.10654202848672867 0.31728270649909973 0.09808795154094696
0.12565585970878601 0.32419857382774353 0.10088140517473221
0.15868927538394928 0.33202823996543884 0.10079308599233627
0.20983116328716278 0.33854323625564575 0.096793785691261292
0.27915674448013306 0.34914323687553406 0.093206845223903656
0.36395728588104248 0.36841768026351929 0.091734670102596283
0.459736168384552 0.39417934417724609 0.092748574912548065
0.55692696571350098 0.4189453125 0.097218625247478485
0.64536839723587036 0.43816334009170532 0.10542264580726624
0.72264277935028076 0.45268824696540833 0.12223177403211594
0.78918808698654175 0.46489450335502625 0.15454864501953125
0.84663313627243042 0.47758370637893677 0.20427127182483673
0.89920717477798462 0.49544742703437805 0.26697728037834167
0.080528855323791504 0.42898353934288025 0.074624031782150269
0.10989505797624588 0.43563991785049438 0.080188512802124023
0.15653999149799347 0.44300106167793274 0.082579009234905243
0.22203077375888824 0.45114034414291382 0.078667566180229187
0.30202785134315491 0.46166855096817017 0.074467316269874573
0.39063087105751038 0.47510603070259094 0.07378736138343811
0.48571020364761353 0.49284827709197998 0.079421460628509521
0.57867598533630371 0.51114004850387573 0.090711690485477448
0.66046822071075439 0.52614432573318481 0.1050921157002449
0.73111903667449951 0.53800153732299805 0.12954819202423096
0.79233461618423462 0.54816842079162598 0.17028957605361938
0.84679639339447021 0.55865103006362915 0.22846975922584534
0.89777112007141113 0.57296133041381836 0.29677888751029968
0.054217830300331116 0.54524832963943481 0.047488357871770859
0.09303651750087738 0.54877054691314697 0.05299624428153038
0.15224993228912354 0.55344140529632568 0.059033710509538651
0.22920408844947815 0.56103533506393433 0.060402799397706985
0.3168635368347168 0.57010185718536377 0.059949688613414764
0.40628859400749207 0.57758414745330811 0.061431482434272766
0.49828711152076721 0.58723646402359009 0.0712614506483078
0.58816933631896973 0.59894382953643799 0.089905321598052979
0.66837388277053833 0.60955268144607544 0.11415059864521027
0.73727083206176758 0.61846530437469482 0.14961080253124237
0.79596155881881714 0.62602657079696655 0.20198135077953339
0.8480687141418457 0.63420361280441284 0.26887422800064087
0.89767378568649292 0.6457514762878418 0.34165796637535095
0.049740839749574661 0.65220832824707031 0.039974872022867203
0.094472296535968781 0.6516222357749939 0.045214306563138962
0.15834140777587891 0.6516566276550293 0.054095055907964706
0.237531378865242 0.65531438589096069 0.060291454195976257
0.32474017143249512 0.66107219457626343 0.063569612801074982
0.41293498873710632 0.66578561067581177 0.068202391266822815
0.5027233362197876 0.67150419950485229 0.084098726511001587
0.59156763553619385 0.67875832319259644 0.11127136647701263
0.67201769351959229 0.68639039993286133 0.14433066546916962
0.74158984422683716 0.69271624088287354 0.18838869035243988
0.7994881272315979 0.69765496253967285 0.25138130784034729
0.85042107105255127 0.70341426134109497 0.32572433352470398
0.89926177263259888 0.71311169862747192 0.40110835433006287
0.089764602482318878 0.74051415920257568 0.078444309532642365
0.13085681200027466 0.73748129606246948 0.080959990620613098
0.18990801274776459 0.73404371738433838 0.089098207652568817
0.26257911324501038 0.73482614755630493 0.097783766686916351
0.34279197454452515 0.73792558908462524 0.10510518401861191
0.42527896165847778 0.74121773242950439 0.11271395534276962
0.51095247268676758 0.7453073263168335 0.1342119425535202
0.59701633453369141 0.75029218196868896 0.16898366808891296
0.6765061616897583 0.75563174486160278 0.20820371806621552
0.74524086713790894 0.76007145643234253 0.25620380043983459
0.80297988653182983 0.76312375068664551 0.32176682353019714
0.85380810499191284 0.76786547899246216 0.39590489864349365
0.90297263860702515 0.77600055932998657 0.46865382790565491
0.17498163878917694 0.81057554483413696 0.16758349537849426
0.20638394355773926 0.80854582786560059 0.16542813181877136
0.25319039821624756 0.80604356527328491 0.17125003039836884
0.31364855170249939 0.80563724040985107 0.18124008178710938
0.38305753469467163 0.80690127611160278 0.19220618903636932
0.45658078789710999 0.80938398838043213 0.20539495348930359
0.53397637605667114 0.81227821111679077 0.22955094277858734
0.61193263530731201 0.81587094068527222 0.26467123627662659
0.6857723593711853 0.81936848163604736 0.3057677149772644
0.7514190673828125 0.82221424579620361 0.35233196616172791
0.80852025747299194 0.82501095533370972 0.40920281410217285
0.85984545946121216 0.82898908853530884 0.47275948524475098
0.90974551439285278 0.837188720703125 0.53582006692886353
0.28284689784049988 0.87187498807907104 0.28603193163871765
0.30518588423728943 0.87168276309967041 0.28276744484901428
0.3392939567565918 0.8706897497177124 0.28781029582023621
0.38614377379417419 0.87043541669845581 0.29931962490081787
0.44219020009040833 0.87167000770568848 0.31235226988792419
0.50452488660812378 0.87380146980285645 0.32759663462638855
0.57066404819488525 0.87591338157653809 0.35151895880699158
0.63832640647888184 0.87840962409973145 0.38500973582267761
0.70397830009460449 0.88063192367553711 0.42225801944732666
0.76439976692199707 0.8831864595413208 0.46044382452964783
0.8192209005355835 0.88565599918365479 0.50413942337036133
0.87011969089508057 0.88996714353561401 0.55342519283294678
0.92050594091415405 0.89819979667663574 0.60432034730911255
0.39160060882568359 0.93156760931015015 0.41118961572647095
0.40749332308769226 0.93294095993041992 0.4096042811870575
0.43183249235153198 0.93296569585800171 0.41543394327163696
0.46682044863700867 0.93377310037612915 0.42845386266708374
0.51085478067398071 0.93516188859939575 0.44201120734214783
0.56126195192337036 0.93648874759674072 0.45623737573623657
0.61611729860305786 0.93854737281799316 0.47792735695838928
0.67355668544769287 0.94021952152252197 0.50814074277877808
0.73071849346160889 0.94231313467025757 0.53972876071929932
0.78553968667984009 0.94449222087860107 0.56768488883972168
0.83726406097412109 0.94752323627471924 0.59890985488891602
0.88687688112258911 0.95247119665145874 0.63545507192611694
0.93665528297424316 0.96092289686203003 0.67562878131866455
0.11273227632045746 0.10704004764556885 0.11253524571657181
0.12160632759332657 0.10817182809114456 0.1125294417142868
0.13652057945728302 0.10945816338062286 0.11383737623691559
0.1619659811258316 0.11131425946950912 0.11687351018190384
0.20751751959323883 0.11225415766239166 0.12179645895957947
0.27844634652137756 0.11066637188196182 0.12785503268241882
0.37216851115226746 0.10819483548402786 0.13291198015213013
0.48123005032539368 0.1058327928185463 0.13512562215328217
0.59344601631164551 0.10248607397079468 0.13902711868286133
0.69699686765670776 0.10046827793121338 0.1489957720041275
0.78352934122085571 0.11320033669471741 0.16962304711341858
0.85422354936599731 0.15040986239910126 0.20568713545799255
0.91259610652923584 0.2081158459186554 0.25494131445884705
0.11386509239673615 0.11720664799213409 0.11383047699928284
0.1215536966919899 0.11856595426797867 0.11446159332990646
0.13797140121459961 0.1193266361951828 0.11621846258640289
0.16609568893909454 0.12210357934236526 0.11912974715232849
0.21021458506584167 0.12643471360206604 0.1230868473649025
0.27981835603713989 0.12967169284820557 0.12886358797550201
0.37359744310379028 0.13155454397201538 0.13385051488876343
0.48321866989135742 0.13375397026538849 0.13599663972854614
0.59567022323608398 0.13489530980587006 0.13982003927230835
0.69856810569763184 0.13732294738292694 0.14865778386592865
0.78344005346298218 0.15096873044967651 0.16858486831188202
0.85260748863220215 0.18483844399452209 0.20438364148139954
0.91037356853485107 0.23772883415222168 0.25413772463798523
0.11629131436347961 0.13428464531898499 0.11390641331672668
0.12401459366083145 0.13687391579151154 0.11480344831943512
0.14207115769386292 0.13847020268440247 0.1172894611954689
0.1727052628993988 0.14205323159694672 0.12023109197616577
0.21829836070537567 0.15096396207809448 0.12226232141256332
0.28911557793617249 0.16035330295562744 0.12732388079166412
0.38354101777076721 0.17015650868415833 0.13231638073921204
0.49175822734832764 0.1801907867193222 0.13538762927055359
0.60146284103393555 0.18818715214729309 0.14014336466789246
0.7008858323097229 0.19630131125450134 0.14997309446334839
0.78322768211364746 0.2110733687877655 0.1706075519323349
0.85065394639968872 0.23889203369617462 0.20713017880916595
0.90691179037094116 0.28351926803588867 0.25843775272369385
0.11694639921188354 0.16831004619598389 0.11601399630308151
0.12674102187156677 0.17126657068729401 0.11620434373617172
0.14625756442546844 0.17505453526973724 0.11799835413694382
0.18108122050762177 0.17826326191425323 0.1206430047750473
0.23330406844615936 0.18788222968578339 0.12279805541038513
0.30712628364562988 0.20473672449588776 0.1258215606212616
0.40145993232727051 0.22622358798980713 0.12876531481742859
0.50650882720947266 0.24704797565937042 0.13136516511440277
0.61162090301513672 0.2618541419506073 0.13720737397670746
0.7058112621307373 0.27481696009635925 0.14921072125434875
0.78488558530807495 0.29070687294006348 0.17237459123134613
0.84833699464797974 0.31193265318870544 0.21256786584854126
0.90324306488037109 0.34579664468765259 0.26711109280586243
0.11112239956855774 0.22976385056972504 0.11644455790519714
0.12542660534381866 0.23373414576053619 0.11703892052173615
0.15057386457920074 0.23871086537837982 0.11804788559675217
0.19294936954975128 0.24266934394836426 0.11948118358850479
0.25371423363685608 0.25145527720451355 0.12119110673666
0.33224213123321533 0.27160286903381348 0.12326686829328537
0.42685294151306152 0.30109113454818726 0.12328224629163742
0.52750915288925171 0.32941129803657532 0.12507268786430359
0.6251177191734314 0.34849095344543457 0.13229618966579437
0.71268552541732788 0.36350291967391968 0.14711384475231171
0.78612726926803589 0.37859496474266052 0.1755472719669342
0.84737277030944824 0.39504808187484741 0.22117452323436737
0.89997583627700806 0.42000022530555725 0.27968966960906982
0.093315243721008301 0.3217739462852478 0.10898760706186295
0.11438766121864319 0.3265291154384613 0.11032113432884216
0.14938260614871979 0.33269384503364563 0.11167281121015549
0.2033122330904007 0.33877778053283691 0.11119091510772705
0.27528440952301025 0.34873828291893005 0.11105584353208542
0.36129340529441833 0.36697253584861755 0.11231831461191177
0.45713561773300171 0.39333057403564453 0.11415664106607437
0.55340343713760376 0.41912385821342468 0.11909230798482895
0.64263510704040527 0.4384772777557373 0.12940166890621185
0.72111374139785767 0.45309361815452576 0.14926901459693909
0.78842860460281372 0.46603292226791382 0.18348449468612671
0.84540718793869019 0.47966966032981873 0.23514494299888611
0.8968890905380249 0.49933063983917236 0.29833430051803589
0.064210213720798492 0.43459779024124146 0.091193117201328278
0.094224371016025543 0.43879371881484985 0.093592718243598938
0.14219719171524048 0.44457906484603882 0.09625738114118576
0.21014699339866638 0.45167839527130127 0.09662337601184845
0.29413264989852905 0.46188485622406006 0.095610581338405609
0.38749969005584717 0.47556614875793457 0.097220465540885925
0.48364666104316711 0.49371281266212463 0.10382973402738571
0.57567304372787476 0.5122683048248291 0.11551696062088013
0.65794068574905396 0.52748501300811768 0.13284331560134888
0.72938245534896851 0.53962308168411255 0.15971116721630096
0.79075425863265991 0.5503840446472168 0.2011779248714447
0.84462803602218628 0.56170737743377686 0.25932127237319946
0.89444369077682495 0.5775073766708374 0.32654586434364319
0.040206730365753174 0.55091923475265503 0.072608128190040588
0.077463485300540924 0.55280607938766479 0.074429243803024292
0.13616228103637695 0.55562949180603027 0.079180605709552765
0.2149655669927597 0.56189566850662231 0.082481026649475098
0.30716526508331299 0.5706440806388855 0.084920264780521393
0.40347754955291748 0.57932841777801514 0.089322857558727264
0.49871593713760376 0.58968323469161987 0.10137716680765152
0.58770090341567993 0.60066020488739014 0.12120961397886276
0.66686725616455078 0.61112827062606812 0.14761438965797424
0.73534941673278809 0.61975383758544922 0.18417499959468842
0.79395145177841187 0.62782210111618042 0.23515158891677856
0.84550648927688599 0.63692677021026611 0.29921510815620422
0.89404588937759399 0.64978039264678955 0.36882933974266052
0.043329231441020966 0.65477281808853149 0.074140138924121857
0.08202921599149704 0.65380454063415527 0.073126837611198425
0.14351411163806915 0.65299862623214722 0.078089036047458649
0.22422918677330017 0.65610319375991821 0.085250943899154663
0.31695455312728882 0.66196304559707642 0.093044698238372803
0.41203126311302185 0.6677926778793335 0.10261718183755875
0.50480914115905762 0.67367261648178101 0.12055526673793793
0.59228682518005371 0.68026375770568848 0.1480792909860611
0.67109984159469604 0.68702238798141479 0.18247044086456299
0.73921799659729004 0.69279241561889648 0.22710967063903809
0.79715919494628906 0.69799298048019409 0.28572860360145569
0.84830731153488159 0.70459473133087158 0.35459929704666138
0.89665955305099487 0.71501582860946655 0.42529100179672241
0.087751559913158417 0.74098217487335205 0.11450094729661942
0.12254393100738525 0.73776990175247192 0.10996118932962418
0.17703662812709808 0.73368346691131592 0.11211632937192917
0.25113359093666077 0.73450946807861328 0.12232542037963867
0.33769810199737549 0.73847246170043945 0.13574729859828949
0.42600703239440918 0.74255192279815674 0.15048125386238098
0.51351529359817505 0.74660438299179077 0.17369396984577179
0.59788507223129272 0.75082564353942871 0.20628000795841217
0.6750221848487854 0.75526678562164307 0.24538300931453705
0.74276155233383179 0.75903910398483276 0.29314503073692322
0.80091530084609985 0.7624090313911438 0.3532465398311615
0.85251367092132568 0.76718378067016602 0.4210449755191803
0.90138977766036987 0.77619510889053345 0.48836079239845276
0.17165933549404144 0.81079977750778198 0.19694027304649353
0.19989790022373199 0.80820673704147339 0.19112902879714966
0.24417562782764435 0.80480474233627319 0.19277113676071167
0.30629941821098328 0.80444461107254028 0.20410509407520294
0.37993881106376648 0.80680036544799805 0.22004544734954834
0.45707410573959351 0.80962395668029785 0.23806865513324738
0.53499311208724976 0.81242156028747559 0.26305142045021057
0.61168402433395386 0.8154304027557373 0.29626941680908203
0.6842653751373291 0.81833732128143311 0.3352409303188324
0.74931585788726807 0.82110434770584106 0.38047066330909729
0.80690252780914307 0.82364308834075928 0.43413832783699036
0.85875463485717773 0.82785689830780029 0.49331828951835632
0.90870898962020874 0.83636528253555298 0.55243980884552002
0.27719002962112427 0.87192517518997192 0.30754202604293823
0.29981589317321777 0.87159329652786255 0.30342897772789001
0.33469712734222412 0.87032020092010498 0.30761706829071045
0.38278025388717651 0.87026757001876831 0.31918081641197205
0.4409794807434082 0.87147337198257446 0.33460873365402222
0.50426739454269409 0.87359541654586792 0.35202386975288391
0.57021123170852661 0.87526696920394897 0.37603777647018433
0.63713330030441284 0.87739592790603638 0.40677088499069214
0.70172035694122314 0.87951886653900146 0.44151371717453003
0.76208925247192383 0.88185244798660278 0.47892796993255615
0.81768006086349487 0.88450145721435547 0.52126067876815796
0.86907553672790527 0.88904744386672974 0.56831985712051392
0.9192621111869812 0.89760452508926392 0.61690753698348999
0.38364332914352417 0.93356311321258545 0.42608445882797241
0.40262889862060547 0.93349039554595947 0.42558622360229492
0.42888620495796204 0.93296569585800171 0.43163678050041199
0.46550083160400391 0.9338763952255249 0.44378140568733215
0.51042813062667847 0.93510431051254272 0.45798566937446594
0.56044685840606689 0.93621784448623657 0.47351780533790588
0.61471825838088989 0.93773937225341797 0.49412882328033447
0.67157459259033203 0.93929868936538696 0.5207517147064209
0.72799241542816162 0.94112056493759155 0.5493323802947998
0.78287333250045776 0.94343149662017822 0.57786548137664795
0.83528757095336914 0.94665670394897461 0.60919928550720215
0.88522952795028687 0.95220386981964111 0.64470207691192627
0.93538355827331543 0.96065062284469604 0.68383574485778809
0.11386705189943314 0.10767535120248795 0.12686590850353241
0.12281682342290878 0.10929538309574127 0.12787961959838867
0.13712495565414429 0.1106051430106163 0.1296306699514389
0.16465987265110016 0.11134959012269974 0.13392464816570282
0.21206392347812653 0.11125639081001282 0.14253309369087219
0.28399366140365601 0.1091480627655983 0.1539703756570816
0.37880507111549377 0.10459429025650024 0.16447290778160095
0.48802328109741211 0.098296627402305603 0.17318698763847351
0.59928005933761597 0.090484306216239929 0.18189367651939392
0.70039510726928711 0.085675425827503204 0.19349546730518341
0.78535914421081543 0.10065274685621262 0.21436966955661774
0.85192763805389404 0.15053558349609375 0.2537199854850769
0.90757942199707031 0.2219432145357132 0.30591803789138794
0.1152651309967041 0.11780200898647308 0.12938757240772247
0.12317069619894028 0.12004698067903519 0.12941500544548035
0.13950277864933014 0.12118613719940186 0.13265414535999298
0.16813111305236816 0.12222137302160263 0.13782833516597748
0.21491047739982605 0.12469647079706192 0.14602142572402954
0.28644251823425293 0.12560434639453888 0.15704824030399323
0.38106769323348999 0.12582860887050629 0.16615739464759827
0.49014338850975037 0.12473902851343155 0.17344164848327637
0.60117727518081665 0.12196683883666992 0.1817745715379715
0.70165574550628662 0.12301969528198242 0.19382905960083008
0.78537380695343018 0.1398664116859436 0.21546201407909393
0.85149341821670532 0.18364749848842621 0.2532770037651062
0.9065014123916626 0.24931512773036957 0.3051249086856842
0.11775416880846024 0.13598416745662689 0.13168101012706757
0.12595391273498535 0.13846927881240845 0.13189598917961121
0.14419560134410858 0.13982099294662476 0.13628865778446198
0.17531281709671021 0.1427743136882782 0.1411672830581665
0.22337272763252258 0.14898175001144409 0.14696839451789856
0.29605630040168762 0.15559579432010651 0.15617562830448151
0.39073830842971802 0.16335338354110718 0.164859339594841
0.49773910641670227 0.170795738697052 0.17264288663864136
0.60562276840209961 0.1761959046125412 0.18192477524280548
0.70315605401992798 0.18386703729629517 0.19573043286800385
0.78447920083999634 0.20128798484802246 0.21897643804550171
0.84904152154922485 0.23675143718719482 0.25702446699142456
0.90400755405426025 0.29310575127601624 0.30943214893341064
0.11712214350700378 0.17150063812732697 0.1353992223739624
0.12795023620128632 0.17384731769561768 0.1352347731590271
0.14876934885978699 0.17685240507125854 0.13927134871482849
0.18386003375053406 0.18140715360641479 0.14308610558509827
0.23709695041179657 0.19007070362567902 0.14701183140277863
0.31315279006958008 0.20285813510417938 0.15415149927139282
0.40747594833374023 0.22069185972213745 0.16155411303043365
0.51113766431808472 0.23861965537071228 0.1692783385515213
0.61399894952774048 0.25219404697418213 0.17967252433300018
0.70691406726837158 0.26537343859672546 0.19601623713970184
0.7848813533782959 0.28354671597480774 0.22288274765014648
0.84814965724945068 0.31127876043319702 0.26454043388366699
0.90144544839859009 0.35402983427047729 0.31844785809516907
0.1075352355837822 0.23427991569042206 0.13835009932518005
0.12272731959819794 0.23731432855129242 0.1383705735206604
0.1487196683883667 0.24210077524185181 0.14089357852935791
0.19260025024414062 0.24746936559677124 0.14403963088989258
0.25586792826652527 0.25648936629295349 0.14754386246204376
0.33643129467964172 0.27318307757377625 0.15271776914596558
0.43101271986961365 0.29842469096183777 0.15798717737197876
0.53018516302108765 0.32353392243385315 0.16455096006393433
