assets/lut/others solarized color 2.cube
# Created by: G'MIC (https://gmic.eu)
TITLE "solarized_color_2"
# LUT size
LUT_3D_SIZE 7
# Data domain
DOMAIN_MIN 0.0 0.0 0.0
DOMAIN_MAX 1.0 1.0 1.0
# LUT data points
0.039688725024461746 0.038673970848321915 0.04496929794549942
0.16971936821937561 0.041437245905399323 0.039117597043514252
0.45185744762420654 0.046252485364675522 0.053221371024847031
0.74141949415206909 0.038601506501436234 0.044207718223333359
0.54772412776947021 0.044908098876476288 0.0343489870429039
0.77245348691940308 0.036264605820178986 0.039323888719081879
0.97586774826049805 0.036396685987710953 0.037562530487775803
0.039601597934961319 0.18760232627391815 0.034814395010471344
0.18615595996379852 0.19629183411598206 0.037673171609640121
0.44346833229064941 0.19552446901798248 0.037246868014335632
0.7429993748664856 0.19417314231395721 0.044004909694194794
0.55642080307006836 0.19764266908168793 0.045957855880260468
0.74992889165878296 0.19572648406028748 0.045104499906301498
0.97451049089431763 0.1801631897687912 0.044367771595716476
0.047834686934947968 0.34633705019950867 0.044181793928146362
0.18909731507301331 0.35492768883705139 0.039580535143613815
0.45323377847671509 0.3398803174495697 0.038657244294881821
0.7364734411239624 0.34372833371162415 0.038053654134273529
0.54013419151306152 0.34158948063850403 0.037594456225633621
0.75896108150482178 0.34917992353439331 0.041464831680059433
0.97887325286865234 0.33468586206436157 0.053167097270488739
0.035428185015916824 0.50052225589752197 0.035677410662174225
0.16544397175312042 0.50044363737106323 0.040145635604858398
0.44187736511230469 0.49220597743988037 0.046716578304767609
0.73235338926315308 0.49585247039794922 0.041427027434110641
0.53942751884460449 0.49263185262680054 0.037777472287416458
0.77639973163604736 0.49003604054450989 0.04065481573343277
0.9721609354019165 0.48537281155586243 0.047376774251461029
0.045116722583770752 0.65511089563369751 0.043084461241960526
0.17615722119808197 0.65392017364501953 0.039273042231798172
0.44046276807785034 0.65114778280258179 0.038816832005977631
0.73684912919998169 0.64977198839187622 0.045930180698633194
0.54720968008041382 0.6517716646194458 0.040738843381404877
0.76066714525222778 0.65014666318893433 0.041082628071308136
0.97506999969482422 0.64040553569793701 0.045101840049028397
0.047981217503547668 0.80454862117767334 0.037436332553625107
0.17641456425189972 0.80792689323425293 0.042888715863227844
0.44130459427833557 0.80337715148925781 0.045194156467914581
0.73359209299087524 0.81410068273544312 0.054726500064134598
0.54399454593658447 0.81302559375762939 0.054451782256364822
0.78264337778091431 0.79975587129592896 0.045356541872024536
0.97633481025695801 0.79883772134780884 0.042091682553291321
0.047114294022321701 0.96138006448745728 0.046557556837797165
0.1754186600446701 0.95749747753143311 0.05297953262925148
0.43275362253189087 0.95637130737304688 0.035863298922777176
0.73414599895477295 0.95809423923492432 0.046157985925674438
0.54735803604125977 0.9560171365737915 0.052503008395433426
0.7750694751739502 0.9516139030456543 0.045011453330516815
0.97640281915664673 0.94809615612030029 0.04391174390912056
0.034837804734706879 0.038190461695194244 0.18754149973392487
0.17113214731216431 0.037602785974740982 0.18856015801429749
0.4624275267124176 0.043036967515945435 0.19069330394268036
0.74181395769119263 0.043121665716171265 0.18874421715736389
0.54847139120101929 0.046352565288543701 0.18878917396068573
0.75597900152206421 0.047525294125080109 0.19011916220188141
0.97142088413238525 0.045070827007293701 0.19384780526161194
0.04924359917640686 0.19569502770900726 0.18477694690227509
0.18695031106472015 0.20046444237232208 0.18463507294654846
0.46739044785499573 0.19702358543872833 0.19469626247882843
0.73262220621109009 0.19445426762104034 0.19290624558925629
0.54539471864700317 0.19430561363697052 0.18723616003990173
0.75628626346588135 0.19313974678516388 0.18899340927600861
0.96821540594100952 0.18590421974658966 0.19138716161251068
0.041220616549253464 0.34939947724342346 0.18759505450725555
0.19143003225326538 0.34984287619590759 0.18531949818134308
0.44662511348724365 0.34219616651535034 0.19298973679542542
0.73696345090866089 0.34178555011749268 0.20092780888080597
0.55404579639434814 0.34333822131156921 0.19262802600860596
0.76330691576004028 0.33978632092475891 0.19075682759284973
0.97339344024658203 0.34387707710266113 0.19427517056465149
0.047496810555458069 0.50196081399917603 0.18709971010684967
0.17881014943122864 0.50042802095413208 0.18915189802646637
0.44604462385177612 0.49330955743789673 0.19129630923271179
0.73597520589828491 0.48371967673301697 0.19879300892353058
0.55892634391784668 0.49629414081573486 0.19410665333271027
0.76479810476303101 0.49097934365272522 0.19211314618587494
0.97546041011810303 0.49315246939659119 0.19244533777236938
0.045560844242572784 0.65530675649642944 0.18550804257392883
0.17624647915363312 0.6512865424156189 0.18577267229557037
0.43000584840774536 0.6527639627456665 0.18814714252948761
0.72245055437088013 0.64851891994476318 0.18565866351127625
0.54418575763702393 0.65047860145568848 0.19238582253456116
0.78024429082870483 0.64884728193283081 0.19296616315841675
0.97514772415161133 0.6468084454536438 0.18956476449966431
0.047234479337930679 0.80956137180328369 0.18207749724388123
0.18252480030059814 0.8103528618812561 0.18375168740749359
0.44680321216583252 0.80311745405197144 0.19392479956150055
0.72585219144821167 0.80917149782180786 0.19837658107280731
0.5549580454826355 0.80706113576889038 0.19341348111629486
0.75449287891387939 0.8030552864074707 0.19066056609153748
0.97134256362915039 0.80683237314224243 0.20065128803253174
0.046355690807104111 0.95897990465164185 0.1965382993221283
0.18722784519195557 0.94812792539596558 0.19193935394287109
0.43890506029129028 0.95077729225158691 0.19494573771953583
0.72733896970748901 0.95143717527389526 0.19686950743198395
0.5617135763168335 0.95449233055114746 0.18836010992527008
0.77731013298034668 0.95007872581481934 0.18591588735580444
0.98167061805725098 0.95763707160949707 0.2005780041217804
0.036139260977506638 0.045992802828550339 0.35079485177993774
0.16574284434318542 0.051479026675224304 0.34591919183731079
0.43640881776809692 0.045361418277025223 0.34620583057403564
0.73369079828262329 0.038104277104139328 0.33958980441093445
0.54778075218200684 0.039192378520965576 0.34133055806159973
0.77955305576324463 0.040311969816684723 0.33874160051345825
0.96852284669876099 0.040262289345264435 0.34951028227806091
0.0483412966132164 0.19874025881290436 0.33797195553779602
0.17251250147819519 0.19196817278862 0.33769005537033081
0.46810343861579895 0.18909558653831482 0.33940094709396362
0.73320114612579346 0.19083885848522186 0.341653972864151
0.55260258913040161 0.19279895722866058 0.33996441960334778
0.76397073268890381 0.1859411895275116 0.35059857368469238
0.97069990634918213 0.18923954665660858 0.34801742434501648
0.036627046763896942 0.35112243890762329 0.34093305468559265
0.18155336380004883 0.34696894884109497 0.33468621969223022
0.45112177729606628 0.34280496835708618 0.3347352147102356
0.72267085313796997 0.35379695892333984 0.34702980518341064
0.54828345775604248 0.3461550772190094 0.34208738803863525
0.77174359560012817 0.33876615762710571 0.34351387619972229
0.97110837697982788 0.34150665998458862 0.34651169180870056
0.037816904485225677 0.50481098890304565 0.3479163646697998
0.17442446947097778 0.49867919087409973 0.34474745392799377
0.46907150745391846 0.49372756481170654 0.33566427230834961
0.72023886442184448 0.49578744173049927 0.34526070952415466
0.55322849750518799 0.49489027261734009 0.34695029258728027
0.78974848985671997 0.49547716975212097 0.3421960175037384
0.97133553028106689 0.49692350625991821 0.3435789942741394
0.039039626717567444 0.65291100740432739 0.3426264226436615
0.16707782447338104 0.64336216449737549 0.33983185887336731
0.4583803117275238 0.64441907405853271 0.33766275644302368
0.73487770557403564 0.64542245864868164 0.33394098281860352
0.56334584951400757 0.64765220880508423 0.34365734457969666
0.76091033220291138 0.64774054288864136 0.33782187104225159
0.96679896116256714 0.65179097652435303 0.32748916745185852
0.04325784370303154 0.80492115020751953 0.33614784479141235
0.1749071329832077 0.80633014440536499 0.33671355247497559
0.43618085980415344 0.80128055810928345 0.34022372961044312
0.71760320663452148 0.80333971977233887 0.33876892924308777
0.55365133285522461 0.79986476898193359 0.3368581235408783
0.75681030750274658 0.79964601993560791 0.35043644905090332
0.97275590896606445 0.79919862747192383 0.3405049741268158
0.048849143087863922 0.95120859146118164 0.33836334943771362
0.18094399571418762 0.94783586263656616 0.33480501174926758
0.44775664806365967 0.94898301362991333 0.34239479899406433
0.73678135871887207 0.94453483819961548 0.34377098083496094
0.54458826780319214 0.954234778881073 0.33947011828422546
0.74194717407226562 0.94994539022445679 0.34298232197761536
0.97153741121292114 0.9549335241317749 0.34390655159950256
0.037797082215547562 0.043648798018693924 0.50393390655517578
0.17900094389915466 0.053878530859947205 0.50034898519515991
0.46867328882217407 0.041741464287042618 0.50010275840759277
0.72940540313720703 0.047012478113174438 0.50055509805679321
0.54810100793838501 0.043445602059364319 0.49890735745429993
0.77244198322296143 0.052614085376262665 0.49511846899986267
0.97939079999923706 0.039565622806549072 0.49686604738235474
0.036456134170293808 0.20308502018451691 0.48171880841255188
0.16574874520301819 0.19645565748214722 0.49554744362831116
0.46464824676513672 0.19030487537384033 0.49688836932182312
0.73088830709457397 0.18890100717544556 0.5021241307258606
0.54986321926116943 0.19365590810775757 0.49630734324455261
0.78199708461761475 0.19285199046134949 0.49352237582206726
0.97519063949584961 0.1896357536315918 0.49622616171836853
0.037101145833730698 0.3504435122013092 0.50181484222412109
0.16746704280376434 0.34297117590904236 0.49838799238204956
0.44860377907752991 0.346454918384552 0.4979453980922699
0.72397822141647339 0.34447959065437317 0.49814450740814209
0.56680899858474731 0.34282559156417847 0.49388983845710754
0.75776082277297974 0.34338182210922241 0.49963963031768799
0.97293877601623535 0.34519830346107483 0.50522017478942871
0.037172012031078339 0.49317267537117004 0.4980684220790863
0.17023076117038727 0.49328479170799255 0.49912557005882263
0.44655093550682068 0.49446386098861694 0.49170613288879395
0.73344600200653076 0.49641862511634827 0.4949643611907959
0.55344951152801514 0.5014072060585022 0.49738171696662903
0.75217318534851074 0.48969486355781555 0.49236857891082764
0.96836632490158081 0.49087396264076233 0.50162506103515625
0.038499284535646439 0.64119559526443481 0.49204972386360168
0.16825857758522034 0.64215075969696045 0.48923230171203613
0.45280125737190247 0.65351313352584839 0.49452051520347595
0.72736591100692749 0.64830434322357178 0.50100076198577881
0.55958366394042969 0.65038549900054932 0.49703192710876465
0.7628777027130127 0.65068668127059937 0.4980853796005249
0.97969120740890503 0.64776945114135742 0.5064542293548584
0.034498535096645355 0.80375319719314575 0.49496808648109436
0.16689054667949677 0.80812245607376099 0.49446973204612732
0.43745800852775574 0.8099905252456665 0.5020376443862915
0.73075193166732788 0.8018067479133606 0.49772980809211731
0.5621151328086853 0.80488640069961548 0.48879662156105042
0.76422911882400513 0.79791176319122314 0.49452623724937439
0.97480112314224243 0.80357027053833008 0.4946887195110321
0.048451069742441177 0.9461287260055542 0.49703729152679443
0.17068241536617279 0.9590524435043335 0.49578359723091125
0.44370117783546448 0.95608925819396973 0.49547520279884338
0.73422050476074219 0.95314466953277588 0.49445393681526184
0.54302895069122314 0.95497351884841919 0.49484208226203918
0.7629513144493103 0.95318043231964111 0.49065449833869934
0.97326105833053589 0.95086836814880371 0.49896374344825745
0.06112506240606308 0.037567723542451859 0.65017151832580566
0.185299351811409 0.053329169750213623 0.65216946601867676
0.45253977179527283 0.044213015586137772 0.65437555313110352
0.74078220129013062 0.040879733860492706 0.64912617206573486
0.5575903058052063 0.04346180334687233 0.64944356679916382
0.77760529518127441 0.04407602921128273 0.64855664968490601
0.97597509622573853 0.039936035871505737 0.64662748575210571
0.039212290197610855 0.18932938575744629 0.65271651744842529
0.17882944643497467 0.19734300673007965 0.65616422891616821
0.45972761511802673 0.19134633243083954 0.6516156792640686
0.73691028356552124 0.20056842267513275 0.65738630294799805
0.5596352219581604 0.19385561347007751 0.65036457777023315
0.78564715385437012 0.19140759110450745 0.65391194820404053
0.97597229480743408 0.19728320837020874 0.65160506963729858
0.035215191543102264 0.33304294943809509 0.65338605642318726
0.17112375795841217 0.34518709778785706 0.650360107421875
0.46272158622741699 0.34240126609802246 0.65017104148864746
0.73829358816146851 0.34653222560882568 0.65240395069122314
0.54527074098587036 0.33984100818634033 0.64832299947738647
0.7598232626914978 0.33811357617378235 0.6477590799331665
0.9769439697265625 0.34222909808158875 0.65023118257522583
0.03439762070775032 0.49707373976707458 0.64831125736236572
0.18011295795440674 0.49035248160362244 0.64786010980606079
0.45724689960479736 0.48759406805038452 0.64503514766693115
0.72958475351333618 0.49837902188301086 0.6469120979309082
0.54502582550048828 0.49292555451393127 0.64539474248886108
0.77126109600067139 0.49530741572380066 0.64768552780151367
0.97116243839263916 0.48688119649887085 0.64846372604370117
0.03972293809056282 0.64733850955963135 0.65244805812835693
0.16315539181232452 0.64815616607666016 0.64739352464675903
0.43208420276641846 0.64725303649902344 0.65047359466552734
0.72612696886062622 0.65401363372802734 0.65382391214370728
0.55635404586791992 0.64356613159179688 0.64528352022171021
0.77384883165359497 0.65033090114593506 0.65279752016067505
0.97707659006118774 0.64258015155792236 0.6496853232383728
0.034085724502801895 0.81595659255981445 0.65048748254776001
0.16443432867527008 0.80521881580352783 0.64098852872848511
0.45585900545120239 0.80057239532470703 0.64718037843704224
0.73792684078216553 0.80645298957824707 0.64789825677871704
0.55638080835342407 0.80719119310379028 0.6457257866859436
0.77341103553771973 0.80663174390792847 0.64481395483016968
0.97596049308776855 0.80030906200408936 0.64755523204803467
0.038279067724943161 0.950023353099823 0.65049433708190918
0.16914385557174683 0.95501446723937988 0.64859682321548462
0.45585578680038452 0.95364958047866821 0.65121251344680786
0.71983206272125244 0.95413565635681152 0.65501213073730469
0.5452689528465271 0.95731323957443237 0.64771491289138794
0.76415354013442993 0.94879555702209473 0.64877331256866455
0.97870111465454102 0.95588535070419312 0.64742863178253174
0.045625694096088409 0.034766972064971924 0.80830556154251099
0.17462578415870667 0.038477055728435516 0.80339711904525757
0.45152068138122559 0.041063167154788971 0.80678695440292358
0.73897415399551392 0.046641405671834946 0.80197638273239136
0.55502742528915405 0.044006109237670898 0.79982393980026245
0.75230783224105835 0.040401056408882141 0.80191689729690552
0.97817409038543701 0.05285479873418808 0.80228245258331299
0.037316851317882538 0.18896597623825073 0.80462217330932617
0.17055904865264893 0.18549114465713501 0.80514907836914062
0.44620350003242493 0.19478097558021545 0.80068129301071167
0.74144464731216431 0.19685511291027069 0.8109557032585144
0.54775917530059814 0.18968936800956726 0.80872684717178345
0.77683764696121216 0.19009710848331451 0.80526155233383179
0.97569221258163452 0.1963844895362854 0.80685806274414062
0.044012662023305893 0.33970588445663452 0.80109113454818726
0.16896076500415802 0.33969932794570923 0.79502516984939575
0.45285093784332275 0.34079632163047791 0.80385810136795044
0.73586595058441162 0.33994746208190918 0.80682504177093506
0.55201429128646851 0.3424784243106842 0.81000679731369019
0.7514309287071228 0.33876743912696838 0.80323094129562378
0.96847158670425415 0.3427150547504425 0.80442327260971069
0.042998548597097397 0.49952101707458496 0.80519896745681763
0.16751024127006531 0.49903607368469238 0.79796451330184937
0.44244340062141418 0.49455741047859192 0.79744195938110352
0.73571240901947021 0.49667471647262573 0.80564713478088379
0.54984468221664429 0.49367457628250122 0.80138468742370605
0.78027868270874023 0.49832254648208618 0.80850887298583984
0.97747194766998291 0.49457454681396484 0.80896419286727905
0.035098176449537277 0.65795254707336426 0.81443816423416138
0.17862679064273834 0.65626108646392822 0.80767399072647095
0.44015136361122131 0.64702850580215454 0.79946327209472656
0.72190958261489868 0.65236753225326538 0.80372190475463867
0.54556822776794434 0.64821892976760864 0.80995368957519531
0.78798240423202515 0.64907574653625488 0.80614858865737915
0.97951734066009521 0.64464402198791504 0.80727940797805786
0.037553239613771439 0.81494426727294922 0.81191682815551758
0.17341792583465576 0.80950522422790527 0.8062928318977356
0.44672131538391113 0.80025005340576172 0.79838508367538452
0.73472702503204346 0.79993754625320435 0.80514258146286011
0.55559909343719482 0.8026878833770752 0.80409938097000122
0.76911765336990356 0.80412214994430542 0.8019031286239624
0.97102957963943481 0.80045187473297119 0.8080633282661438
0.042973775416612625 0.95725518465042114 0.80396312475204468
0.17181952297687531 0.95552718639373779 0.79397022724151611
0.46857747435569763 0.95228594541549683 0.80035161972045898
0.73478120565414429 0.94461596012115479 0.80601924657821655
0.54959660768508911 0.95666778087615967 0.80847573280334473
0.75570094585418701 0.94933182001113892 0.80669653415679932
0.98095583915710449 0.95350521802902222 0.80727744102478027
0.045225180685520172 0.039012745022773743 0.95586246252059937
0.18109607696533203 0.043211169540882111 0.95692354440689087
0.47347182035446167 0.043546877801418304 0.9587712287902832
0.73581051826477051 0.046933267265558243 0.95751774311065674
0.55683892965316772 0.04774436354637146 0.95346975326538086
0.75537633895874023 0.047263875603675842 0.95424538850784302
0.98235207796096802 0.037260524928569794 0.95537924766540527
0.035636197775602341 0.20015467703342438 0.955646812915802
0.17631597816944122 0.18896393477916718 0.96063423156738281
0.45161274075508118 0.19526273012161255 0.95525932312011719
0.73261231184005737 0.18753063678741455 0.9556460976600647
0.54780536890029907 0.18865644931793213 0.94828981161117554
0.7682531476020813 0.18699418008327484 0.94702374935150146
0.97872841358184814 0.18787269294261932 0.95328444242477417
0.049731504172086716 0.33709615468978882 0.95168507099151611
0.17539764940738678 0.34405463933944702 0.95296967029571533
0.46667554974555969 0.34203252196311951 0.95438390970230103
0.73715722560882568 0.33697104454040527 0.95622175931930542
0.55589920282363892 0.33870616555213928 0.95605093240737915
0.74733841419219971 0.34166485071182251 0.95737826824188232
0.97126758098602295 0.34057265520095825 0.94755744934082031
0.041238792240619659 0.49910306930541992 0.95613944530487061
0.18086139857769012 0.50807058811187744 0.95481878519058228
0.45395293831825256 0.49257552623748779 0.94714367389678955
0.73257291316986084 0.49392563104629517 0.95538330078125
0.54812479019165039 0.49318033456802368 0.95116597414016724
0.75051772594451904 0.50171494483947754 0.96015608310699463
0.9780963659286499 0.49405696988105774 0.95966565608978271
0.035663709044456482 0.65505284070968628 0.95324850082397461
0.17462965846061707 0.65673184394836426 0.95994395017623901
0.44952848553657532 0.65517902374267578 0.95598334074020386
0.73612523078918457 0.64990317821502686 0.95677864551544189
0.54117059707641602 0.64994651079177856 0.95729899406433105
0.73402106761932373 0.65232157707214355 0.95487833023071289
0.97847646474838257 0.65204638242721558 0.94932335615158081
0.036795582622289658 0.80725926160812378 0.94092011451721191
0.1682199090719223 0.80709594488143921 0.94916045665740967
0.44185811281204224 0.80250769853591919 0.95412540435791016
0.73161524534225464 0.80156862735748291 0.95105087757110596
0.5498664379119873 0.80199474096298218 0.95134484767913818
0.76630759239196777 0.80722498893737793 0.95148241519927979
0.97805750370025635 0.80896455049514771 0.95283776521682739
0.042141813784837723 0.95410788059234619 0.95107781887054443
0.17389132082462311 0.95065951347351074 0.94312536716461182
0.47182032465934753 0.95412492752075195 0.95762801170349121
0.74713051319122314 0.95348089933395386 0.95646995306015015
0.54992020130157471 0.95461392402648926 0.95179218053817749
0.74861890077590942 0.95312756299972534 0.95390552282333374
0.97231179475784302 0.95284664630889893 0.95451706647872925
