assets/lut/others smooth fade.cube
# Created by: G'MIC (https://gmic.eu)
TITLE "smooth_fade"
# LUT size
LUT_3D_SIZE 5
# Data domain
DOMAIN_MIN 0.0 0.0 0.0
DOMAIN_MAX 1.0 1.0 1.0
# LUT data points
0.19128066301345825 0.20611786842346191 0.26373583078384399
0.41880884766578674 0.19435378909111023 0.24982249736785889
0.67325824499130249 0.17865599691867828 0.23681861162185669
0.87854784727096558 0.16382612287998199 0.22156274318695068
0.99037545919418335 0.14592035114765167 0.20908863842487335
0.16368237137794495 0.41529145836830139 0.2389071136713028
0.38011080026626587 0.39908507466316223 0.22249431908130646
0.63251549005508423 0.37884783744812012 0.20709747076034546
0.85298222303390503 0.36346590518951416 0.19144897162914276
0.9942011833190918 0.34415814280509949 0.17933639883995056
0.13363048434257507 0.63649976253509521 0.20740576088428497
0.34038498997688293 0.61826246976852417 0.19426444172859192
0.5940137505531311 0.60055619478225708 0.17725853621959686
0.82385319471359253 0.58227890729904175 0.16332224011421204
0.99126130342483521 0.5618395209312439 0.14993663132190704
0.10644885897636414 0.8343125581741333 0.18035611510276794
0.30435648560523987 0.82131630182266235 0.16442893445491791
0.55545341968536377 0.80481666326522827 0.14921675622463226
0.79224574565887451 0.7907792329788208 0.13619709014892578
0.97048389911651611 0.77407336235046387 0.12259950488805771
0.084114193916320801 0.98282229900360107 0.15179444849491119
0.27117201685905457 0.98317694664001465 0.1384255588054657
0.51708406209945679 0.96975821256637573 0.12297853827476501
0.75945776700973511 0.95943683385848999 0.10939594358205795
0.94622278213500977 0.94335895776748657 0.095971442759037018
0.18516081571578979 0.20363584160804749 0.46001693606376648
0.4122416079044342 0.19107106328010559 0.44512066245079041
0.66749262809753418 0.17316795885562897 0.43073916435241699
0.88203734159469604 0.15830408036708832 0.41866162419319153
0.99747776985168457 0.14622476696968079 0.40601092576980591
0.15921984612941742 0.41177499294281006 0.43375533819198608
0.37376630306243896 0.39298039674758911 0.42051929235458374
0.62823480367660522 0.37374579906463623 0.40534624457359314
0.85235071182250977 0.35708793997764587 0.38979607820510864
0.99849385023117065 0.34016469120979309 0.37569317221641541
0.12873093783855438 0.63430690765380859 0.40533685684204102
0.33635634183883667 0.6140018105506897 0.39364254474639893
0.59063619375228882 0.59604454040527344 0.37901797890663147
0.82007592916488647 0.57734197378158569 0.36048826575279236
0.99235254526138306 0.55808067321777344 0.34530419111251831
0.10551926493644714 0.83057600259780884 0.37714460492134094
0.29982650279998779 0.81558936834335327 0.36434990167617798
0.55105096101760864 0.79701054096221924 0.35084357857704163
0.78525912761688232 0.78562206029891968 0.33411446213722229
0.96760624647140503 0.76960170269012451 0.31822425127029419
0.081251583993434906 0.98366445302963257 0.34631669521331787
0.26530110836029053 0.98287463188171387 0.33313652873039246
0.5088919997215271 0.96662795543670654 0.32072633504867554
0.75122165679931641 0.95534563064575195 0.30443140864372253
0.93993699550628662 0.94029009342193604 0.29178661108016968
0.1786857396364212 0.20108836889266968 0.65306633710861206
0.40830698609352112 0.18805509805679321 0.63860774040222168
0.66046959161758423 0.16931068897247314 0.62589550018310547
0.8677331805229187 0.1528334766626358 0.61088031530380249
0.98938190937042236 0.14057660102844238 0.59792202711105347
0.15468747913837433 0.40917187929153442 0.62300139665603638
0.3718864917755127 0.38922119140625 0.61149388551712036
0.6235007643699646 0.36777111887931824 0.59884744882583618
0.84413409233093262 0.3489760160446167 0.58275222778320312
0.99630051851272583 0.33398234844207764 0.57039600610733032
0.12673331797122955 0.62978345155715942 0.59694164991378784
0.33257240056991577 0.60884755849838257 0.58588582277297974
0.58577018976211548 0.58985054492950439 0.57290089130401611
0.81122070550918579 0.57103908061981201 0.55497932434082031
0.98590177297592163 0.55373221635818481 0.54252451658248901
0.10182659327983856 0.82976877689361572 0.56827080249786377
0.29382562637329102 0.80908799171447754 0.55651962757110596
0.54264044761657715 0.79261881113052368 0.54227310419082642
0.77767902612686157 0.77933961153030396 0.52627992630004883
0.96214574575424194 0.76635861396789551 0.51235145330429077
0.079112030565738678 0.98168307542800903 0.54065889120101929
0.26012232899665833 0.9782300591468811 0.52516394853591919
0.50272780656814575 0.96299421787261963 0.5109066367149353
0.74675744771957397 0.94813305139541626 0.49693676829338074
0.93712252378463745 0.93632966279983521 0.48563981056213379
0.17905306816101074 0.19727610051631927 0.84887421131134033
0.40537124872207642 0.18256127834320068 0.83888673782348633
0.65985560417175293 0.16491840779781342 0.82790398597717285
0.8738817572593689 0.15018805861473083 0.80731940269470215
1 0.13808111846446991 0.79340457916259766
0.15101431310176849 0.40063726902008057 0.83003300428390503
0.3670291006565094 0.38229537010192871 0.81649512052536011
0.62008094787597656 0.36288949847221375 0.80046218633651733
0.84265124797821045 0.34377202391624451 0.77935868501663208
0.99873119592666626 0.33158677816390991 0.76783734560012817
0.12487475574016571 0.62408703565597534 0.80431628227233887
0.329030841588974 0.60358405113220215 0.7893822193145752
0.58179879188537598 0.5841599702835083 0.77124136686325073
0.80931746959686279 0.56506514549255371 0.75126081705093384
0.98692220449447632 0.55041056871414185 0.73728173971176147
0.099875248968601227 0.82378357648849487 0.76606476306915283
0.29103589057922363 0.80673801898956299 0.7514159083366394
0.53955703973770142 0.79054826498031616 0.73692804574966431
0.77636885643005371 0.77527934312820435 0.72066843509674072
0.96066176891326904 0.76284348964691162 0.70700842142105103
0.074753962457180023 0.98471546173095703 0.7355232834815979
0.2568175196647644 0.97141385078430176 0.72334498167037964
0.50090068578720093 0.96050316095352173 0.70636224746704102
0.74445563554763794 0.94605863094329834 0.69402706623077393
0.93393313884735107 0.93350398540496826 0.68199247121810913
0.17504404485225677 0.19476310908794403 0.94948089122772217
0.3956788182258606 0.17814145982265472 0.98519057035446167
0.64570766687393188 0.16164009273052216 0.99541682004928589
0.84736281633377075 0.14855135977268219 0.98856967687606812
0.98388767242431641 0.13591603934764862 0.97921431064605713
0.14551226794719696 0.39742580056190491 0.95092427730560303
0.36038452386856079 0.37822073698043823 0.97295773029327393
0.61056292057037354 0.36139702796936035 0.97967004776000977
0.82792371511459351 0.34401243925094604 0.96903151273727417
0.99474203586578369 0.32709681987762451 0.96045881509780884
0.11944876611232758 0.61966681480407715 0.97415041923522949
0.32161301374435425 0.59903568029403687 0.96671319007873535
0.57236546277999878 0.57871997356414795 0.95736342668533325
0.80271011590957642 0.56079834699630737 0.94374209642410278
0.98560577630996704 0.54456335306167603 0.93187159299850464
0.094703793525695801 0.81925094127655029 0.95607823133468628
0.28920617699623108 0.80362844467163086 0.94537192583084106
0.53436100482940674 0.78606498241424561 0.92985856533050537
0.77357631921768188 0.77069103717803955 0.91592103242874146
0.95683079957962036 0.75756603479385376 0.90218865871429443
0.072450615465641022 0.98138427734375 0.93136376142501831
0.25260481238365173 0.97101509571075439 0.91844165325164795
0.49573603272438049 0.95874464511871338 0.90225344896316528
0.73807793855667114 0.94509494304656982 0.88935941457748413
0.93117630481719971 0.92905598878860474 0.87291419506072998
